DingWan/Reconbot3Ddemo/02_MATLAB_Code/sensors_data/2R_A1C1_A2C2_0509_encoders_data.txt
time_stamp	actual_pos_joint_4	actual_pos_joint_5	actual_pos_joint_3	actual_pos_joint_1	actual_pos_joint_2	actual_pos_joint_6	actual_pos_joint_7	actual_vel_joint_4	actual_vel_joint_5	actual_vel_joint_3	actual_vel_joint_1	actual_vel_joint_2	actual_vel_joint_6	actual_vel_joint_7	actual_acc_joint_4	actual_acc_joint_5	actual_acc_joint_3	actual_acc_joint_1	actual_acc_joint_2	actual_acc_joint_6	actual_acc_joint_7	actual_time_from_start	desired_pos_joint_4	desired_pos_joint_5	desired_pos_joint_3	desired_pos_joint_1	desired_pos_joint_2	desired_pos_joint_6	desired_pos_joint_7	desired_vel_joint_4	desired_vel_joint_5	desired_vel_joint_3	desired_vel_joint_1	desired_vel_joint_2	desired_vel_joint_6	desired_vel_joint_7	desired_acc_joint_4	desired_acc_joint_5	desired_acc_joint_3	desired_acc_joint_1	desired_acc_joint_2	desired_acc_joint_6	desired_acc_joint_7	desired_time_from_start
1504619787.511975049	-0.00306796	0.771592	-0.796136	-0.00460194	0.80534	-1.59994	-0.00306796	0	0	0	0	0	0	0	0	0	0	0	0	0	0	0.000000000	0	0.788798	-0.788798	6.21725e-15	0.828698	-1.5708	0	0.1	0.1	0.1	0.1	0.1	0.1	0.1	0	0	0	0	0	0	0	0.000000000
1504619787.536557912	-0.00306796	0.771592	-0.79767	-0.00460194	0.803806	-1.59994	-0.00306796	0	0	0	0	0	0	0	0	0	0	0	0	0	0	0.000000000	0	0.788798	-0.788798	6.21725e-15	0.828698	-1.5708	0	0.1	0.1	0.1	0.1	0.1	0.1	0.1	0	0	0	0	0	0	0	0.000000000
1504619787.557209968	-0.00306796	0.771592	-0.79767	-0.00460194	0.803806	-1.59994	-0.00460194	0	0	0	0	0	0	0	0	0	0	0	0	0	0	0.000000000	0	0.788798	-0.788798	6.21725e-15	0.828698	-1.5708	0	0.1	0.1	0.1	0.1	0.1	0.1	0.1	0	0	0	0	0	0	0	0.000000000
1504619787.572721004	-0.00306796	0.771592	-0.79767	-0.00460194	0.80534	-1.59994	-0.00460194	0	0	0	0	0	0	0	0	0	0	0	0	0	0	0.000000000	0	0.788798	-0.788798	6.21725e-15	0.828698	-1.5708	0	0.1	0.1	0.1	0.1	0.1	0.1	0.1	0	0	0	0	0	0	0	0.000000000
1504619787.591540098	-0.00306796	0.771592	-0.79767	-0.00460194	0.803806	-1.59994	-0.00460194	0	0	0	0	0	0	0	0	0	0	0	0	0	0	0.000000000	0	0.788798	-0.788798	6.21725e-15	0.828698	-1.5708	0	0.1	0.1	0.1	0.1	0.1	0.1	0.1	0	0	0	0	0	0	0	0.000000000
1504619787.611501932	-0.00306796	0.771592	-0.79767	-0.00460194	0.80534	-1.59994	-0.00306796	0	0	0	0	0	0	0	0	0	0	0	0	0	0	0.000000000	0	0.788798	-0.788798	6.21725e-15	0.828698	-1.5708	0	0.1	0.1	0.1	0.1	0.1	0.1	0.1	0	0	0	0	0	0	0	0.000000000
1504619787.631959915	-0.00306796	0.771592	-0.79767	-0.00460194	0.80534	-1.59994	-0.00306796	0	0	0	0	0	0	0	0	0	0	0	0	0	0	0.000000000	0	0.788798	-0.788798	6.21725e-15	0.828698	-1.5708	0	0.1	0.1	0.1	0.1	0.1	0.1	0.1	0	0	0	0	0	0	0	0.000000000
1504619787.651508092	-0.00306796	0.771592	-0.79767	-0.00460194	0.80534	-1.59994	-0.00306796	0	0	0	0	0	0	0	0	0	0	0	0	0	0	0.000000000	0	0.788798	-0.788798	6.21725e-15	0.828698	-1.5708	0	0.1	0.1	0.1	0.1	0.1	0.1	0.1	0	0	0	0	0	0	0	0.000000000
1504619787.671504020	-0.00306796	0.771592	-0.79767	-0.00460194	0.80534	-1.59994	-0.00306796	0	0	0	0	0	0	0	0	0	0	0	0	0	0	0.000000000	0	0.788798	-0.788798	6.21725e-15	0.828698	-1.5708	0	0.1	0.1	0.1	0.1	0.1	0.1	0.1	0	0	0	0	0	0	0	0.000000000
1504619787.691577911	-0.00306796	0.771592	-0.79767	-0.00460194	0.80534	-1.59994	-0.00460194	0	0	0	0	0	0	0	0	0	0	0	0	0	0	0.000000000	0	0.788798	-0.788798	6.21725e-15	0.828698	-1.5708	0	0.1	0.1	0.1	0.1	0.1	0.1	0.1	0	0	0	0	0	0	0	0.000000000
1504619787.711500883	-0.00306796	0.771592	-0.79767	-0.00306796	0.80534	-1.59994	-0.00306796	0	0	0	0	0	0	0	0	0	0	0	0	0	0	0.000000000	0	0.788798	-0.788798	6.21725e-15	0.828698	-1.5708	0	0.1	0.1	0.1	0.1	0.1	0.1	0.1	0	0	0	0	0	0	0	0.000000000
1504619787.731755018	-0.00306796	0.771592	-0.79767	-0.00306796	0.80534	-1.59994	-0.00306796	0	0	0	0	0	0	0	0	0	0	0	0	0	0	0.000000000	0	0.788798	-0.788798	6.21725e-15	0.828698	-1.5708	0	0.1	0.1	0.1	0.1	0.1	0.1	0.1	0	0	0	0	0	0	0	0.000000000
1504619787.751857042	-0.00306796	0.771592	-0.79767	-0.00460194	0.803806	-1.59994	-0.00306796	0	0	0	0	0	0	0	0	0	0	0	0	0	0	0.000000000	0	0.788798	-0.788798	6.21725e-15	0.828698	-1.5708	0	0.1	0.1	0.1	0.1	0.1	0.1	0.1	0	0	0	0	0	0	0	0.000000000
1504619787.771759986	-0.00306796	0.771592	-0.79767	-0.00306796	0.80534	-1.59994	-0.00306796	0	0	0	0	0	0	0	0	0	0	0	0	0	0	0.000000000	0	0.788798	-0.788798	6.21725e-15	0.828698	-1.5708	0	0.1	0.1	0.1	0.1	0.1	0.1	0.1	0	0	0	0	0	0	0	0.000000000
1504619787.793267011	-0.00306796	0.771592	-0.79767	-0.00460194	0.80534	-1.59994	-0.00306796	0	0	0	0	0	0	0	0	0	0	0	0	0	0	0.000000000	0	0.788798	-0.788798	6.21725e-15	0.828698	-1.5708	0	0.1	0.1	0.1	0.1	0.1	0.1	0.1	0	0	0	0	0	0	0	0.000000000
1504619787.813169002	-0.00306796	0.771592	-0.79767	-0.00460194	0.80534	-1.59994	-0.00306796	0	0	0	0	0	0	0	0	0	0	0	0	0	0	0.000000000	0	0.788798	-0.788798	6.21725e-15	0.828698	-1.5708	0	0.1	0.1	0.1	0.1	0.1	0.1	0.1	0	0	0	0	0	0	0	0.000000000
1504619787.832663059	-0.00306796	0.771592	-0.79767	-0.00460194	0.80534	-1.59994	-0.00460194	0	0	0	0	0	0	0	0	0	0	0	0	0	0	0.000000000	0	0.788798	-0.788798	6.21725e-15	0.828698	-1.5708	0	0.1	0.1	0.1	0.1	0.1	0.1	0.1	0	0	0	0	0	0	0	0.000000000
1504619787.852597951	-0.00306796	0.771592	-0.79767	-0.00460194	0.803806	-1.59994	-0.00460194	0	0	0	0	0	0	0	0	0	0	0	0	0	0	0.000000000	0	0.788798	-0.788798	6.21725e-15	0.828698	-1.5708	0	0.1	0.1	0.1	0.1	0.1	0.1	0.1	0	0	0	0	0	0	0	0.000000000
1504619787.872879981	-0.00306796	0.771592	-0.79767	-0.00460194	0.80534	-1.59994	-0.00460194	0	0	0	0	0	0	0	0	0	0	0	0	0	0	0.000000000	0	0.788798	-0.788798	6.21725e-15	0.828698	-1.5708	0	0.1	0.1	0.1	0.1	0.1	0.1	0.1	0	0	0	0	0	0	0	0.000000000
1504619787.891690015	-0.00306796	0.771592	-0.79767	-0.00460194	0.80534	-1.59994	-0.00306796	0	0	0	0	0	0	0	0	0	0	0	0	0	0	0.000000000	0	0.788798	-0.788798	6.21725e-15	0.828698	-1.5708	0	0.1	0.1	0.1	0.1	0.1	0.1	0.1	0	0	0	0	0	0	0	0.000000000
1504619787.911850929	-0.00306796	0.771592	-0.79767	-0.00460194	0.80534	-1.59994	-0.00306796	0	0	0	0	0	0	0	0	0	0	0	0	0	0	0.000000000	0	0.788798	-0.788798	6.21725e-15	0.828698	-1.5708	0	0.1	0.1	0.1	0.1	0.1	0.1	0.1	0	0	0	0	0	0	0	0.000000000
1504619787.934360027	-0.00306796	0.771592	-0.79767	-0.00460194	0.80534	-1.59994	-0.00306796	0	0	0	0	0	0	0	0	0	0	0	0	0	0	0.000000000	0	0.788798	-0.788798	6.21725e-15	0.828698	-1.5708	0	0.1	0.1	0.1	0.1	0.1	0.1	0.1	0	0	0	0	0	0	0	0.000000000
1504619787.952054977	-0.00306796	0.771592	-0.79767	-0.00460194	0.803806	-1.59994	-0.00306796	0	0	0	0	0	0	0	0	0	0	0	0	0	0	0.000000000	0	0.788798	-0.788798	6.21725e-15	0.828698	-1.5708	0	0.1	0.1	0.1	0.1	0.1	0.1	0.1	0	0	0	0	0	0	0	0.000000000
1504619787.971762895	-0.00306796	0.771592	-0.796136	-0.00460194	0.80534	-1.59994	-0.00306796	0	0	0	0	0	0	0	0	0	0	0	0	0	0	0.000000000	0	0.788798	-0.788798	6.21725e-15	0.828698	-1.5708	0	0.1	0.1	0.1	0.1	0.1	0.1	0.1	0	0	0	0	0	0	0	0.000000000
1504619787.991972923	-0.00306796	0.771592	-0.79767	-0.00460194	0.80534	-1.59994	-0.00460194	0	0	0	0	0	0	0	0	0	0	0	0	0	0	0.000000000	0	0.788798	-0.788798	6.21725e-15	0.828698	-1.5708	0	0.1	0.1	0.1	0.1	0.1	0.1	0.1	0	0	0	0	0	0	0	0.000000000
1504619788.012224912	-0.00306796	0.771592	-0.79767	-0.00460194	0.80534	-1.59994	-0.00460194	0	0	0	0	0	0	0	0	0	0	0	0	0	0	0.000000000	0	0.788798	-0.788798	6.21725e-15	0.828698	-1.5708	0	0.1	0.1	0.1	0.1	0.1	0.1	0.1	0	0	0	0	0	0	0	0.000000000
1504619788.031815052	-0.00306796	0.771592	-0.79767	-0.00460194	0.80534	-1.59994	-0.00460194	0	0	0	0	0	0	0	0	0	0	0	0	0	0	0.000000000	0	0.788798	-0.788798	6.21725e-15	0.828698	-1.5708	0	0.1	0.1	0.1	0.1	0.1	0.1	0.1	0	0	0	0	0	0	0	0.000000000
1504619788.051654100	-0.00306796	0.771592	-0.79767	-0.00460194	0.803806	-1.59994	-0.00460194	0	0	0	0	0	0	0	0	0	0	0	0	0	0	0.000000000	0	0.788798	-0.788798	6.21725e-15	0.828698	-1.5708	0	0.1	0.1	0.1	0.1	0.1	0.1	0.1	0	0	0	0	0	0	0	0.000000000
1504619788.072896957	-0.00306796	0.771592	-0.79767	-0.00460194	0.80534	-1.59994	-0.00306796	0	0	0	0	0	0	0	0	0	0	0	0	0	0	0.000000000	0	0.788798	-0.788798	6.21725e-15	0.828698	-1.5708	0	0.1	0.1	0.1	0.1	0.1	0.1	0.1	0	0	0	0	0	0	0	0.000000000
1504619788.091692924	-0.00306796	0.771592	-0.796136	-0.00460194	0.80534	-1.59994	-0.00306796	0	0	0	0	0	0	0	0	0	0	0	0	0	0	0.000000000	0	0.788798	-0.788798	6.21725e-15	0.828698	-1.5708	0	0.1	0.1	0.1	0.1	0.1	0.1	0.1	0	0	0	0	0	0	0	0.000000000
1504619788.111592054	-0.00306796	0.771592	-0.796136	-0.00460194	0.803806	-1.59994	-0.00306796	0	0	0	0	0	0	0	0	0	0	0	0	0	0	0.000000000	0	0.788798	-0.788798	6.21725e-15	0.828698	-1.5708	0	0.1	0.1	0.1	0.1	0.1	0.1	0.1	0	0	0	0	0	0	0	0.000000000
1504619788.131644010	-0.00306796	0.771592	-0.796136	-0.00460194	0.803806	-1.59994	-0.00306796	0	0	0	0	0	0	0	0	0	0	0	0	0	0	0.000000000	0	0.788798	-0.788798	6.21725e-15	0.828698	-1.5708	0	0.1	0.1	0.1	0.1	0.1	0.1	0.1	0	0	0	0	0	0	0	0.000000000
1504619788.151702880	-0.00306796	0.771592	-0.79767	-0.00460194	0.80534	-1.59994	-0.00306796	0	0	0	0	0	0	0	0	0	0	0	0	0	0	0.000000000	0	0.788798	-0.788798	6.21725e-15	0.828698	-1.5708	0	0.1	0.1	0.1	0.1	0.1	0.1	0.1	0	0	0	0	0	0	0	0.000000000
1504619788.171772003	-0.00306796	0.771592	-0.79767	-0.00460194	0.803806	-1.59994	-0.00306796	0	0	0	0	0	0	0	0	0	0	0	0	0	0	0.000000000	0	0.788798	-0.788798	6.21725e-15	0.828698	-1.5708	0	0.1	0.1	0.1	0.1	0.1	0.1	0.1	0	0	0	0	0	0	0	0.000000000
1504619788.191862106	-0.00306796	0.771592	-0.79767	-0.00460194	0.80534	-1.59994	-0.00460194	0	0	0	0	0	0	0	0	0	0	0	0	0	0	0.000000000	0	0.788798	-0.788798	6.21725e-15	0.828698	-1.5708	0	0.1	0.1	0.1	0.1	0.1	0.1	0.1	0	0	0	0	0	0	0	0.000000000
1504619788.213090896	-0.00306796	0.771592	-0.79767	-0.00460194	0.80534	-1.59994	-0.00460194	0	0	0	0	0	0	0	0	0	0	0	0	0	0	0.000000000	0	0.788798	-0.788798	6.21725e-15	0.828698	-1.5708	0	0.1	0.1	0.1	0.1	0.1	0.1	0.1	0	0	0	0	0	0	0	0.000000000
1504619788.232614040	-0.00306796	0.771592	-0.79767	-0.00460194	0.803806	-1.59994	-0.00306796	0	0	0	0	0	0	0	0	0	0	0	0	0	0	0.000000000	0	0.788798	-0.788798	6.21725e-15	0.828698	-1.5708	0	0.1	0.1	0.1	0.1	0.1	0.1	0.1	0	0	0	0	0	0	0	0.000000000
1504619788.251802921	-0.00306796	0.771592	-0.79767	-0.00460194	0.803806	-1.59994	-0.00306796	0	0	0	0	0	0	0	0	0	0	0	0	0	0	0.000000000	0	0.788798	-0.788798	6.21725e-15	0.828698	-1.5708	0	0.1	0.1	0.1	0.1	0.1	0.1	0.1	0	0	0	0	0	0	0	0.000000000
1504619788.271862030	-0.00306796	0.771592	-0.79767	-0.00460194	0.80534	-1.59994	-0.00460194	0	0	0	0	0	0	0	0	0	0	0	0	0	0	0.000000000	0	0.788798	-0.788798	6.21725e-15	0.828698	-1.5708	0	0.1	0.1	0.1	0.1	0.1	0.1	0.1	0	0	0	0	0	0	0	0.000000000
1504619788.291793107	-0.00306796	0.771592	-0.79767	-0.00460194	0.80534	-1.59994	-0.00460194	0	0	0	0	0	0	0	0	0	0	0	0	0	0	0.000000000	0	0.788798	-0.788798	6.21725e-15	0.828698	-1.5708	0	0.1	0.1	0.1	0.1	0.1	0.1	0.1	0	0	0	0	0	0	0	0.000000000
1504619788.312783002	-0.00306796	0.771592	-0.79767	-0.00460194	0.80534	-1.59994	-0.00460194	0	0	0	0	0	0	0	0	0	0	0	0	0	0	0.000000000	0	0.788798	-0.788798	6.21725e-15	0.828698	-1.5708	0	0.1	0.1	0.1	0.1	0.1	0.1	0.1	0	0	0	0	0	0	0	0.000000000
1504619788.333349943	-0.00306796	0.771592	-0.79767	-0.00460194	0.80534	-1.59994	-0.00460194	0	0	0	0	0	0	0	0	0	0	0	0	0	0	0.000000000	0	0.788798	-0.788798	6.21725e-15	0.828698	-1.5708	0	0.1	0.1	0.1	0.1	0.1	0.1	0.1	0	0	0	0	0	0	0	0.000000000
1504619788.351922988	-0.00306796	0.771592	-0.79767	-0.00460194	0.80534	-1.59994	-0.00306796	0	0	0	0	0	0	0	0	0	0	0	0	0	0	0.000000000	0	0.788798	-0.788798	6.21725e-15	0.828698	-1.5708	0	0.1	0.1	0.1	0.1	0.1	0.1	0.1	0	0	0	0	0	0	0	0.000000000
1504619788.377125024	-0.00306796	0.771592	-0.79767	-0.00460194	0.80534	-1.59994	-0.00306796	0	0	0	0	0	0	0	0	0	0	0	0	0	0	0.000000000	0	0.788798	-0.788798	6.21725e-15	0.828698	-1.5708	0	0.1	0.1	0.1	0.1	0.1	0.1	0.1	0	0	0	0	0	0	0	0.000000000
1504619788.393492937	-0.00306796	0.771592	-0.79767	-0.00460194	0.80534	-1.59994	-0.00460194	0	0	0	0	0	0	0	0	0	0	0	0	0	0	0.000000000	0	0.788798	-0.788798	6.21725e-15	0.828698	-1.5708	0	0.1	0.1	0.1	0.1	0.1	0.1	0.1	0	0	0	0	0	0	0	0.000000000
1504619788.413518905	-0.00306796	0.771592	-0.79767	-0.00460194	0.80534	-1.59994	-0.00460194	0	0	0	0	0	0	0	0	0	0	0	0	0	0	0.000000000	0	0.788798	-0.788798	6.21725e-15	0.828698	-1.5708	0	0.1	0.1	0.1	0.1	0.1	0.1	0.1	0	0	0	0	0	0	0	0.000000000
1504619788.431966066	-0.00306796	0.771592	-0.79767	-0.00460194	0.80534	-1.59994	-0.00460194	0	0	0	0	0	0	0	0	0	0	0	0	0	0	0.000000000	0	0.788798	-0.788798	6.21725e-15	0.828698	-1.5708	0	0.1	0.1	0.1	0.1	0.1	0.1	0.1	0	0	0	0	0	0	0	0.000000000
1504619788.452018022	-0.00306796	0.771592	-0.79767	-0.00460194	0.80534	-1.59994	-0.00460194	0	0	0	0	0	0	0	0	0	0	0	0	0	0	0.000000000	0	0.788798	-0.788798	6.21725e-15	0.828698	-1.5708	0	0.1	0.1	0.1	0.1	0.1	0.1	0.1	0	0	0	0	0	0	0	0.000000000
1504619788.471923112	-0.00306796	0.771592	-0.79767	-0.00460194	0.803806	-1.59841	-0.00306796	0	0	0	0	0	0	0	0	0	0	0	0	0	0	0.000000000	0	0.788798	-0.788798	6.21725e-15	0.828698	-1.5708	0	0.1	0.1	0.1	0.1	0.1	0.1	0.1	0	0	0	0	0	0	0	0.000000000
1504619788.491812944	-0.00306796	0.771592	-0.79767	-0.00460194	0.80534	-1.59994	-0.00306796	0	0	0	0	0	0	0	0	0	0	0	0	0	0	0.000000000	0	0.788798	-0.788798	6.21725e-15	0.828698	-1.5708	0	0.1	0.1	0.1	0.1	0.1	0.1	0.1	0	0	0	0	0	0	0	0.000000000
1504619788.511913061	-0.00306796	0.771592	-0.79767	-0.00460194	0.80534	-1.59994	-0.00306796	0	0	0	0	0	0	0	0	0	0	0	0	0	0	0.000000000	0	0.788798	-0.788798	6.21725e-15	0.828698	-1.5708	0	0.1	0.1	0.1	0.1	0.1	0.1	0.1	0	0	0	0	0	0	0	0.000000000
1504619788.531883001	-0.00306796	0.771592	-0.79767	-0.00460194	0.803806	-1.59994	-0.00460194	0	0	0	0	0	0	0	0	0	0	0	0	0	0	0.000000000	0	0.788798	-0.788798	6.21725e-15	0.828698	-1.5708	0	0.1	0.1	0.1	0.1	0.1	0.1	0.1	0	0	0	0	0	0	0	0.000000000
1504619788.551692008	-0.00306796	0.771592	-0.79767	-0.00460194	0.80534	-1.59994	-0.00306796	0	0	0	0	0	0	0	0	0	0	0	0	0	0	0.000000000	0	0.788798	-0.788798	6.21725e-15	0.828698	-1.5708	0	0.1	0.1	0.1	0.1	0.1	0.1	0.1	0	0	0	0	0	0	0	0.000000000
1504619788.571763992	-0.00306796	0.771592	-0.79767	-0.00460194	0.803806	-1.59994	-0.00306796	0	0	0	0	0	0	0	0	0	0	0	0	0	0	0.000000000	0	0.788798	-0.788798	6.21725e-15	0.828698	-1.5708	0	0.1	0.1	0.1	0.1	0.1	0.1	0.1	0	0	0	0	0	0	0	0.000000000
1504619788.593096971	-0.00306796	0.771592	-0.79767	-0.00460194	0.80534	-1.59994	-0.00306796	0	0	0	0	0	0	0	0	0	0	0	0	0	0	0.000000000	0	0.788798	-0.788798	6.21725e-15	0.828698	-1.5708	0	0.1	0.1	0.1	0.1	0.1	0.1	0.1	0	0	0	0	0	0	0	0.000000000
1504619788.611726045	-0.00306796	0.771592	-0.79767	-0.00460194	0.80534	-1.59994	-0.00306796	0	0	0	0	0	0	0	0	0	0	0	0	0	0	0.000000000	0	0.788798	-0.788798	6.21725e-15	0.828698	-1.5708	0	0.1	0.1	0.1	0.1	0.1	0.1	0.1	0	0	0	0	0	0	0	0.000000000
1504619788.631757020	-0.00306796	0.771592	-0.79767	-0.00460194	0.80534	-1.59994	-0.00306796	0	0	0	0	0	0	0	0	0	0	0	0	0	0	0.000000000	0	0.788798	-0.788798	6.21725e-15	0.828698	-1.5708	0	0.1	0.1	0.1	0.1	0.1	0.1	0.1	0	0	0	0	0	0	0	0.000000000
1504619788.652307033	-0.00306796	0.771592	-0.79767	-0.00460194	0.80534	-1.59994	-0.00306796	0	0	0	0	0	0	0	0	0	0	0	0	0	0	0.000000000	0	0.788798	-0.788798	6.21725e-15	0.828698	-1.5708	0	0.1	0.1	0.1	0.1	0.1	0.1	0.1	0	0	0	0	0	0	0	0.000000000
1504619788.671933889	-0.00306796	0.771592	-0.79767	-0.00460194	0.803806	-1.59994	-0.00460194	0	0	0	0	0	0	0	0	0	0	0	0	0	0	0.000000000	0	0.788798	-0.788798	6.21725e-15	0.828698	-1.5708	0	0.1	0.1	0.1	0.1	0.1	0.1	0.1	0	0	0	0	0	0	0	0.000000000
1504619788.691746950	-0.00306796	0.771592	-0.79767	-0.00460194	0.803806	-1.59994	-0.00460194	0	0	0	0	0	0	0	0	0	0	0	0	0	0	0.000000000	0	0.788798	-0.788798	6.21725e-15	0.828698	-1.5708	0	0.1	0.1	0.1	0.1	0.1	0.1	0.1	0	0	0	0	0	0	0	0.000000000
1504619788.716106891	-0.00306796	0.771592	-0.79767	-0.00460194	0.803806	-1.59994	-0.00460194	0	0	0	0	0	0	0	0	0	0	0	0	0	0	0.000000000	0	0.788798	-0.788798	6.21725e-15	0.828698	-1.5708	0	0.1	0.1	0.1	0.1	0.1	0.1	0.1	0	0	0	0	0	0	0	0.000000000
1504619788.731791973	-0.00306796	0.771592	-0.79767	-0.00460194	0.803806	-1.59994	-0.00306796	0	0	0	0	0	0	0	0	0	0	0	0	0	0	0.000000000	0	0.788798	-0.788798	6.21725e-15	0.828698	-1.5708	0	0.1	0.1	0.1	0.1	0.1	0.1	0.1	0	0	0	0	0	0	0	0.000000000
1504619788.752115964	-0.00306796	0.771592	-0.79767	-0.00460194	0.803806	-1.59994	-0.00306796	0	0	0	0	0	0	0	0	0	0	0	0	0	0	0.000000000	0	0.788798	-0.788798	6.21725e-15	0.828698	-1.5708	0	0.1	0.1	0.1	0.1	0.1	0.1	0.1	0	0	0	0	0	0	0	0.000000000
1504619788.772260904	-0.00306796	0.771592	-0.79767	-0.00460194	0.803806	-1.59994	-0.00460194	0	0	0	0	0	0	0	0	0	0	0	0	0	0	0.000000000	0	0.788798	-0.788798	6.21725e-15	0.828698	-1.5708	0	0.1	0.1	0.1	0.1	0.1	0.1	0.1	0	0	0	0	0	0	0	0.000000000
1504619788.792521953	-0.00306796	0.771592	-0.79767	-0.00460194	0.80534	-1.59841	-0.00460194	0	0	0	0	0	0	0	0	0	0	0	0	0	0	0.000000000	0	0.788798	-0.788798	6.21725e-15	0.828698	-1.5708	0	0.1	0.1	0.1	0.1	0.1	0.1	0.1	0	0	0	0	0	0	0	0.000000000
1504619788.811752080	-0.00306796	0.771592	-0.79767	-0.00460194	0.80534	-1.59994	-0.00306796	0	0	0	0	0	0	0	0	0	0	0	0	0	0	0.000000000	0	0.788798	-0.788798	6.21725e-15	0.828698	-1.5708	0	0.1	0.1	0.1	0.1	0.1	0.1	0.1	0	0	0	0	0	0	0	0.000000000
1504619788.832182884	-0.00306796	0.771592	-0.79767	-0.00460194	0.80534	-1.59994	-0.00306796	0	0	0	0	0	0	0	0	0	0	0	0	0	0	0.000000000	0	0.788798	-0.788798	6.21725e-15	0.828698	-1.5708	0	0.1	0.1	0.1	0.1	0.1	0.1	0.1	0	0	0	0	0	0	0	0.000000000
1504619788.852570056	-0.00306796	0.771592	-0.79767	-0.00460194	0.803806	-1.59994	-0.00306796	0	0	0	0	0	0	0	0	0	0	0	0	0	0	0.000000000	0	0.788798	-0.788798	6.21725e-15	0.828698	-1.5708	0	0.1	0.1	0.1	0.1	0.1	0.1	0.1	0	0	0	0	0	0	0	0.000000000
1504619788.873199939	-0.00306796	0.771592	-0.796136	-0.00306796	0.803806	-1.59994	-0.00306796	0	0	0	0	0	0	0	0	0	0	0	0	0	0	0.000000000	0	0.788798	-0.788798	6.21725e-15	0.828698	-1.5708	0	0.1	0.1	0.1	0.1	0.1	0.1	0.1	0	0	0	0	0	0	0	0.000000000
1504619788.893057107	-0.00306796	0.771592	-0.79767	-0.00306796	0.803806	-1.59994	-0.00306796	0	0	0	0	0	0	0	0	0	0	0	0	0	0	0.000000000	0	0.788798	-0.788798	6.21725e-15	0.828698	-1.5708	0	0.1	0.1	0.1	0.1	0.1	0.1	0.1	0	0	0	0	0	0	0	0.000000000
1504619788.911880016	-0.00306796	0.771592	-0.79767	-0.00460194	0.80534	-1.59994	-0.00306796	0	0	0	0	0	0	0	0	0	0	0	0	0	0	0.000000000	0	0.788798	-0.788798	6.21725e-15	0.828698	-1.5708	0	0.1	0.1	0.1	0.1	0.1	0.1	0.1	0	0	0	0	0	0	0	0.000000000
1504619788.931777954	-0.00306796	0.771592	-0.79767	-0.00306796	0.803806	-1.59994	-0.00306796	0	0	0	0	0	0	0	0	0	0	0	0	0	0	0.000000000	0	0.788798	-0.788798	6.21725e-15	0.828698	-1.5708	0	0.1	0.1	0.1	0.1	0.1	0.1	0.1	0	0	0	0	0	0	0	0.000000000
1504619788.952374935	-0.00306796	0.771592	-0.79767	-0.00460194	0.803806	-1.59994	-0.00306796	0	0	0	0	0	0	0	0	0	0	0	0	0	0	0.000000000	0	0.788798	-0.788798	6.21725e-15	0.828698	-1.5708	0	0.1	0.1	0.1	0.1	0.1	0.1	0.1	0	0	0	0	0	0	0	0.000000000
1504619788.971708059	-0.00306796	0.771592	-0.79767	-0.00460194	0.803806	-1.59994	-0.00460194	0	0	0	0	0	0	0	0	0	0	0	0	0	0	0.000000000	0	0.788798	-0.788798	6.21725e-15	0.828698	-1.5708	0	0.1	0.1	0.1	0.1	0.1	0.1	0.1	0	0	0	0	0	0	0	0.000000000
1504619788.991904973	-0.00306796	0.771592	-0.796136	-0.00460194	0.803806	-1.59994	-0.00306796	0	0	0	0	0	0	0	0	0	0	0	0	0	0	0.000000000	0	0.788798	-0.788798	6.21725e-15	0.828698	-1.5708	0	0.1	0.1	0.1	0.1	0.1	0.1	0.1	0	0	0	0	0	0	0	0.000000000
1504619789.015455007	-0.00306796	0.771592	-0.796136	-0.00460194	0.80534	-1.59994	-0.00306796	0	0	0	0	0	0	0	0	0	0	0	0	0	0	0.000000000	0	0.788798	-0.788798	6.21725e-15	0.828698	-1.5708	0	0.1	0.1	0.1	0.1	0.1	0.1	0.1	0	0	0	0	0	0	0	0.000000000
1504619789.031790018	-0.00306796	0.771592	-0.796136	-0.00460194	0.80534	-1.59994	-0.00306796	0	0	0	0	0	0	0	0	0	0	0	0	0	0	0.000000000	0	0.788798	-0.788798	6.21725e-15	0.828698	-1.5708	0	0.1	0.1	0.1	0.1	0.1	0.1	0.1	0	0	0	0	0	0	0	0.000000000
1504619789.051862001	-0.00306796	0.771592	-0.79767	-0.00460194	0.803806	-1.59994	-0.00306796	0	0	0	0	0	0	0	0	0	0	0	0	0	0	0.000000000	0	0.788798	-0.788798	6.21725e-15	0.828698	-1.5708	0	0.1	0.1	0.1	0.1	0.1	0.1	0.1	0	0	0	0	0	0	0	0.000000000
1504619789.072494029	-0.00306796	0.771592	-0.796136	-0.00460194	0.80534	-1.59994	-0.00306796	0	0	0	0	0	0	0	0	0	0	0	0	0	0	0.000000000	0	0.788798	-0.788798	6.21725e-15	0.828698	-1.5708	0	0.1	0.1	0.1	0.1	0.1	0.1	0.1	0	0	0	0	0	0	0	0.000000000
1504619789.091793060	-0.00306796	0.771592	-0.79767	-0.00460194	0.803806	-1.59994	-0.00460194	0	0	0	0	0	0	0	0	0	0	0	0	0	0	0.000000000	0	0.788798	-0.788798	6.21725e-15	0.828698	-1.5708	0	0.1	0.1	0.1	0.1	0.1	0.1	0.1	0	0	0	0	0	0	0	0.000000000
1504619789.112102985	-0.00306796	0.771592	-0.79767	-0.00460194	0.803806	-1.59994	-0.00460194	0	0	0	0	0	0	0	0	0	0	0	0	0	0	0.000000000	0	0.788798	-0.788798	6.21725e-15	0.828698	-1.5708	0	0.1	0.1	0.1	0.1	0.1	0.1	0.1	0	0	0	0	0	0	0	0.000000000
1504619789.131859064	-0.00306796	0.771592	-0.796136	-0.00460194	0.803806	-1.59994	-0.00460194	0	0	0	0	0	0	0	0	0	0	0	0	0	0	0.000000000	0	0.788798	-0.788798	6.21725e-15	0.828698	-1.5708	0	0.1	0.1	0.1	0.1	0.1	0.1	0.1	0	0	0	0	0	0	0	0.000000000
1504619789.151745080	-0.00306796	0.771592	-0.79767	-0.00460194	0.803806	-1.59994	-0.00306796	0	0	0	0	0	0	0	0	0	0	0	0	0	0	0.000000000	0	0.788798	-0.788798	6.21725e-15	0.828698	-1.5708	0	0.1	0.1	0.1	0.1	0.1	0.1	0.1	0	0	0	0	0	0	0	0.000000000
1504619789.174277067	-0.00306796	0.771592	-0.796136	-0.00460194	0.80534	-1.59994	-0.00306796	0	0	0	0	0	0	0	0	0	0	0	0	0	0	0.000000000	0	0.788798	-0.788798	6.21725e-15	0.828698	-1.5708	0	0.1	0.1	0.1	0.1	0.1	0.1	0.1	0	0	0	0	0	0	0	0.000000000
1504619789.191760063	-0.00306796	0.771592	-0.79767	-0.00460194	0.80534	-1.59994	-0.00306796	0	0	0	0	0	0	0	0	0	0	0	0	0	0	0.000000000	0	0.788798	-0.788798	6.21725e-15	0.828698	-1.5708	0	0.1	0.1	0.1	0.1	0.1	0.1	0.1	0	0	0	0	0	0	0	0.000000000
1504619789.215384006	-0.00306796	0.771592	-0.79767	-0.00460194	0.80534	-1.59994	-0.00306796	0	0	0	0	0	0	0	0	0	0	0	0	0	0	0.000000000	0	0.788798	-0.788798	6.21725e-15	0.828698	-1.5708	0	0.1	0.1	0.1	0.1	0.1	0.1	0.1	0	0	0	0	0	0	0	0.000000000
1504619789.231924057	-0.00306796	0.771592	-0.79767	-0.00460194	0.80534	-1.59841	-0.00306796	0	0	0	0	0	0	0	0	0	0	0	0	0	0	0.000000000	0	0.788798	-0.788798	6.21725e-15	0.828698	-1.5708	0	0.1	0.1	0.1	0.1	0.1	0.1	0.1	0	0	0	0	0	0	0	0.000000000
1504619789.253396987	-0.00306796	0.771592	-0.79767	-0.00460194	0.803806	-1.59994	-0.00460194	0	0	0	0	0	0	0	0	0	0	0	0	0	0	0.000000000	0	0.788798	-0.788798	6.21725e-15	0.828698	-1.5708	0	0.1	0.1	0.1	0.1	0.1	0.1	0.1	0	0	0	0	0	0	0	0.000000000
1504619789.271624088	-0.00306796	0.771592	-0.79767	-0.00460194	0.803806	-1.59841	-0.00306796	0	0	0	0	0	0	0	0	0	0	0	0	0	0	0.000000000	0	0.788798	-0.788798	6.21725e-15	0.828698	-1.5708	0	0.1	0.1	0.1	0.1	0.1	0.1	0.1	0	0	0	0	0	0	0	0.000000000
1504619789.291496992	-0.00306796	0.771592	-0.796136	-0.00460194	0.803806	-1.59994	-0.00306796	0	0	0	0	0	0	0	0	0	0	0	0	0	0	0.000000000	0	0.788798	-0.788798	6.21725e-15	0.828698	-1.5708	0	0.1	0.1	0.1	0.1	0.1	0.1	0.1	0	0	0	0	0	0	0	0.000000000
1504619789.311553001	-0.00306796	0.771592	-0.796136	-0.00460194	0.80534	-1.59994	-0.00306796	0	0	0	0	0	0	0	0	0	0	0	0	0	0	0.000000000	0	0.788798	-0.788798	6.21725e-15	0.828698	-1.5708	0	0.1	0.1	0.1	0.1	0.1	0.1	0.1	0	0	0	0	0	0	0	0.000000000
1504619789.332077026	-0.00306796	0.771592	-0.796136	-0.00460194	0.80534	-1.59994	-0.00306796	0	0	0	0	0	0	0	0	0	0	0	0	0	0	0.000000000	0	0.788798	-0.788798	6.21725e-15	0.828698	-1.5708	0	0.1	0.1	0.1	0.1	0.1	0.1	0.1	0	0	0	0	0	0	0	0.000000000
1504619789.351491928	-0.00306796	0.771592	-0.79767	-0.00460194	0.80534	-1.59994	-0.00460194	0	0	0	0	0	0	0	0	0	0	0	0	0	0	0.000000000	0	0.788798	-0.788798	6.21725e-15	0.828698	-1.5708	0	0.1	0.1	0.1	0.1	0.1	0.1	0.1	0	0	0	0	0	0	0	0.000000000
1504619789.371496915	-0.00306796	0.771592	-0.79767	-0.00460194	0.803806	-1.59841	-0.00306796	0	0	0	0	0	0	0	0	0	0	0	0	0	0	0.000000000	0	0.788798	-0.788798	6.21725e-15	0.828698	-1.5708	0	0.1	0.1	0.1	0.1	0.1	0.1	0.1	0	0	0	0	0	0	0	0.000000000
1504619789.391524076	-0.00306796	0.771592	-0.79767	-0.00460194	0.803806	-1.59994	-0.00460194	0	0	0	0	0	0	0	0	0	0	0	0	0	0	0.000000000	0	0.788798	-0.788798	6.21725e-15	0.828698	-1.5708	0	0.1	0.1	0.1	0.1	0.1	0.1	0.1	0	0	0	0	0	0	0	0.000000000
1504619789.411505937	-0.00306796	0.771592	-0.79767	-0.00460194	0.803806	-1.59994	-0.00306796	0	0	0	0	0	0	0	0	0	0	0	0	0	0	0.000000000	0	0.788798	-0.788798	6.21725e-15	0.828698	-1.5708	0	0.1	0.1	0.1	0.1	0.1	0.1	0.1	0	0	0	0	0	0	0	0.000000000
1504619789.431503057	-0.00306796	0.771592	-0.79767	-0.00460194	0.80534	-1.59994	-0.00460194	0	0	0	0	0	0	0	0	0	0	0	0	0	0	0.000000000	0	0.788798	-0.788798	6.21725e-15	0.828698	-1.5708	0	0.1	0.1	0.1	0.1	0.1	0.1	0.1	0	0	0	0	0	0	0	0.000000000
1504619789.451560974	-0.00306796	0.771592	-0.79767	-0.00460194	0.80534	-1.59994	-0.00460194	0	0	0	0	0	0	0	0	0	0	0	0	0	0	0.000000000	0	0.788798	-0.788798	6.21725e-15	0.828698	-1.5708	0	0.1	0.1	0.1	0.1	0.1	0.1	0.1	0	0	0	0	0	0	0	0.000000000
1504619789.471498966	-0.00306796	0.771592	-0.79767	-0.00460194	0.803806	-1.59841	-0.00460194	0	0	0	0	0	0	0	0	0	0	0	0	0	0	0.000000000	0	0.788798	-0.788798	6.21725e-15	0.828698	-1.5708	0	0.1	0.1	0.1	0.1	0.1	0.1	0.1	0	0	0	0	0	0	0	0.000000000
1504619789.491504907	-0.00306796	0.771592	-0.79767	-0.00460194	0.80534	-1.59994	-0.00306796	0	0	0	0	0	0	0	0	0	0	0	0	0	0	0.000000000	0	0.788798	-0.788798	6.21725e-15	0.828698	-1.5708	0	0.1	0.1	0.1	0.1	0.1	0.1	0.1	0	0	0	0	0	0	0	0.000000000
1504619789.511527061	-0.00306796	0.771592	-0.79767	-0.00460194	0.803806	-1.59994	-0.00460194	0	0	0	0	0	0	0	0	0	0	0	0	0	0	0.000000000	0	0.788798	-0.788798	6.21725e-15	0.828698	-1.5708	0	0.1	0.1	0.1	0.1	0.1	0.1	0.1	0	0	0	0	0	0	0	0.000000000
1504619789.531624078	-0.00306796	0.771592	-0.79767	-0.00460194	0.803806	-1.59994	-0.00460194	0	0	0	0	0	0	0	0	0	0	0	0	0	0	0.000000000	0	0.788798	-0.788798	6.21725e-15	0.828698	-1.5708	0	0.1	0.1	0.1	0.1	0.1	0.1	0.1	0	0	0	0	0	0	0	0.000000000
1504619789.551495075	-0.00306796	0.771592	-0.796136	-0.00460194	0.803806	-1.59994	-0.00306796	0	0	0	0	0	0	0	0	0	0	0	0	0	0	0.000000000	0	0.788798	-0.788798	6.21725e-15	0.828698	-1.5708	0	0.1	0.1	0.1	0.1	0.1	0.1	0.1	0	0	0	0	0	0	0	0.000000000
1504619789.571499109	-0.00306796	0.771592	-0.79767	-0.00460194	0.80534	-1.59994	-0.00460194	0	0	0	0	0	0	0	0	0	0	0	0	0	0	0.000000000	0	0.788798	-0.788798	6.21725e-15	0.828698	-1.5708	0	0.1	0.1	0.1	0.1	0.1	0.1	0.1	0	0	0	0	0	0	0	0.000000000
1504619789.591532945	-0.00306796	0.771592	-0.79767	-0.00460194	0.803806	-1.59994	-0.00460194	0	0	0	0	0	0	0	0	0	0	0	0	0	0	0.000000000	0	0.788798	-0.788798	6.21725e-15	0.828698	-1.5708	0	0.1	0.1	0.1	0.1	0.1	0.1	0.1	0	0	0	0	0	0	0	0.000000000
1504619789.611499071	-0.00306796	0.771592	-0.79767	-0.00460194	0.803806	-1.59994	-0.00460194	0	0	0	0	0	0	0	0	0	0	0	0	0	0	0.000000000	0	0.788798	-0.788798	6.21725e-15	0.828698	-1.5708	0	0.1	0.1	0.1	0.1	0.1	0.1	0.1	0	0	0	0	0	0	0	0.000000000
1504619789.631511926	-0.00306796	0.771592	-0.79767	-0.00460194	0.803806	-1.59994	-0.00460194	0	0	0	0	0	0	0	0	0	0	0	0	0	0	0.000000000	0	0.788798	-0.788798	6.21725e-15	0.828698	-1.5708	0	0.1	0.1	0.1	0.1	0.1	0.1	0.1	0	0	0	0	0	0	0	0.000000000
1504619789.651549100	-0.00306796	0.771592	-0.79767	-0.00460194	0.80534	-1.59994	-0.00460194	0	0	0	0	0	0	0	0	0	0	0	0	0	0	0.000000000	0	0.788798	-0.788798	6.21725e-15	0.828698	-1.5708	0	0.1	0.1	0.1	0.1	0.1	0.1	0.1	0	0	0	0	0	0	0	0.000000000
1504619789.671669006	-0.00306796	0.771592	-0.796136	-0.00460194	0.80534	-1.59994	-0.00306796	0	0	0	0	0	0	0	0	0	0	0	0	0	0	0.000000000	0	0.788798	-0.788798	6.21725e-15	0.828698	-1.5708	0	0.1	0.1	0.1	0.1	0.1	0.1	0.1	0	0	0	0	0	0	0	0.000000000
1504619789.691646099	-0.00306796	0.771592	-0.79767	-0.00460194	0.80534	-1.59994	-0.00460194	0	0	0	0	0	0	0	0	0	0	0	0	0	0	0.000000000	0	0.788798	-0.788798	6.21725e-15	0.828698	-1.5708	0	0.1	0.1	0.1	0.1	0.1	0.1	0.1	0	0	0	0	0	0	0	0.000000000
1504619789.711628913	-0.00306796	0.771592	-0.79767	-0.00460194	0.80534	-1.59994	-0.00306796	0	0	0	0	0	0	0	0	0	0	0	0	0	0	0.000000000	0	0.788798	-0.788798	6.21725e-15	0.828698	-1.5708	0	0.1	0.1	0.1	0.1	0.1	0.1	0.1	0	0	0	0	0	0	0	0.000000000
1504619789.731592893	-0.00306796	0.771592	-0.79767	-0.00460194	0.80534	-1.59994	-0.00306796	0	0	0	0	0	0	0	0	0	0	0	0	0	0	0.000000000	0	0.788798	-0.788798	6.21725e-15	0.828698	-1.5708	0	0.1	0.1	0.1	0.1	0.1	0.1	0.1	0	0	0	0	0	0	0	0.000000000
1504619789.751597881	-0.00306796	0.771592	-0.79767	-0.00460194	0.80534	-1.59994	-0.00306796	0	0	0	0	0	0	0	0	0	0	0	0	0	0	0.000000000	0	0.788798	-0.788798	6.21725e-15	0.828698	-1.5708	0	0.1	0.1	0.1	0.1	0.1	0.1	0.1	0	0	0	0	0	0	0	0.000000000
1504619789.771584987	-0.00306796	0.771592	-0.79767	-0.00460194	0.803806	-1.59994	-0.00306796	0	0	0	0	0	0	0	0	0	0	0	0	0	0	0.000000000	0	0.788798	-0.788798	6.21725e-15	0.828698	-1.5708	0	0.1	0.1	0.1	0.1	0.1	0.1	0.1	0	0	0	0	0	0	0	0.000000000
1504619789.792716979	-0.00306796	0.771592	-0.79767	-0.00460194	0.80534	-1.59994	-0.00460194	0	0	0	0	0	0	0	0	0	0	0	0	0	0	0.000000000	0	0.788798	-0.788798	6.21725e-15	0.828698	-1.5708	0	0.1	0.1	0.1	0.1	0.1	0.1	0.1	0	0	0	0	0	0	0	0.000000000
1504619789.812691926	-0.00306796	0.771592	-0.796136	-0.00460194	0.803806	-1.59994	-0.00306796	0	0	0	0	0	0	0	0	0	0	0	0	0	0	0.000000000	0	0.788798	-0.788798	6.21725e-15	0.828698	-1.5708	0	0.1	0.1	0.1	0.1	0.1	0.1	0.1	0	0	0	0	0	0	0	0.000000000
1504619789.831507921	-0.00306796	0.771592	-0.796136	-0.00460194	0.803806	-1.59994	-0.00306796	0	0	0	0	0	0	0	0	0	0	0	0	0	0	0.000000000	0	0.788798	-0.788798	6.21725e-15	0.828698	-1.5708	0	0.1	0.1	0.1	0.1	0.1	0.1	0.1	0	0	0	0	0	0	0	0.000000000
1504619789.851540088	-0.00306796	0.771592	-0.79767	-0.00460194	0.803806	-1.59994	-0.00306796	0	0	0	0	0	0	0	0	0	0	0	0	0	0	0.000000000	0	0.788798	-0.788798	6.21725e-15	0.828698	-1.5708	0	0.1	0.1	0.1	0.1	0.1	0.1	0.1	0	0	0	0	0	0	0	0.000000000
1504619789.872643947	-0.00306796	0.771592	-0.79767	-0.00460194	0.803806	-1.59994	-0.00460194	0	0	0	0	0	0	0	0	0	0	0	0	0	0	0.000000000	0	0.788798	-0.788798	6.21725e-15	0.828698	-1.5708	0	0.1	0.1	0.1	0.1	0.1	0.1	0.1	0	0	0	0	0	0	0	0.000000000
1504619789.892996072	-0.00306796	0.771592	-0.79767	-0.00460194	0.803806	-1.59994	-0.00460194	0	0	0	0	0	0	0	0	0	0	0	0	0	0	0.000000000	0	0.788798	-0.788798	6.21725e-15	0.828698	-1.5708	0	0.1	0.1	0.1	0.1	0.1	0.1	0.1	0	0	0	0	0	0	0	0.000000000
1504619789.911829948	-0.00306796	0.771592	-0.79767	-0.00460194	0.803806	-1.59994	-0.00460194	0	0	0	0	0	0	0	0	0	0	0	0	0	0	0.000000000	0	0.788798	-0.788798	6.21725e-15	0.828698	-1.5708	0	0.1	0.1	0.1	0.1	0.1	0.1	0.1	0	0	0	0	0	0	0	0.000000000
1504619789.931708097	-0.00306796	0.771592	-0.79767	-0.00460194	0.803806	-1.59994	-0.00306796	0	0	0	0	0	0	0	0	0	0	0	0	0	0	0.000000000	0	0.788798	-0.788798	6.21725e-15	0.828698	-1.5708	0	0.1	0.1	0.1	0.1	0.1	0.1	0.1	0	0	0	0	0	0	0	0.000000000
1504619789.951611995	-0.00306796	0.771592	-0.79767	-0.00460194	0.803806	-1.59994	-0.00306796	0	0	0	0	0	0	0	0	0	0	0	0	0	0	0.000000000	0	0.788798	-0.788798	6.21725e-15	0.828698	-1.5708	0	0.1	0.1	0.1	0.1	0.1	0.1	0.1	0	0	0	0	0	0	0	0.000000000
1504619789.971575975	-0.00306796	0.771592	-0.796136	-0.00460194	0.803806	-1.59994	-0.00460194	0	0	0	0	0	0	0	0	0	0	0	0	0	0	0.000000000	0	0.788798	-0.788798	6.21725e-15	0.828698	-1.5708	0	0.1	0.1	0.1	0.1	0.1	0.1	0.1	0	0	0	0	0	0	0	0.000000000
1504619789.992265939	-0.00306796	0.771592	-0.796136	-0.00460194	0.803806	-1.59994	-0.00460194	0	0	0	0	0	0	0	0	0	0	0	0	0	0	0.000000000	0	0.788798	-0.788798	6.21725e-15	0.828698	-1.5708	0	0.1	0.1	0.1	0.1	0.1	0.1	0.1	0	0	0	0	0	0	0	0.000000000
1504619790.011562108	-0.00306796	0.771592	-0.79767	-0.00460194	0.803806	-1.59994	-0.00460194	0	0	0	0	0	0	0	0	0	0	0	0	0	0	0.000000000	0	0.788798	-0.788798	6.21725e-15	0.828698	-1.5708	0	0.1	0.1	0.1	0.1	0.1	0.1	0.1	0	0	0	0	0	0	0	0.000000000
1504619790.032344102	-0.00306796	0.771592	-0.79767	-0.00460194	0.803806	-1.59994	-0.00460194	0	0	0	0	0	0	0	0	0	0	0	0	0	0	0.000000000	0	0.788798	-0.788798	6.21725e-15	0.828698	-1.5708	0	0.1	0.1	0.1	0.1	0.1	0.1	0.1	0	0	0	0	0	0	0	0.000000000
1504619790.067549943	-0.00306796	0.771592	-0.79767	-0.00460194	0.803806	-1.59994	-0.00460194	0	0	0	0	0	0	0	0	0	0	0	0	0	0	0.000000000	0	0.788798	-0.788798	6.21725e-15	0.828698	-1.5708	0	0.1	0.1	0.1	0.1	0.1	0.1	0.1	0	0	0	0	0	0	0	0.000000000
1504619790.071521043	-0.00306796	0.771592	-0.79767	-0.00460194	0.803806	-1.59994	-0.00460194	0	0	0	0	0	0	0	0	0	0	0	0	0	0	0.000000000	0	0.788798	-0.788798	6.21725e-15	0.828698	-1.5708	0	0.1	0.1	0.1	0.1	0.1	0.1	0.1	0	0	0	0	0	0	0	0.000000000
1504619790.091521024	-0.00306796	0.771592	-0.79767	-0.00460194	0.80534	-1.59994	-0.00306796	0	0	0	0	0	0	0	0	0	0	0	0	0	0	0.000000000	-0.00241659	0.788798	-0.788798	0	0.828698	-1.5708	0	0.1	0.1	0.1	0.1	0.1	0.1	0.1	0	0	0	0	0	0	0	0.000000000
1504619790.111578941	-0.00306796	0.771592	-0.796136	-0.00460194	0.803806	-1.59994	-0.00306796	0	0	0	0	0	0	0	0	0	0	0	0	0	0	0.000000000	-0.00241659	0.788798	-0.788798	0	0.828698	-1.5708	0	0.1	0.1	0.1	0.1	0.1	0.1	0.1	0	0	0	0	0	0	0	0.000000000
1504619790.131702899	-0.00306796	0.771592	-0.796136	-0.00460194	0.803806	-1.59994	-0.00460194	0	0	0	0	0	0	0	0	0	0	0	0	0	0	0.000000000	-0.00560057	0.788798	-0.788798	0	0.828698	-1.5708	0	0.1	0.1	0.1	0.1	0.1	0.1	0.1	0	0	0	0	0	0	0	0.000000000
1504619790.151752948	-0.00306796	0.771592	-0.79767	-0.00460194	0.803806	-1.59994	-0.00460194	0	0	0	0	0	0	0	0	0	0	0	0	0	0	0.000000000	-0.00560057	0.788798	-0.788798	0	0.828698	-1.5708	0	0.1	0.1	0.1	0.1	0.1	0.1	0.1	0	0	0	0	0	0	0	0.000000000
1504619790.172353982	-0.00306796	0.771592	-0.79767	-0.00460194	0.803806	-1.59994	-0.00306796	0	0	0	0	0	0	0	0	0	0	0	0	0	0	0.000000000	-0.0106923	0.788798	-0.788798	0	0.828698	-1.5708	0	0.11711	0.1	0.1	0.1	0.1	0.1	0.1	0	0	0	0	0	0	0	0.000000000
1504619790.195467948	-0.00306796	0.771592	-0.79767	-0.00460194	0.803806	-1.59994	-0.00460194	0	0	0	0	0	0	0	0	0	0	0	0	0	0	0.000000000	-0.0106923	0.788798	-0.788798	0	0.828698	-1.5708	0	0.11711	0.1	0.1	0.1	0.1	0.1	0.1	0	0	0	0	0	0	0	0.000000000
1504619790.211745023	-0.00306796	0.771592	-0.79767	-0.00460194	0.803806	-1.59994	-0.00460194	0	0	0	0	0	0	0	0	0	0	0	0	0	0	0.000000000	-0.0180559	0.788798	-0.788798	0	0.828698	-1.5708	0	0.169362	0.1	0.1	0.1	0.1	0.1	0.1	0	0	0	0	0	0	0	0.000000000
1504619790.231729030	-0.00306796	0.771592	-0.79767	-0.00460194	0.803806	-1.59994	-0.00306796	0	0	0	0	0	0	0	0	0	0	0	0	0	0	0.000000000	-0.0180559	0.788798	-0.788798	0	0.828698	-1.5708	0	0.169362	0.1	0.1	0.1	0.1	0.1	0.1	0	0	0	0	0	0	0	0.000000000
1504619790.251786947	-0.0076699	0.771592	-0.79767	-0.00460194	0.80534	-1.59994	-0.00306796	0.155195	0	0	0	0	0	0	0	0	0	0	0	0	0	0.000000000	-0.0280127	0.788798	-0.788798	0	0.828698	-1.5708	0	0.229007	0.1	0.1	0.1	0.1	0.1	0.1	0	0	0	0	0	0	0	0.000000000
1504619790.273520946	-0.0107379	0.771592	-0.79767	-0.00460194	0.80534	-1.59994	-0.00460194	0.155195	0	0	0	0	0	0	0	0	0	0	0	0	0	0.000000000	-0.0280127	0.788798	-0.788798	0	0.828698	-1.5708	0	0.229007	0.1	0.1	0.1	0.1	0.1	0.1	0	0	0	0	0	0	0	0.000000000
1504619790.291723966	-0.0107379	0.771592	-0.79767	-0.00460194	0.80534	-1.59994	-0.00460194	0.155195	0	0	0	0	0	0	0	0	0	0	0	0	0	0.000000000	-0.040843	0.788798	-0.788798	0	0.828698	-1.5708	0	0.295097	0.1	0.1	0.1	0.1	0.1	0.1	0	0	0	0	0	0	0	0.000000000
1504619790.312030076	-0.0153398	0.771592	-0.79767	-0.00460194	0.803806	-1.59994	-0.00460194	0.202947	0	0	0	0	0	0	0	0	0	0	0	0	0	0.000000000	-0.040843	0.788798	-0.788798	0	0.828698	-1.5708	0	0.295097	0.1	0.1	0.1	0.1	0.1	0.1	0	0	0	0	0	0	0	0.000000000
1504619790.334630966	-0.0214757	0.771592	-0.79767	-0.00460194	0.80534	-1.59994	-0.00306796	0.202947	0	0	0	0	0	0	0	0	0	0	0	0	0	0.000000000	-0.0567873	0.788798	-0.788798	0	0.828698	-1.5708	0	0.366717	0.1	0.1	0.1	0.1	0.1	0.1	0	0	0	0	0	0	0	0.000000000
1504619790.351867914	-0.0214757	0.771592	-0.79767	-0.00460194	0.80534	-1.59994	-0.00306796	0.202947	0	0	0	0	0	0	0	0	0	0	0	0	0	0.000000000	-0.0567873	0.788798	-0.788798	0	0.828698	-1.5708	0	0.366717	0.1	0.1	0.1	0.1	0.1	0.1	0	0	0	0	0	0	0	0.000000000
1504619790.372416019	-0.0306796	0.771592	-0.79767	-0.00460194	0.803806	-1.59994	-0.00306796	0.250699	0	0	0	0	0	0	0	0	0	0	0	0	0	0.000000000	-0.0567873	0.788798	-0.788798	0	0.828698	-1.5708	0	0.366717	0.1	0.1	0.1	0.1	0.1	0.1	0	0	0	0	0	0	0	0.000000000
1504619790.391648054	-0.0444854	0.771592	-0.79767	-0.00460194	0.803806	-1.59994	-0.00460194	0.346204	0	0	0	0	0	0	0	0	0	0	0	0	0	0.000000000	-0.0760475	0.788798	-0.788798	0	0.828698	-1.5708	0	0.442986	0.1	0.1	0.1	0.1	0.1	0.1	0	0	0	0	0	0	0	0.000000000
1504619790.411737918	-0.0536893	0.771592	-0.79767	-0.00460194	0.80534	-1.59841	-0.00460194	0.393956	0	0	0	0	0	0	0	0	0	0	0	0	0	0.000000000	-0.0760475	0.788798	-0.788798	0	0.828698	-1.5708	0	0.442986	0.1	0.1	0.1	0.1	0.1	0.1	0	0	0	0	0	0	0	0.000000000
1504619790.431706905	-0.0536893	0.771592	-0.79767	-0.00460194	0.80534	-1.59841	-0.00460194	0.393956	0	0	0	0	0	0	0	0	0	0	0	0	0	0.000000000	-0.098789	0.788798	-0.788798	0	0.828698	-1.5708	0	0.523054	0.1	0.1	0.1	0.1	0.1	0.1	0	0	0	0	0	0	0	0.000000000
1504619790.452351093	-0.0644272	0.771592	-0.796136	-0.00460194	0.80534	-1.59994	-0.00460194	0.441708	0	0	0	0	0	0	0	0	0	0	0	0	0	0.000000000	-0.098789	0.788798	-0.788798	0	0.828698	-1.5708	0	0.523054	0.1	0.1	0.1	0.1	0.1	0.1	0	0	0	0	0	0	0	0.000000000
1504619790.472081899	-0.076699	0.771592	-0.796136	-0.00460194	0.80534	-1.59994	-0.00306796	0.441708	0	0	0	0	0	0	0	0	0	0	0	0	0	0.000000000	-0.125142	0.788798	-0.788798	0	0.828698	-1.5708	0	0.606109	0.1	0.1	0.1	0.1	0.1	0.1	0	0	0	0	0	0	0	0.000000000
1504619790.492055892	-0.0905049	0.771592	-0.79767	-0.00460194	0.803806	-1.59994	-0.00460194	0.537212	0	0	0	0	0	0	0	0	0	0	0	0	0	0.000000000	-0.125142	0.788798	-0.788798	0	0.828698	-1.5708	0	0.606109	0.1	0.1	0.1	0.1	0.1	0.1	0	0	0	0	0	0	0	0.000000000
1504619790.511661052	-0.104311	0.771592	-0.79767	-0.00460194	0.80534	-1.59994	-0.00460194	0.48946	0	0	0	0	0	0	0	0	0	0	0	0	0	0.000000000	-0.155201	0.788798	-0.788798	0	0.828698	-1.5708	0	0.691367	0.1	0.1	0.1	0.1	0.1	0.1	0	0	0	0	0	0	0	0.000000000
1504619790.531606912	-0.104311	0.771592	-0.79767	-0.00460194	0.80534	-1.59994	-0.00460194	0.48946	0	0	0	0	0	0	0	0	0	0	0	0	0	0.000000000	-0.155201	0.788798	-0.788798	0	0.828698	-1.5708	0	0.691367	0.1	0.1	0.1	0.1	0.1	0.1	0	0	0	0	0	0	0	0.000000000
1504619790.551745891	-0.118117	0.771592	-0.79767	-0.00460194	0.80534	-1.59994	-0.00460194	0.537212	0	0	0	0	0	0	0	0	0	0	0	0	0	0.000000000	-0.189031	0.788798	-0.788798	0	0.828698	-1.5708	0	0.77808	0.1	0.1	0.1	0.1	0.1	0.1	0	0	0	0	0	0	0	0.000000000
1504619790.571696996	-0.13499	0.771592	-0.79767	-0.00460194	0.80534	-1.59994	-0.00306796	0.680469	0	0	0	0	0	0	0	0	0	0	0	0	0	0.000000000	-0.189031	0.788798	-0.788798	0	0.828698	-1.5708	0	0.77808	0.1	0.1	0.1	0.1	0.1	0.1	0	0	0	0	0	0	0	0.000000000
1504619790.592837095	-0.153398	0.771592	-0.79767	-0.00460194	0.80534	-1.59994	-0.00306796	0.680469	0	0	0	0	0	0	0	0	0	0	0	0	0	0.000000000	-0.189031	0.788798	-0.788798	0	0.828698	-1.5708	0	0.77808	0.1	0.1	0.1	0.1	0.1	0.1	0	0	0	0	0	0	0	0.000000000
1504619790.611826896	-0.170272	0.771592	-0.79767	-0.00460194	0.803806	-1.59994	-0.00460194	0.680469	0	0	0	0	0	0	0	0	0	0	0	0	0	0.000000000	-0.226662	0.788798	-0.788798	0	0.828698	-1.5708	0	0.865532	0.1	0.1	0.1	0.1	0.1	0.1	0	0	0	0	0	0	0	0.000000000
1504619790.631756067	-0.170272	0.771592	-0.79767	-0.00460194	0.803806	-1.59994	-0.00460194	0.680469	0	0	0	0	0	0	0	0	0	0	0	0	0	0.000000000	-0.226662	0.788798	-0.788798	0	0.828698	-1.5708	0	0.865532	0.1	0.1	0.1	0.1	0.1	0.1	0	0	0	0	0	0	0	0.000000000
1504619790.653626918	-0.190214	0.771592	-0.79767	-0.00460194	0.80534	-1.59994	-0.00460194	0.680469	0	0	0	0	0	0	0	0	0	0	0	0	0	0.000000000	-0.268099	0.788798	-0.788798	0	0.828698	-1.5708	0	0.953044	0.1	0.1	0.1	0.1	0.1	0.1	0	0	0	0	0	0	0	0.000000000
1504619790.671693086	-0.214757	0.771592	-0.79767	-0.00460194	0.803806	-1.59994	-0.00306796	0.823726	0	0	0	0	0	0	0	0	0	0	0	0	0	0.000000000	-0.268099	0.788798	-0.788798	0	0.828698	-1.5708	0	0.953044	0.1	0.1	0.1	0.1	0.1	0.1	0	0	0	0	0	0	0	0.000000000
1504619790.691756963	-0.237767	0.771592	-0.79767	-0.00460194	0.80534	-1.59994	-0.00306796	0.91923	0	0	0	0	0	0	0	0	0	0	0	0	0	0.000000000	-0.313315	0.788798	-0.788798	0	0.828698	-1.5708	0	1.03997	0.1	0.1	0.1	0.1	0.1	0.1	0	0	0	0	0	0	0	0.000000000
1504619790.712701082	-0.260777	0.771592	-0.79767	-0.00460194	0.80534	-1.59994	-0.00460194	0.91923	0	0	0	0	0	0	0	0	0	0	0	0	0	0.000000000	-0.313315	0.788798	-0.788798	0	0.828698	-1.5708	0	1.03997	0.1	0.1	0.1	0.1	0.1	0.1	0	0	0	0	0	0	0	0.000000000
1504619790.731583118	-0.260777	0.771592	-0.79767	-0.00460194	0.80534	-1.59994	-0.00460194	0.91923	0	0	0	0	0	0	0	0	0	0	0	0	0	0.000000000	-0.362258	0.788798	-0.788798	0	0.828698	-1.5708	0	1.12568	0.1	0.1	0.1	0.1	0.1	0.1	0	0	0	0	0	0	0	0.000000000
1504619790.751761913	-0.288388	0.771592	-0.79767	-0.00460194	0.80534	-1.59994	-0.00460194	0.91923	0	0	0	0	0	0	0	0	0	0	0	0	0	0.000000000	-0.362258	0.788798	-0.788798	0	0.828698	-1.5708	0	1.12568	0.1	0.1	0.1	0.1	0.1	0.1	0	0	0	0	0	0	0	0.000000000
1504619790.772123098	-0.314466	0.771592	-0.79767	-0.00460194	0.803806	-1.59994	-0.00306796	0.966982	0	0	0	0	0	0	0	0	0	0	0	0	0	0.000000000	-0.414849	0.788798	-0.788798	0	0.828698	-1.5708	0	1.20961	0.1	0.1	0.1	0.1	0.1	0.1	0	0	0	0	0	0	0	0.000000000
1504619790.791759014	-0.345146	0.771592	-0.79767	-0.00460194	0.80534	-1.59994	-0.00306796	0.966982	0	0	0	0	0	0	0	0	0	0	0	0	0	0.000000000	-0.414849	0.788798	-0.788798	0	0.828698	-1.5708	0	1.20961	0.1	0.1	0.1	0.1	0.1	0.1	0	0	0	0	0	0	0	0.000000000
1504619790.811642885	-0.371223	0.771592	-0.79767	-0.00460194	0.803806	-1.59994	-0.00460194	1.01473	0	0	0	0	0	0	0	0	0	0	0	0	0	0.000000000	-0.470988	0.788798	-0.788798	0	0.828698	-1.5708	0	1.2912	0.1	0.1	0.1	0.1	0.1	0.1	0	0	0	0	0	0	0	0.000000000
1504619790.831782102	-0.371223	0.771592	-0.79767	-0.00460194	0.803806	-1.59994	-0.00460194	1.01473	0	0	0	0	0	0	0	0	0	0	0	0	0	0.000000000	-0.470988	0.788798	-0.788798	0	0.828698	-1.5708	0	1.2912	0.1	0.1	0.1	0.1	0.1	0.1	0	0	0	0	0	0	0	0.000000000
1504619790.852643013	-0.401903	0.771592	-0.79767	-0.00460194	0.80534	-1.59994	-0.00460194	1.11024	0	0	0	0	0	0	0	0	0	0	0	0	0	0.000000000	-0.470988	0.788798	-0.788798	0	0.828698	-1.5708	0	1.2912	0.1	0.1	0.1	0.1	0.1	0.1	0	0	0	0	0	0	0	0.000000000
1504619790.871862888	-0.432583	0.771592	-0.79767	-0.00460194	0.80534	-1.59994	-0.00306796	1.15799	0	0	0	0	0	0	0	0	0	0	0	0	0	0.000000000	-0.530551	0.788798	-0.788798	0	0.828698	-1.5708	0	1.36994	0.1	0.1	0.1	0.1	0.1	0.1	0	0	0	0	0	0	0	0.000000000
1504619790.891570091	-0.46633	0.771592	-0.796136	-0.00460194	0.803806	-1.59994	-0.00306796	1.20574	0	0	0	0	0	0	0	0	0	0	0	0	0	0.000000000	-0.530551	0.788798	-0.788798	0	0.828698	-1.5708	0	1.36994	0.1	0.1	0.1	0.1	0.1	0.1	0	0	0	0	0	0	0	0.000000000
1504619790.911541938	-0.498544	0.771592	-0.79767	-0.00460194	0.80534	-1.59994	-0.00460194	1.15799	0	0	0	0	0	0	0	0	0	0	0	0	0	0.000000000	-0.593392	0.788798	-0.788798	0	0.828698	-1.5708	0	1.44534	0.1	0.1	0.1	0.1	0.1	0.1	0	0	0	0	0	0	0	0.000000000
1504619790.931636095	-0.498544	0.771592	-0.79767	-0.00460194	0.80534	-1.59994	-0.00460194	1.15799	0	0	0	0	0	0	0	0	0	0	0	0	0	0.000000000	-0.593392	0.788798	-0.788798	0	0.828698	-1.5708	0	1.44534	0.1	0.1	0.1	0.1	0.1	0.1	0	0	0	0	0	0	0	0.000000000
1504619790.951653957	-0.532291	0.771592	-0.79767	-0.00460194	0.80534	-1.59994	-0.00306796	1.20574	0	0	0	0	0	0	0	0	0	0	0	0	0	0.000000000	-0.659347	0.788798	-0.788798	0	0.828698	-1.5708	0	1.51696	0.1	0.1	0.1	0.1	0.1	0.1	0	0	0	0	0	0	0	0.000000000
1504619790.971674919	-0.567573	0.771592	-0.79767	-0.00460194	0.803806	-1.59994	-0.00306796	1.349	0	0	0	0	0	0	0	0	0	0	0	0	0	0.000000000	-0.659347	0.788798	-0.788798	0	0.828698	-1.5708	0	1.51696	0.1	0.1	0.1	0.1	0.1	0.1	0	0	0	0	0	0	0	0.000000000
1504619790.991695880	-0.605922	0.771592	-0.79767	-0.00460194	0.80534	-1.59994	-0.00306796	1.349	0	0	0	0	0	0	0	0	0	0	0	0	0	0.000000000	-0.728233	0.788798	-0.788798	0	0.828698	-1.5708	0	1.58438	0.1	0.1	0.1	0.1	0.1	0.1	0	0	0	0	0	0	0	0.000000000
1504619791.012095928	-0.644272	0.771592	-0.79767	-0.00460194	0.80534	-1.59994	-0.00306796	1.4445	0	0	0	0	0	0	0	0	0	0	0	0	0	0.000000000	-0.728233	0.788798	-0.788798	0	0.828698	-1.5708	0	1.58438	0.1	0.1	0.1	0.1	0.1	0.1	0	0	0	0	0	0	0	0.000000000
1504619791.031723022	-0.644272	0.771592	-0.79767	-0.00460194	0.80534	-1.59994	-0.00306796	1.4445	0	0	0	0	0	0	0	0	0	0	0	0	0	0.000000000	-0.799851	0.788798	-0.788798	0	0.828698	-1.5708	0	1.64722	0.1	0.1	0.1	0.1	0.1	0.1	0	0	0	0	0	0	0	0.000000000
1504619791.051706075	-0.690291	0.771592	-0.79767	-0.00460194	0.80534	-1.59994	-0.00306796	1.39675	0	0	0	0	0	0	0	0	0	0	0	0	0	0.000000000	-0.799851	0.788798	-0.788798	0	0.828698	-1.5708	0	1.64722	0.1	0.1	0.1	0.1	0.1	0.1	0	0	0	0	0	0	0	0.000000000
1504619791.073483943	-0.725573	0.771592	-0.79767	-0.00460194	0.80534	-1.59994	-0.00306796	1.349	0	0	0	0	0	0	0	0	0	0	0	0	0	0.000000000	-0.873987	0.788798	-0.788798	0	0.828698	-1.5708	0	1.70513	0.1	0.1	0.1	0.1	0.1	0.1	0	0	0	0	0	0	0	0.000000000
1504619791.091660976	-0.76699	0.771592	-0.79767	-0.00613592	0.80534	-1.59994	-0.00306796	1.54001	0	0	0	0	0	0	0	0	0	0	0	0	0	0.000000000	-0.873987	0.788798	-0.788798	0	0.828698	-1.5708	0	1.70513	0.1	0.1	0.1	0.1	0.1	0.1	0	0	0	0	0	0	0	0.000000000
1504619791.111541032	-0.80534	0.771592	-0.79767	-0.00460194	0.80534	-1.59994	-0.00306796	1.58776	0	0	0	0	0	0	0	0	0	0	0	0	0	0.000000000	-0.873987	0.788798	-0.788798	0	0.828698	-1.5708	0	1.70513	0.1	0.1	0.1	0.1	0.1	0.1	0	0	0	0	0	0	0	0.000000000
1504619791.131655931	-0.80534	0.771592	-0.79767	-0.00460194	0.80534	-1.59994	-0.00306796	1.58776	0	0	0	0	0	0	0	0	0	0	0	0	0	0.000000000	-0.950412	0.788798	-0.788798	0	0.828698	-1.5708	0	1.75779	0.1	0.1	0.1	0.1	0.1	0.1	0	0	0	0	0	0	0	0.000000000
1504619791.151563882	-0.845223	0.771592	-0.79767	-0.00460194	0.80534	-1.59994	-0.00306796	1.49226	0	0	0	0	0	0	0	0	0	0	0	0	0	0.000000000	-0.950412	0.788798	-0.788798	0	0.828698	-1.5708	0	1.75779	0.1	0.1	0.1	0.1	0.1	0.1	0	0	0	0	0	0	0	0.000000000
1504619791.171586990	-0.888175	0.771592	-0.79767	-0.00460194	0.80534	-1.59994	-0.00306796	1.58776	0	0	0	0	0	0	0	0	0	0	0	0	0	0.000000000	-1.02889	0.788798	-0.788798	0	0.828698	-1.5708	0	1.80492	0.1	0.1	0.1	0.1	0.1	0.1	0	0	0	0	0	0	0	0.000000000
1504619791.192176103	-0.937262	0.771592	-0.79767	-0.00460194	0.80534	-1.59994	-0.00306796	1.73102	0	0	0	0	0	0	0	0	0	0	0	0	0	0.000000000	-1.02889	0.788798	-0.788798	0	0.828698	-1.5708	0	1.80492	0.1	0.1	0.1	0.1	0.1	0.1	0	0	0	0	0	0	0	0.000000000
1504619791.211796045	-0.981748	0.771592	-0.79767	-0.00460194	0.80534	-1.59994	-0.00460194	1.68327	0	0	0	0	0	0	0	0	0	0	0	0	0	0.000000000	-1.10916	0.788798	-0.788798	0	0.828698	-1.5708	0	1.84626	0.1	0.1	0.1	0.1	0.1	0.1	0	0	0	0	0	0	0	0.000000000
1504619791.231626987	-0.981748	0.771592	-0.79767	-0.00460194	0.80534	-1.59994	-0.00460194	1.68327	0	0	0	0	0	0	0	0	0	0	0	0	0	0.000000000	-1.10916	0.788798	-0.788798	0	0.828698	-1.5708	0	1.84626	0.1	0.1	0.1	0.1	0.1	0.1	0	0	0	0	0	0	0	0.000000000
1504619791.251718044	-1.02623	0.771592	-0.79767	-0.00460194	0.80534	-1.59994	-0.00460194	1.63551	0	0	0	0	0	0	0	0	0	0	0	0	0	0.000000000	-1.19097	0.788798	-0.788798	0	0.828698	-1.5708	0	1.88162	0.1	0.1	0.1	0.1	0.1	0.1	0	0	0	0	0	0	0	0.000000000
1504619791.272156953	-1.07072	0.771592	-0.79767	-0.00460194	0.80534	-1.59994	-0.00460194	1.68327	0	0	0	0	0	0	0	0	0	0	0	0	0	0.000000000	-1.19097	0.788798	-0.788798	0	0.828698	-1.5708	0	1.88162	0.1	0.1	0.1	0.1	0.1	0.1	0	0	0	0	0	0	0	0.000000000
1504619791.292409896	-1.11674	0.771592	-0.79767	-0.00460194	0.80534	-1.59994	-0.00306796	1.68327	0	0	0	0	0	0	0	0	0	0	0	0	0	0.000000000	-1.27405	0.788798	-0.788798	0	0.828698	-1.5708	0	1.9108	0.1	0.1	0.1	0.1	0.1	0.1	0	0	0	0	0	0	0	0.000000000
1504619791.311602115	-1.16276	0.771592	-0.79767	-0.00460194	0.80534	-1.59994	-0.00306796	1.68327	0	0	0	0	0	0	0	0	0	0	0	0	0	0.000000000	-1.27405	0.788798	-0.788798	0	0.828698	-1.5708	0	1.9108	0.1	0.1	0.1	0.1	0.1	0.1	0	0	0	0	0	0	0	0.000000000
1504619791.331651926	-1.16276	0.771592	-0.79767	-0.00460194	0.80534	-1.59994	-0.00306796	1.68327	0	0	0	0	0	0	0	0	0	0	0	0	0	0.000000000	-1.27405	0.788798	-0.788798	0	0.828698	-1.5708	0	1.9108	0.1	0.1	0.1	0.1	0.1	0.1	0	0	0	0	0	0	0	0.000000000
1504619791.353271007	-1.20878	0.771592	-0.79767	-0.00460194	0.803806	-1.59994	-0.00460194	1.68327	0	0	0	0	0	0	0	0	0	0	0	0	0	0.000000000	-1.35812	0.788798	-0.788798	0	0.828698	-1.5708	0	1.93365	0.1	0.1	0.1	0.1	0.1	0.1	0	0	0	0	0	0	0	0.000000000
1504619791.371798992	-1.26553	0.771592	-0.79767	-0.00460194	0.80534	-1.59994	-0.00460194	1.82652	0	0	0	0	0	0	0	0	0	0	0	0	0	0.000000000	-1.35812	0.788798	-0.788798	0	0.828698	-1.5708	0	1.93365	0.1	0.1	0.1	0.1	0.1	0.1	0	0	0	0	0	0	0	0.000000000
1504619791.391933917	-1.31002	0.771592	-0.79767	-0.00460194	0.803806	-1.59994	-0.00460194	1.68327	0	0	0	0	0	0	0	0	0	0	0	0	0	0.000000000	-1.4429	0.788798	-0.788798	0	0.828698	-1.5708	0	1.95005	0.1	0.1	0.1	0.1	0.1	0.1	0	0	0	0	0	0	0	0.000000000
1504619791.411691904	-1.35297	0.771592	-0.79767	-0.00460194	0.803806	-1.59994	-0.00460194	1.73102	0	0	0	0	0	0	0	0	0	0	0	0	0	0.000000000	-1.4429	0.788798	-0.788798	0	0.828698	-1.5708	0	1.95005	0.1	0.1	0.1	0.1	0.1	0.1	0	0	0	0	0	0	0	0.000000000
1504619791.431679964	-1.35297	0.771592	-0.79767	-0.00460194	0.803806	-1.59994	-0.00460194	1.73102	0	0	0	0	0	0	0	0	0	0	0	0	0	0.000000000	-1.52812	0.788798	-0.788798	0	0.828698	-1.5708	0	1.95993	0.1	0.1	0.1	0.1	0.1	0.1	0	0	0	0	0	0	0	0.000000000
1504619791.451687097	-1.40359	0.771592	-0.79767	-0.00460194	0.80534	-1.59841	-0.00306796	1.87427	0	0	0	0	0	0	0	0	0	0	0	0	0	0.000000000	-1.52812	0.788798	-0.788798	0	0.828698	-1.5708	0	1.95993	0.1	0.1	0.1	0.1	0.1	0.1	0	0	0	0	0	0	0	0.000000000
1504619791.471708059	-1.45728	0.771592	-0.799204	-0.00460194	0.80534	-1.59841	-0.00460194	1.82652	0	0	0	0	0	0	0	0	0	0	0	0	0	0.000000000	-1.61348	0.788798	-0.788798	0	0.828698	-1.5708	0	1.96322	0.1	0.1	0.1	0.1	0.1	0.1	0	0	0	0	0	0	0	0.000000000
1504619791.491621017	-1.50484	0.771592	-0.799204	-0.00460194	0.80534	-1.59841	-0.00460194	1.82652	0	0	0	0	0	0	0	0	0	0	0	0	0	0.000000000	-1.61348	0.788798	-0.788798	0	0.828698	-1.5708	0	1.96322	0.1	0.1	0.1	0.1	0.1	0.1	0	0	0	0	0	0	0	0.000000000
1504619791.511611938	-1.55085	0.771592	-0.800738	-0.00460194	0.80534	-1.59841	-0.00306796	1.82652	0	0	0	0	0	0	0	0	0	0	0	0	0	0.000000000	-1.69869	0.788798	-0.788798	0	0.828698	-1.5708	0	1.95992	0.1	0.1	0.1	0.1	0.1	0.1	0	0	0	0	0	0	0	0.000000000
1504619791.531594038	-1.55085	0.771592	-0.800738	-0.00460194	0.80534	-1.59841	-0.00306796	1.82652	0	0	0	0	0	0	0	0	0	0	0	0	0	0.000000000	-1.69869	0.788798	-0.788798	0	0.828698	-1.5708	0	1.95992	0.1	0.1	0.1	0.1	0.1	0.1	0	0	0	0	0	0	0	0.000000000
1504619791.551637887	-1.60148	0.771592	-0.800738	-0.00460194	0.80534	-1.59841	-0.00306796	1.68327	0	0	0	0	0	0	0	0	0	0	0	0	0	0.000000000	-1.78347	0.788798	-0.788798	0	0.828698	-1.5708	0	1.95005	0.1	0.1	0.1	0.1	0.1	0.1	0	0	0	0	0	0	0	0.000000000
1504619791.572029113	-1.65056	0.771592	-0.800738	-0.00460194	0.80534	-1.59841	-0.00306796	1.87427	0	0	0	0	0	0	0	0	0	0	0	0	0	0.000000000	-1.78347	0.788798	-0.788798	0	0.828698	-1.5708	0	1.95005	0.1	0.1	0.1	0.1	0.1	0.1	0	0	0	0	0	0	0	0.000000000
1504619791.591803073	-1.70118	0.771592	-0.800738	-0.00460194	0.80534	-1.59687	-0.00306796	1.87427	0	0	0	0	0	0	0	0	0	0	0	0	0	0.000000000	-1.78347	0.788798	-0.788798	0	0.828698	-1.5708	0	1.95005	0.1	0.1	0.1	0.1	0.1	0.1	0	0	0	0	0	0	0	0.000000000
1504619791.611574888	-1.74567	0.771592	-0.800738	-0.00460194	0.80534	-1.59534	-0.00460194	1.77877	0	0	0	0	0	0	0	0	0	0	0	0	0	0.000000000	-1.86755	0.788798	-0.788798	0	0.828698	-1.5708	0	1.93365	0.1	0.1	0.1	0.1	0.1	0.1	0	0	0	0	0	0	0	0.000000000
1504619791.631742954	-1.74567	0.771592	-0.800738	-0.00460194	0.80534	-1.59534	-0.00460194	1.77877	0	0	0	0	0	0	0	0	0	0	0	0	0	0.000000000	-1.86755	0.788798	-0.788798	0	0.828698	-1.5708	0	1.93365	0.1	0.1	0.1	0.1	0.1	0.1	0	0	0	0	0	0	0	0.000000000
1504619791.652033090	-1.79629	0.771592	-0.800738	-0.00460194	0.80534	-1.59381	-0.00306796	1.73102	0	0	0	0	0	0	0	0	0	0	0	0	0	0.000000000	-1.95062	0.788798	-0.788798	0	0.828698	-1.5708	0	1.9108	0.1	0.1	0.1	0.1	0.1	0.1	0	0	0	0	0	0	0	0.000000000
1504619791.672100067	-1.84691	0.771592	-0.800738	-0.00460194	0.80534	-1.59381	-0.00306796	1.92203	0	0	0	0	0	0	0	0	0	0	0	0	0	0.000000000	-1.95062	0.788798	-0.788798	0	0.828698	-1.5708	0	1.9108	0.1	0.1	0.1	0.1	0.1	0.1	0	0	0	0	0	0	0	0.000000000
1504619791.692023992	-1.88986	0.771592	-0.802272	-0.00460194	0.80534	-1.59534	-0.00460194	1.68327	0	0	0	0	0	0	0	0	0	0	0	0	0	0.000000000	-2.03243	0.788798	-0.788798	0	0.828698	-1.5708	0	1.88162	0.1	0.1	0.1	0.1	0.1	0.1	0	0	0	0	0	0	0	0.000000000
1504619791.711595058	-1.93435	0.771592	-0.803806	-0.00460194	0.806874	-1.59381	-0.00460194	1.63551	0	0	0	0	0	0	0	0	0	0	0	0	0	0.000000000	-2.03243	0.788798	-0.788798	0	0.828698	-1.5708	0	1.88162	0.1	0.1	0.1	0.1	0.1	0.1	0	0	0	0	0	0	0	0.000000000
1504619791.731574058	-1.93435	0.771592	-0.803806	-0.00460194	0.806874	-1.59381	-0.00460194	1.63551	0	0	0	0	0	0	0	0	0	0	0	0	0	0.000000000	-2.11271	0.788798	-0.788798	0	0.828698	-1.5708	0	1.84627	0.1	0.1	0.1	0.1	0.1	0.1	0	0	0	0	0	0	0	0.000000000
1504619791.751682043	-1.98497	0.770058	-0.803806	-0.00460194	0.806874	-1.59381	-0.00306796	1.73102	0	0	0	0	0	0	0	0	0	0	0	0	0	0.000000000	-2.11271	0.788798	-0.788798	0	0.828698	-1.5708	0	1.84627	0.1	0.1	0.1	0.1	0.1	0.1	0	0	0	0	0	0	0	0.000000000
1504619791.771651029	-2.02946	0.770058	-0.803806	-0.00460194	0.806874	-1.59227	-0.00460194	1.73102	0	0	0	0	0	0	0	0	0	0	0	0	0	0.000000000	-2.19118	0.788798	-0.788798	0	0.828698	-1.5708	0	1.80491	0.1	0.1	0.1	0.1	0.1	0.1	0	0	0	0	0	0	0	0.000000000
1504619791.791577100	-2.07701	0.770058	-0.803806	-0.00460194	0.806874	-1.59074	-0.00460194	1.73102	0	0	0	0	0	0	0	0	0	0	0	0	0	0.000000000	-2.19118	0.788798	-0.788798	0	0.828698	-1.5708	0	1.80491	0.1	0.1	0.1	0.1	0.1	0.1	0	0	0	0	0	0	0	0.000000000
1504619791.811883926	-2.12303	0.770058	-0.803806	-0.00460194	0.808408	-1.59074	-0.00306796	1.68327	0	0	0	0	0	0	0	0	0	0	0	0	0	0.000000000	-2.26761	0.788798	-0.788798	0	0.828698	-1.5708	0	1.75779	0.1	0.1	0.1	0.1	0.1	0.1	0	0	0	0	0	0	0	0.000000000
1504619791.831629037	-2.12303	0.770058	-0.803806	-0.00460194	0.808408	-1.59074	-0.00306796	1.68327	0	0	0	0	0	0	0	0	0	0	0	0	0	0.000000000	-2.26761	0.788798	-0.788798	0	0.828698	-1.5708	0	1.75779	0.1	0.1	0.1	0.1	0.1	0.1	0	0	0	0	0	0	0	0.000000000
1504619791.852492094	-2.17058	0.768524	-0.803806	-0.00460194	0.809942	-1.58767	-0.00306796	1.68327	0	0	0	0	0.0955044	0	0	0	0	0	0	0	0	0.000000000	-2.26761	0.788798	-0.788798	0	0.828698	-1.5708	0	1.75779	0.1	0.1	0.1	0.1	0.1	0.1	0	0	0	0	0	0	0	0.000000000
1504619791.873326063	-2.2166	0.768524	-0.80534	-0.00460194	0.811476	-1.58767	-0.00306796	1.68327	0	0	0	0	0	0	0	0	0	0	0	0	0	0.000000000	-2.34174	0.788798	-0.788798	0	0.828698	-1.5708	0	1.70512	0.1	0.1	0.1	0.1	0.1	0.1	0	0	0	0	0	0	0	0.000000000
1504619791.891987085	-2.2166	0.768524	-0.80534	-0.00460194	0.811476	-1.58767	-0.00306796	1.68327	0	0	0	0	0	0	0	0	0	0	0	0	0	0.000000000	-2.34174	0.788798	-0.788798	0	0.828698	-1.5708	0	1.70512	0.1	0.1	0.1	0.1	0.1	0.1	0	0	0	0	0	0	0	0.000000000
1504619791.911680936	-2.26876	0.768524	-0.80534	-0.00460194	0.811476	-1.58614	-0.00460194	1.58776	0	0	0	0	0	0	0	0	0	0	0	0	0	0.000000000	-2.41336	0.788798	-0.788798	0	0.828698	-1.5708	0	1.64722	0.1	0.1	0.1	0.1	0.1	0.1	0	0	0	0	0	0	0	0.000000000
1504619791.934591054	-2.31324	0.768524	-0.80534	-0.00460194	0.811476	-1.5846	-0.00306796	1.49226	0	0	0	0	0	0	0	0	0	0	0	0	0	0.000000000	-2.41336	0.788798	-0.788798	0	0.828698	-1.5708	0	1.64722	0.1	0.1	0.1	0.1	0.1	0.1	0	0	0	0	0	0	0	0.000000000
1504619791.954087972	-2.35619	0.768524	-0.80534	-0.00460194	0.81301	-1.58307	-0.00306796	1.49226	0	0	0	0	0	0	0	0	0	0	0	0	0	0.000000000	-2.48225	0.788798	-0.788798	0	0.828698	-1.5708	0	1.58438	0.1	0.1	0.1	0.1	0.1	0.1	0	0	0	0	0	0	0	0.000000000
1504619791.971714019	-2.35619	0.768524	-0.80534	-0.00460194	0.81301	-1.58307	-0.00306796	1.49226	0	0	0	0	0	0	0	0	0	0	0	0	0	0.000000000	-2.48225	0.788798	-0.788798	0	0.828698	-1.5708	0	1.58438	0.1	0.1	0.1	0.1	0.1	0.1	0	0	0	0	0	0	0	0.000000000
1504619791.991832017	-2.39454	0.768524	-0.80534	-0.00460194	0.81301	-1.58153	-0.00306796	1.49226	0	0	0	0	0	0	0	0	0	0	0	0	0	0.000000000	-2.5482	0.788798	-0.788798	0	0.828698	-1.5708	0	1.51696	0.1	0.1	0.1	0.1	0.1	0.1	0	0	0	0	0	0	0	0.000000000
1504619792.013569116	-2.4375	0.768524	-0.80534	-0.00460194	0.814544	-1.58153	-0.00460194	1.4445	0	0	0	0	0	0	0	0	0	0	0	0	0	0.000000000	-2.5482	0.788798	-0.788798	0	0.828698	-1.5708	0	1.51696	0.1	0.1	0.1	0.1	0.1	0.1	0	0	0	0	0	0	0	0.000000000
1504619792.032002925	-2.48198	0.768524	-0.80534	-0.00460194	0.814544	-1.58	-0.00306796	1.4445	0	0	0	0	0	0	0	0	0	0	0	0	0	0.000000000	-2.61104	0.788798	-0.788798	0	0.828698	-1.5708	0	1.44534	0.1	0.1	0.1	0.1	0.1	0.1	0	0	0	0	0	0	0	0.000000000
1504619792.057147026	-2.48198	0.768524	-0.80534	-0.00460194	0.814544	-1.58	-0.00306796	1.4445	0	0	0	0	0	0	0	0	0	0	0	0	0	0.000000000	-2.61104	0.788798	-0.788798	0	0.828698	-1.5708	0	1.44534	0.1	0.1	0.1	0.1	0.1	0.1	0	0	0	0	0	0	0	0.000000000
1504619792.072247028	-2.52186	0.768524	-0.80534	-0.00460194	0.814544	-1.58	-0.00306796	1.39675	0	0	0	0	0	0	0	0	0	0	0	0	0	0.000000000	-2.6706	0.788798	-0.788798	0	0.828698	-1.5708	0	1.36994	0.1	0.1	0.1	0.1	0.1	0.1	0	0	0	0	0	0	0	0.000000000
1504619792.091876983	-2.55868	0.768524	-0.80534	-0.00460194	0.814544	-1.58	-0.00306796	1.15799	0	0	0	0	0	0	0	0	0	0	0	0	0	0.000000000	-2.6706	0.788798	-0.788798	0	0.828698	-1.5708	0	1.36994	0.1	0.1	0.1	0.1	0.1	0.1	0	0	0	0	0	0	0	0.000000000
1504619792.111790895	-2.55868	0.768524	-0.80534	-0.00460194	0.814544	-1.58	-0.00306796	1.15799	0	0	0	0	0	0	0	0	0	0	0	0	0	0.000000000	-2.6706	0.788798	-0.788798	0	0.828698	-1.5708	0	1.36994	0.1	0.1	0.1	0.1	0.1	0.1	0	0	0	0	0	0	0	0.000000000
1504619792.134671926	-2.6047	0.768524	-0.80534	-0.00460194	0.814544	-1.57847	-0.00306796	1.349	0	0	0	0	0	0	0	0	0	0	0	0	0	0.000000000	-2.72674	0.788798	-0.788798	0	0.828698	-1.5708	0	1.2912	0.1	0.1	0.1	0.1	0.1	0.1	0	0	0	0	0	0	0	0.000000000
1504619792.151916027	-2.64151	0.768524	-0.80534	-0.00460194	0.814544	-1.57847	-0.00306796	1.39675	0	0	0	0	0	0	0	0	0	0	0	0	0	0.000000000	-2.72674	0.788798	-0.788798	0	0.828698	-1.5708	0	1.2912	0.1	0.1	0.1	0.1	0.1	0.1	0	0	0	0	0	0	0	0.000000000
1504619792.172127962	-2.67526	0.768524	-0.80534	-0.00460194	0.814544	-1.57847	-0.00306796	1.2535	0	0	0	0	0	0	0	0	0	0	0	0	0	0.000000000	-2.77934	0.788798	-0.788798	0	0.828698	-1.5708	0	1.20961	0.1	0.1	0.1	0.1	0.1	0.1	0	0	0	0	0	0	0	0.000000000
1504619792.191730976	-2.67526	0.768524	-0.80534	-0.00460194	0.814544	-1.57847	-0.00306796	1.2535	0	0	0	0	0	0	0	0	0	0	0	0	0	0.000000000	-2.77934	0.788798	-0.788798	0	0.828698	-1.5708	0	1.20961	0.1	0.1	0.1	0.1	0.1	0.1	0	0	0	0	0	0	0	0.000000000
1504619792.215358972	-2.72128	0.768524	-0.80534	-0.00460194	0.81301	-1.57693	-0.00306796	1.2535	0	0	0	0	0	0	0	0	0	0	0	0	0	0.000000000	-2.82828	0.788798	-0.788798	0	0.828698	-1.5708	0	1.12568	0.1	0.1	0.1	0.1	0.1	0.1	0	0	0	0	0	0	0	0.000000000
1504619792.231622934	-2.7535	0.768524	-0.80534	-0.00460194	0.814544	-1.57693	-0.00306796	1.20574	0	0	0	0	0	0	0	0	0	0	0	0	0	0.000000000	-2.82828	0.788798	-0.788798	0	0.828698	-1.5708	0	1.12568	0.1	0.1	0.1	0.1	0.1	0.1	0	0	0	0	0	0	0	0.000000000
1504619792.251873970	-2.77957	0.768524	-0.80534	-0.00460194	0.814544	-1.57693	-0.00306796	1.06249	0	0	0	0	0	0	0	0	0	0	0	0	0	0.000000000	-2.87349	0.788798	-0.788798	0	0.828698	-1.5708	0	1.03996	0.1	0.1	0.1	0.1	0.1	0.1	0	0	0	0	0	0	0	0.000000000
1504619792.274976968	-2.80872	0.768524	-0.80534	-0.00460194	0.814544	-1.57693	-0.00306796	1.01473	0	0	0	0	0	0	0	0	0	0	0	0	0	0.000000000	-2.87349	0.788798	-0.788798	0	0.828698	-1.5708	0	1.03996	0.1	0.1	0.1	0.1	0.1	0.1	0	0	0	0	0	0	0	0.000000000
1504619792.292443037	-2.83173	0.768524	-0.80534	-0.00460194	0.814544	-1.57693	-0.00306796	0.966982	0	0	0	0	0	0	0	0	0	0	0	0	0	0.000000000	-2.91493	0.788798	-0.788798	0	0.828698	-1.5708	0	0.953049	0.1	0.1	0.1	0.1	0.1	0.1	0	0	0	0	0	0	0	0.000000000
1504619792.315443992	-2.83173	0.768524	-0.80534	-0.00460194	0.814544	-1.57693	-0.00306796	0.966982	0	0	0	0	0	0	0	0	0	0	0	0	0	0.000000000	-2.91493	0.788798	-0.788798	0	0.828698	-1.5708	0	0.953049	0.1	0.1	0.1	0.1	0.1	0.1	0	0	0	0	0	0	0	0.000000000
1504619792.333312034	-2.85781	0.768524	-0.80534	-0.00460194	0.81301	-1.57693	-0.00460194	0.966982	0	0	0	0	0	0	0	0	0	0	0	0	0	0.000000000	-2.95256	0.788798	-0.788798	0	0.828698	-1.5708	0	0.86553	0.1	0.1	0.1	0.1	0.1	0.1	0	0	0	0	0	0	0	0.000000000
1504619792.352794885	-2.88235	0.768524	-0.80534	-0.00460194	0.81301	-1.57693	-0.00306796	0.91923	0	0	0	0	0	0	0	0	0	0	0	0	0	0.000000000	-2.95256	0.788798	-0.788798	0	0.828698	-1.5708	0	0.86553	0.1	0.1	0.1	0.1	0.1	0.1	0	0	0	0	0	0	0	0.000000000
1504619792.371714115	-2.90996	0.768524	-0.80534	-0.00460194	0.814544	-1.5754	-0.00306796	0.871478	0	0	0	0	0	0	0	0	0	0	0	0	0	0.000000000	-2.95256	0.788798	-0.788798	0	0.828698	-1.5708	0	0.86553	0.1	0.1	0.1	0.1	0.1	0.1	0	0	0	0	0	0	0	0.000000000
1504619792.395940065	-2.90996	0.768524	-0.80534	-0.00460194	0.814544	-1.5754	-0.00306796	0.871478	0	0	0	0	0	0	0	0	0	0	0	0	0	0.000000000	-2.98639	0.788798	-0.788798	0	0.828698	-1.5708	0	0.778078	0.1	0.1	0.1	0.1	0.1	0.1	0	0	0	0	0	0	0	0.000000000
1504619792.412513017	-2.93451	0.768524	-0.80534	-0.00460194	0.814544	-1.5754	-0.00306796	0.775973	0	0	0	0	0	0	0	0	0	0	0	0	0	0.000000000	-2.98639	0.788798	-0.788798	0	0.828698	-1.5708	0	0.778078	0.1	0.1	0.1	0.1	0.1	0.1	0	0	0	0	0	0	0	0.000000000
1504619792.431772947	-2.95751	0.768524	-0.80534	-0.00460194	0.814544	-1.57693	-0.00306796	0.728221	0	0	0	0	0	0	0	0	0	0	0	0	0	0.000000000	-3.01645	0.788798	-0.788798	0	0.828698	-1.5708	0	0.69137	0.1	0.1	0.1	0.1	0.1	0.1	0	0	0	0	0	0	0	0.000000000
1504619792.455039978	-2.97592	0.768524	-0.80534	-0.00460194	0.814544	-1.57693	-0.00306796	0.680469	0	0	0	0	0	0	0	0	0	0	0	0	0	0.000000000	-3.01645	0.788798	-0.788798	0	0.828698	-1.5708	0	0.69137	0.1	0.1	0.1	0.1	0.1	0.1	0	0	0	0	0	0	0	0.000000000
1504619792.471673965	-2.97592	0.768524	-0.80534	-0.00460194	0.814544	-1.5754	-0.00460194	0.680469	0	0	0	0	0	0	0	0	0	0	0	0	0	0.000000000	-3.0428	0.788798	-0.788798	0	0.828698	-1.5708	0	0.606102	0.1	0.1	0.1	0.1	0.1	0.1	0	0	0	0	0	0	0	0.000000000
1504619792.495369911	-2.99126	0.768524	-0.80534	-0.00460194	0.814544	-1.5754	-0.00306796	0.680469	0	0	0	0	0	0	0	0	0	0	0	0	0	0.000000000	-3.0428	0.788798	-0.788798	0	0.828698	-1.5708	0	0.606102	0.1	0.1	0.1	0.1	0.1	0.1	0	0	0	0	0	0	0	0.000000000
1504619792.520926952	-3.0066	0.768524	-0.80534	-0.00460194	0.814544	-1.5754	-0.00306796	0.632717	0	0	0	0	0	0	0	0	0	0	0	0	0	0.000000000	-3.06555	0.788798	-0.788798	0	0.828698	-1.5708	0	0.523056	0.1	0.1	0.1	0.1	0.1	0.1	0	0	0	0	0	0	0	0.000000000
1504619792.531744003	-3.02654	0.768524	-0.80534	-0.00613592	0.81301	-1.57693	-0.00306796	0.632717	0	0	0	0	0	0	0	0	0	0	0	0	0	0.000000000	-3.06555	0.788798	-0.788798	0	0.828698	-1.5708	0	0.523056	0.1	0.1	0.1	0.1	0.1	0.1	0	0	0	0	0	0	0	0.000000000
1504619792.553082942	-3.02654	0.768524	-0.80534	-0.00613592	0.81301	-1.57693	-0.00306796	0.632717	0	0	0	0	0	0	0	0	0	0	0	0	0	0.000000000	-3.08481	0.788798	-0.788798	0	0.828698	-1.5708	0	0.442989	0.1	0.1	0.1	0.1	0.1	0.1	0	0	0	0	0	0	0	0.000000000
1504619792.571871042	-3.04342	0.768524	-0.80534	-0.00460194	0.814544	-1.57693	-0.00306796	0.537212	0	0	0	0	0	0	0	0	0	0	0	0	0	0.000000000	-3.08481	0.788798	-0.788798	0	0.828698	-1.5708	0	0.442989	0.1	0.1	0.1	0.1	0.1	0.1	0	0	0	0	0	0	0	0.000000000
1504619792.592322111	-3.05569	0.768524	-0.80534	-0.00460194	0.814544	-1.5754	-0.00306796	0.48946	0	0	0	0	0	0	0	0	0	0	0	0	0	0.000000000	-3.08481	0.788798	-0.788798	0	0.828698	-1.5708	0	0.442989	0.1	0.1	0.1	0.1	0.1	0.1	0	0	0	0	0	0	0	0.000000000
1504619792.611764907	-3.06489	0.768524	-0.80534	-0.00460194	0.81301	-1.5754	-0.00306796	0.250699	0	0	0	0	0	0	0	0	0	0	0	0	0	0.000000000	-3.10075	0.788798	-0.788798	0	0.828698	-1.5708	0	0.366718	0.1	0.1	0.1	0.1	0.1	0.1	0	0	0	0	0	0	0	0.000000000
1504619792.631766080	-3.06489	0.768524	-0.80534	-0.00460194	0.81301	-1.5754	-0.00306796	0.250699	0	0	0	0	0	0	0	0	0	0	0	0	0	0.000000000	-3.10075	0.788798	-0.788798	0	0.828698	-1.5708	0	0.366718	0.1	0.1	0.1	0.1	0.1	0.1	0	0	0	0	0	0	0	0.000000000
1504619792.655455112	-3.0741	0.768524	-0.80534	-0.00460194	0.814544	-1.5754	-0.00460194	0.298451	0	0	0	0	0	0	0	0	0	0	0	0	0	0.000000000	-3.11358	0.788798	-0.788798	0	0.828698	-1.5708	0	0.295096	0.1	0.1	0.1	0.1	0.1	0.1	0	0	0	0	0	0	0	0.000000000
1504619792.672815084	-3.0833	0.768524	-0.80534	-0.00613592	0.814544	-1.5754	-0.00460194	0.346204	0	0	0	0	0	0	0	0	0	0	0	0	0	0.000000000	-3.11358	0.788798	-0.788798	0	0.828698	-1.5708	0	0.295096	0.1	0.1	0.1	0.1	0.1	0.1	0	0	0	0	0	0	0	0.000000000
1504619792.691797018	-3.09404	0.768524	-0.80534	-0.00613592	0.81301	-1.5754	-0.00460194	0.346204	0	0	0	0	0	0	0	0	0	0	0	0	0	0.000000000	-3.12354	0.788798	-0.788798	0	0.828698	-1.5708	0	0.229007	0.1	0.1	0.1	0.1	0.1	0.1	0	0	0	0	0	0	0	0.000000000
1504619792.716033935	-3.10478	0.768524	-0.80534	-0.00613592	0.81301	-1.5754	-0.00306796	0.346204	0	0	0	0	0	0	0	0	0	0	0	0	0	0.000000000	-3.12354	0.788798	-0.788798	0	0.828698	-1.5708	0	0.229007	0.1	0.1	0.1	0.1	0.1	0.1	0	0	0	0	0	0	0	0.000000000
1504619792.732398986	-3.10478	0.768524	-0.80534	-0.00613592	0.81301	-1.5754	-0.00306796	0.346204	0	0	0	0	0	0	0	0	0	0	0	0	0	0.000000000	-3.1309	0.788798	-0.788798	0	0.828698	-1.5708	0	0.169362	0.1	0.1	0.1	0.1	0.1	0.1	0	0	0	0	0	0	0	0.000000000
1504619792.751579999	-3.11551	0.768524	-0.80534	-0.00613592	0.81301	-1.5754	-0.00306796	0.250699	0	0	0	0	0	0	0	0	0	0	0	0	0	0.000000000	-3.1309	0.788798	-0.788798	0	0.828698	-1.5708	0	0.169362	0.1	0.1	0.1	0.1	0.1	0.1	0	0	0	0	0	0	0	0.000000000
1504619792.771595001	-3.11705	0.768524	-0.80534	-0.00613592	0.81301	-1.5754	-0.00306796	0.155195	0	0	0	0	0	0	0	0	0	0	0	0	0	0.000000000	-3.13599	0.788798	-0.788798	0	0.828698	-1.5708	0	0.117108	0.1	0.1	0.1	0.1	0.1	0.1	0	0	0	0	0	0	0	0.000000000
1504619792.791614055	-3.12318	0.768524	-0.80534	-0.00613592	0.814544	-1.5754	-0.00460194	0.202947	0	0	0	0	0	0	0	0	0	0	0	0	0	0.000000000	-3.13599	0.788798	-0.788798	0	0.828698	-1.5708	0	0.117108	0.1	0.1	0.1	0.1	0.1	0.1	0	0	0	0	0	0	0	0.000000000
1504619792.811572074	-3.12625	0.768524	-0.80534	-0.00613592	0.814544	-1.5754	-0.00306796	0.155195	0	0	0	0	0	0	0	0	0	0	0	0	0	0.000000000	-3.13918	0.788798	-0.788798	0	0.828698	-1.5708	0	0.1	0.1	0.1	0.1	0.1	0.1	0.1	0	0	0	0	0	0	0	0.000000000
1504619792.832029104	-3.12625	0.768524	-0.80534	-0.00613592	0.814544	-1.5754	-0.00306796	0.155195	0	0	0	0	0	0	0	0	0	0	0	0	0	0.000000000	-3.13918	0.788798	-0.788798	0	0.828698	-1.5708	0	0.1	0.1	0.1	0.1	0.1	0.1	0.1	0	0	0	0	0	0	0	0.000000000
1504619792.852108001	-3.12932	0.768524	-0.80534	-0.00613592	0.814544	-1.5754	-0.00306796	0.107442	0	0	0	0	0	0	0	0	0	0	0	0	0	0.000000000	-3.13918	0.788798	-0.788798	0	0.828698	-1.5708	0	0.1	0.1	0.1	0.1	0.1	0.1	0.1	0	0	0	0	0	0	0	0.000000000
1504619792.871788024	-3.13085	0.768524	-0.80534	-0.00613592	0.81301	-1.5754	-0.00306796	0	0	0	0	0	0	0	0	0	0	0	0	0	0	0.000000000	-3.14086	0.788798	-0.788798	0	0.828698	-1.5708	0	0.1	0.1	0.1	0.1	0.1	0.1	0.1	0	0	0	0	0	0	0	0.000000000
1504619792.895464897	-3.13239	0.768524	-0.80534	-0.00613592	0.814544	-1.5754	-0.00306796	0	0	0	0	0	0	0	0	0	0	0	0	0	0	0.000000000	-3.14086	0.788798	-0.788798	0	0.828698	-1.5708	0	0.1	0.1	0.1	0.1	0.1	0.1	0.1	0	0	0	0	0	0	0	0.000000000
1504619792.911921024	-3.13239	0.768524	-0.80534	-0.00613592	0.814544	-1.5754	-0.00306796	0	0	0	0	0	0	0	0	0	0	0	0	0	0	0.000000000	-3.1415	0.788798	-0.788798	0	0.828698	-1.5708	0	0.1	0.1	0.1	0.1	0.1	0.1	0.1	0	0	0	0	0	0	0	0.000000000
1504619792.931740999	-3.13392	0.768524	-0.80534	-0.00613592	0.814544	-1.5754	-0.00460194	0	0	0	0	0	0	0	0	0	0	0	0	0	0	0.000000000	-3.1415	0.788798	-0.788798	0	0.828698	-1.5708	0	0.1	0.1	0.1	0.1	0.1	0.1	0.1	0	0	0	0	0	0	0	0.000000000
1504619792.951910972	-3.13546	0.768524	-0.80534	-0.00613592	0.814544	-1.5754	-0.00460194	0	0	0	0	0	0	0	0	0	0	0	0	0	0	0.000000000	-3.14159	0.788798	-0.788798	0	0.828698	-1.5708	0	0.1	0.1	0.1	0.1	0.1	0.1	0.1	0	0	0	0	0	0	0	0.000000000
1504619792.973143100	-3.13546	0.768524	-0.80534	-0.00613592	0.81301	-1.5754	-0.00306796	0	0	0	0	0	0	0	0	0	0	0	0	0	0	0.000000000	-3.14159	0.788798	-0.788798	0	0.828698	-1.5708	0	0.1	0.1	0.1	0.1	0.1	0.1	0.1	0	0	0	0	0	0	0	0.000000000
1504619792.995465040	-3.13546	0.768524	-0.80534	-0.00613592	0.81301	-1.5754	-0.00460194	0	0	0	0	0	0	0	0	0	0	0	0	0	0	0.000000000	-3.14159	0.788772	-0.788811	0	0.828696	-1.57081	0	0.1	0.1	0.1	0.1	0.1	0.1	0.1	0	0	0	0	0	0	0	0.000000000
1504619793.014683008	-3.13699	0.768524	-0.80534	-0.00613592	0.81301	-1.5754	-0.00306796	0	0	0	0	0	0	0	0	0	0	0	0	0	0	0.000000000	-3.14159	0.788772	-0.788811	0	0.828696	-1.57081	0	0.1	0.1	0.1	0.1	0.1	0.1	0.1	0	0	0	0	0	0	0	0.000000000
1504619793.033107995	-3.13546	0.768524	-0.80534	-0.00613592	0.814544	-1.57693	-0.00306796	0	0	0	0	0	0	0	0	0	0	0	0	0	0	0.000000000	-3.14159	0.78859	-0.788901	0	0.82868	-1.5709	0	0.1	0.1	0.1	0.1	0.1	0.1	0.1	0	0	0	0	0	0	0	0.000000000
1504619793.052093029	-3.13546	0.768524	-0.80534	-0.00613592	0.814544	-1.57693	-0.00306796	0	0	0	0	0	0	0	0	0	0	0	0	0	0	0.000000000	-3.14159	0.78859	-0.788901	0	0.82868	-1.5709	0	0.1	0.1	0.1	0.1	0.1	0.1	0.1	0	0	0	0	0	0	0	0.000000000
1504619793.074017047	-3.13546	0.768524	-0.80534	-0.00613592	0.814544	-1.57693	-0.00306796	0	0	0	0	0	0	0	0	0	0	0	0	0	0	0.000000000	-3.14159	0.788112	-0.789137	0	0.828638	-1.57114	0	0.1	0.1	0.1	0.1	0.1	0.1	0.1	0	0	0	0	0	0	0	0.000000000
1504619793.091718912	-3.13546	0.768524	-0.80534	-0.00613592	0.81301	-1.5754	-0.00460194	0	0	0	0	0	0	0	0	0	0	0	0	0	0	0.000000000	-3.14159	0.788112	-0.789137	0	0.828638	-1.57114	0	0.1	0.1	0.1	0.1	0.1	0.1	0.1	0	0	0	0	0	0	0	0.000000000
1504619793.112066984	-3.13699	0.768524	-0.80534	-0.00613592	0.81301	-1.5754	-0.00306796	0	0	0	0	0	0	0	0	0	0	0	0	0	0	0.000000000	-3.14159	0.788112	-0.789137	0	0.828638	-1.57114	0	0.1	0.1	0.1	0.1	0.1	0.1	0.1	0	0	0	0	0	0	0	0.000000000
1504619793.132750988	-3.13546	0.768524	-0.80534	-0.00613592	0.81301	-1.5754	-0.00306796	0	0	0	0	0	0	0	0	0	0	0	0	0	0	0.000000000	-3.14159	0.787209	-0.789582	0	0.828559	-1.57159	0	0.1	0.1	0.1	0.1	0.1	0.1	0.1	0	0	0	0	0	0	0	0.000000000
1504619793.151829004	-3.13699	0.768524	-0.80534	-0.00613592	0.81301	-1.5754	-0.00306796	0	0	0	0	0	0	0	0	0	0	0	0	0	0	0.000000000	-3.14159	0.787209	-0.789582	0	0.828559	-1.57159	0	0.1	0.1	0.1	0.1	0.1	0.1	0.1	0	0	0	0	0	0	0	0.000000000
1504619793.173659086	-3.13546	0.768524	-0.80534	-0.00613592	0.81301	-1.5754	-0.00306796	0	0	0	0	0	0	0	0	0	0	0	0	0	0	0.000000000	-3.14159	0.785767	-0.790292	0	0.828434	-1.57231	0	0.1	0.1	0.1	0.1	0.1	0.1	0.1	0	0	0	0	0	0	0	0.000000000
1504619793.192439079	-3.13546	0.768524	-0.80534	-0.00613592	0.81301	-1.5754	-0.00306796	0	0	0	0	0	0	0	0	0	0	0	0	0	0	0.000000000	-3.14159	0.785767	-0.790292	0	0.828434	-1.57231	0	0.1	0.1	0.1	0.1	0.1	0.1	0.1	0	0	0	0	0	0	0	0.000000000
1504619793.211628913	-3.13546	0.768524	-0.80534	-0.00613592	0.81301	-1.5754	-0.00306796	0	0	0	0	0	0	0	0	0	0	0	0	0	0	0.000000000	-3.14159	0.783687	-0.791314	0	0.828255	-1.57335	0	0.1	0.1	0.1	0.1	0.1	0.1	0.1	0	0	0	0	0	0	0	0.000000000
1504619793.231863021	-3.13546	0.76699	-0.80534	-0.00613592	0.81301	-1.57693	-0.00306796	0	0	0	0	0	0	0	0	0	0	0	0	0	0	0.000000000	-3.14159	0.783687	-0.791314	0	0.828255	-1.57335	0	0.1	0.1	0.1	0.1	0.1	0.1	0.1	0	0	0	0	0	0	0	0.000000000
1504619793.251979112	-3.13546	0.765456	-0.80534	-0.00613592	0.81301	-1.57693	-0.00460194	0	0.107442	0	0	0	0	0	0	0	0	0	0	0	0	0.000000000	-3.14159	0.780884	-0.792686	0	0.828016	-1.57475	0	0.1	0.1	0.1	0.1	0.1	0.1	0.1	0	0	0	0	0	0	0	0.000000000
1504619793.275398015	-3.13699	0.763922	-0.808408	-0.00613592	0.81301	-1.57847	-0.00306796	0	0	0.107442	0	0	0	0	0	0	0	0	0	0	0	0.000000000	-3.14159	0.780884	-0.792686	0	0.828016	-1.57475	0	0.1	0.1	0.1	0.1	0.1	0.1	0.1	0	0	0	0	0	0	0	0.000000000
1504619793.291990041	-3.13699	0.763922	-0.808408	-0.00613592	0.81301	-1.57847	-0.00306796	0	0	0.107442	0	0	0	0	0	0	0	0	0	0	0	0.000000000	-3.14159	0.777287	-0.794439	0	0.827715	-1.57656	0	0.1	0.1	0.1	0.1	0.1	0.1	0.1	0	0	0	0	0	0	0	0.000000000
1504619793.311702966	-3.13546	0.762388	-0.809942	-0.00613592	0.814544	-1.57847	-0.00306796	0	0	0	0	0	0	0	0	0	0	0	0	0	0	0.000000000	-3.14159	0.777287	-0.794439	0	0.827715	-1.57656	0	0.1	0.1	0.1	0.1	0.1	0.1	0.1	0	0	0	0	0	0	0	0.000000000
1504619793.336668968	-3.13699	0.760854	-0.809942	-0.0076699	0.814544	-1.57847	-0.00460194	0	0	0	0	0	0	0	0	0	0	0	0	0	0	0.000000000	-3.14159	0.772841	-0.796592	0	0.827352	-1.5788	0	0.1	0.10225	0.1	0.1	0.1	0.1	0.1	0	0	0	0	0	0	0	0.000000000
1504619793.355161905	-3.13699	0.760854	-0.809942	-0.0076699	0.814544	-1.57847	-0.00460194	0	0	0	0	0	0	0	0	0	0	0	0	0	0	0.000000000	-3.14159	0.772841	-0.796592	0	0.827352	-1.5788	0	0.1	0.10225	0.1	0.1	0.1	0.1	0.1	0	0	0	0	0	0	0	0.000000000
1504619793.373235940	-3.13699	0.754719	-0.811476	-0.00613592	0.814544	-1.57847	-0.00460194	0	0.202947	0	0	0	0	0	0	0	0	0	0	0	0	0.000000000	-3.14159	0.772841	-0.796592	0	0.827352	-1.5788	0	0.1	0.10225	0.1	0.1	0.1	0.1	0.1	0	0	0	0	0	0	0	0.000000000
1504619793.391710996	-3.13699	0.756253	-0.811476	-0.0076699	0.814544	-1.57847	-0.00306796	0	0	0	0	0	0	0	0	0	0	0	0	0	0	0.000000000	-3.14159	0.767506	-0.799159	0	0.826927	-1.58151	0	0.1	0.122715	0.1	0.1	0.1	0.1	0.1	0	0	0	0	0	0	0	0.000000000
1504619793.411674022	-3.13699	0.754719	-0.811476	-0.00613592	0.814544	-1.57847	-0.00460194	0	0	0	0	0	0	0	0	0	0	0	0	0	0	0.000000000	-3.14159	0.767506	-0.799159	0	0.826927	-1.58151	0	0.1	0.122715	0.1	0.1	0.1	0.1	0.1	0	0	0	0	0	0	0	0.000000000
1504619793.431730031	-3.13699	0.754719	-0.811476	-0.00613592	0.814544	-1.57847	-0.00306796	0	0	0	0	0	0	0	0	0	0	0	0	0	0	0.000000000	-3.14159	0.761254	-0.80214	0	0.826447	-1.58469	0	0.1	0.143793	0.1	0.1	0.1	0.1	0.1	0	0	0	0	0	0	0	0.000000000
1504619793.452440977	-3.13699	0.754719	-0.811476	-0.00613592	0.814544	-1.57847	-0.00306796	0	0	0	0	0	0	0	0	0	0	0	0	0	0	0.000000000	-3.14159	0.761254	-0.80214	0	0.826447	-1.58469	0	0.1	0.143793	0.1	0.1	0.1	0.1	0.1	0	0	0	0	0	0	0	0.000000000
1504619793.474354982	-3.13546	0.750117	-0.81301	-0.00613592	0.814544	-1.58153	-0.00306796	0	0.155195	0	0	0	0.107442	0	0	0	0	0	0	0	0	0.000000000	-3.14159	0.754073	-0.805532	0	0.82592	-1.58838	0	0.1	0.16517	0.1	0.1	0.1	0.1	0.1	0	0	0	0	0	0	0	0.000000000
1504619793.491789102	-3.13699	0.745515	-0.81301	-0.00613592	0.814544	-1.58307	-0.00306796	0	0.202947	0	0	0	0.107442	0	0	0	0	0	0	0	0	0.000000000	-3.14159	0.754073	-0.805532	0	0.82592	-1.58838	0	0.1	0.16517	0.1	0.1	0.1	0.1	0.1	0	0	0	0	0	0	0	0.000000000
1504619793.511677980	-3.13699	0.737845	-0.816078	-0.00613592	0.814544	-1.58307	-0.00306796	0	0.250699	0	0	0	0.107442	0	0	0	0	0	0	0	0	0.000000000	-3.14159	0.745961	-0.80932	0	0.825356	-1.59257	0	0.1	0.186557	0.1	0.1	0.1	0.1	0.1	0	0	0	0	0	0	0	0.000000000
1504619793.532363891	-3.13699	0.731709	-0.82068	-0.0076699	0.814544	-1.58767	-0.00306796	0	0.250699	0.202947	0	0	0.107442	0	0	0	0	0	0	0	0	0.000000000	-3.14159	0.745961	-0.80932	0	0.825356	-1.59257	0	0.1	0.186557	0.1	0.1	0.1	0.1	0.1	0	0	0	0	0	0	0	0.000000000
1504619793.553745985	-3.13699	0.727107	-0.823748	-0.00613592	0.816078	-1.5892	-0.00306796	0	0.202947	0.107442	0	0	0.107442	0	0	0	0	0	0	0	0	0.000000000	-3.14159	0.736932	-0.813483	0	0.82477	-1.59727	0	0.1	0.20768	0.1	0.1	0.1	0.108187	0.1	0	0	0	0	0	0	0	0.000000000
1504619793.572112083	-3.13699	0.727107	-0.823748	-0.00613592	0.816078	-1.5892	-0.00306796	0	0.202947	0.107442	0	0	0.107442	0	0	0	0	0	0	0	0	0.000000000	-3.14159	0.736932	-0.813483	0	0.82477	-1.59727	0	0.1	0.20768	0.1	0.1	0.1	0.108187	0.1	0	0	0	0	0	0	0	0.000000000
1504619793.596281051	-3.13699	0.722505	-0.826816	-0.00613592	0.817612	-1.59074	-0.00306796	0	0.202947	0.155195	0	0	0	0	0	0	0	0	0	0	0	0.000000000	-3.14159	0.727006	-0.817995	0	0.824178	-1.60249	0	0.1	0.228301	0.103767	0.1	0.1	0.119954	0.1	0	0	0	0	0	0	0	0.000000000
1504619793.611922025	-3.13699	0.717903	-0.829884	-0.00613592	0.817612	-1.59381	-0.00306796	0	0.202947	0.155195	0	0	0.107442	0	0	0	0	0	0	0	0	0.000000000	-3.14159	0.727006	-0.817995	0	0.824178	-1.60249	0	0.1	0.228301	0.103767	0.1	0.1	0.119954	0.1	0	0	0	0	0	0	0	0.000000000
1504619793.631815910	-3.13699	0.711767	-0.832952	-0.00613592	0.819146	-1.59534	-0.00306796	0	0.155195	0.107442	0	0	0	0	0	0	0	0	0	0	0	0.000000000	-3.14159	0.727006	-0.817995	0	0.824178	-1.60249	0	0.1	0.228301	0.103767	0.1	0.1	0.119954	0.1	0	0	0	0	0	0	0	0.000000000
1504619793.651895046	-3.13699	0.708699	-0.832952	-0.00613592	0.82068	-1.59687	-0.00460194	0	0.155195	0	0	0	0	0	0	0	0	0	0	0	0	0.000000000	-3.14159	0.716214	-0.822823	0	0.823599	-1.60821	0	0.1	0.2482	0.111043	0.1	0.1	0.13161	0.1	0	0	0	0	0	0	0	0.000000000
1504619793.674199104	-3.13699	0.708699	-0.832952	-0.00613592	0.82068	-1.59687	-0.00460194	0	0.155195	0	0	0	0	0	0	0	0	0	0	0	0	0.000000000	-3.14159	0.716214	-0.822823	0	0.823599	-1.60821	0	0.1	0.2482	0.111043	0.1	0.1	0.13161	0.1	0	0	0	0	0	0	0	0.000000000
1504619793.694864988	-3.13546	0.702563	-0.834486	-0.00613592	0.819146	-1.59994	-0.00460194	0	0.202947	0	0	0	0.155195	0	0	0	0	0	0	0	0	0.000000000	-3.14159	0.704597	-0.827931	0	0.823056	-1.61443	0	0.1	0.267198	0.117494	0.1	0.1	0.143065	0.1	0	0	0	0	0	0	0	0.000000000
1504619793.712379932	-3.13699	0.696427	-0.837554	-0.00613592	0.817612	-1.60608	-0.00306796	0	0.250699	0.107442	0	0	0.202947	0	0	0	0	0	0	0	0	0.000000000	-3.14159	0.704597	-0.827931	0	0.823056	-1.61443	0	0.1	0.267198	0.117494	0.1	0.1	0.143065	0.1	0	0	0	0	0	0	0	0.000000000
1504619793.731758117	-3.13699	0.696427	-0.837554	-0.00613592	0.817612	-1.60608	-0.00306796	0	0.250699	0.107442	0	0	0.202947	0	0	0	0	0	0	0	0	0.000000000	-3.14159	0.6922	-0.833281	0	0.822573	-1.62114	0	0.1	0.28514	0.123046	0.1	0.1	0.154224	0.1	0	0	0	0	0	0	0	0.000000000
1504619793.753465890	-3.13546	0.682621	-0.842155	-0.00613592	0.817612	-1.61068	-0.00306796	0	0.298451	0.155195	0	0	0.155195	0	0	0	0	0	0	0	0	0.000000000	-3.14159	0.6922	-0.833281	0	0.822573	-1.62114	0	0.1	0.28514	0.123046	0.1	0.1	0.154224	0.1	0	0	0	0	0	0	0	0.000000000
1504619793.771687030	-3.13699	0.673418	-0.845223	-0.00613592	0.819146	-1.61528	-0.00460194	0	0.346204	0.155195	0	0	0.155195	0	0	0	0	0	0	0	0	0.000000000	-3.14159	0.679073	-0.838832	0	0.822176	-1.62831	0	0.1	0.301904	0.127663	0.1	0.1	0.165	0.1	0	0	0	0	0	0	0	0.000000000
1504619793.792572975	-3.13699	0.664214	-0.851359	-0.00613592	0.82068	-1.61988	-0.00306796	0	0.346204	0.202947	0	0.0955044	0.155195	0	0	0	0	0	0	0	0	0.000000000	-3.14159	0.679073	-0.838832	0	0.822176	-1.62831	0	0.1	0.301904	0.127663	0.1	0.1	0.165	0.1	0	0	0	0	0	0	0	0.000000000
1504619793.811780929	-3.13699	0.656544	-0.854427	-0.0076699	0.823748	-1.62142	-0.00306796	0	0.298451	0.107442	0	0.143257	0.155195	0	0	0	0	0	0	0	0	0.000000000	-3.14159	0.679073	-0.838832	0	0.822176	-1.62831	0	0.1	0.301904	0.127663	0.1	0.1	0.165	0.1	0	0	0	0	0	0	0	0.000000000
1504619793.832592964	-3.13699	0.656544	-0.854427	-0.0076699	0.823748	-1.62142	-0.00306796	0	0.298451	0.107442	0	0.143257	0.155195	0	0	0	0	0	0	0	0	0.000000000	-3.14159	0.665274	-0.844541	0	0.821892	-1.63593	0	0.1	0.317392	0.131325	0.1	0.1	0.175328	0.1	0	0	0	0	0	0	0	0.000000000
1504619793.851931095	-3.13699	0.64734	-0.859029	-0.00613592	0.825282	-1.62602	-0.00460194	0	0.298451	0.155195	0	0	0.155195	0	0	0	0	0	0	0	0	0.000000000	-3.14159	0.665274	-0.844541	0	0.821892	-1.63593	0	0.1	0.317392	0.131325	0.1	0.1	0.175328	0.1	0	0	0	0	0	0	0	0.000000000
1504619793.872415065	-3.13699	0.641204	-0.863631	-0.0076699	0.825282	-1.62909	-0.00460194	0	0.250699	0.202947	0	0	0.155195	0	0	0	0	0	0	0	0	0.000000000	-3.14159	0.650859	-0.850369	0	0.821751	-1.64398	0	0.1	0.331535	0.134034	0.1	0.1	0.185125	0.1	0	0	0	0	0	0	0	0.000000000
1504619793.892621994	-3.13699	0.641204	-0.863631	-0.0076699	0.825282	-1.62909	-0.00460194	0	0.250699	0.202947	0	0	0.155195	0	0	0	0	0	0	0	0	0.000000000	-3.14159	0.650859	-0.850369	0	0.821751	-1.64398	0	0.1	0.331535	0.134034	0.1	0.1	0.185125	0.1	0	0	0	0	0	0	0	0.000000000
1504619793.911784887	-3.13546	0.633534	-0.866699	-0.00613592	0.826816	-1.63216	-0.00460194	0	0.250699	0.107442	0	0	0.107442	0	0	0	0	0	0	0	0	0.000000000	-3.14159	0.63589	-0.856274	0	0.821781	-1.65243	0	0.1	0.344284	0.135809	0.1	0.1	0.19434	0.1	0	0	0	0	0	0	0	0.000000000
1504619793.932180881	-3.13699	0.62433	-0.869767	-0.0076699	0.826816	-1.63983	-0.00306796	0	0.346204	0.155195	0	0	0.250699	0	0	0	0	0	0	0	0	0.000000000	-3.14159	0.63589	-0.856274	0	0.821781	-1.65243	0	0.1	0.344284	0.135809	0.1	0.1	0.19434	0.1	0	0	0	0	0	0	0	0.000000000
1504619793.951714038	-3.13699	0.613592	-0.871301	-0.0076699	0.825282	-1.64443	-0.00306796	0	0.393956	0	0	0	0.155195	0	0	0	0	0	0	0	0	0.000000000	-3.14159	0.620429	-0.862216	0	0.822012	-1.66125	0	0.1	0.355612	0.136686	0.1	0.1	0.202902	0.1	0	0	0	0	0	0	0	0.000000000
1504619793.971671104	-3.13699	0.605922	-0.871301	-0.0076699	0.825282	-1.64903	-0.00306796	0	0.393956	0	0	0	0.202947	0	0	0	0	0	0	0	0	0.000000000	-3.14159	0.620429	-0.862216	0	0.822012	-1.66125	0	0.1	0.355612	0.136686	0.1	0.1	0.202902	0.1	0	0	0	0	0	0	0	0.000000000
1504619793.992594003	-3.13699	0.596719	-0.875903	-0.0076699	0.825282	-1.65363	-0.00460194	0	0.346204	0.155195	0	0	0.202947	0	0	0	0	0	0	0	0	0.000000000	-3.14159	0.604537	-0.868161	0	0.822475	-1.67042	0	0.1	0.365505	0.136713	0.1	0.1	0.210773	0.1	0	0	0	0	0	0	0	0.000000000
1504619794.013497114	-3.13699	0.589049	-0.882039	-0.0076699	0.825282	-1.65363	-0.00460194	0	0.346204	0.250699	0	0	0.202947	0	0	0	0	0	0	0	0	0.000000000	-3.14159	0.604537	-0.868161	0	0.822475	-1.67042	0	0.1	0.365505	0.136713	0.1	0.1	0.210773	0.1	0	0	0	0	0	0	0	0.000000000
1504619794.035778999	-3.13699	0.589049	-0.882039	-0.0076699	0.826816	-1.65977	-0.00306796	0	0.346204	0.250699	0	0	0.250699	0	0	0	0	0	0	0	0	0.000000000	-3.14159	0.588278	-0.874071	0	0.823199	-1.67989	0	0.1	0.373976	0.135948	0.1	0.1	0.217899	0.1	0	0	0	0	0	0	0	0.000000000
1504619794.051836967	-3.13699	0.579845	-0.883573	-0.0076699	0.82835	-1.66284	-0.00306796	0	0.393956	0.155195	0	0	0.202947	0	0	0	0	0	0	0	0	0.000000000	-3.14159	0.588278	-0.874071	0	0.823199	-1.67989	0	0.1	0.373976	0.135948	0.1	0.1	0.217899	0.1	0	0	0	0	0	0	0	0.000000000
1504619794.074373006	-3.13699	0.569107	-0.886641	-0.0076699	0.829884	-1.66744	-0.00306796	0	0.441708	0.107442	0	0.0955044	0.202947	0	0	0	0	0	0	0	0	0.000000000	-3.14159	0.571711	-0.879917	0	0.824211	-1.68964	0	0.1	0.381022	0.134451	0.1	0.1	0.224235	0.1	0	0	0	0	0	0	0	0.000000000
1504619794.092168092	-3.13546	0.559903	-0.891243	-0.0076699	0.829884	-1.67664	-0.00306796	0	0.346204	0.155195	0	0	0.202947	0	0	0	0	0	0	0	0	0.000000000	-3.14159	0.571711	-0.879917	0	0.824211	-1.68964	0	0.1	0.381022	0.134451	0.1	0.1	0.224235	0.1	0	0	0	0	0	0	0	0.000000000
1504619794.111540079	-3.13699	0.552233	-0.897379	-0.0076699	0.832952	-1.67971	-0.00306796	0	0.298451	0.202947	0	0	0.202947	0	0	0	0	0	0	0	0	0.000000000	-3.14159	0.571711	-0.879917	0	0.824211	-1.68964	0	0.1	0.381022	0.134451	0.1	0.1	0.224235	0.1	0	0	0	0	0	0	0	0.000000000
1504619794.131565093	-3.13546	0.544563	-0.898913	-0.0076699	0.834486	-1.68278	-0.00306796	0	0.298451	0.155195	0	0.0955044	0.250699	0	0	0	0	0	0	0	0	0.000000000	-3.14159	0.554899	-0.885669	0	0.825539	-1.69963	0	0.1	0.386686	0.132295	0.1	0.1	0.229754	0.1	0	0	0	0	0	0	0	0.000000000
1504619794.151628017	-3.13546	0.544563	-0.900447	-0.0076699	0.834486	-1.68584	-0.00306796	0	0.298451	0.107442	0	0	0.202947	0	0	0	0	0	0	0	0	0.000000000	-3.14159	0.554899	-0.885669	0	0.825539	-1.69963	0	0.1	0.386686	0.132295	0.1	0.1	0.229754	0.1	0	0	0	0	0	0	0	0.000000000
1504619794.173059940	-3.13546	0.535359	-0.903515	-0.0076699	0.83602	-1.69198	-0.00306796	0	0.346204	0.107442	0	0	0.250699	0	0	0	0	0	0	0	0	0.000000000	-3.14159	0.5379	-0.891301	0	0.827207	-1.70982	0	0.1	0.390979	0.129546	0.1	0.1	0.23441	0.1	0	0	0	0	0	0	0	0.000000000
1504619794.192495107	-3.13546	0.535359	-0.903515	-0.0076699	0.83602	-1.69198	-0.00306796	0	0.346204	0.107442	0	0	0.250699	0	0	0	0	0	0	0	0	0.000000000	-3.14159	0.5379	-0.891301	0	0.827207	-1.70982	0	0.1	0.390979	0.129546	0.1	0.1	0.23441	0.1	0	0	0	0	0	0	0	0.000000000
1504619794.212368965	-3.13546	0.520019	-0.905049	-0.0076699	0.834486	-1.69965	-0.00306796	0	0.441708	0	0	0	0.202947	0	0	0	0	0	0	0	0	0.000000000	-3.14159	0.520772	-0.896792	0	0.829237	-1.72018	0	0.1	0.393953	0.12628	0.1	0.1	0.238191	0.1	0	0	0	0	0	0	0	0.000000000
1504619794.232026100	-3.13699	0.510816	-0.905049	-0.0076699	0.834486	-1.70425	-0.00306796	0	0.441708	0	0	0	0.202947	0	0	0	0	0	0	0	0	0.000000000	-3.14159	0.520772	-0.896792	0	0.829237	-1.72018	0	0.1	0.393953	0.12628	0.1	0.1	0.238191	0.1	0	0	0	0	0	0	0	0.000000000
1504619794.252413988	-3.13546	0.503146	-0.909651	-0.0076699	0.834486	-1.71039	-0.00306796	0	0.346204	0.155195	0	0	0.250699	0	0	0	0	0	0	0	0	0.000000000	-3.14159	0.50357	-0.902121	0	0.831648	-1.73066	0	0.1	0.395631	0.122565	0.1	0.1	0.241059	0.1	0	0	0	0	0	0	0	0.000000000
1504619794.272923946	-3.13546	0.503146	-0.909651	-0.0076699	0.834486	-1.71039	-0.00306796	0	0.346204	0.155195	0	0	0.250699	0	0	0	0	0	0	0	0	0.000000000	-3.14159	0.50357	-0.902121	0	0.831648	-1.73066	0	0.1	0.395631	0.122565	0.1	0.1	0.241059	0.1	0	0	0	0	0	0	0	0.000000000
1504619794.294358968	-3.13546	0.492408	-0.915787	-0.0076699	0.83602	-1.72113	-0.00460194	0	0.346204	0.250699	0	0	0.346204	0	0	0	0	0	0	0	0	0.000000000	-3.14159	0.48635	-0.907272	0	0.834457	-1.74123	0	0.1	0.39607	0.118476	0.1	0.1	0.243008	0.1	0	0	0	0	0	0	0	0.000000000
1504619794.311794996	-3.13546	0.474	-0.920388	-0.0076699	0.840621	-1.7288	-0.00306796	0	0.537212	0.107442	0	0.143257	0.202947	0	0	0	0	0	0	0	0	0.000000000	-3.14159	0.48635	-0.907272	0	0.834457	-1.74123	0	0.1	0.39607	0.118476	0.1	0.1	0.243008	0.1	0	0	0	0	0	0	0	0.000000000
1504619794.331729888	-3.13546	0.463262	-0.923456	-0.00920388	0.843689	-1.73647	-0.00306796	0	0.441708	0.107442	0	0.0955044	0.202947	0	0	0	0	0	0	0	0	0.000000000	-3.14159	0.48635	-0.907272	0	0.834457	-1.74123	0	0.1	0.39607	0.118476	0.1	0.1	0.243008	0.1	0	0	0	0	0	0	0	0.000000000
1504619794.352132081	-3.13546	0.463262	-0.923456	-0.00920388	0.843689	-1.73647	-0.00306796	0	0.441708	0.107442	0	0.0955044	0.202947	0	0	0	0	0	0	0	0	0.000000000	-3.14159	0.469163	-0.912231	0	0.837676	-1.75183	0	0.1	0.395295	0.114068	0.1	0.1	0.244012	0.1	0	0	0	0	0	0	0	0.000000000
1504619794.373792886	-3.13546	0.45099	-0.926524	-0.0076699	0.848291	-1.74414	-0.00460194	0	0.346204	0.107442	0	0.191009	0.250699	0	0	0	0	0	0	0	0	0.000000000	-3.14159	0.469163	-0.912231	0	0.837676	-1.75183	0	0.1	0.395295	0.114068	0.1	0.1	0.244012	0.1	0	0	0	0	0	0	0	0.000000000
1504619794.392889022	-3.13546	0.438719	-0.93266	-0.0076699	0.851359	-1.75334	-0.00306796	0	0.346204	0.202947	0	0.143257	0.250699	0	0	0	0	0	0	0	0	0.000000000	-3.14159	0.45206	-0.916989	0	0.841312	-1.76245	0	0.1	0.393368	0.109417	0.1	0.1	0.24408	0.1	0	0	0	0	0	0	0	0.000000000
1504619794.412875890	-3.13546	0.432583	-0.935728	-0.0076699	0.851359	-1.75334	-0.00306796	0	0.298451	0.107442	0	0.143257	0.250699	0	0	0	0	0	0	0	0	0.000000000	-3.14159	0.45206	-0.916989	0	0.841312	-1.76245	0	0.1	0.393368	0.109417	0.1	0.1	0.24408	0.1	0	0	0	0	0	0	0	0.000000000
1504619794.431803941	-3.13546	0.432583	-0.935728	-0.0076699	0.852893	-1.75794	-0.00306796	0	0.298451	0.107442	0	0	0.250699	0	0	0	0	0	0	0	0	0.000000000	-3.14159	0.43509	-0.921535	0	0.84537	-1.77302	0	0.1	0.390314	0.104572	0.1	0.1	0.243195	0.1	0	0	0	0	0	0	0	0.000000000
1504619794.458209991	-3.13546	0.423379	-0.935728	-0.0076699	0.852893	-1.76561	-0.00460194	0	0.346204	0	0	0	0.250699	0	0	0	0	0	0	0	0	0.000000000	-3.14159	0.43509	-0.921535	0	0.84537	-1.77302	0	0.1	0.390314	0.104572	0.1	0.1	0.243195	0.1	0	0	0	0	0	0	0	0.000000000
1504619794.472232103	-3.13546	0.417243	-0.935728	-0.0076699	0.852893	-1.77021	-0.00306796	0	0.298451	0	0	0	0.202947	0	0	0	0	0	0	0	0	0.000000000	-3.14159	0.418299	-0.925866	0	0.849846	-1.78351	0	0.1	0.386195	0.1	0.1	0.102963	0.241377	0.1	0	0	0	0	0	0	0	0.000000000
1504619794.491839885	-3.13546	0.404971	-0.937262	-0.0076699	0.852893	-1.77635	-0.00306796	0	0.393956	0	0	0	0.250699	0	0	0	0	0	0	0	0	0.000000000	-3.14159	0.418299	-0.925866	0	0.849846	-1.78351	0	0.1	0.386195	0.1	0.1	0.102963	0.241377	0.1	0	0	0	0	0	0	0	0.000000000
1504619794.512366056	-3.13546	0.404971	-0.937262	-0.0076699	0.852893	-1.77635	-0.00306796	0	0.393956	0	0	0	0.250699	0	0	0	0	0	0	0	0	0.000000000	-3.14159	0.401732	-0.929976	0	0.854735	-1.79389	0	0.1	0.381034	0.1	0.1	0.112452	0.238633	0.1	0	0	0	0	0	0	0	0.000000000
1504619794.531733036	-3.13546	0.397301	-0.941864	-0.0076699	0.852893	-1.78555	-0.00460194	0	0.298451	0.155195	0	0	0.298451	0	0	0	0	0	0	0	0	0.000000000	-3.14159	0.401732	-0.929976	0	0.854735	-1.79389	0	0.1	0.381034	0.1	0.1	0.112452	0.238633	0.1	0	0	0	0	0	0	0	0.000000000
1504619794.552037954	-3.13546	0.388097	-0.944932	-0.00920388	0.857495	-1.79169	-0.00306796	0	0.298451	0.155195	0	0.143257	0.250699	0	0	0	0	0	0	0	0	0.000000000	-3.14159	0.385432	-0.933864	0	0.860025	-1.80411	0	0.1	0.374894	0.1	0.1	0.121666	0.234983	0.1	0	0	0	0	0	0	0	0.000000000
1504619794.576075077	-3.13546	0.377359	-0.948	-0.00920388	0.860563	-1.79936	-0.00460194	0	0.393956	0.155195	0	0.143257	0.298451	0	0	0	0	0	0	0	0	0.000000000	-3.14159	0.385432	-0.933864	0	0.860025	-1.80411	0	0.1	0.374894	0.1	0.1	0.121666	0.234983	0.1	0	0	0	0	0	0	0	0.000000000
1504619794.591758012	-3.13546	0.363553	-0.949534	-0.0076699	0.866699	-1.8055	-0.00306796	0	0.441708	0	0	0.191009	0.202947	0	0	0	0	0	0	0	0	0.000000000	-3.14159	0.369441	-0.93753	0	0.865698	-1.81413	0	0.1	0.3678	0.1	0.1	0.13047	0.230459	0.1	0	0	0	0	0	0	0	0.000000000
1504619794.611804962	-3.13546	0.363553	-0.949534	-0.0076699	0.866699	-1.8055	-0.00306796	0	0.441708	0	0	0.191009	0.202947	0	0	0	0	0	0	0	0	0.000000000	-3.14159	0.369441	-0.93753	0	0.865698	-1.81413	0	0.1	0.3678	0.1	0.1	0.13047	0.230459	0.1	0	0	0	0	0	0	0	0.000000000
1504619794.631793975	-3.13546	0.355884	-0.952602	-0.00920388	0.874369	-1.8101	-0.00306796	0	0.346204	0.107442	0	0.238761	0.202947	0	0	0	0	0	0	0	0	0.000000000	-3.14159	0.369441	-0.93753	0	0.865698	-1.81413	0	0.1	0.3678	0.1	0.1	0.13047	0.230459	0.1	0	0	0	0	0	0	0	0.000000000
1504619794.653660058	-3.13546	0.34668	-0.95567	-0.00920388	0.878971	-1.81623	-0.00306796	0	0.393956	0.155195	0	0.191009	0.250699	0	0	0	0	0	0	0	0	0.000000000	-3.14159	0.353797	-0.940977	0	0.87173	-1.82391	0	0.1	0.35981	0.1	0.1	0.138739	0.225107	0.1	0	0	0	0	0	0	0	0.000000000
1504619794.672611951	-3.13546	0.337476	-0.958738	-0.00920388	0.880505	-1.8239	-0.00460194	0	0.393956	0.107442	0	0	0.250699	0	0	0	0	0	0	0	0	0.000000000	-3.14159	0.353797	-0.940977	0	0.87173	-1.82391	0	0.1	0.35981	0.1	0.1	0.138739	0.225107	0.1	0	0	0	0	0	0	0	0.000000000
1504619794.695295095	-3.13546	0.326738	-0.958738	-0.00920388	0.883573	-1.83004	-0.00306796	0	0.346204	0	0	0.0955044	0.250699	0	0	0	0	0	0	0	0	0.000000000	-3.14159	0.338538	-0.944206	0	0.878093	-1.83343	0	0.1	0.350952	0.1	0.1	0.146345	0.218952	0.1	0	0	0	0	0	0	0	0.000000000
1504619794.711823940	-3.13546	0.326738	-0.958738	-0.00920388	0.883573	-1.83004	-0.00306796	0	0.346204	0	0	0.0955044	0.250699	0	0	0	0	0	0	0	0	0.000000000	-3.14159	0.338538	-0.944206	0	0.878093	-1.83343	0	0.1	0.350952	0.1	0.1	0.146345	0.218952	0.1	0	0	0	0	0	0	0	0.000000000
1504619794.731817007	-3.13546	0.317534	-0.958738	-0.00920388	0.886641	-1.83464	-0.00306796	0	0.298451	0	0	0.0955044	0.155195	0	0	0	0	0	0	0	0	0.000000000	-3.14159	0.3237	-0.947223	0	0.884752	-1.84265	0	0.1	0.341284	0.1	0.1	0.153163	0.212075	0.1	0	0	0	0	0	0	0	0.000000000
1504619794.751733064	-3.13546	0.30833	-0.958738	-0.0076699	0.888175	-1.84078	-0.00306796	0	0.346204	0	0	0.0955044	0.202947	0	0	0	0	0	0	0	0	0.000000000	-3.14159	0.3237	-0.947223	0	0.884752	-1.84265	0	0.1	0.341284	0.1	0.1	0.153163	0.212075	0.1	0	0	0	0	0	0	0	0.000000000
1504619794.771784067	-3.13546	0.302194	-0.961806	-0.00920388	0.891243	-1.84691	-0.00306796	0	0.250699	0.107442	0	0.0955044	0.250699	0	0	0	0	0	0	0	0	0.000000000	-3.14159	0.309316	-0.950033	0	0.891668	-1.85155	0	0.1	0.330836	0.1	0.1	0.159071	0.204516	0.1	0	0	0	0	0	0	0	0.000000000
1504619794.792736053	-3.13546	0.296058	-0.964874	-0.00920388	0.894311	-1.85151	-0.00306796	0	0.250699	0.155195	0	0.0955044	0.250699	0	0	0	0	0	0	0	0	0.000000000	-3.14159	0.309316	-0.950033	0	0.891668	-1.85155	0	0.1	0.330836	0.1	0.1	0.159071	0.204516	0.1	0	0	0	0	0	0	0	0.000000000
1504619794.812884092	-3.13546	0.296058	-0.964874	-0.00920388	0.894311	-1.85151	-0.00306796	0	0.250699	0.155195	0	0.0955044	0.250699	0	0	0	0	0	0	0	0	0.000000000	-3.14159	0.295417	-0.952641	0	0.898797	-1.86008	0	0.1	0.319668	0.1	0.1	0.163963	0.196359	0.1	0	0	0	0	0	0	0	0.000000000
1504619794.831648111	-3.13546	0.288388	-0.966408	-0.00920388	0.898913	-1.85612	-0.00306796	0	0.298451	0	0	0.143257	0.155195	0	0	0	0	0	0	0	0	0.000000000	-3.14159	0.295417	-0.952641	0	0.898797	-1.86008	0	0.1	0.319668	0.1	0.1	0.163963	0.196359	0.1	0	0	0	0	0	0	0	0.000000000
1504619794.851701021	-3.13546	0.279185	-0.966408	-0.00920388	0.905049	-1.86072	-0.00306796	0	0.346204	0	0	0.238761	0.155195	0	0	0	0	0	0	0	0	0.000000000	-3.14159	0.295417	-0.952641	0	0.898797	-1.86008	0	0.1	0.319668	0.1	0.1	0.163963	0.196359	0.1	0	0	0	0	0	0	0	0.000000000
1504619794.871794939	-3.13546	0.269981	-0.966408	-0.0076699	0.911185	-1.86685	-0.00306796	0	0.393956	0	0	0.238761	0.202947	0	0	0	0	0	0	0	0	0.000000000	-3.14159	0.282034	-0.955055	0	0.90609	-1.86824	0	0.1	0.307809	0.1	0.1	0.167734	0.187662	0.1	0	0	0	0	0	0	0	0.000000000
1504619794.891669988	-3.13546	0.265379	-0.97101	-0.00920388	0.915787	-1.87146	-0.00306796	0	0.202947	0.155195	0	0.191009	0.202947	0	0	0	0	0	0	0	0	0.000000000	-3.14159	0.282034	-0.955055	0	0.90609	-1.86824	0	0.1	0.307809	0.1	0.1	0.167734	0.187662	0.1	0	0	0	0	0	0	0	0.000000000
1504619794.912632942	-3.13546	0.265379	-0.97101	-0.00920388	0.915787	-1.87146	-0.00306796	0	0.202947	0.155195	0	0.191009	0.202947	0	0	0	0	0	0	0	0	0.000000000	-3.14159	0.269194	-0.957282	0	0.913494	-1.876	0	0.1	0.295327	0.1	0.1	0.170302	0.178523	0.1	0	0	0	0	0	0	0	0.000000000
1504619794.933013916	-3.13546	0.259243	-0.975612	-0.00920388	0.921922	-1.87759	-0.00306796	0	0.202947	0.202947	0	0.238761	0.202947	0	0	0	0	0	0	0	0	0.000000000	-3.14159	0.269194	-0.957282	0	0.913494	-1.876	0	0.1	0.295327	0.1	0.1	0.170302	0.178523	0.1	0	0	0	0	0	0	0	0.000000000
1504619794.952368021	-3.13546	0.251573	-0.97868	-0.00920388	0.928058	-1.88219	-0.00306796	0	0.298451	0	0	0.191009	0.202947	0	0	0	0	0	0	0	0	0.000000000	-3.14159	0.256922	-0.95933	0	0.920955	-1.88335	0	0.1	0.282255	0.1	0.1	0.171597	0.169005	0.1	0	0	0	0	0	0	0	0.000000000
1504619794.971694946	-3.13546	0.237767	-0.97868	-0.00920388	0.93266	-1.88833	-0.00460194	0	0.393956	0	0	0.143257	0.202947	0	0	0	0	0	0	0	0	0.000000000	-3.14159	0.256922	-0.95933	0	0.920955	-1.88335	0	0.1	0.282255	0.1	0.1	0.171597	0.169005	0.1	0	0	0	0	0	0	0	0.000000000
1504619794.991662025	-3.13546	0.233165	-0.97868	-0.00920388	0.935728	-1.8914	-0.00306796	0	0.346204	0	0	0.143257	0.202947	0	0	0	0	0	0	0	0	0.000000000	-3.14159	0.245241	-0.961207	0	0.928414	-1.89027	0	0.1	0.268658	0.1	0.1	0.171567	0.159205	0.1	0	0	0	0	0	0	0	0.000000000
1504619795.011683940	-3.13546	0.223961	-0.97868	-0.00920388	0.94033	-1.89753	-0.00306796	0	0.298451	0	0	0.143257	0.202947	0	0	0	0	0	0	0	0	0.000000000	-3.14159	0.245241	-0.961207	0	0.928414	-1.89027	0	0.1	0.268658	0.1	0.1	0.171567	0.159205	0.1	0	0	0	0	0	0	0	0.000000000
1504619795.031646013	-3.13546	0.223961	-0.97868	-0.00920388	0.94033	-1.89753	-0.00306796	0	0.298451	0	0	0.143257	0.202947	0	0	0	0	0	0	0	0	0.000000000	-3.14159	0.234172	-0.962921	0	0.935814	-1.89676	0	0.1	0.254592	0.1	0.1	0.170184	0.149202	0.1	0	0	0	0	0	0	0	0.000000000
1504619795.051692008	-3.13546	0.217825	-0.97868	-0.00920388	0.944932	-1.9006	-0.00306796	0	0.250699	0	0	0.191009	0.155195	0	0	0	0	0	0	0	0	0.000000000	-3.14159	0.234172	-0.962921	0	0.935814	-1.89676	0	0.1	0.254592	0.1	0.1	0.170184	0.149202	0.1	0	0	0	0	0	0	0	0.000000000
1504619795.072910070	-3.13546	0.210155	-0.97868	-0.00920388	0.949534	-1.90367	-0.00306796	0	0.298451	0	0	0.191009	0.107442	0	0	0	0	0	0	0	0	0.000000000	-3.14159	0.223732	-0.964481	0	0.943094	-1.90281	0	0.1	0.240108	0.1	0.1	0.16744	0.139078	0.1	0	0	0	0	0	0	0	0.000000000
1504619795.091608047	-3.13546	0.205553	-0.97868	-0.00920388	0.952602	-1.90674	-0.00460194	0	0.202947	0	0	0.143257	0.107442	0	0	0	0	0	0	0	0	0.000000000	-3.14159	0.223732	-0.964481	0	0.943094	-1.90281	0	0.1	0.240108	0.1	0.1	0.16744	0.139078	0.1	0	0	0	0	0	0	0	0.000000000
1504619795.111605882	-3.13546	0.200951	-0.97868	-0.00920388	0.957204	-1.90981	-0.00460194	0	0.155195	0	0	0.143257	0.107442	0	0	0	0	0	0	0	0	0.000000000	-3.14159	0.223732	-0.964481	0	0.943094	-1.90281	0	0.1	0.240108	0.1	0.1	0.16744	0.139078	0.1	0	0	0	0	0	0	0	0.000000000
1504619795.132042884	-3.13546	0.200951	-0.97868	-0.00920388	0.957204	-1.90981	-0.00460194	0	0.155195	0	0	0.143257	0.107442	0	0	0	0	0	0	0	0	0.000000000	-3.14159	0.213937	-0.965895	0	0.950196	-1.90841	0	0.1	0.225282	0.1	0.1	0.163353	0.128907	0.1	0	0	0	0	0	0	0	0.000000000
1504619795.151994943	-3.13546	0.199418	-0.983282	-0.00920388	0.960272	-1.91134	-0.00306796	0	0	0.155195	0	0.143257	0.107442	0	0	0	0	0	0	0	0	0.000000000	-3.14159	0.213937	-0.965895	0	0.950196	-1.90841	0	0.1	0.225282	0.1	0.1	0.163353	0.128907	0.1	0	0	0	0	0	0	0	0.000000000
1504619795.172008037	-3.13546	0.19635	-0.984816	-0.00920388	0.96334	-1.91441	-0.00306796	0	0.107442	0.107442	0	0.143257	0.107442	0	0	0	0	0	0	0	0	0.000000000	-3.14159	0.2048	-0.967171	0	0.957064	-1.91358	0	0.1	0.21017	0.1	0.1	0.157961	0.118772	0.1	0	0	0	0	0	0	0	0.000000000
1504619795.191710948	-3.13546	0.18868	-0.984816	-0.00920388	0.966408	-1.91901	-0.00306796	0	0.298451	0	0	0.0955044	0.155195	0	0	0	0	0	0	0	0	0.000000000	-3.14159	0.2048	-0.967171	0	0.957064	-1.91358	0	0.1	0.21017	0.1	0.1	0.157961	0.118772	0.1	0	0	0	0	0	0	0	0.000000000
1504619795.211688995	-3.13546	0.18101	-0.984816	-0.00920388	0.969476	-1.92208	-0.00306796	0	0.298451	0	0	0.0955044	0.155195	0	0	0	0	0	0	0	0	0.000000000	-3.14159	0.196328	-0.968318	0	0.963644	-1.91831	0	0.1	0.194856	0.1	0.1	0.151334	0.108738	0.1	0	0	0	0	0	0	0	0.000000000
1504619795.231575965	-3.13546	0.18101	-0.984816	-0.00920388	0.969476	-1.92208	-0.00306796	0	0.298451	0	0	0.0955044	0.155195	0	0	0	0	0	0	0	0	0.000000000	-3.14159	0.196328	-0.968318	0	0.963644	-1.91831	0	0.1	0.194856	0.1	0.1	0.151334	0.108738	0.1	0	0	0	0	0	0	0	0.000000000
1504619795.251581907	-3.13546	0.177942	-0.984816	-0.00920388	0.975612	-1.92515	-0.00306796	0	0.155195	0	0	0.191009	0.107442	0	0	0	0	0	0	0	0	0.000000000	-3.14159	0.188527	-0.969343	0	0.969885	-1.9226	0	0.1	0.179408	0.1	0.1	0.143555	0.1	0.1	0	0	0	0	0	0	0	0.000000000
1504619795.271703958	-3.13546	0.171806	-0.984816	-0.00920388	0.980214	-1.92668	-0.00460194	0	0.202947	0	0	0.191009	0	0	0	0	0	0	0	0	0	0.000000000	-3.14159	0.188527	-0.969343	0	0.969885	-1.9226	0	0.1	0.179408	0.1	0.1	0.143555	0.1	0.1	0	0	0	0	0	0	0	0.000000000
1504619795.291538953	-3.13392	0.168738	-0.984816	-0.00920388	0.983282	-1.92668	-0.00306796	0	0.107442	0	0	0.0955044	0	0	0	0	0	0	0	0	0	0.000000000	-3.14159	0.181401	-0.970253	0	0.975744	-1.92648	0	0.1	0.163916	0.1	0.1	0.134747	0.1	0.1	0	0	0	0	0	0	0	0.000000000
1504619795.311543941	-3.13392	0.167204	-0.984816	-0.00920388	0.983282	-1.92821	-0.00460194	0	0.107442	0	0	0	0	0	0	0	0	0	0	0	0	0.000000000	-3.14159	0.181401	-0.970253	0	0.975744	-1.92648	0	0.1	0.163916	0.1	0.1	0.134747	0.1	0.1	0	0	0	0	0	0	0	0.000000000
1504619795.332015037	-3.13392	0.167204	-0.984816	-0.00920388	0.983282	-1.92821	-0.00460194	0	0.107442	0	0	0	0	0	0	0	0	0	0	0	0	0.000000000	-3.14159	0.174946	-0.971057	0	0.98118	-1.92996	0	0.1	0.148461	0.1	0.1	0.125034	0.1	0.1	0	0	0	0	0	0	0	0.000000000
1504619795.351917982	-3.13546	0.16567	-0.984816	-0.00920388	0.981748	-1.92975	-0.00306796	0	0.107442	0	0	0	0	0	0	0	0	0	0	0	0	0.000000000	-3.14159	0.174946	-0.971057	0	0.98118	-1.92996	0	0.1	0.148461	0.1	0.1	0.125034	0.1	0.1	0	0	0	0	0	0	0	0.000000000
1504619795.371931076	-3.13392	0.164136	-0.984816	-0.00920388	0.981748	-1.93128	-0.00460194	0	0	0	0	0	0	0	0	0	0	0	0	0	0	0.000000000	-3.14159	0.174946	-0.971057	0	0.98118	-1.92996	0	0.1	0.148461	0.1	0.1	0.125034	0.1	0.1	0	0	0	0	0	0	0	0.000000000
1504619795.391541957	-3.13392	0.161068	-0.983282	-0.00920388	0.983282	-1.93282	-0.00460194	0	0.107442	0	0	0	0	0	0	0	0	0	0	0	0	0.000000000	-3.14159	0.169157	-0.971761	0	0.986162	-1.93303	0	0.1	0.133143	0.1	0.1	0.11458	0.1	0.1	0	0	0	0	0	0	0	0.000000000
1504619795.411607980	-3.13546	0.158	-0.983282	-0.00920388	0.983282	-1.93435	-0.00306796	0	0.107442	0	0	0	0	0	0	0	0	0	0	0	0	0.000000000	-3.14159	0.169157	-0.971761	0	0.986162	-1.93303	0	0.1	0.133143	0.1	0.1	0.11458	0.1	0.1	0	0	0	0	0	0	0	0.000000000
1504619795.431691884	-3.13546	0.158	-0.983282	-0.00920388	0.983282	-1.93435	-0.00306796	0	0.107442	0	0	0	0	0	0	0	0	0	0	0	0	0.000000000	-3.14159	0.164024	-0.972372	0	0.990664	-1.93573	0	0.1	0.118056	0.1	0.1	0.103551	0.1	0.1	0	0	0	0	0	0	0	0.000000000
1504619795.451610088	-3.13392	0.158	-0.983282	-0.0076699	0.983282	-1.93435	-0.00306796	0	0	0	0	0	0	0	0	0	0	0	0	0	0	0.000000000	-3.14159	0.164024	-0.972372	0	0.990664	-1.93573	0	0.1	0.118056	0.1	0.1	0.103551	0.1	0.1	0	0	0	0	0	0	0	0.000000000
1504619795.471837043	-3.13546	0.156466	-0.981748	-0.00920388	0.984816	-1.93435	-0.00306796	0	0	0	0	0	0	0	0	0	0	0	0	0	0	0.000000000	-3.14159	0.159532	-0.972896	0	0.99467	-1.93808	0	0.1	0.103311	0.1	0.1	0.1	0.1	0.1	0	0	0	0	0	0	0	0.000000000
1504619795.491746902	-3.13546	0.154932	-0.981748	-0.00920388	0.984816	-1.93435	-0.00306796	0	0	0	0	0	0	0	0	0	0	0	0	0	0	0.000000000	-3.14159	0.159532	-0.972896	0	0.99467	-1.93808	0	0.1	0.103311	0.1	0.1	0.1	0.1	0.1	0	0	0	0	0	0	0	0.000000000
1504619795.511641025	-3.13546	0.15033	-0.980214	-0.00920388	0.984816	-1.93588	-0.00306796	0	0.107442	0	0	0	0	0	0	0	0	0	0	0	0	0.000000000	-3.14159	0.155662	-0.973341	0	0.998171	-1.94007	0	0.1	0.1	0.1	0.1	0.1	0.1	0.1	0	0	0	0	0	0	0	0.000000000
