DingWan/Reconbot3Ddemo/02_MATLAB_Code/sensors_data/2T2R_0905_4points_encoders_data.txt
time_stamp	actual_pos_joint_4	actual_pos_joint_5	actual_pos_joint_3	actual_pos_joint_1	actual_pos_joint_2	actual_pos_joint_6	actual_pos_joint_7	actual_vel_joint_4	actual_vel_joint_5	actual_vel_joint_3	actual_vel_joint_1	actual_vel_joint_2	actual_vel_joint_6	actual_vel_joint_7	actual_acc_joint_4	actual_acc_joint_5	actual_acc_joint_3	actual_acc_joint_1	actual_acc_joint_2	actual_acc_joint_6	actual_acc_joint_7	actual_time_from_start	desired_pos_joint_4	desired_pos_joint_5	desired_pos_joint_3	desired_pos_joint_1	desired_pos_joint_2	desired_pos_joint_6	desired_pos_joint_7	desired_vel_joint_4	desired_vel_joint_5	desired_vel_joint_3	desired_vel_joint_1	desired_vel_joint_2	desired_vel_joint_6	desired_vel_joint_7	desired_acc_joint_4	desired_acc_joint_5	desired_acc_joint_3	desired_acc_joint_1	desired_acc_joint_2	desired_acc_joint_6	desired_acc_joint_7	desired_time_from_start
1504604819.769213914	0.00613592	0.771592	-0.794602	0.0107379	0.816078	-1.58767	-0.0107379	0	0	0	0	0	0	0	0	0	0	0	0	0	0	0.000000000	-1.55431e-15	0.788798	-0.788798	2.66454e-15	0.828698	-1.5708	0	0.1	0.1	0.1	0.1	0.1	0.1	0.1	0	0	0	0	0	0	0	0.000000000
1504604819.790321111	0.00613592	0.771592	-0.794602	0.00920388	0.816078	-1.58767	-0.0122718	0	0	0	0	0	0	0	0	0	0	0	0	0	0	0.000000000	-1.55431e-15	0.788798	-0.788798	2.66454e-15	0.828698	-1.5708	0	0.1	0.1	0.1	0.1	0.1	0.1	0.1	0	0	0	0	0	0	0	0.000000000
1504604819.809106111	0.00613592	0.771592	-0.794602	0.00920388	0.816078	-1.58767	-0.0122718	0	0	0	0	0	0	0	0	0	0	0	0	0	0	0.000000000	-1.55431e-15	0.788798	-0.788798	2.66454e-15	0.828698	-1.5708	0	0.1	0.1	0.1	0.1	0.1	0.1	0.1	0	0	0	0	0	0	0	0.000000000
1504604819.829355001	0.00613592	0.773126	-0.794602	0.00920388	0.814544	-1.58767	-0.0122718	0	0	0	0	0	0	0	0	0	0	0	0	0	0	0.000000000	-1.55431e-15	0.788798	-0.788798	2.66454e-15	0.828698	-1.5708	0	0.1	0.1	0.1	0.1	0.1	0.1	0.1	0	0	0	0	0	0	0	0.000000000
1504604819.849136114	0.00613592	0.771592	-0.794602	0.00920388	0.816078	-1.58767	-0.0122718	0	0	0	0	0	0	0	0	0	0	0	0	0	0	0.000000000	-1.55431e-15	0.788798	-0.788798	2.66454e-15	0.828698	-1.5708	0	0.1	0.1	0.1	0.1	0.1	0.1	0.1	0	0	0	0	0	0	0	0.000000000
1504604819.869189023	0.00613592	0.771592	-0.794602	0.00920388	0.814544	-1.58767	-0.0122718	0	0	0	0	0	0	0	0	0	0	0	0	0	0	0.000000000	-1.55431e-15	0.788798	-0.788798	2.66454e-15	0.828698	-1.5708	0	0.1	0.1	0.1	0.1	0.1	0.1	0.1	0	0	0	0	0	0	0	0.000000000
1504604819.889178037	0.00613592	0.771592	-0.794602	0.00920388	0.814544	-1.58767	-0.0122718	0	0	0	0	0	0	0	0	0	0	0	0	0	0	0.000000000	-1.55431e-15	0.788798	-0.788798	2.66454e-15	0.828698	-1.5708	0	0.1	0.1	0.1	0.1	0.1	0.1	0.1	0	0	0	0	0	0	0	0.000000000
1504604819.909142017	0.00613592	0.771592	-0.794602	0.00920388	0.816078	-1.58767	-0.0122718	0	0	0	0	0	0	0	0	0	0	0	0	0	0	0.000000000	-1.55431e-15	0.788798	-0.788798	2.66454e-15	0.828698	-1.5708	0	0.1	0.1	0.1	0.1	0.1	0.1	0.1	0	0	0	0	0	0	0	0.000000000
1504604819.929061889	0.00613592	0.771592	-0.794602	0.00920388	0.814544	-1.5892	-0.0107379	0	0	0	0	0	0	0	0	0	0	0	0	0	0	0.000000000	-1.55431e-15	0.788798	-0.788798	2.66454e-15	0.828698	-1.5708	0	0.1	0.1	0.1	0.1	0.1	0.1	0.1	0	0	0	0	0	0	0	0.000000000
1504604819.949198007	0.00613592	0.771592	-0.794602	0.00920388	0.816078	-1.58767	-0.0122718	0	0	0	0	0	0	0	0	0	0	0	0	0	0	0.000000000	-1.55431e-15	0.788798	-0.788798	2.66454e-15	0.828698	-1.5708	0	0.1	0.1	0.1	0.1	0.1	0.1	0.1	0	0	0	0	0	0	0	0.000000000
1504604819.968976974	0.00613592	0.771592	-0.794602	0.00920388	0.816078	-1.5892	-0.0107379	0	0	0	0	0	0	0	0	0	0	0	0	0	0	0.000000000	-1.55431e-15	0.788798	-0.788798	2.66454e-15	0.828698	-1.5708	0	0.1	0.1	0.1	0.1	0.1	0.1	0.1	0	0	0	0	0	0	0	0.000000000
1504604819.989047050	0.00613592	0.771592	-0.794602	0.00920388	0.814544	-1.58767	-0.0122718	0	0	0	0	0	0	0	0	0	0	0	0	0	0	0.000000000	-1.55431e-15	0.788798	-0.788798	2.66454e-15	0.828698	-1.5708	0	0.1	0.1	0.1	0.1	0.1	0.1	0.1	0	0	0	0	0	0	0	0.000000000
1504604820.008976936	0.00613592	0.771592	-0.794602	0.00920388	0.816078	-1.58767	-0.0122718	0	0	0	0	0	0	0	0	0	0	0	0	0	0	0.000000000	-1.55431e-15	0.788798	-0.788798	2.66454e-15	0.828698	-1.5708	0	0.1	0.1	0.1	0.1	0.1	0.1	0.1	0	0	0	0	0	0	0	0.000000000
1504604820.028945922	0.00613592	0.771592	-0.794602	0.00920388	0.816078	-1.58767	-0.0122718	0	0	0	0	0	0	0	0	0	0	0	0	0	0	0.000000000	-1.55431e-15	0.788798	-0.788798	2.66454e-15	0.828698	-1.5708	0	0.1	0.1	0.1	0.1	0.1	0.1	0.1	0	0	0	0	0	0	0	0.000000000
1504604820.048968076	0.00613592	0.773126	-0.794602	0.0107379	0.814544	-1.5892	-0.0107379	0	0	0	0	0	0	0	0	0	0	0	0	0	0	0.000000000	-1.55431e-15	0.788798	-0.788798	2.66454e-15	0.828698	-1.5708	0	0.1	0.1	0.1	0.1	0.1	0.1	0.1	0	0	0	0	0	0	0	0.000000000
1504604820.068926095	0.00613592	0.771592	-0.794602	0.00920388	0.814544	-1.58767	-0.0107379	0	0	0	0	0	0	0	0	0	0	0	0	0	0	0.000000000	-1.55431e-15	0.788798	-0.788798	2.66454e-15	0.828698	-1.5708	0	0.1	0.1	0.1	0.1	0.1	0.1	0.1	0	0	0	0	0	0	0	0.000000000
1504604820.088928937	0.00613592	0.771592	-0.794602	0.00920388	0.816078	-1.58767	-0.0122718	0	0	0	0	0	0	0	0	0	0	0	0	0	0	0.000000000	-1.55431e-15	0.788798	-0.788798	2.66454e-15	0.828698	-1.5708	0	0.1	0.1	0.1	0.1	0.1	0.1	0.1	0	0	0	0	0	0	0	0.000000000
1504604820.109114885	0.00613592	0.771592	-0.794602	0.00920388	0.816078	-1.58767	-0.0122718	0	0	0	0	0	0	0	0	0	0	0	0	0	0	0.000000000	-1.55431e-15	0.788798	-0.788798	2.66454e-15	0.828698	-1.5708	0	0.1	0.1	0.1	0.1	0.1	0.1	0.1	0	0	0	0	0	0	0	0.000000000
1504604820.129256010	0.00613592	0.771592	-0.794602	0.00920388	0.814544	-1.58767	-0.0107379	0	0	0	0	0	0	0	0	0	0	0	0	0	0	0.000000000	-1.55431e-15	0.788798	-0.788798	2.66454e-15	0.828698	-1.5708	0	0.1	0.1	0.1	0.1	0.1	0.1	0.1	0	0	0	0	0	0	0	0.000000000
1504604820.150623083	0.00613592	0.773126	-0.794602	0.00920388	0.814544	-1.58767	-0.0122718	0	0	0	0	0	0	0	0	0	0	0	0	0	0	0.000000000	-1.55431e-15	0.788798	-0.788798	2.66454e-15	0.828698	-1.5708	0	0.1	0.1	0.1	0.1	0.1	0.1	0.1	0	0	0	0	0	0	0	0.000000000
1504604820.169145107	0.00613592	0.771592	-0.794602	0.00920388	0.814544	-1.58767	-0.0107379	0	0	0	0	0	0	0	0	0	0	0	0	0	0	0.000000000	-1.55431e-15	0.788798	-0.788798	2.66454e-15	0.828698	-1.5708	0	0.1	0.1	0.1	0.1	0.1	0.1	0.1	0	0	0	0	0	0	0	0.000000000
1504604820.189163923	0.00613592	0.771592	-0.794602	0.00920388	0.814544	-1.58767	-0.0107379	0	0	0	0	0	0	0	0	0	0	0	0	0	0	0.000000000	-1.55431e-15	0.788798	-0.788798	2.66454e-15	0.828698	-1.5708	0	0.1	0.1	0.1	0.1	0.1	0.1	0.1	0	0	0	0	0	0	0	0.000000000
1504604820.209192037	0.00613592	0.771592	-0.794602	0.00920388	0.816078	-1.5892	-0.0122718	0	0	0	0	0	0	0	0	0	0	0	0	0	0	0.000000000	-1.55431e-15	0.788798	-0.788798	2.66454e-15	0.828698	-1.5708	0	0.1	0.1	0.1	0.1	0.1	0.1	0.1	0	0	0	0	0	0	0	0.000000000
1504604820.231034040	0.00613592	0.771592	-0.794602	0.00920388	0.814544	-1.58767	-0.0107379	0	0	0	0	0	0	0	0	0	0	0	0	0	0	0.000000000	-1.55431e-15	0.788798	-0.788798	2.66454e-15	0.828698	-1.5708	0	0.1	0.1	0.1	0.1	0.1	0.1	0.1	0	0	0	0	0	0	0	0.000000000
1504604820.249766111	0.00613592	0.771592	-0.794602	0.00920388	0.814544	-1.58767	-0.0107379	0	0	0	0	0	0	0	0	0	0	0	0	0	0	0.000000000	-1.55431e-15	0.788798	-0.788798	2.66454e-15	0.828698	-1.5708	0	0.1	0.1	0.1	0.1	0.1	0.1	0.1	0	0	0	0	0	0	0	0.000000000
1504604820.269253969	0.00613592	0.771592	-0.794602	0.00920388	0.814544	-1.5892	-0.0122718	0	0	0	0	0	0	0	0	0	0	0	0	0	0	0.000000000	-1.55431e-15	0.788798	-0.788798	2.66454e-15	0.828698	-1.5708	0	0.1	0.1	0.1	0.1	0.1	0.1	0.1	0	0	0	0	0	0	0	0.000000000
1504604820.289282083	0.00613592	0.771592	-0.794602	0.00920388	0.814544	-1.5892	-0.0107379	0	0	0	0	0	0	0	0	0	0	0	0	0	0	0.000000000	-1.55431e-15	0.788798	-0.788798	2.66454e-15	0.828698	-1.5708	0	0.1	0.1	0.1	0.1	0.1	0.1	0.1	0	0	0	0	0	0	0	0.000000000
1504604820.309190034	0.00613592	0.771592	-0.794602	0.0107379	0.816078	-1.58767	-0.0122718	0	0	0	0	0	0	0	0	0	0	0	0	0	0	0.000000000	-1.55431e-15	0.788798	-0.788798	2.66454e-15	0.828698	-1.5708	0	0.1	0.1	0.1	0.1	0.1	0.1	0.1	0	0	0	0	0	0	0	0.000000000
1504604820.329456090	0.00613592	0.773126	-0.794602	0.00920388	0.816078	-1.58767	-0.0107379	0	0	0	0	0	0	0	0	0	0	0	0	0	0	0.000000000	-1.55431e-15	0.788798	-0.788798	2.66454e-15	0.828698	-1.5708	0	0.1	0.1	0.1	0.1	0.1	0.1	0.1	0	0	0	0	0	0	0	0.000000000
1504604820.349186897	0.0076699	0.771592	-0.794602	0.00920388	0.816078	-1.58767	-0.0107379	0	0	0	0	0	0	0	0	0	0	0	0	0	0	0.000000000	-1.55431e-15	0.788798	-0.788798	2.66454e-15	0.828698	-1.5708	0	0.1	0.1	0.1	0.1	0.1	0.1	0.1	0	0	0	0	0	0	0	0.000000000
1504604820.369618892	0.00613592	0.771592	-0.794602	0.00920388	0.814544	-1.5892	-0.0122718	0	0	0	0	0	0	0	0	0	0	0	0	0	0	0.000000000	-1.55431e-15	0.788798	-0.788798	2.66454e-15	0.828698	-1.5708	0	0.1	0.1	0.1	0.1	0.1	0.1	0.1	0	0	0	0	0	0	0	0.000000000
1504604820.389168977	0.00613592	0.771592	-0.794602	0.00920388	0.814544	-1.5892	-0.0122718	0	0	0	0	0	0	0	0	0	0	0	0	0	0	0.000000000	-1.55431e-15	0.788798	-0.788798	2.66454e-15	0.828698	-1.5708	0	0.1	0.1	0.1	0.1	0.1	0.1	0.1	0	0	0	0	0	0	0	0.000000000
1504604820.409198045	0.00613592	0.771592	-0.794602	0.00920388	0.816078	-1.5892	-0.0122718	0	0	0	0	0	0	0	0	0	0	0	0	0	0	0.000000000	-1.55431e-15	0.788798	-0.788798	2.66454e-15	0.828698	-1.5708	0	0.1	0.1	0.1	0.1	0.1	0.1	0.1	0	0	0	0	0	0	0	0.000000000
1504604820.429858922	0.00613592	0.773126	-0.794602	0.00920388	0.816078	-1.58767	-0.0107379	0	0	0	0	0	0	0	0	0	0	0	0	0	0	0.000000000	-1.55431e-15	0.788798	-0.788798	2.66454e-15	0.828698	-1.5708	0	0.1	0.1	0.1	0.1	0.1	0.1	0.1	0	0	0	0	0	0	0	0.000000000
1504604820.449239969	0.00613592	0.771592	-0.794602	0.00920388	0.814544	-1.58767	-0.0107379	0	0	0	0	0	0	0	0	0	0	0	0	0	0	0.000000000	-1.55431e-15	0.788798	-0.788798	2.66454e-15	0.828698	-1.5708	0	0.1	0.1	0.1	0.1	0.1	0.1	0.1	0	0	0	0	0	0	0	0.000000000
1504604820.473890066	0.00613592	0.771592	-0.794602	0.00920388	0.814544	-1.58767	-0.0107379	0	0	0	0	0	0	0	0	0	0	0	0	0	0	0.000000000	-1.55431e-15	0.788798	-0.788798	2.66454e-15	0.828698	-1.5708	0	0.1	0.1	0.1	0.1	0.1	0.1	0.1	0	0	0	0	0	0	0	0.000000000
1504604820.489206075	0.00613592	0.771592	-0.794602	0.00920388	0.814544	-1.58767	-0.0107379	0	0	0	0	0	0	0	0	0	0	0	0	0	0	0.000000000	-1.55431e-15	0.788798	-0.788798	2.66454e-15	0.828698	-1.5708	0	0.1	0.1	0.1	0.1	0.1	0.1	0.1	0	0	0	0	0	0	0	0.000000000
1504604820.509219884	0.00613592	0.771592	-0.794602	0.00920388	0.814544	-1.58767	-0.0122718	0	0	0	0	0	0	0	0	0	0	0	0	0	0	0.000000000	-1.55431e-15	0.788798	-0.788798	2.66454e-15	0.828698	-1.5708	0	0.1	0.1	0.1	0.1	0.1	0.1	0.1	0	0	0	0	0	0	0	0.000000000
1504604820.529026031	0.00613592	0.771592	-0.794602	0.00920388	0.816078	-1.58767	-0.0122718	0	0	0	0	0	0	0	0	0	0	0	0	0	0	0.000000000	-1.55431e-15	0.788798	-0.788798	2.66454e-15	0.828698	-1.5708	0	0.1	0.1	0.1	0.1	0.1	0.1	0.1	0	0	0	0	0	0	0	0.000000000
1504604820.549000978	0.00613592	0.771592	-0.794602	0.00920388	0.816078	-1.58767	-0.0107379	0	0	0	0	0	0	0	0	0	0	0	0	0	0	0.000000000	-1.55431e-15	0.788798	-0.788798	2.66454e-15	0.828698	-1.5708	0	0.1	0.1	0.1	0.1	0.1	0.1	0.1	0	0	0	0	0	0	0	0.000000000
1504604820.569032907	0.00613592	0.771592	-0.794602	0.00920388	0.814544	-1.58767	-0.0107379	0	0	0	0	0	0	0	0	0	0	0	0	0	0	0.000000000	-1.55431e-15	0.788798	-0.788798	2.66454e-15	0.828698	-1.5708	0	0.1	0.1	0.1	0.1	0.1	0.1	0.1	0	0	0	0	0	0	0	0.000000000
1504604820.589026927	0.00613592	0.773126	-0.794602	0.00920388	0.816078	-1.5892	-0.0122718	0	0	0	0	0	0	0	0	0	0	0	0	0	0	0.000000000	-1.55431e-15	0.788798	-0.788798	2.66454e-15	0.828698	-1.5708	0	0.1	0.1	0.1	0.1	0.1	0.1	0.1	0	0	0	0	0	0	0	0.000000000
1504604820.609081029	0.00613592	0.773126	-0.794602	0.00920388	0.816078	-1.5892	-0.0122718	0	0	0	0	0	0	0	0	0	0	0	0	0	0	0.000000000	-1.55431e-15	0.788798	-0.788798	2.66454e-15	0.828698	-1.5708	0	0.1	0.1	0.1	0.1	0.1	0.1	0.1	0	0	0	0	0	0	0	0.000000000
1504604820.629376888	0.00613592	0.771592	-0.794602	0.00920388	0.814544	-1.58767	-0.0122718	0	0	0	0	0	0	0	0	0	0	0	0	0	0	0.000000000	-1.55431e-15	0.788798	-0.788798	2.66454e-15	0.828698	-1.5708	0	0.1	0.1	0.1	0.1	0.1	0.1	0.1	0	0	0	0	0	0	0	0.000000000
1504604820.649288892	0.00613592	0.771592	-0.794602	0.00920388	0.816078	-1.5892	-0.0122718	0	0	0	0	0	0	0	0	0	0	0	0	0	0	0.000000000	-1.55431e-15	0.788798	-0.788798	2.66454e-15	0.828698	-1.5708	0	0.1	0.1	0.1	0.1	0.1	0.1	0.1	0	0	0	0	0	0	0	0.000000000
1504604820.669173002	0.00613592	0.771592	-0.794602	0.00920388	0.814544	-1.58767	-0.0122718	0	0	0	0	0	0	0	0	0	0	0	0	0	0	0.000000000	-1.55431e-15	0.788798	-0.788798	2.66454e-15	0.828698	-1.5708	0	0.1	0.1	0.1	0.1	0.1	0.1	0.1	0	0	0	0	0	0	0	0.000000000
1504604820.689251899	0.00613592	0.771592	-0.794602	0.00920388	0.814544	-1.58767	-0.0122718	0	0	0	0	0	0	0	0	0	0	0	0	0	0	0.000000000	-1.55431e-15	0.788798	-0.788798	2.66454e-15	0.828698	-1.5708	0	0.1	0.1	0.1	0.1	0.1	0.1	0.1	0	0	0	0	0	0	0	0.000000000
1504604820.709203004	0.00613592	0.771592	-0.794602	0.00920388	0.814544	-1.58767	-0.0107379	0	0	0	0	0	0	0	0	0	0	0	0	0	0	0.000000000	-1.55431e-15	0.788798	-0.788798	2.66454e-15	0.828698	-1.5708	0	0.1	0.1	0.1	0.1	0.1	0.1	0.1	0	0	0	0	0	0	0	0.000000000
1504604820.729202032	0.00613592	0.771592	-0.794602	0.00920388	0.814544	-1.5892	-0.0107379	0	0	0	0	0	0	0	0	0	0	0	0	0	0	0.000000000	-1.55431e-15	0.788798	-0.788798	2.66454e-15	0.828698	-1.5708	0	0.1	0.1	0.1	0.1	0.1	0.1	0.1	0	0	0	0	0	0	0	0.000000000
1504604820.749372959	0.00613592	0.771592	-0.794602	0.00920388	0.816078	-1.58767	-0.0122718	0	0	0	0	0	0	0	0	0	0	0	0	0	0	0.000000000	-1.55431e-15	0.788798	-0.788798	2.66454e-15	0.828698	-1.5708	0	0.1	0.1	0.1	0.1	0.1	0.1	0.1	0	0	0	0	0	0	0	0.000000000
1504604820.769084930	0.00613592	0.771592	-0.794602	0.00920388	0.816078	-1.58767	-0.0122718	0	0	0	0	0	0	0	0	0	0	0	0	0	0	0.000000000	-1.55431e-15	0.788798	-0.788798	2.66454e-15	0.828698	-1.5708	0	0.1	0.1	0.1	0.1	0.1	0.1	0.1	0	0	0	0	0	0	0	0.000000000
1504604820.789082050	0.00613592	0.771592	-0.794602	0.00920388	0.814544	-1.5892	-0.0107379	0	0	0	0	0	0	0	0	0	0	0	0	0	0	0.000000000	-1.55431e-15	0.788798	-0.788798	2.66454e-15	0.828698	-1.5708	0	0.1	0.1	0.1	0.1	0.1	0.1	0.1	0	0	0	0	0	0	0	0.000000000
1504604820.809103965	0.00613592	0.771592	-0.794602	0.00920388	0.814544	-1.5892	-0.0107379	0	0	0	0	0	0	0	0	0	0	0	0	0	0	0.000000000	-1.55431e-15	0.788798	-0.788798	2.66454e-15	0.828698	-1.5708	0	0.1	0.1	0.1	0.1	0.1	0.1	0.1	0	0	0	0	0	0	0	0.000000000
1504604820.829662084	0.00613592	0.771592	-0.794602	0.00920388	0.816078	-1.58767	-0.0107379	0	0	0	0	0	0	0	0	0	0	0	0	0	0	0.000000000	-1.55431e-15	0.788798	-0.788798	2.66454e-15	0.828698	-1.5708	0	0.1	0.1	0.1	0.1	0.1	0.1	0.1	0	0	0	0	0	0	0	0.000000000
1504604820.849179983	0.00613592	0.773126	-0.794602	0.00920388	0.816078	-1.58767	-0.0107379	0	0	0	0	0	0	0	0	0	0	0	0	0	0	0.000000000	-1.55431e-15	0.788798	-0.788798	2.66454e-15	0.828698	-1.5708	0	0.1	0.1	0.1	0.1	0.1	0.1	0.1	0	0	0	0	0	0	0	0.000000000
1504604820.869142055	0.00613592	0.771592	-0.794602	0.00920388	0.814544	-1.58767	-0.0107379	0	0	0	0	0	0	0	0	0	0	0	0	0	0	0.000000000	-1.55431e-15	0.788798	-0.788798	2.66454e-15	0.828698	-1.5708	0	0.1	0.1	0.1	0.1	0.1	0.1	0.1	0	0	0	0	0	0	0	0.000000000
1504604820.889054059	0.00613592	0.773126	-0.794602	0.00920388	0.814544	-1.58767	-0.0107379	0	0	0	0	0	0	0	0	0	0	0	0	0	0	0.000000000	-1.55431e-15	0.788798	-0.788798	2.66454e-15	0.828698	-1.5708	0	0.1	0.1	0.1	0.1	0.1	0.1	0.1	0	0	0	0	0	0	0	0.000000000
1504604820.909831047	0.00613592	0.771592	-0.794602	0.00920388	0.814544	-1.58767	-0.0107379	0	0	0	0	0	0	0	0	0	0	0	0	0	0	0.000000000	-1.55431e-15	0.788798	-0.788798	2.66454e-15	0.828698	-1.5708	0	0.1	0.1	0.1	0.1	0.1	0.1	0.1	0	0	0	0	0	0	0	0.000000000
1504604820.929192066	0.00613592	0.771592	-0.794602	0.00920388	0.814544	-1.58767	-0.0122718	0	0	0	0	0	0	0	0	0	0	0	0	0	0	0.000000000	-1.55431e-15	0.788798	-0.788798	2.66454e-15	0.828698	-1.5708	0	0.1	0.1	0.1	0.1	0.1	0.1	0.1	0	0	0	0	0	0	0	0.000000000
1504604820.949156999	0.00613592	0.771592	-0.794602	0.00920388	0.814544	-1.5892	-0.0122718	0	0	0	0	0	0	0	0	0	0	0	0	0	0	0.000000000	-1.55431e-15	0.788798	-0.788798	2.66454e-15	0.828698	-1.5708	0	0.1	0.1	0.1	0.1	0.1	0.1	0.1	0	0	0	0	0	0	0	0.000000000
1504604820.969161033	0.00613592	0.771592	-0.794602	0.00920388	0.816078	-1.58767	-0.0122718	0	0	0	0	0	0	0	0	0	0	0	0	0	0	0.000000000	-1.55431e-15	0.788798	-0.788798	2.66454e-15	0.828698	-1.5708	0	0.1	0.1	0.1	0.1	0.1	0.1	0.1	0	0	0	0	0	0	0	0.000000000
1504604820.989353895	0.00613592	0.771592	-0.794602	0.00920388	0.816078	-1.58767	-0.0122718	0	0	0	0	0	0	0	0	0	0	0	0	0	0	0.000000000	-1.55431e-15	0.788798	-0.788798	2.66454e-15	0.828698	-1.5708	0	0.1	0.1	0.1	0.1	0.1	0.1	0.1	0	0	0	0	0	0	0	0.000000000
1504604821.009160041	0.00613592	0.771592	-0.794602	0.00920388	0.814544	-1.58767	-0.0107379	0	0	0	0	0	0	0	0	0	0	0	0	0	0	0.000000000	-1.55431e-15	0.788798	-0.788798	2.66454e-15	0.828698	-1.5708	0	0.1	0.1	0.1	0.1	0.1	0.1	0.1	0	0	0	0	0	0	0	0.000000000
1504604821.031114101	0.00613592	0.771592	-0.794602	0.00920388	0.814544	-1.58767	-0.0122718	0	0	0	0	0	0	0	0	0	0	0	0	0	0	0.000000000	-1.55431e-15	0.788798	-0.788798	2.66454e-15	0.828698	-1.5708	0	0.1	0.1	0.1	0.1	0.1	0.1	0.1	0	0	0	0	0	0	0	0.000000000
1504604821.049830913	0.00613592	0.771592	-0.794602	0.00920388	0.816078	-1.58767	-0.0107379	0	0	0	0	0	0	0	0	0	0	0	0	0	0	0.000000000	-1.55431e-15	0.788798	-0.788798	2.66454e-15	0.828698	-1.5708	0	0.1	0.1	0.1	0.1	0.1	0.1	0.1	0	0	0	0	0	0	0	0.000000000
1504604821.069268941	0.00613592	0.771592	-0.794602	0.00920388	0.816078	-1.58767	-0.0107379	0	0	0	0	0	0	0	0	0	0	0	0	0	0	0.000000000	-1.55431e-15	0.788798	-0.788798	2.66454e-15	0.828698	-1.5708	0	0.1	0.1	0.1	0.1	0.1	0.1	0.1	0	0	0	0	0	0	0	0.000000000
1504604821.089165925	0.00613592	0.771592	-0.794602	0.00920388	0.816078	-1.58767	-0.0107379	0	0	0	0	0	0	0	0	0	0	0	0	0	0	0.000000000	-1.55431e-15	0.788798	-0.788798	2.66454e-15	0.828698	-1.5708	0	0.1	0.1	0.1	0.1	0.1	0.1	0.1	0	0	0	0	0	0	0	0.000000000
1504604821.109249114	0.00613592	0.773126	-0.794602	0.00920388	0.814544	-1.58767	-0.0122718	0	0	0	0	0	0	0	0	0	0	0	0	0	0	0.000000000	-1.55431e-15	0.788798	-0.788798	2.66454e-15	0.828698	-1.5708	0	0.1	0.1	0.1	0.1	0.1	0.1	0.1	0	0	0	0	0	0	0	0.000000000
1504604821.129292964	0.00613592	0.771592	-0.794602	0.00920388	0.814544	-1.58767	-0.0122718	0	0	0	0	0	0	0	0	0	0	0	0	0	0	0.000000000	-1.55431e-15	0.788798	-0.788798	2.66454e-15	0.828698	-1.5708	0	0.1	0.1	0.1	0.1	0.1	0.1	0.1	0	0	0	0	0	0	0	0.000000000
1504604821.149302959	0.00613592	0.771592	-0.794602	0.00920388	0.816078	-1.58767	-0.0107379	0	0	0	0	0	0	0	0	0	0	0	0	0	0	0.000000000	-1.55431e-15	0.788798	-0.788798	2.66454e-15	0.828698	-1.5708	0	0.1	0.1	0.1	0.1	0.1	0.1	0.1	0	0	0	0	0	0	0	0.000000000
1504604821.170823097	0.00613592	0.771592	-0.794602	0.00920388	0.814544	-1.58767	-0.0122718	0	0	0	0	0	0	0	0	0	0	0	0	0	0	0.000000000	-1.55431e-15	0.788798	-0.788798	2.66454e-15	0.828698	-1.5708	0	0.1	0.1	0.1	0.1	0.1	0.1	0.1	0	0	0	0	0	0	0	0.000000000
1504604821.189244985	0.00613592	0.771592	-0.794602	0.00920388	0.814544	-1.58767	-0.0122718	0	0	0	0	0	0	0	0	0	0	0	0	0	0	0.000000000	-1.55431e-15	0.788798	-0.788798	2.66454e-15	0.828698	-1.5708	0	0.1	0.1	0.1	0.1	0.1	0.1	0.1	0	0	0	0	0	0	0	0.000000000
1504604821.209245920	0.00613592	0.773126	-0.794602	0.00920388	0.816078	-1.58767	-0.0107379	0	0	0	0	0	0	0	0	0	0	0	0	0	0	0.000000000	-1.55431e-15	0.788798	-0.788798	2.66454e-15	0.828698	-1.5708	0	0.1	0.1	0.1	0.1	0.1	0.1	0.1	0	0	0	0	0	0	0	0.000000000
1504604821.229293107	0.00613592	0.771592	-0.794602	0.00920388	0.814544	-1.5892	-0.0122718	0	0	0	0	0	0	0	0	0	0	0	0	0	0	0.000000000	-1.55431e-15	0.788798	-0.788798	2.66454e-15	0.828698	-1.5708	0	0.1	0.1	0.1	0.1	0.1	0.1	0.1	0	0	0	0	0	0	0	0.000000000
1504604821.249103069	0.00613592	0.771592	-0.794602	0.00920388	0.816078	-1.58767	-0.0107379	0	0	0	0	0	0	0	0	0	0	0	0	0	0	0.000000000	-1.55431e-15	0.788798	-0.788798	2.66454e-15	0.828698	-1.5708	0	0.1	0.1	0.1	0.1	0.1	0.1	0.1	0	0	0	0	0	0	0	0.000000000
1504604821.269174098	0.00613592	0.771592	-0.794602	0.00920388	0.816078	-1.5892	-0.0107379	0	0	0	0	0	0	0	0	0	0	0	0	0	0	0.000000000	-1.55431e-15	0.788798	-0.788798	2.66454e-15	0.828698	-1.5708	0	0.1	0.1	0.1	0.1	0.1	0.1	0.1	0	0	0	0	0	0	0	0.000000000
1504604821.291248083	0.00613592	0.771592	-0.794602	0.00920388	0.814544	-1.58767	-0.0122718	0	0	0	0	0	0	0	0	0	0	0	0	0	0	0.000000000	-1.55431e-15	0.788798	-0.788798	2.66454e-15	0.828698	-1.5708	0	0.1	0.1	0.1	0.1	0.1	0.1	0.1	0	0	0	0	0	0	0	0.000000000
1504604821.309133052	0.00613592	0.771592	-0.794602	0.00920388	0.814544	-1.58767	-0.0122718	0	0	0	0	0	0	0	0	0	0	0	0	0	0	0.000000000	-1.55431e-15	0.788798	-0.788798	2.66454e-15	0.828698	-1.5708	0	0.1	0.1	0.1	0.1	0.1	0.1	0.1	0	0	0	0	0	0	0	0.000000000
1504604821.329201936	0.00613592	0.773126	-0.794602	0.00920388	0.816078	-1.58767	-0.0107379	0	0	0	0	0	0	0	0	0	0	0	0	0	0	0.000000000	-1.55431e-15	0.788798	-0.788798	2.66454e-15	0.828698	-1.5708	0	0.1	0.1	0.1	0.1	0.1	0.1	0.1	0	0	0	0	0	0	0	0.000000000
1504604821.349232912	0.00613592	0.771592	-0.794602	0.00920388	0.814544	-1.58767	-0.0107379	0	0	0	0	0	0	0	0	0	0	0	0	0	0	0.000000000	-1.55431e-15	0.788798	-0.788798	2.66454e-15	0.828698	-1.5708	0	0.1	0.1	0.1	0.1	0.1	0.1	0.1	0	0	0	0	0	0	0	0.000000000
1504604821.369168043	0.0076699	0.771592	-0.794602	0.00920388	0.816078	-1.58767	-0.0107379	0	0	0	0	0	0	0	0	0	0	0	0	0	0	0.000000000	-1.55431e-15	0.788798	-0.788798	2.66454e-15	0.828698	-1.5708	0	0.1	0.1	0.1	0.1	0.1	0.1	0.1	0	0	0	0	0	0	0	0.000000000
1504604821.389313936	0.0076699	0.771592	-0.794602	0.00920388	0.816078	-1.58767	-0.0107379	0	0	0	0	0	0	0	0	0	0	0	0	0	0	0.000000000	-1.55431e-15	0.788798	-0.788798	2.66454e-15	0.828698	-1.5708	0	0.1	0.1	0.1	0.1	0.1	0.1	0.1	0	0	0	0	0	0	0	0.000000000
1504604821.409394979	0.00613592	0.771592	-0.794602	0.00920388	0.814544	-1.58767	-0.0122718	0	0	0	0	0	0	0	0	0	0	0	0	0	0	0.000000000	-1.55431e-15	0.788798	-0.788798	2.66454e-15	0.828698	-1.5708	0	0.1	0.1	0.1	0.1	0.1	0.1	0.1	0	0	0	0	0	0	0	0.000000000
1504604821.432486057	0.00613592	0.773126	-0.794602	0.00920388	0.816078	-1.58767	-0.0122718	0	0	0	0	0	0	0	0	0	0	0	0	0	0	0.000000000	-1.55431e-15	0.788798	-0.788798	2.66454e-15	0.828698	-1.5708	0	0.1	0.1	0.1	0.1	0.1	0.1	0.1	0	0	0	0	0	0	0	0.000000000
1504604821.449157953	0.00613592	0.771592	-0.794602	0.00920388	0.816078	-1.58767	-0.0107379	0	0	0	0	0	0	0	0	0	0	0	0	0	0	0.000000000	-1.55431e-15	0.788798	-0.788798	2.66454e-15	0.828698	-1.5708	0	0.1	0.1	0.1	0.1	0.1	0.1	0.1	0	0	0	0	0	0	0	0.000000000
1504604821.469182014	0.00613592	0.771592	-0.794602	0.00920388	0.814544	-1.58767	-0.0107379	0	0	0	0	0	0	0	0	0	0	0	0	0	0	0.000000000	-1.55431e-15	0.788798	-0.788798	2.66454e-15	0.828698	-1.5708	0	0.1	0.1	0.1	0.1	0.1	0.1	0.1	0	0	0	0	0	0	0	0.000000000
1504604821.489603042	0.00613592	0.771592	-0.794602	0.00920388	0.814544	-1.58767	-0.0107379	0	0	0	0	0	0	0	0	0	0	0	0	0	0	0.000000000	-1.55431e-15	0.788798	-0.788798	2.66454e-15	0.828698	-1.5708	0	0.1	0.1	0.1	0.1	0.1	0.1	0.1	0	0	0	0	0	0	0	0.000000000
1504604821.509180068	0.00613592	0.771592	-0.794602	0.00920388	0.816078	-1.58767	-0.0122718	0	0	0	0	0	0	0	0	0	0	0	0	0	0	0.000000000	-1.55431e-15	0.788798	-0.788798	2.66454e-15	0.828698	-1.5708	0	0.1	0.1	0.1	0.1	0.1	0.1	0.1	0	0	0	0	0	0	0	0.000000000
1504604821.529320955	0.00613592	0.771592	-0.794602	0.00920388	0.816078	-1.58767	-0.0122718	0	0	0	0	0	0	0	0	0	0	0	0	0	0	0.000000000	-1.55431e-15	0.788798	-0.788798	2.66454e-15	0.828698	-1.5708	0	0.1	0.1	0.1	0.1	0.1	0.1	0.1	0	0	0	0	0	0	0	0.000000000
1504604821.549294948	0.00613592	0.771592	-0.794602	0.00920388	0.816078	-1.5892	-0.0107379	0	0	0	0	0	0	0	0	0	0	0	0	0	0	0.000000000	-1.55431e-15	0.788798	-0.788798	2.66454e-15	0.828698	-1.5708	0	0.1	0.1	0.1	0.1	0.1	0.1	0.1	0	0	0	0	0	0	0	0.000000000
1504604821.569360017	0.00613592	0.771592	-0.794602	0.00920388	0.814544	-1.58767	-0.0107379	0	0	0	0	0	0	0	0	0	0	0	0	0	0	0.000000000	-1.55431e-15	0.788798	-0.788798	2.66454e-15	0.828698	-1.5708	0	0.1	0.1	0.1	0.1	0.1	0.1	0.1	0	0	0	0	0	0	0	0.000000000
1504604821.590683937	0.00613592	0.771592	-0.794602	0.00920388	0.814544	-1.58767	-0.0122718	0	0	0	0	0	0	0	0	0	0	0	0	0	0	0.000000000	-1.55431e-15	0.788798	-0.788798	2.66454e-15	0.828698	-1.5708	0	0.1	0.1	0.1	0.1	0.1	0.1	0.1	0	0	0	0	0	0	0	0.000000000
1504604821.609277963	0.00613592	0.771592	-0.794602	0.00920388	0.814544	-1.58767	-0.0122718	0	0	0	0	0	0	0	0	0	0	0	0	0	0	0.000000000	-1.55431e-15	0.788798	-0.788798	2.66454e-15	0.828698	-1.5708	0	0.1	0.1	0.1	0.1	0.1	0.1	0.1	0	0	0	0	0	0	0	0.000000000
1504604821.630271911	0.00613592	0.771592	-0.794602	0.00920388	0.814544	-1.5892	-0.0122718	0	0	0	0	0	0	0	0	0	0	0	0	0	0	0.000000000	-1.55431e-15	0.788798	-0.788798	2.66454e-15	0.828698	-1.5708	0	0.1	0.1	0.1	0.1	0.1	0.1	0.1	0	0	0	0	0	0	0	0.000000000
1504604821.654700994	0.00613592	0.771592	-0.794602	0.00920388	0.814544	-1.5892	-0.0107379	0	0	0	0	0	0	0	0	0	0	0	0	0	0	0.000000000	-1.55431e-15	0.788798	-0.788798	2.66454e-15	0.828698	-1.5708	0	0.1	0.1	0.1	0.1	0.1	0.1	0.1	0	0	0	0	0	0	0	0.000000000
1504604821.669245958	0.00613592	0.771592	-0.794602	0.00920388	0.814544	-1.5892	-0.0107379	0	0	0	0	0	0	0	0	0	0	0	0	0	0	0.000000000	-1.55431e-15	0.788798	-0.788798	2.66454e-15	0.828698	-1.5708	0	0.1	0.1	0.1	0.1	0.1	0.1	0.1	0	0	0	0	0	0	0	0.000000000
1504604821.689363002	0.00613592	0.771592	-0.794602	0.00920388	0.814544	-1.58767	-0.0122718	0	0	0	0	0	0	0	0	0	0	0	0	0	0	0.000000000	-1.55431e-15	0.788798	-0.788798	2.66454e-15	0.828698	-1.5708	0	0.1	0.1	0.1	0.1	0.1	0.1	0.1	0	0	0	0	0	0	0	0.000000000
1504604821.709151029	0.00613592	0.771592	-0.794602	0.00920388	0.814544	-1.58767	-0.0122718	0	0	0	0	0	0	0	0	0	0	0	0	0	0	0.000000000	-1.55431e-15	0.788798	-0.788798	2.66454e-15	0.828698	-1.5708	0	0.1	0.1	0.1	0.1	0.1	0.1	0.1	0	0	0	0	0	0	0	0.000000000
1504604821.729269027	0.00613592	0.773126	-0.794602	0.00920388	0.814544	-1.58767	-0.0107379	0	0	0	0	0	0	0	0	0	0	0	0	0	0	0.000000000	-1.55431e-15	0.788798	-0.788798	2.66454e-15	0.828698	-1.5708	0	0.1	0.1	0.1	0.1	0.1	0.1	0.1	0	0	0	0	0	0	0	0.000000000
1504604821.749387025	0.00613592	0.771592	-0.794602	0.00920388	0.814544	-1.58767	-0.0107379	0	0	0	0	0	0	0	0	0	0	0	0	0	0	0.000000000	-1.55431e-15	0.788798	-0.788798	2.66454e-15	0.828698	-1.5708	0	0.1	0.1	0.1	0.1	0.1	0.1	0.1	0	0	0	0	0	0	0	0.000000000
1504604821.769459962	0.00613592	0.771592	-0.794602	0.00920388	0.816078	-1.58767	-0.0122718	0	0	0	0	0	0	0	0	0	0	0	0	0	0	0.000000000	-1.55431e-15	0.788798	-0.788798	2.66454e-15	0.828698	-1.5708	0	0.1	0.1	0.1	0.1	0.1	0.1	0.1	0	0	0	0	0	0	0	0.000000000
1504604821.788979053	0.00613592	0.771592	-0.794602	0.00920388	0.814544	-1.58767	-0.0107379	0	0	0	0	0	0	0	0	0	0	0	0	0	0	0.000000000	-1.55431e-15	0.788798	-0.788798	2.66454e-15	0.828698	-1.5708	0	0.1	0.1	0.1	0.1	0.1	0.1	0.1	0	0	0	0	0	0	0	0.000000000
1504604821.808923006	0.00613592	0.771592	-0.794602	0.00920388	0.814544	-1.58767	-0.0122718	0	0	0	0	0	0	0	0	0	0	0	0	0	0	0.000000000	-1.55431e-15	0.788798	-0.788798	2.66454e-15	0.828698	-1.5708	0	0.1	0.1	0.1	0.1	0.1	0.1	0.1	0	0	0	0	0	0	0	0.000000000
1504604821.828952074	0.00613592	0.771592	-0.794602	0.00920388	0.814544	-1.58767	-0.0122718	0	0	0	0	0	0	0	0	0	0	0	0	0	0	0.000000000	-1.55431e-15	0.788798	-0.788798	2.66454e-15	0.828698	-1.5708	0	0.1	0.1	0.1	0.1	0.1	0.1	0.1	0	0	0	0	0	0	0	0.000000000
1504604821.848948955	0.00613592	0.773126	-0.794602	0.00920388	0.814544	-1.58767	-0.0122718	0	0	0	0	0	0	0	0	0	0	0	0	0	0	0.000000000	-1.55431e-15	0.788798	-0.788798	2.66454e-15	0.828698	-1.5708	0	0.1	0.1	0.1	0.1	0.1	0.1	0.1	0	0	0	0	0	0	0	0.000000000
1504604821.869227886	0.00613592	0.771592	-0.794602	0.00920388	0.816078	-1.58767	-0.0107379	0	0	0	0	0	0	0	0	0	0	0	0	0	0	0.000000000	-1.55431e-15	0.788798	-0.788798	2.66454e-15	0.828698	-1.5708	0	0.1	0.1	0.1	0.1	0.1	0.1	0.1	0	0	0	0	0	0	0	0.000000000
1504604821.888978958	0.00613592	0.771592	-0.794602	0.00920388	0.816078	-1.58767	-0.0107379	0	0	0	0	0	0	0	0	0	0	0	0	0	0	0.000000000	-1.55431e-15	0.788798	-0.788798	2.66454e-15	0.828698	-1.5708	0	0.1	0.1	0.1	0.1	0.1	0.1	0.1	0	0	0	0	0	0	0	0.000000000
1504604821.909055948	0.00613592	0.771592	-0.794602	0.00920388	0.816078	-1.58767	-0.0122718	0	0	0	0	0	0	0	0	0	0	0	0	0	0	0.000000000	-1.55431e-15	0.788798	-0.788798	2.66454e-15	0.828698	-1.5708	0	0.1	0.1	0.1	0.1	0.1	0.1	0.1	0	0	0	0	0	0	0	0.000000000
1504604821.928946971	0.00613592	0.771592	-0.794602	0.00920388	0.816078	-1.58767	-0.0122718	0	0	0	0	0	0	0	0	0	0	0	0	0	0	0.000000000	-1.55431e-15	0.788798	-0.788798	2.66454e-15	0.828698	-1.5708	0	0.1	0.1	0.1	0.1	0.1	0.1	0.1	0	0	0	0	0	0	0	0.000000000
1504604821.949032068	0.00613592	0.773126	-0.794602	0.00920388	0.816078	-1.58767	-0.0107379	0	0	0	0	0	0	0	0	0	0	0	0	0	0	0.000000000	-1.55431e-15	0.788798	-0.788798	2.66454e-15	0.828698	-1.5708	0	0.1	0.1	0.1	0.1	0.1	0.1	0.1	0	0	0	0	0	0	0	0.000000000
1504604821.968955039	0.00613592	0.771592	-0.794602	0.00920388	0.814544	-1.58767	-0.0122718	0	0	0	0	0	0	0	0	0	0	0	0	0	0	0.000000000	-1.55431e-15	0.788798	-0.788798	2.66454e-15	0.828698	-1.5708	0	0.1	0.1	0.1	0.1	0.1	0.1	0.1	0	0	0	0	0	0	0	0.000000000
1504604821.988938093	0.00613592	0.771592	-0.794602	0.00920388	0.816078	-1.58767	-0.0122718	0	0	0	0	0	0	0	0	0	0	0	0	0	0	0.000000000	-1.55431e-15	0.788798	-0.788798	2.66454e-15	0.828698	-1.5708	0	0.1	0.1	0.1	0.1	0.1	0.1	0.1	0	0	0	0	0	0	0	0.000000000
1504604822.009119033	0.00613592	0.771592	-0.794602	0.00920388	0.816078	-1.58767	-0.0122718	0	0	0	0	0	0	0	0	0	0	0	0	0	0	0.000000000	-1.55431e-15	0.788798	-0.788798	2.66454e-15	0.828698	-1.5708	0	0.1	0.1	0.1	0.1	0.1	0.1	0.1	0	0	0	0	0	0	0	0.000000000
1504604822.029031038	0.00613592	0.771592	-0.794602	0.00920388	0.814544	-1.58767	-0.0107379	0	0	0	0	0	0	0	0	0	0	0	0	0	0	0.000000000	-1.55431e-15	0.788798	-0.788798	2.66454e-15	0.828698	-1.5708	0	0.1	0.1	0.1	0.1	0.1	0.1	0.1	0	0	0	0	0	0	0	0.000000000
1504604822.048933029	0.00613592	0.773126	-0.794602	0.00920388	0.814544	-1.58767	-0.0122718	0	0	0	0	0	0	0	0	0	0	0	0	0	0	0.000000000	-1.55431e-15	0.788798	-0.788798	2.66454e-15	0.828698	-1.5708	0	0.1	0.1	0.1	0.1	0.1	0.1	0.1	0	0	0	0	0	0	0	0.000000000
1504604822.068989038	0.00613592	0.771592	-0.794602	0.0107379	0.816078	-1.58767	-0.0122718	0	0	0	0	0	0	0	0	0	0	0	0	0	0	0.000000000	-1.55431e-15	0.788798	-0.788798	2.66454e-15	0.828698	-1.5708	0	0.1	0.1	0.1	0.1	0.1	0.1	0.1	0	0	0	0	0	0	0	0.000000000
1504604822.088989019	0.00613592	0.771592	-0.794602	0.00920388	0.814544	-1.58767	-0.0122718	0	0	0	0	0	0	0	0	0	0	0	0	0	0	0.000000000	-1.55431e-15	0.788798	-0.788798	2.66454e-15	0.828698	-1.5708	0	0.1	0.1	0.1	0.1	0.1	0.1	0.1	0	0	0	0	0	0	0	0.000000000
1504604822.108917951	0.00613592	0.771592	-0.794602	0.00920388	0.814544	-1.58767	-0.0122718	0	0	0	0	0	0	0	0	0	0	0	0	0	0	0.000000000	-1.55431e-15	0.788798	-0.788798	2.66454e-15	0.828698	-1.5708	0	0.1	0.1	0.1	0.1	0.1	0.1	0.1	0	0	0	0	0	0	0	0.000000000
1504604822.128962039	0.00613592	0.771592	-0.794602	0.00920388	0.814544	-1.58767	-0.0122718	0	0	0	0	0	0	0	0	0	0	0	0	0	0	0.000000000	-1.55431e-15	0.788798	-0.788798	2.66454e-15	0.828698	-1.5708	0	0.1	0.1	0.1	0.1	0.1	0.1	0.1	0	0	0	0	0	0	0	0.000000000
1504604822.148957014	0.00613592	0.771592	-0.794602	0.00920388	0.814544	-1.58767	-0.0107379	0	0	0	0	0	0	0	0	0	0	0	0	0	0	0.000000000	-1.55431e-15	0.788798	-0.788798	2.66454e-15	0.828698	-1.5708	0	0.1	0.1	0.1	0.1	0.1	0.1	0.1	0	0	0	0	0	0	0	0.000000000
1504604822.169037103	0.00613592	0.771592	-0.794602	0.00920388	0.814544	-1.58767	-0.0122718	0	0	0	0	0	0	0	0	0	0	0	0	0	0	0.000000000	-1.55431e-15	0.788798	-0.788798	2.66454e-15	0.828698	-1.5708	0	0.1	0.1	0.1	0.1	0.1	0.1	0.1	0	0	0	0	0	0	0	0.000000000
1504604822.189908027	0.00613592	0.771592	-0.794602	0.00920388	0.814544	-1.58767	-0.0122718	0	0	0	0	0	0	0	0	0	0	0	0	0	0	0.000000000	-1.55431e-15	0.788798	-0.788798	2.66454e-15	0.828698	-1.5708	0	0.1	0.1	0.1	0.1	0.1	0.1	0.1	0	0	0	0	0	0	0	0.000000000
1504604822.209155082	0.00613592	0.771592	-0.794602	0.00920388	0.814544	-1.5892	-0.0122718	0	0	0	0	0	0	0	0	0	0	0	0	0	0	0.000000000	-1.55431e-15	0.788798	-0.788798	2.66454e-15	0.828698	-1.5708	0	0.1	0.1	0.1	0.1	0.1	0.1	0.1	0	0	0	0	0	0	0	0.000000000
1504604822.229223966	0.00613592	0.771592	-0.794602	0.00920388	0.816078	-1.58767	-0.0122718	0	0	0	0	0	0	0	0	0	0	0	0	0	0	0.000000000	-1.55431e-15	0.788798	-0.788798	2.66454e-15	0.828698	-1.5708	0	0.1	0.1	0.1	0.1	0.1	0.1	0.1	0	0	0	0	0	0	0	0.000000000
1504604822.249160051	0.00613592	0.771592	-0.794602	0.00920388	0.816078	-1.58767	-0.0122718	0	0	0	0	0	0	0	0	0	0	0	0	0	0	0.000000000	-1.55431e-15	0.788798	-0.788798	2.66454e-15	0.828698	-1.5708	0	0.1	0.1	0.1	0.1	0.1	0.1	0.1	0	0	0	0	0	0	0	0.000000000
1504604822.269140005	0.00613592	0.771592	-0.794602	0.00920388	0.816078	-1.58767	-0.0122718	0	0	0	0	0	0	0	0	0	0	0	0	0	0	0.000000000	-1.55431e-15	0.788798	-0.788798	2.66454e-15	0.828698	-1.5708	0	0.1	0.1	0.1	0.1	0.1	0.1	0.1	0	0	0	0	0	0	0	0.000000000
1504604822.289098024	0.00613592	0.771592	-0.794602	0.00920388	0.814544	-1.5892	-0.0122718	0	0	0	0	0	0	0	0	0	0	0	0	0	0	0.000000000	-1.55431e-15	0.788798	-0.788798	2.66454e-15	0.828698	-1.5708	0	0.1	0.1	0.1	0.1	0.1	0.1	0.1	0	0	0	0	0	0	0	0.000000000
1504604822.309076070	0.00613592	0.771592	-0.794602	0.00920388	0.814544	-1.5892	-0.0122718	0	0	0	0	0	0	0	0	0	0	0	0	0	0	0.000000000	-1.55431e-15	0.788798	-0.788798	2.66454e-15	0.828698	-1.5708	0	0.1	0.1	0.1	0.1	0.1	0.1	0.1	0	0	0	0	0	0	0	0.000000000
1504604822.329400062	0.00613592	0.771592	-0.794602	0.00920388	0.816078	-1.5892	-0.0122718	0	0	0	0	0	0	0	0	0	0	0	0	0	0	0.000000000	-1.55431e-15	0.788798	-0.788798	2.66454e-15	0.828698	-1.5708	0	0.1	0.1	0.1	0.1	0.1	0.1	0.1	0	0	0	0	0	0	0	0.000000000
1504604822.349067926	0.00613592	0.773126	-0.794602	0.00920388	0.816078	-1.58767	-0.0122718	0	0	0	0	0	0	0	0	0	0	0	0	0	0	0.000000000	-1.55431e-15	0.788798	-0.788798	2.66454e-15	0.828698	-1.5708	0	0.1	0.1	0.1	0.1	0.1	0.1	0.1	0	0	0	0	0	0	0	0.000000000
1504604822.369111061	0.00613592	0.771592	-0.794602	0.00920388	0.816078	-1.5892	-0.0122718	0	0	0	0	0	0	0	0	0	0	0	0	0	0	0.000000000	-1.55431e-15	0.788798	-0.788798	2.66454e-15	0.828698	-1.5708	0	0.1	0.1	0.1	0.1	0.1	0.1	0.1	0	0	0	0	0	0	0	0.000000000
1504604822.389077901	0.00613592	0.771592	-0.794602	0.00920388	0.816078	-1.58767	-0.0122718	0	0	0	0	0	0	0	0	0	0	0	0	0	0	0.000000000	-1.55431e-15	0.788798	-0.788798	2.66454e-15	0.828698	-1.5708	0	0.1	0.1	0.1	0.1	0.1	0.1	0.1	0	0	0	0	0	0	0	0.000000000
1504604822.409061908	0.00613592	0.771592	-0.794602	0.00920388	0.816078	-1.58767	-0.0122718	0	0	0	0	0	0	0	0	0	0	0	0	0	0	0.000000000	-1.55431e-15	0.788798	-0.788798	2.66454e-15	0.828698	-1.5708	0	0.1	0.1	0.1	0.1	0.1	0.1	0.1	0	0	0	0	0	0	0	0.000000000
1504604822.429466962	0.00613592	0.771592	-0.794602	0.00920388	0.814544	-1.58767	-0.0122718	0	0	0	0	0	0	0	0	0	0	0	0	0	0	0.000000000	-1.55431e-15	0.788798	-0.788798	2.66454e-15	0.828698	-1.5708	0	0.1	0.1	0.1	0.1	0.1	0.1	0.1	0	0	0	0	0	0	0	0.000000000
1504604822.449085950	0.00613592	0.771592	-0.794602	0.00920388	0.814544	-1.58767	-0.0122718	0	0	0	0	0	0	0	0	0	0	0	0	0	0	0.000000000	-1.55431e-15	0.788798	-0.788798	2.66454e-15	0.828698	-1.5708	0	0.1	0.1	0.1	0.1	0.1	0.1	0.1	0	0	0	0	0	0	0	0.000000000
1504604822.469012975	0.00613592	0.773126	-0.794602	0.00920388	0.814544	-1.58767	-0.0107379	0	0	0	0	0	0	0	0	0	0	0	0	0	0	0.000000000	-1.55431e-15	0.788798	-0.788798	2.66454e-15	0.828698	-1.5708	0	0.1	0.1	0.1	0.1	0.1	0.1	0.1	0	0	0	0	0	0	0	0.000000000
1504604822.489058971	0.00613592	0.771592	-0.794602	0.00920388	0.814544	-1.5892	-0.0107379	0	0	0	0	0	0	0	0	0	0	0	0	0	0	0.000000000	-1.55431e-15	0.788798	-0.788798	2.66454e-15	0.828698	-1.5708	0	0.1	0.1	0.1	0.1	0.1	0.1	0.1	0	0	0	0	0	0	0	0.000000000
1504604822.509043931	0.00613592	0.771592	-0.794602	0.00920388	0.814544	-1.5892	-0.0107379	0	0	0	0	0	0	0	0	0	0	0	0	0	0	0.000000000	-1.55431e-15	0.788798	-0.788798	2.66454e-15	0.828698	-1.5708	0	0.1	0.1	0.1	0.1	0.1	0.1	0.1	0	0	0	0	0	0	0	0.000000000
1504604822.529225111	0.00613592	0.773126	-0.794602	0.00920388	0.816078	-1.58767	-0.0122718	0	0	0	0	0	0	0	0	0	0	0	0	0	0	0.000000000	-1.55431e-15	0.788798	-0.788798	2.66454e-15	0.828698	-1.5708	0	0.1	0.1	0.1	0.1	0.1	0.1	0.1	0	0	0	0	0	0	0	0.000000000
1504604822.549001932	0.00613592	0.771592	-0.794602	0.00920388	0.814544	-1.58767	-0.0122718	0	0	0	0	0	0	0	0	0	0	0	0	0	0	0.000000000	-1.55431e-15	0.788798	-0.788798	2.66454e-15	0.828698	-1.5708	0	0.1	0.1	0.1	0.1	0.1	0.1	0.1	0	0	0	0	0	0	0	0.000000000
1504604822.569070100	0.00613592	0.771592	-0.794602	0.00920388	0.816078	-1.58767	-0.0122718	0	0	0	0	0	0	0	0	0	0	0	0	0	0	0.000000000	-1.55431e-15	0.788798	-0.788798	2.66454e-15	0.828698	-1.5708	0	0.1	0.1	0.1	0.1	0.1	0.1	0.1	0	0	0	0	0	0	0	0.000000000
1504604822.588983058	0.00613592	0.771592	-0.794602	0.00920388	0.816078	-1.58767	-0.0122718	0	0	0	0	0	0	0	0	0	0	0	0	0	0	0.000000000	-1.55431e-15	0.788798	-0.788798	2.66454e-15	0.828698	-1.5708	0	0.1	0.1	0.1	0.1	0.1	0.1	0.1	0	0	0	0	0	0	0	0.000000000
1504604822.609035015	0.00613592	0.771592	-0.794602	0.00920388	0.816078	-1.58767	-0.0122718	0	0	0	0	0	0	0	0	0	0	0	0	0	0	0.000000000	-1.55431e-15	0.788798	-0.788798	2.66454e-15	0.828698	-1.5708	0	0.1	0.1	0.1	0.1	0.1	0.1	0.1	0	0	0	0	0	0	0	0.000000000
1504604822.629122972	0.00613592	0.771592	-0.794602	0.00920388	0.814544	-1.58767	-0.0107379	0	0	0	0	0	0	0	0	0	0	0	0	0	0	0.000000000	-1.55431e-15	0.788798	-0.788798	2.66454e-15	0.828698	-1.5708	0	0.1	0.1	0.1	0.1	0.1	0.1	0.1	0	0	0	0	0	0	0	0.000000000
1504604822.649101018	0.00613592	0.773126	-0.794602	0.0107379	0.816078	-1.58767	-0.0107379	0	0	0	0	0	0	0	0	0	0	0	0	0	0	0.000000000	-1.55431e-15	0.788798	-0.788798	2.66454e-15	0.828698	-1.5708	0	0.1	0.1	0.1	0.1	0.1	0.1	0.1	0	0	0	0	0	0	0	0.000000000
1504604822.669083118	0.00613592	0.771592	-0.794602	0.00920388	0.816078	-1.58767	-0.0122718	0	0	0	0	0	0	0	0	0	0	0	0	0	0	0.000000000	-1.55431e-15	0.788798	-0.788798	2.66454e-15	0.828698	-1.5708	0	0.1	0.1	0.1	0.1	0.1	0.1	0.1	0	0	0	0	0	0	0	0.000000000
1504604822.689125061	0.00613592	0.771592	-0.794602	0.00920388	0.816078	-1.58767	-0.0122718	0	0	0	0	0	0	0	0	0	0	0	0	0	0	0.000000000	-1.55431e-15	0.788798	-0.788798	2.66454e-15	0.828698	-1.5708	0	0.1	0.1	0.1	0.1	0.1	0.1	0.1	0	0	0	0	0	0	0	0.000000000
1504604822.709089040	0.00613592	0.771592	-0.794602	0.00920388	0.816078	-1.58767	-0.0122718	0	0	0	0	0	0	0	0	0	0	0	0	0	0	0.000000000	-1.55431e-15	0.788798	-0.788798	2.66454e-15	0.828698	-1.5708	0	0.1	0.1	0.1	0.1	0.1	0.1	0.1	0	0	0	0	0	0	0	0.000000000
1504604822.729105949	0.00613592	0.771592	-0.794602	0.00920388	0.814544	-1.5892	-0.0122718	0	0	0	0	0	0	0	0	0	0	0	0	0	0	0.000000000	-1.55431e-15	0.788798	-0.788798	2.66454e-15	0.828698	-1.5708	0	0.1	0.1	0.1	0.1	0.1	0.1	0.1	0	0	0	0	0	0	0	0.000000000
1504604822.750019073	0.00613592	0.771592	-0.794602	0.00920388	0.816078	-1.58767	-0.0107379	0	0	0	0	0	0	0	0	0	0	0	0	0	0	0.000000000	-1.55431e-15	0.788798	-0.788798	2.66454e-15	0.828698	-1.5708	0	0.1	0.1	0.1	0.1	0.1	0.1	0.1	0	0	0	0	0	0	0	0.000000000
1504604822.770585060	0.00613592	0.773126	-0.794602	0.00920388	0.814544	-1.5892	-0.0122718	0	0	0	0	0	0	0	0	0	0	0	0	0	0	0.000000000	-1.55431e-15	0.788798	-0.788798	2.66454e-15	0.828698	-1.5708	0	0.1	0.1	0.1	0.1	0.1	0.1	0.1	0	0	0	0	0	0	0	0.000000000
1504604822.789161920	0.00613592	0.773126	-0.794602	0.00920388	0.814544	-1.5892	-0.0122718	0	0	0	0	0	0	0	0	0	0	0	0	0	0	0.000000000	-1.55431e-15	0.788798	-0.788798	2.66454e-15	0.828698	-1.5708	0	0.1	0.1	0.1	0.1	0.1	0.1	0.1	0	0	0	0	0	0	0	0.000000000
1504604822.809196949	0.00613592	0.771592	-0.794602	0.00920388	0.816078	-1.58767	-0.0122718	0	0	0	0	0	0	0	0	0	0	0	0	0	0	0.000000000	-1.55431e-15	0.788798	-0.788798	2.66454e-15	0.828698	-1.5708	0	0.1	0.1	0.1	0.1	0.1	0.1	0.1	0	0	0	0	0	0	0	0.000000000
1504604822.829780101	0.00613592	0.771592	-0.794602	0.00920388	0.814544	-1.58767	-0.0122718	0	0	0	0	0	0	0	0	0	0	0	0	0	0	0.000000000	-1.55431e-15	0.788798	-0.788798	2.66454e-15	0.828698	-1.5708	0	0.1	0.1	0.1	0.1	0.1	0.1	0.1	0	0	0	0	0	0	0	0.000000000
1504604822.849049091	0.00613592	0.773126	-0.794602	0.00920388	0.814544	-1.58767	-0.0122718	0	0	0	0	0	0	0	0	0	0	0	0	0	0	0.000000000	-1.55431e-15	0.788798	-0.788798	2.66454e-15	0.828698	-1.5708	0	0.1	0.1	0.1	0.1	0.1	0.1	0.1	0	0	0	0	0	0	0	0.000000000
1504604822.869122028	0.00613592	0.771592	-0.794602	0.00920388	0.816078	-1.58767	-0.0122718	0	0	0	0	0	0	0	0	0	0	0	0	0	0	0.000000000	-1.55431e-15	0.788798	-0.788798	2.66454e-15	0.828698	-1.5708	0	0.1	0.1	0.1	0.1	0.1	0.1	0.1	0	0	0	0	0	0	0	0.000000000
1504604822.889053106	0.00613592	0.771592	-0.794602	0.00920388	0.814544	-1.58767	-0.0107379	0	0	0	0	0	0	0	0	0	0	0	0	0	0	0.000000000	-1.55431e-15	0.788798	-0.788798	2.66454e-15	0.828698	-1.5708	0	0.1	0.1	0.1	0.1	0.1	0.1	0.1	0	0	0	0	0	0	0	0.000000000
1504604822.910048007	0.00613592	0.771592	-0.794602	0.00920388	0.816078	-1.58767	-0.0122718	0	0	0	0	0	0	0	0	0	0	0	0	0	0	0.000000000	-1.55431e-15	0.788798	-0.788798	2.66454e-15	0.828698	-1.5708	0	0.1	0.1	0.1	0.1	0.1	0.1	0.1	0	0	0	0	0	0	0	0.000000000
1504604822.929346084	0.00613592	0.771592	-0.794602	0.00920388	0.816078	-1.58767	-0.0122718	0	0	0	0	0	0	0	0	0	0	0	0	0	0	0.000000000	-1.55431e-15	0.788798	-0.788798	2.66454e-15	0.828698	-1.5708	0	0.1	0.1	0.1	0.1	0.1	0.1	0.1	0	0	0	0	0	0	0	0.000000000
1504604822.949204921	0.00613592	0.773126	-0.794602	0.00920388	0.814544	-1.58767	-0.0122718	0	0	0	0	0	0	0	0	0	0	0	0	0	0	0.000000000	-1.55431e-15	0.788798	-0.788798	2.66454e-15	0.828698	-1.5708	0	0.1	0.1	0.1	0.1	0.1	0.1	0.1	0	0	0	0	0	0	0	0.000000000
1504604822.969062089	0.00613592	0.771592	-0.794602	0.00920388	0.814544	-1.58767	-0.0122718	0	0	0	0	0	0	0	0	0	0	0	0	0	0	0.000000000	-1.55431e-15	0.788798	-0.788798	2.66454e-15	0.828698	-1.5708	0	0.1	0.1	0.1	0.1	0.1	0.1	0.1	0	0	0	0	0	0	0	0.000000000
1504604822.989103078	0.00613592	0.771592	-0.794602	0.00920388	0.816078	-1.5892	-0.0122718	0	0	0	0	0	0	0	0	0	0	0	0	0	0	0.000000000	-1.55431e-15	0.788798	-0.788798	2.66454e-15	0.828698	-1.5708	0	0.1	0.1	0.1	0.1	0.1	0.1	0.1	0	0	0	0	0	0	0	0.000000000
1504604823.009151935	0.00613592	0.771592	-0.794602	0.00920388	0.816078	-1.5892	-0.0122718	0	0	0	0	0	0	0	0	0	0	0	0	0	0	0.000000000	-1.55431e-15	0.788798	-0.788798	2.66454e-15	0.828698	-1.5708	0	0.1	0.1	0.1	0.1	0.1	0.1	0.1	0	0	0	0	0	0	0	0.000000000
1504604823.029824018	0.00613592	0.771592	-0.794602	0.00920388	0.816078	-1.5892	-0.0122718	0	0	0	0	0	0	0	0	0	0	0	0	0	0	0.000000000	-1.55431e-15	0.788798	-0.788798	2.66454e-15	0.828698	-1.5708	0	0.1	0.1	0.1	0.1	0.1	0.1	0.1	0	0	0	0	0	0	0	0.000000000
1504604823.049005985	0.00613592	0.771592	-0.794602	0.00920388	0.816078	-1.5892	-0.0107379	0	0	0	0	0	0	0	0	0	0	0	0	0	0	0.000000000	-1.55431e-15	0.788798	-0.788798	2.66454e-15	0.828698	-1.5708	0	0.1	0.1	0.1	0.1	0.1	0.1	0.1	0	0	0	0	0	0	0	0.000000000
1504604823.069067955	0.00613592	0.771592	-0.794602	0.00920388	0.816078	-1.58767	-0.0122718	0	0	0	0	0	0	0	0	0	0	0	0	0	0	0.000000000	-1.55431e-15	0.788798	-0.788798	2.66454e-15	0.828698	-1.5708	0	0.1	0.1	0.1	0.1	0.1	0.1	0.1	0	0	0	0	0	0	0	0.000000000
1504604823.089073896	0.00613592	0.771592	-0.794602	0.00920388	0.816078	-1.58767	-0.0122718	0	0	0	0	0	0	0	0	0	0	0	0	0	0	0.000000000	-1.55431e-15	0.788798	-0.788798	2.66454e-15	0.828698	-1.5708	0	0.1	0.1	0.1	0.1	0.1	0.1	0.1	0	0	0	0	0	0	0	0.000000000
1504604823.109108924	0.00613592	0.771592	-0.794602	0.00920388	0.814544	-1.5892	-0.0122718	0	0	0	0	0	0	0	0	0	0	0	0	0	0	0.000000000	-1.55431e-15	0.788798	-0.788798	2.66454e-15	0.828698	-1.5708	0	0.1	0.1	0.1	0.1	0.1	0.1	0.1	0	0	0	0	0	0	0	0.000000000
1504604823.129039049	0.00613592	0.771592	-0.794602	0.00920388	0.814544	-1.5892	-0.0122718	0	0	0	0	0	0	0	0	0	0	0	0	0	0	0.000000000	-1.55431e-15	0.788798	-0.788798	2.66454e-15	0.828698	-1.5708	0	0.1	0.1	0.1	0.1	0.1	0.1	0.1	0	0	0	0	0	0	0	0.000000000
1504604823.149020910	0.00613592	0.771592	-0.794602	0.00920388	0.816078	-1.58767	-0.0107379	0	0	0	0	0	0	0	0	0	0	0	0	0	0	0.000000000	-0.000183044	0.788798	-0.788798	0.000549133	0.828698	-1.5708	0	0.1	0.1	0.1	0.1	0.1	0.1	0.1	0	0	0	0	0	0	0	0.000000000
1504604823.169029951	0.00613592	0.771592	-0.794602	0.00920388	0.816078	-1.58767	-0.0122718	0	0	0	0	0	0	0	0	0	0	0	0	0	0	0.000000000	-0.000604148	0.788798	-0.788798	0.00181245	0.828698	-1.5708	0	0.1	0.1	0.1	0.1	0.1	0.1	0.1	0	0	0	0	0	0	0	0.000000000
1504604823.188986063	0.00613592	0.773126	-0.794602	0.00920388	0.816078	-1.58767	-0.0107379	0	0	0	0	0	0	0	0	0	0	0	0	0	0	0.000000000	-0.000604148	0.788798	-0.788798	0.00181245	0.828698	-1.5708	0	0.1	0.1	0.1	0.1	0.1	0.1	0.1	0	0	0	0	0	0	0	0.000000000
1504604823.209057092	0.00613592	0.773126	-0.794602	0.00920388	0.816078	-1.58767	-0.0107379	0	0	0	0	0	0	0	0	0	0	0	0	0	0	0.000000000	-0.00140014	0.788798	-0.788798	0.00420043	0.828698	-1.5708	0	0.1	0.1	0.1	0.1	0.1	0.1	0.1	0	0	0	0	0	0	0	0.000000000
1504604823.229124069	0.00613592	0.771592	-0.794602	0.00920388	0.814544	-1.5892	-0.0122718	0	0	0	0	0	0	0	0	0	0	0	0	0	0	0.000000000	-0.00140014	0.788798	-0.788798	0.00420043	0.828698	-1.5708	0	0.1	0.1	0.1	0.1	0.1	0.1	0.1	0	0	0	0	0	0	0	0.000000000
1504604823.249070882	0.00613592	0.773126	-0.794602	0.00920388	0.814544	-1.58767	-0.0122718	0	0	0	0	0	0	0	0	0	0	0	0	0	0	0.000000000	-0.00267307	0.788798	-0.788798	0.00801922	0.828698	-1.5708	0	0.1	0.1	0.1	0.1	0.1	0.1	0.1	0	0	0	0	0	0	0	0.000000000
1504604823.268985033	0.00613592	0.773126	-0.794602	0.00920388	0.814544	-1.58767	-0.0122718	0	0	0	0	0	0	0	0	0	0	0	0	0	0	0.000000000	-0.00267307	0.788798	-0.788798	0.00801922	0.828698	-1.5708	0	0.1	0.1	0.1	0.1	0.1	0.1	0.1	0	0	0	0	0	0	0	0.000000000
1504604823.289232015	0.00613592	0.771592	-0.794602	0.00920388	0.814544	-1.5892	-0.0107379	0	0	0	0	0	0	0	0	0	0	0	0	0	0	0.000000000	-0.00267307	0.788798	-0.788798	0.00801922	0.828698	-1.5708	0	0.1	0.1	0.1	0.1	0.1	0.1	0.1	0	0	0	0	0	0	0	0.000000000
1504604823.310580015	0.00613592	0.771592	-0.794602	0.00920388	0.814544	-1.5892	-0.0107379	0	0	0	0	0	0	0	0	0	0	0	0	0	0	0.000000000	-0.00451397	0.788798	-0.788798	0.0135419	0.828698	-1.5708	0	0.1	0.1	0.1	0.127022	0.1	0.1	0.1	0	0	0	0	0	0	0	0.000000000
1504604823.329099893	0.00613592	0.771592	-0.794602	0.00920388	0.814544	-1.58767	-0.0122718	0	0	0	0	0	0	0	0	0	0	0	0	0	0	0.000000000	-0.00451397	0.788798	-0.788798	0.0135419	0.828698	-1.5708	0	0.1	0.1	0.1	0.127022	0.1	0.1	0.1	0	0	0	0	0	0	0	0.000000000
1504604823.349090099	0.00460194	0.771592	-0.794602	0.00920388	0.816078	-1.5892	-0.0107379	0	0	0	0	0	0	0	0	0	0	0	0	0	0	0.000000000	-0.00700318	0.788798	-0.788798	0.0210095	0.828698	-1.5708	0	0.1	0.1	0.1	0.171756	0.1	0.1	0.1	0	0	0	0	0	0	0	0.000000000
1504604823.369015932	0.00306796	0.771592	-0.794602	0.00920388	0.816078	-1.5892	-0.0122718	0.107442	0	0	0	0	0	0	0	0	0	0	0	0	0	0.000000000	-0.00700318	0.788798	-0.788798	0.0210095	0.828698	-1.5708	0	0.1	0.1	0.1	0.171756	0.1	0.1	0.1	0	0	0	0	0	0	0	0.000000000
1504604823.389075040	0	0.771592	-0.794602	0.00920388	0.814544	-1.58767	-0.0122718	0.155195	0	0	0	0	0	0	0	0	0	0	0	0	0	0.000000000	-0.0102108	0.788798	-0.788798	0.0306323	0.828698	-1.5708	0	0.1	0.1	0.1	0.221323	0.1	0.1	0.1	0	0	0	0	0	0	0	0.000000000
1504604823.409015893	0	0.771592	-0.794602	0.00920388	0.814544	-1.58767	-0.0122718	0.155195	0	0	0	0	0	0	0	0	0	0	0	0	0	0.000000000	-0.0102108	0.788798	-0.788798	0.0306323	0.828698	-1.5708	0	0.1	0.1	0.1	0.221323	0.1	0.1	0.1	0	0	0	0	0	0	0	0.000000000
1504604823.429647922	-0.00306796	0.771592	-0.794602	0.0122718	0.816078	-1.5892	-0.0122718	0	0	0	0.0955044	0	0	0	0	0	0	0	0	0	0	0.000000000	-0.0141968	0.788798	-0.788798	0.0425904	0.828698	-1.5708	0	0.1	0.1	0.1	0.275038	0.1	0.1	0.1	0	0	0	0	0	0	0	0.000000000
1504604823.449006080	-0.00613592	0.771592	-0.794602	0.0168738	0.816078	-1.5892	-0.0107379	0.107442	0	0	0.191009	0	0	0	0	0	0	0	0	0	0	0.000000000	-0.0141968	0.788798	-0.788798	0.0425904	0.828698	-1.5708	0	0.1	0.1	0.1	0.275038	0.1	0.1	0.1	0	0	0	0	0	0	0	0.000000000
1504604823.469147920	-0.0076699	0.773126	-0.794602	0.0230097	0.816078	-1.5892	-0.0122718	0	0	0	0.191009	0	0	0	0	0	0	0	0	0	0	0.000000000	-0.0190119	0.788798	-0.788798	0.0570356	0.828698	-1.5708	0	0.110746	0.1	0.1	0.332239	0.1	0.1	0.1	0	0	0	0	0	0	0	0.000000000
1504604823.489001035	-0.0076699	0.773126	-0.794602	0.0306796	0.814544	-1.5892	-0.0122718	0	0	0	0.238761	0	0	0	0	0	0	0	0	0	0	0.000000000	-0.0190119	0.788798	-0.788798	0.0570356	0.828698	-1.5708	0	0.110746	0.1	0.1	0.332239	0.1	0.1	0.1	0	0	0	0	0	0	0	0.000000000
1504604823.508996009	-0.0076699	0.773126	-0.794602	0.0306796	0.814544	-1.5892	-0.0122718	0	0	0	0.238761	0	0	0	0	0	0	0	0	0	0	0.000000000	-0.0190119	0.788798	-0.788798	0.0570356	0.828698	-1.5708	0	0.110746	0.1	0.1	0.332239	0.1	0.1	0.1	0	0	0	0	0	0	0	0.000000000
1504604823.529444932	-0.00920388	0.771592	-0.794602	0.0383495	0.814544	-1.58767	-0.0107379	0.107442	0	0	0.286513	0	0	0	0	0	0	0	0	0	0	0.000000000	-0.0246973	0.788798	-0.788798	0.0740918	0.828698	-1.5708	0	0.130764	0.1	0.1	0.392291	0.1	0.1	0.1	0	0	0	0	0	0	0	0.000000000
1504604823.549062013	-0.0122718	0.771592	-0.794602	0.0460194	0.814544	-1.58767	-0.0122718	0.107442	0	0	0.286513	0	0	0	0	0	0	0	0	0	0	0.000000000	-0.0246973	0.788798	-0.788798	0.0740918	0.828698	-1.5708	0	0.130764	0.1	0.1	0.392291	0.1	0.1	0.1	0	0	0	0	0	0	0	0.000000000
1504604823.569044113	-0.0138058	0.771592	-0.794602	0.0552233	0.816078	-1.58767	-0.0107379	0.107442	0	0	0.286513	0	0	0	0	0	0	0	0	0	0	0.000000000	-0.0312854	0.788798	-0.788798	0.0938562	0.828698	-1.5708	0	0.151527	0.1	0.1	0.454582	0.1	0.1	0.1	0	0	0	0	0	0	0	0.000000000
1504604823.590373992	-0.0184078	0.771592	-0.794602	0.0644272	0.814544	-1.58767	-0.0122718	0.155195	0	0	0.334265	0	0	0	0	0	0	0	0	0	0	0.000000000	-0.0312854	0.788798	-0.788798	0.0938562	0.828698	-1.5708	0	0.151527	0.1	0.1	0.454582	0.1	0.1	0.1	0	0	0	0	0	0	0	0.000000000
1504604823.609034061	-0.0184078	0.771592	-0.794602	0.0644272	0.814544	-1.58767	-0.0122718	0.155195	0	0	0.334265	0	0	0	0	0	0	0	0	0	0	0.000000000	-0.0388002	0.788798	-0.788798	0.116401	0.828698	-1.5708	0	0.172842	0.1	0.1	0.518525	0.1	0.1	0.1	0	0	0	0	0	0	0	0.000000000
1504604823.629062891	-0.0230097	0.773126	-0.794602	0.0751651	0.814544	-1.58767	-0.0122718	0.155195	0	0	0.382018	0	0	0	0	0	0	0	0	0	0	0.000000000	-0.0388002	0.788798	-0.788798	0.116401	0.828698	-1.5708	0	0.172842	0.1	0.1	0.518525	0.1	0.1	0.1	0	0	0	0	0	0	0	0.000000000
1504604823.649158954	-0.0260777	0.771592	-0.794602	0.0874369	0.814544	-1.58767	-0.0107379	0.107442	0	0	0.42977	0	0	0	0	0	0	0	0	0	0	0.000000000	-0.0472576	0.788798	-0.788798	0.141773	0.828698	-1.5708	0	0.19452	0.1	0.1	0.58356	0.1	0.1	0.1	0	0	0	0	0	0	0	0.000000000
1504604823.669004917	-0.0322136	0.771592	-0.794602	0.101243	0.814544	-1.58767	-0.0107379	0.202947	0	0	0.42977	0	0	0	0	0	0	0	0	0	0	0.000000000	-0.0472576	0.788798	-0.788798	0.141773	0.828698	-1.5708	0	0.19452	0.1	0.1	0.58356	0.1	0.1	0.1	0	0	0	0	0	0	0	0.000000000
1504604823.688986063	-0.0368155	0.773126	-0.794602	0.116583	0.816078	-1.58767	-0.0122718	0.155195	0	0	0.573026	0	0	0	0	0	0	0	0	0	0	0.000000000	-0.0566656	0.788798	-0.788798	0.169997	0.828698	-1.5708	0	0.216383	0.1	0.1	0.649149	0.1	0.1	0.1	0	0	0	0	0	0	0	0.000000000
1504604823.709085941	-0.0368155	0.773126	-0.794602	0.116583	0.816078	-1.58767	-0.0122718	0.155195	0	0	0.573026	0	0	0	0	0	0	0	0	0	0	0.000000000	-0.0566656	0.788798	-0.788798	0.169997	0.828698	-1.5708	0	0.216383	0.1	0.1	0.649149	0.1	0.1	0.1	0	0	0	0	0	0	0	0.000000000
1504604823.729100942	-0.0429515	0.773126	-0.794602	0.130388	0.814544	-1.5892	-0.0122718	0.202947	0	0	0.525274	0	0	0	0	0	0	0	0	0	0	0.000000000	-0.0670248	0.788798	-0.788798	0.201074	0.828698	-1.5708	0	0.238261	0.1	0.1	0.714784	0.1	0.1	0.1	0	0	0	0	0	0	0	0.000000000
1504604823.749053001	-0.0475534	0.771592	-0.794602	0.144194	0.816078	-1.58767	-0.0122718	0.202947	0	0	0.477522	0	0	0	0	0	0	0	0	0	0	0.000000000	-0.0670248	0.788798	-0.788798	0.201074	0.828698	-1.5708	0	0.238261	0.1	0.1	0.714784	0.1	0.1	0.1	0	0	0	0	0	0	0	0.000000000
1504604823.769304037	-0.0521553	0.771592	-0.794602	0.162602	0.816078	-1.58767	-0.0122718	0.155195	0	0	0.620779	0	0	0	0	0	0	0	0	0	0	0.000000000	-0.0670248	0.788798	-0.788798	0.201074	0.828698	-1.5708	0	0.238261	0.1	0.1	0.714784	0.1	0.1	0.1	0	0	0	0	0	0	0	0.000000000
1504604823.789016008	-0.0582913	0.773126	-0.794602	0.18101	0.814544	-1.5892	-0.0122718	0.202947	0	0	0.668531	0	0	0	0	0	0	0	0	0	0	0.000000000	-0.0783288	0.788798	-0.788798	0.234986	0.828698	-1.5708	0	0.259992	0.1	0.1	0.779974	0.1	0.1	0.1	0	0	0	0	0	0	0	0.000000000
1504604823.809120893	-0.0582913	0.773126	-0.794602	0.18101	0.814544	-1.5892	-0.0122718	0.202947	0	0	0.668531	0	0	0	0	0	0	0	0	0	0	0.000000000	-0.0783288	0.788798	-0.788798	0.234986	0.828698	-1.5708	0	0.259992	0.1	0.1	0.779974	0.1	0.1	0.1	0	0	0	0	0	0	0	0.000000000
1504604823.829193115	-0.0644272	0.773126	-0.794602	0.199418	0.816078	-1.58767	-0.0122718	0.250699	0	0	0.716283	0	0	0	0	0	0	0	0	0	0	0.000000000	-0.0905644	0.788798	-0.788798	0.271693	0.828698	-1.5708	0	0.28142	0.1	0.1	0.844261	0.1	0.1	0.1	0	0	0	0	0	0	0	0.000000000
1504604823.849018096	-0.0720971	0.771592	-0.794602	0.217825	0.814544	-1.58767	-0.0122718	0.250699	0	0	0.716283	0	0	0	0	0	0	0	0	0	0	0.000000000	-0.0905644	0.788798	-0.788798	0.271693	0.828698	-1.5708	0	0.28142	0.1	0.1	0.844261	0.1	0.1	0.1	0	0	0	0	0	0	0	0.000000000
1504604823.869045972	-0.078233	0.771592	-0.794602	0.239301	0.814544	-1.58767	-0.0122718	0.250699	0	0	0.764035	0	0	0	0	0	0	0	0	0	0	0.000000000	-0.103712	0.788798	-0.788798	0.311137	0.828698	-1.5708	0	0.302402	0.1	0.1	0.907206	0.1	0.1	0.1	0	0	0	0	0	0	0	0.000000000
1504604823.888982057	-0.0859029	0.771592	-0.794602	0.260777	0.816078	-1.58767	-0.0122718	0.250699	0	0	0.811788	0	0	0	0	0	0	0	0	0	0	0.000000000	-0.103712	0.788798	-0.788798	0.311137	0.828698	-1.5708	0	0.302402	0.1	0.1	0.907206	0.1	0.1	0.1	0	0	0	0	0	0	0	0.000000000
1504604823.909095048	-0.0859029	0.771592	-0.794602	0.260777	0.816078	-1.58767	-0.0122718	0.250699	0	0	0.811788	0	0	0	0	0	0	0	0	0	0	0.000000000	-0.117747	0.788798	-0.788798	0.353241	0.828698	-1.5708	0	0.3228	0.1	0.1	0.9684	0.1	0.1	0.1	0	0	0	0	0	0	0	0.000000000
1504604823.929131984	-0.0920388	0.771592	-0.794602	0.282252	0.816078	-1.5892	-0.0122718	0.250699	0	0	0.764035	0	0	0	0	0	0	0	0	0	0	0.000000000	-0.117747	0.788798	-0.788798	0.353241	0.828698	-1.5708	0	0.3228	0.1	0.1	0.9684	0.1	0.1	0.1	0	0	0	0	0	0	0	0.000000000
1504604823.949078083	-0.0997088	0.771592	-0.794602	0.305262	0.814544	-1.58767	-0.0122718	0.298451	0	0	0.85954	0	0	0	0	0	0	0	0	0	0	0.000000000	-0.132638	0.788798	-0.788798	0.397913	0.828698	-1.5708	0	0.342484	0.1	0.1	1.02745	0.1	0.1	0.1	0	0	0	0	0	0	0	0.000000000
1504604823.969033002	-0.107379	0.771592	-0.794602	0.329806	0.814544	-1.5892	-0.0107379	0.298451	0	0	0.907292	0	0	0	0	0	0	0	0	0	0	0.000000000	-0.132638	0.788798	-0.788798	0.397913	0.828698	-1.5708	0	0.342484	0.1	0.1	1.02745	0.1	0.1	0.1	0	0	0	0	0	0	0	0.000000000
1504604823.989037990	-0.115049	0.771592	-0.794602	0.35435	0.816078	-1.5892	-0.0122718	0.298451	0	0	0.907292	0	0	0	0	0	0	0	0	0	0	0.000000000	-0.148348	0.788798	-0.788798	0.445044	0.828698	-1.5708	0	0.361335	0.1	0.1	1.08401	0.1	0.1	0.1	0	0	0	0	0	0	0	0.000000000
1504604824.009052038	-0.115049	0.771592	-0.794602	0.35435	0.816078	-1.5892	-0.0122718	0.298451	0	0	0.907292	0	0	0	0	0	0	0	0	0	0	0.000000000	-0.148348	0.788798	-0.788798	0.445044	0.828698	-1.5708	0	0.361335	0.1	0.1	1.08401	0.1	0.1	0.1	0	0	0	0	0	0	0	0.000000000
1504604824.029052019	-0.122718	0.771592	-0.794602	0.378893	0.816078	-1.58767	-0.0122718	0.298451	0	0	0.907292	0	0	0	0	0	0	0	0	0	0	0.000000000	-0.148348	0.788798	-0.788798	0.445044	0.828698	-1.5708	0	0.361335	0.1	0.1	1.08401	0.1	0.1	0.1	0	0	0	0	0	0	0	0.000000000
1504604824.049098968	-0.130388	0.771592	-0.794602	0.404971	0.814544	-1.5892	-0.0122718	0.250699	0	0	0.955044	0	0	0	0	0	0	0	0	0	0	0.000000000	-0.164837	0.788798	-0.788798	0.49451	0.828698	-1.5708	0	0.37924	0.1	0.1	1.13772	0.1	0.1	0.1	0	0	0	0	0	0	0	0.000000000
1504604824.069250106	-0.141126	0.771592	-0.794602	0.432583	0.816078	-1.5892	-0.0122718	0.393956	0	0	1.0028	0	0	0	0	0	0	0	0	0	0	0.000000000	-0.164837	0.788798	-0.788798	0.49451	0.828698	-1.5708	0	0.37924	0.1	0.1	1.13772	0.1	0.1	0.1	0	0	0	0	0	0	0	0.000000000
1504604824.089018106	-0.15033	0.773126	-0.794602	0.460194	0.814544	-1.5892	-0.0107379	0.346204	0	0	1.0028	0	0	0	0	0	0	0	0	0	0	0.000000000	-0.182058	0.788798	-0.788798	0.546175	0.828698	-1.5708	0	0.396096	0.1	0.1	1.18829	0.1	0.1	0.1	0	0	0	0	0	0	0	0.000000000
1504604824.108971118	-0.15033	0.773126	-0.794602	0.460194	0.814544	-1.5892	-0.0107379	0.346204	0	0	1.0028	0	0	0	0	0	0	0	0	0	0	0.000000000	-0.182058	0.788798	-0.788798	0.546175	0.828698	-1.5708	0	0.396096	0.1	0.1	1.18829	0.1	0.1	0.1	0	0	0	0	0	0	0	0.000000000
1504604824.129093885	-0.161068	0.773126	-0.794602	0.487806	0.816078	-1.5892	-0.0122718	0.346204	0	0	1.0028	0	0	0	0	0	0	0	0	0	0	0.000000000	-0.199963	0.788798	-0.788798	0.599888	0.828698	-1.5708	0	0.411805	0.1	0.1	1.23541	0.1	0.1	0.1	0	0	0	0	0	0	0	0.000000000
1504604824.149075031	-0.167204	0.771592	-0.794602	0.516952	0.816078	-1.5892	-0.0107379	0.250699	0	0	1.05055	0	0	0	0	0	0	0	0	0	0	0.000000000	-0.199963	0.788798	-0.788798	0.599888	0.828698	-1.5708	0	0.411805	0.1	0.1	1.23541	0.1	0.1	0.1	0	0	0	0	0	0	0	0.000000000
1504604824.169125080	-0.177942	0.771592	-0.794602	0.546097	0.814544	-1.5892	-0.0122718	0.393956	0	0	1.0983	0	0	0	0	0	0	0	0	0	0	0.000000000	-0.218497	0.788798	-0.788798	0.65549	0.828698	-1.5708	0	0.426282	0.1	0.1	1.27885	0.1	0.1	0.1	0	0	0	0	0	0	0	0.000000000
1504604824.189419031	-0.190214	0.773126	-0.794602	0.576777	0.816078	-1.5892	-0.0107379	0.441708	0	0	1.14605	0	0	0	0	0	0	0	0	0	0	0.000000000	-0.218497	0.788798	-0.788798	0.65549	0.828698	-1.5708	0	0.426282	0.1	0.1	1.27885	0.1	0.1	0.1	0	0	0	0	0	0	0	0.000000000
1504604824.209045886	-0.190214	0.773126	-0.794602	0.576777	0.816078	-1.5892	-0.0107379	0.441708	0	0	1.14605	0	0	0	0	0	0	0	0	0	0	0.000000000	-0.237603	0.788798	-0.788798	0.712809	0.828698	-1.5708	0	0.439447	0.1	0.1	1.31834	0.1	0.1	0.1	0	0	0	0	0	0	0	0.000000000
1504604824.229057073	-0.200951	0.771592	-0.794602	0.610524	0.816078	-1.5892	-0.0107379	0.393956	0	0	1.0983	0	0	0	0	0	0	0	0	0	0	0.000000000	-0.237603	0.788798	-0.788798	0.712809	0.828698	-1.5708	0	0.439447	0.1	0.1	1.31834	0.1	0.1	0.1	0	0	0	0	0	0	0	0.000000000
1504604824.249036073	-0.213223	0.771592	-0.794602	0.641204	0.816078	-1.5892	-0.0107379	0.48946	0	0	1.14605	0	0	0	0	0	0	0	0	0	0	0.000000000	-0.257222	0.788798	-0.788798	0.771665	0.828698	-1.5708	0	0.451229	0.1	0.1	1.35369	0.1	0.1	0.1	0	0	0	0	0	0	0	0.000000000
1504604824.269028902	-0.223961	0.773126	-0.796136	0.67035	0.816078	-1.58767	-0.0122718	0.441708	0	0	1.05055	0	0	0	0	0	0	0	0	0	0	0.000000000	-0.257222	0.788798	-0.788798	0.771665	0.828698	-1.5708	0	0.451229	0.1	0.1	1.35369	0.1	0.1	0.1	0	0	0	0	0	0	0	0.000000000
1504604824.288958072	-0.233165	0.773126	-0.796136	0.702563	0.816078	-1.5892	-0.0122718	0.346204	0	0	1.19381	0	0	0	0	0	0	0	0	0	0	0.000000000	-0.257222	0.788798	-0.788798	0.771665	0.828698	-1.5708	0	0.451229	0.1	0.1	1.35369	0.1	0.1	0.1	0	0	0	0	0	0	0	0.000000000
1504604824.309072017	-0.233165	0.773126	-0.796136	0.702563	0.816078	-1.5892	-0.0122718	0.346204	0	0	1.19381	0	0	0	0	0	0	0	0	0	0	0.000000000	-0.27729	0.788798	-0.788798	0.83187	0.828698	-1.5708	0	0.461566	0.1	0.1	1.3847	0.1	0.1	0.1	0	0	0	0	0	0	0	0.000000000
1504604824.329068899	-0.246971	0.773126	-0.794602	0.739379	0.816078	-1.5892	-0.0107379	0.48946	0	0	1.28931	0	0	0	0	0	0	0	0	0	0	0.000000000	-0.27729	0.788798	-0.788798	0.83187	0.828698	-1.5708	0	0.461566	0.1	0.1	1.3847	0.1	0.1	0.1	0	0	0	0	0	0	0	0.000000000
1504604824.349133014	-0.257709	0.771592	-0.794602	0.773126	0.816078	-1.5892	-0.0122718	0.441708	0	0	1.24156	0	0	0	0	0	0	0	0	0	0	0.000000000	-0.297742	0.788798	-0.788798	0.893227	0.828698	-1.5708	0	0.470405	0.1	0.1	1.41122	0.1	0.1	0.1	0	0	0	0	0	0	0	0.000000000
1504604824.369124889	-0.271515	0.771592	-0.794602	0.808408	0.816078	-1.5892	-0.0122718	0.441708	0	0	1.28931	0	0	0	0	0	0	0	0	0	0	0.000000000	-0.297742	0.788798	-0.788798	0.893227	0.828698	-1.5708	0	0.470405	0.1	0.1	1.41122	0.1	0.1	0.1	0	0	0	0	0	0	0	0.000000000
1504604824.389003038	-0.282252	0.773126	-0.794602	0.845223	0.816078	-1.5892	-0.0122718	0.441708	0	0	1.28931	0	0	0	0	0	0	0	0	0	0	0.000000000	-0.318512	0.788798	-0.788798	0.955535	0.828698	-1.5708	0	0.4777	0.1	0.1	1.4331	0.1	0.1	0.1	0	0	0	0	0	0	0	0.000000000
1504604824.408999919	-0.282252	0.773126	-0.794602	0.845223	0.816078	-1.5892	-0.0122718	0.441708	0	0	1.28931	0	0	0	0	0	0	0	0	0	0	0.000000000	-0.318512	0.788798	-0.788798	0.955535	0.828698	-1.5708	0	0.4777	0.1	0.1	1.4331	0.1	0.1	0.1	0	0	0	0	0	0	0	0.000000000
1504604824.429078102	-0.294524	0.773126	-0.794602	0.882039	0.816078	-1.5892	-0.0122718	0.441708	0	0	1.28931	0	0	0	0	0	0	0	0	0	0	0.000000000	-0.33953	0.788798	-0.788798	1.01859	0.828698	-1.5708	0	0.483411	0.1	0.1	1.45023	0.1	0.1	0.1	0	0	0	0	0	0	0	0.000000000
1504604824.449064016	-0.305262	0.771592	-0.794602	0.912719	0.816078	-1.5892	-0.0122718	0.393956	0	0	1.24156	0	0	0	0	0	0	0	0	0	0	0.000000000	-0.33953	0.788798	-0.788798	1.01859	0.828698	-1.5708	0	0.483411	0.1	0.1	1.45023	0.1	0.1	0.1	0	0	0	0	0	0	0	0.000000000
1504604824.469082117	-0.317534	0.773126	-0.794602	0.946466	0.817612	-1.5892	-0.0122718	0.441708	0	0	1.24156	0	0	0	0	0	0	0	0	0	0	0.000000000	-0.360726	0.788798	-0.788798	1.08218	0.828698	-1.5708	0	0.487512	0.1	0.1	1.46254	0.1	0.1	0.1	0	0	0	0	0	0	0	0.000000000
1504604824.489037990	-0.33134	0.773126	-0.794602	0.983282	0.816078	-1.5892	-0.0107379	0.48946	0	0	1.33706	0	0	0	0	0	0	0	0	0	0	0.000000000	-0.360726	0.788798	-0.788798	1.08218	0.828698	-1.5708	0	0.487512	0.1	0.1	1.46254	0.1	0.1	0.1	0	0	0	0	0	0	0	0.000000000
1504604824.509087085	-0.33134	0.773126	-0.794602	0.983282	0.816078	-1.5892	-0.0107379	0.48946	0	0	1.33706	0	0	0	0	0	0	0	0	0	0	0.000000000	-0.360726	0.788798	-0.788798	1.08218	0.828698	-1.5708	0	0.487512	0.1	0.1	1.46254	0.1	0.1	0.1	0	0	0	0	0	0	0	0.000000000
1504604824.529073953	-0.345146	0.773126	-0.794602	1.02163	0.816078	-1.5892	-0.0122718	0.48946	0	0	1.33706	0	0	0	0	0	0	0	0	0	0	0.000000000	-0.382029	0.788798	-0.788798	1.14609	0.828698	-1.5708	0	0.489981	0.1	0.1	1.46994	0.1	0.1	0.1	0	0	0	0	0	0	0	0.000000000
1504604824.549068927	-0.355884	0.773126	-0.794602	1.05845	0.817612	-1.5892	-0.0107379	0.441708	0	0	1.33706	0	0	0	0	0	0	0	0	0	0	0.000000000	-0.382029	0.788798	-0.788798	1.14609	0.828698	-1.5708	0	0.489981	0.1	0.1	1.46994	0.1	0.1	0.1	0	0	0	0	0	0	0	0.000000000
1504604824.568996906	-0.366621	0.773126	-0.794602	1.09526	0.817612	-1.5892	-0.0122718	0.393956	0	0	1.33706	0	0	0	0	0	0	0	0	0	0	0.000000000	-0.403369	0.788798	-0.788798	1.21011	0.828698	-1.5708	0	0.490805	0.1	0.1	1.47241	0.1	0.1	0.1	0	0	0	0	0	0	0	0.000000000
1504604824.588963985	-0.378893	0.773126	-0.796136	1.13361	0.817612	-1.5892	-0.0107379	0.441708	0	0	1.38481	0	0	0	0	0	0	0	0	0	0	0.000000000	-0.403369	0.788798	-0.788798	1.21011	0.828698	-1.5708	0	0.490805	0.1	0.1	1.47241	0.1	0.1	0.1	0	0	0	0	0	0	0	0.000000000
1504604824.608984947	-0.378893	0.773126	-0.796136	1.13361	0.817612	-1.5892	-0.0107379	0.441708	0	0	1.38481	0	0	0	0	0	0	0	0	0	0	0.000000000	-0.424672	0.788798	-0.788798	1.27402	0.828698	-1.5708	0	0.489981	0.1	0.1	1.46994	0.1	0.1	0.1	0	0	0	0	0	0	0	0.000000000
1504604824.629084110	-0.391165	0.773126	-0.794602	1.17043	0.817612	-1.5892	-0.0107379	0.48946	0	0	1.28931	0	0	0	0	0	0	0	0	0	0	0.000000000	-0.424672	0.788798	-0.788798	1.27402	0.828698	-1.5708	0	0.489981	0.1	0.1	1.46994	0.1	0.1	0.1	0	0	0	0	0	0	0	0.000000000
1504604824.649147987	-0.401903	0.773126	-0.796136	1.20417	0.817612	-1.5892	-0.0122718	0.441708	0	0	1.24156	0	0	0	0	0	0	0	0	0	0	0.000000000	-0.445868	0.788798	-0.788798	1.33761	0.828698	-1.5708	0	0.487512	0.1	0.1	1.46254	0.1	0.1	0.1	0	0	0	0	0	0	0	0.000000000
1504604824.669126987	-0.415709	0.773126	-0.796136	1.24252	0.817612	-1.59074	-0.0122718	0.48946	0	0	1.38481	0	0	0	0	0	0	0	0	0	0	0.000000000	-0.445868	0.788798	-0.788798	1.33761	0.828698	-1.5708	0	0.487512	0.1	0.1	1.46254	0.1	0.1	0.1	0	0	0	0	0	0	0	0.000000000
1504604824.689229965	-0.427981	0.773126	-0.794602	1.28087	0.817612	-1.59074	-0.0107379	0.48946	0	0	1.38481	0	0	0	0	0	0	0	0	0	0	0.000000000	-0.466886	0.788798	-0.788798	1.40066	0.828698	-1.5708	0	0.483411	0.1	0.1	1.45023	0.1	0.1	0.1	0	0	0	0	0	0	0	0.000000000
1504604824.709062099	-0.427981	0.773126	-0.794602	1.28087	0.817612	-1.59074	-0.0107379	0.48946	0	0	1.38481	0	0	0	0	0	0	0	0	0	0	0.000000000	-0.466886	0.788798	-0.788798	1.40066	0.828698	-1.5708	0	0.483411	0.1	0.1	1.45023	0.1	0.1	0.1	0	0	0	0	0	0	0	0.000000000
1504604824.729012966	-0.441786	0.773126	-0.796136	1.32076	0.817612	-1.5892	-0.0122718	0.48946	0	0	1.38481	0	0	0	0	0	0	0	0	0	0	0.000000000	-0.487656	0.788798	-0.788798	1.46297	0.828698	-1.5708	0	0.477699	0.1	0.1	1.4331	0.1	0.1	0.1	0	0	0	0	0	0	0	0.000000000
1504604824.749356985	-0.454058	0.773126	-0.794602	1.35144	0.817612	-1.59074	-0.0122718	0.393956	0	0	1.14605	0	0	0	0	0	0	0	0	0	0	0.000000000	-0.487656	0.788798	-0.788798	1.46297	0.828698	-1.5708	0	0.477699	0.1	0.1	1.4331	0.1	0.1	0.1	0	0	0	0	0	0	0	0.000000000
1504604824.769059896	-0.463262	0.773126	-0.796136	1.38365	0.817612	-1.5892	-0.0122718	0.393956	0	0	1.14605	0	0	0	0	0	0	0	0	0	0	0.000000000	-0.487656	0.788798	-0.788798	1.46297	0.828698	-1.5708	0	0.477699	0.1	0.1	1.4331	0.1	0.1	0.1	0	0	0	0	0	0	0	0.000000000
1504604824.789009094	-0.474	0.773126	-0.796136	1.42353	0.817612	-1.59074	-0.0122718	0.441708	0	0	1.38481	0	0	0	0	0	0	0	0	0	0	0.000000000	-0.508108	0.788798	-0.788798	1.52432	0.828698	-1.5708	0	0.470405	0.1	0.1	1.41122	0.1	0.1	0.1	0	0	0	0	0	0	0	0.000000000
1504604824.808954000	-0.474	0.773126	-0.796136	1.42353	0.817612	-1.59074	-0.0122718	0.441708	0	0	1.38481	0	0	0	0	0	0	0	0	0	0	0.000000000	-0.508108	0.788798	-0.788798	1.52432	0.828698	-1.5708	0	0.470405	0.1	0.1	1.41122	0.1	0.1	0.1	0	0	0	0	0	0	0	0.000000000
1504604824.829493045	-0.486272	0.773126	-0.794602	1.46188	0.817612	-1.59074	-0.0107379	0.441708	0	0	1.43257	0	0	0	0	0	0	0	0	0	0	0.000000000	-0.528176	0.788798	-0.788798	1.58453	0.828698	-1.5708	0	0.461567	0.1	0.1	1.38469	0.1	0.1	0.1	0	0	0	0	0	0	0	0.000000000
1504604824.848942041	-0.498544	0.773126	-0.796136	1.49717	0.817612	-1.59074	-0.0122718	0.537212	0	0	1.33706	0	0	0	0	0	0	0	0	0	0	0.000000000	-0.528176	0.788798	-0.788798	1.58453	0.828698	-1.5708	0	0.461567	0.1	0.1	1.38469	0.1	0.1	0.1	0	0	0	0	0	0	0	0.000000000
1504604824.869035959	-0.513884	0.773126	-0.794602	1.53245	0.817612	-1.59074	-0.0122718	0.537212	0	0	1.28931	0	0	0	0	0	0	0	0	0	0	0.000000000	-0.547795	0.788798	-0.788798	1.64339	0.828698	-1.5708	0	0.451229	0.1	0.1	1.35369	0.1	0.1	0.1	0	0	0	0	0	0	0	0.000000000
1504604824.889003038	-0.524621	0.773126	-0.796136	1.56773	0.817612	-1.59074	-0.0122718	0.441708	0	0	1.28931	0	0	0	0	0	0	0	0	0	0	0.000000000	-0.547795	0.788798	-0.788798	1.64339	0.828698	-1.5708	0	0.451229	0.1	0.1	1.35369	0.1	0.1	0.1	0	0	0	0	0	0	0	0.000000000
1504604824.909054040	-0.524621	0.773126	-0.796136	1.56773	0.817612	-1.59074	-0.0122718	0.441708	0	0	1.28931	0	0	0	0	0	0	0	0	0	0	0.000000000	-0.566901	0.788798	-0.788798	1.7007	0.828698	-1.5708	0	0.439447	0.1	0.1	1.31834	0.1	0.1	0.1	0	0	0	0	0	0	0	0.000000000
1504604824.928977966	-0.532291	0.773126	-0.796136	1.59994	0.817612	-1.59074	-0.0122718	0.298451	0	0	1.19381	0	0	0	0	0	0	0	0	0	0	0.000000000	-0.566901	0.788798	-0.788798	1.7007	0.828698	-1.5708	0	0.439447	0.1	0.1	1.31834	0.1	0.1	0.1	0	0	0	0	0	0	0	0.000000000
1504604824.948999881	-0.543029	0.773126	-0.794602	1.63216	0.817612	-1.59074	-0.0122718	0.393956	0	0	1.14605	0	0	0	0	0	0	0	0	0	0	0.000000000	-0.585435	0.788798	-0.788798	1.75631	0.828698	-1.5708	0	0.426281	0.1	0.1	1.27885	0.1	0.1	0.1	0	0	0	0	0	0	0	0.000000000
1504604824.968977928	-0.555301	0.773126	-0.796136	1.6659	0.817612	-1.59074	-0.0107379	0.441708	0	0	1.28931	0	0	0	0	0	0	0	0	0	0	0.000000000	-0.585435	0.788798	-0.788798	1.75631	0.828698	-1.5708	0	0.426281	0.1	0.1	1.27885	0.1	0.1	0.1	0	0	0	0	0	0	0	0.000000000
1504604824.989048004	-0.567573	0.773126	-0.796136	1.70118	0.817612	-1.59074	-0.0107379	0.441708	0	0	1.19381	0	0	0	0	0	0	0	0	0	0	0.000000000	-0.60334	0.788798	-0.788798	1.81002	0.828698	-1.5708	0	0.411805	0.1	0.1	1.23541	0.1	0.1	0.1	0	0	0	0	0	0	0	0.000000000
1504604825.009008884	-0.567573	0.773126	-0.796136	1.70118	0.817612	-1.59074	-0.0107379	0.441708	0	0	1.19381	0	0	0	0	0	0	0	0	0	0	0.000000000	-0.60334	0.788798	-0.788798	1.81002	0.828698	-1.5708	0	0.411805	0.1	0.1	1.23541	0.1	0.1	0.1	0	0	0	0	0	0	0	0.000000000
1504604825.029016017	-0.579845	0.773126	-0.796136	1.7334	0.817612	-1.59074	-0.0107379	0.441708	0	0	1.19381	0	0	0	0	0	0	0	0	0	0	0.000000000	-0.60334	0.788798	-0.788798	1.81002	0.828698	-1.5708	0	0.411805	0.1	0.1	1.23541	0.1	0.1	0.1	0	0	0	0	0	0	0	0.000000000
1504604825.048995971	-0.589049	0.77466	-0.796136	1.76408	0.817612	-1.59074	-0.0107379	0.393956	0	0	1.14605	0	0	0	0	0	0	0	0	0	0	0.000000000	-0.620562	0.788798	-0.788798	1.86168	0.828698	-1.5708	0	0.396096	0.1	0.1	1.18829	0.1	0.1	0.1	0	0	0	0	0	0	0	0.000000000
1504604825.069235086	-0.598253	0.773126	-0.796136	1.79629	0.817612	-1.59074	-0.0122718	0.346204	0	0	1.14605	0	0	0	0	0	0	0	0	0	0	0.000000000	-0.620562	0.788798	-0.788798	1.86168	0.828698	-1.5708	0	0.396096	0.1	0.1	1.18829	0.1	0.1	0.1	0	0	0	0	0	0	0	0.000000000
1504604825.088973999	-0.605922	0.77466	-0.796136	1.8239	0.817612	-1.59074	-0.0107379	0.298451	0	0	1.05055	0	0	0	0	0	0	0	0	0	0	0.000000000	-0.63705	0.788798	-0.788798	1.91115	0.828698	-1.5708	0	0.37924	0.1	0.1	1.13772	0.1	0.1	0.1	0	0	0	0	0	0	0	0.000000000
1504604825.109087944	-0.61666	0.77466	-0.796136	1.8239	0.817612	-1.59074	-0.0107379	0.441708	0	0	1.05055	0	0	0	0	0	0	0	0	0	0	0.000000000	-0.63705	0.788798	-0.788798	1.91115	0.828698	-1.5708	0	0.37924	0.1	0.1	1.13772	0.1	0.1	0.1	0	0	0	0	0	0	0	0.000000000
1504604825.129077911	-0.61666	0.77466	-0.796136	1.85305	0.817612	-1.59074	-0.0122718	0.441708	0	0	1.05055	0	0	0	0	0	0	0	0	0	0	0.000000000	-0.65276	0.788798	-0.788798	1.95828	0.828698	-1.5708	0	0.361335	0.1	0.1	1.084	0.1	0.1	0.1	0	0	0	0	0	0	0	0.000000000
1504604825.149049997	-0.627398	0.77466	-0.796136	1.88066	0.817612	-1.59074	-0.0107379	0.393956	0	0	1.0028	0	0	0	0	0	0	0	0	0	0	0.000000000	-0.65276	0.788798	-0.788798	1.95828	0.828698	-1.5708	0	0.361335	0.1	0.1	1.084	0.1	0.1	0.1	0	0	0	0	0	0	0	0.000000000
1504604825.169064044	-0.638136	0.77466	-0.796136	1.91134	0.817612	-1.59074	-0.0122718	0.393956	0	0	1.05055	0	0	0	0	0	0	0	0	0	0	0.000000000	-0.667651	0.788798	-0.788798	2.00295	0.828698	-1.5708	0	0.342484	0.1	0.1	1.02746	0.1	0.1	0.1	0	0	0	0	0	0	0	0.000000000
1504604825.189054012	-0.645806	0.77466	-0.796136	1.93895	0.817612	-1.59074	-0.0107379	0.298451	0	0	1.05055	0	0	0	0	0	0	0	0	0	0	0.000000000	-0.667651	0.788798	-0.788798	2.00295	0.828698	-1.5708	0	0.342484	0.1	0.1	1.02746	0.1	0.1	0.1	0	0	0	0	0	0	0	0.000000000
1504604825.208969116	-0.645806	0.77466	-0.796136	1.93895	0.817612	-1.59074	-0.0107379	0.298451	0	0	1.05055	0	0	0	0	0	0	0	0	0	0	0.000000000	-0.681686	0.788798	-0.788798	2.04506	0.828698	-1.5708	0	0.322799	0.1	0.1	0.968398	0.1	0.1	0.1	0	0	0	0	0	0	0	0.000000000
1504604825.229058027	-0.653476	0.77466	-0.796136	1.96656	0.817612	-1.59074	-0.0122718	0.298451	0	0	1.0028	0	0	0	0	0	0	0	0	0	0	0.000000000	-0.681686	0.788798	-0.788798	2.04506	0.828698	-1.5708	0	0.322799	0.1	0.1	0.968398	0.1	0.1	0.1	0	0	0	0	0	0	0	0.000000000
1504604825.248960971	-0.66268	0.77466	-0.796136	1.99264	0.817612	-1.59074	-0.0122718	0.346204	0	0	0.955044	0	0	0	0	0	0	0	0	0	0	0.000000000	-0.694834	0.788798	-0.788798	2.0845	0.828698	-1.5708	0	0.302403	0.1	0.1	0.907206	0.1	0.1	0.1	0	0	0	0	0	0	0	0.000000000
1504604825.268990039	-0.67035	0.77466	-0.79767	2.01565	0.817612	-1.59074	-0.0122718	0.250699	0	0	0.85954	0	0	0	0	0	0	0	0	0	0	0.000000000	-0.694834	0.788798	-0.788798	2.0845	0.828698	-1.5708	0	0.302403	0.1	0.1	0.907206	0.1	0.1	0.1	0	0	0	0	0	0	0	0.000000000
1504604825.288933992	-0.67802	0.773126	-0.796136	2.03866	0.817612	-1.59074	-0.0122718	0.298451	0	0	0.85954	0	0	0	0	0	0	0	0	0	0	0.000000000	-0.694834	0.788798	-0.788798	2.0845	0.828698	-1.5708	0	0.302403	0.1	0.1	0.907206	0.1	0.1	0.1	0	0	0	0	0	0	0	0.000000000
1504604825.309055089	-0.67802	0.773126	-0.796136	2.03866	0.817612	-1.59074	-0.0122718	0.298451	0	0	0.85954	0	0	0	0	0	0	0	0	0	0	0.000000000	-0.707069	0.788798	-0.788798	2.12121	0.828698	-1.5708	0	0.28142	0.1	0.1	0.844259	0.1	0.1	0.1	0	0	0	0	0	0	0	0.000000000
1504604825.329072952	-0.684155	0.77466	-0.79767	2.06014	0.817612	-1.59074	-0.0107379	0.250699	0	0	0.811788	0	0	0	0	0	0	0	0	0	0	0.000000000	-0.707069	0.788798	-0.788798	2.12121	0.828698	-1.5708	0	0.28142	0.1	0.1	0.844259	0.1	0.1	0.1	0	0	0	0	0	0	0	0.000000000
1504604825.349087953	-0.693359	0.77466	-0.79767	2.08468	0.816078	-1.59074	-0.0107379	0.298451	0	0	0.85954	0	0	0	0	0	0	0	0	0	0	0.000000000	-0.718373	0.788798	-0.788798	2.15512	0.828698	-1.5708	0	0.259991	0.1	0.1	0.779975	0.1	0.1	0.1	0	0	0	0	0	0	0	0.000000000
1504604825.369005918	-0.704097	0.77466	-0.796136	2.10769	0.817612	-1.59074	-0.0122718	0.346204	0	0	0.85954	0	0	0	0	0	0	0	0	0	0	0.000000000	-0.718373	0.788798	-0.788798	2.15512	0.828698	-1.5708	0	0.259991	0.1	0.1	0.779975	0.1	0.1	0.1	0	0	0	0	0	0	0	0.000000000
1504604825.389027118	-0.710233	0.77466	-0.796136	2.1261	0.817612	-1.59074	-0.0122718	0.298451	0	0	0.716283	0	0	0	0	0	0	0	0	0	0	0.000000000	-0.728733	0.788798	-0.788798	2.1862	0.828698	-1.5708	0	0.238262	0.1	0.1	0.714785	0.1	0.1	0.1	0	0	0	0	0	0	0	0.000000000
1504604825.408982992	-0.710233	0.77466	-0.796136	2.1261	0.817612	-1.59074	-0.0122718	0.298451	0	0	0.716283	0	0	0	0	0	0	0	0	0	0	0.000000000	-0.728733	0.788798	-0.788798	2.1862	0.828698	-1.5708	0	0.238262	0.1	0.1	0.714785	0.1	0.1	0.1	0	0	0	0	0	0	0	0.000000000
1504604825.428963899	-0.714835	0.77466	-0.79767	2.14604	0.816078	-1.59074	-0.0107379	0.202947	0	0	0.716283	0	0	0	0	0	0	0	0	0	0	0.000000000	-0.738141	0.788798	-0.788798	2.21442	0.828698	-1.5708	0	0.216383	0.1	0.1	0.649146	0.1	0.1	0.1	0	0	0	0	0	0	0	0.000000000
1504604825.449126958	-0.719437	0.77466	-0.79767	2.16291	0.817612	-1.59074	-0.0122718	0.155195	0	0	0.620779	0	0	0	0	0	0	0	0	0	0	0.000000000	-0.738141	0.788798	-0.788798	2.21442	0.828698	-1.5708	0	0.216383	0.1	0.1	0.649146	0.1	0.1	0.1	0	0	0	0	0	0	0	0.000000000
1504604825.468950986	-0.725573	0.77466	-0.79767	2.17979	0.817612	-1.59074	-0.0122718	0.250699	0	0	0.668531	0	0	0	0	0	0	0	0	0	0	0.000000000	-0.746598	0.788798	-0.788798	2.23979	0.828698	-1.5708	0	0.194519	0.1	0.1	0.583562	0.1	0.1	0.1	0	0	0	0	0	0	0	0.000000000
1504604825.489001035	-0.733243	0.77466	-0.79767	2.19513	0.817612	-1.59074	-0.0122718	0.250699	0	0	0.573026	0	0	0	0	0	0	0	0	0	0	0.000000000	-0.746598	0.788798	-0.788798	2.23979	0.828698	-1.5708	0	0.194519	0.1	0.1	0.583562	0.1	0.1	0.1	0	0	0	0	0	0	0	0.000000000
1504604825.509434938	-0.737845	0.77466	-0.79767	2.19513	0.817612	-1.59074	-0.0122718	0.202947	0	0	0.573026	0	0	0	0	0	0	0	0	0	0	0.000000000	-0.746598	0.788798	-0.788798	2.23979	0.828698	-1.5708	0	0.194519	0.1	0.1	0.583562	0.1	0.1	0.1	0	0	0	0	0	0	0	0.000000000
1504604825.529064893	-0.737845	0.77466	-0.79767	2.212	0.817612	-1.59074	-0.0122718	0.202947	0	0	0.620779	0	0	0	0	0	0	0	0	0	0	0.000000000	-0.754113	0.788798	-0.788798	2.26234	0.828698	-1.5708	0	0.172843	0.1	0.1	0.518526	0.1	0.1	0.1	0	0	0	0	0	0	0	0.000000000
1504604825.549034118	-0.740913	0.77466	-0.79767	2.22581	0.816078	-1.59074	-0.0107379	0.155195	0	0	0.477522	0	0	0	0	0	0	0	0	0	0	0.000000000	-0.754113	0.788798	-0.788798	2.26234	0.828698	-1.5708	0	0.172843	0.1	0.1	0.518526	0.1	0.1	0.1	0	0	0	0	0	0	0	0.000000000
1504604825.568952083	-0.743981	0.77466	-0.79767	2.23808	0.817612	-1.59074	-0.0122718	0.107442	0	0	0.42977	0	0	0	0	0	0	0	0	0	0	0.000000000	-0.760701	0.788798	-0.788798	2.2821	0.828698	-1.5708	0	0.151526	0.1	0.1	0.454579	0.1	0.1	0.1	0	0	0	0	0	0	0	0.000000000
1504604825.589035034	-0.748583	0.77466	-0.79767	2.25035	0.817612	-1.59074	-0.0107379	0.155195	0	0	0.42977	0	0	0	0	0	0	0	0	0	0	0.000000000	-0.760701	0.788798	-0.788798	2.2821	0.828698	-1.5708	0	0.151526	0.1	0.1	0.454579	0.1	0.1	0.1	0	0	0	0	0	0	0	0.000000000
1504604825.609046936	-0.748583	0.77466	-0.79767	2.25035	0.817612	-1.59074	-0.0107379	0.155195	0	0	0.42977	0	0	0	0	0	0	0	0	0	0	0.000000000	-0.766386	0.788798	-0.788798	2.29916	0.828698	-1.5708	0	0.130764	0.1	0.1	0.392288	0.1	0.1	0.1	0	0	0	0	0	0	0	0.000000000
1504604825.629092931	-0.754719	0.77466	-0.79767	2.26569	0.816078	-1.59074	-0.0122718	0.202947	0	0	0.477522	0	0	0	0	0	0	0	0	0	0	0.000000000	-0.766386	0.788798	-0.788798	2.29916	0.828698	-1.5708	0	0.130764	0.1	0.1	0.392288	0.1	0.1	0.1	0	0	0	0	0	0	0	0.000000000
1504604825.648998975	-0.757787	0.77466	-0.79767	2.27643	0.816078	-1.59074	-0.0122718	0.155195	0	0	0.42977	0	0	0	0	0	0	0	0	0	0	0.000000000	-0.771201	0.788798	-0.788798	2.3136	0.828698	-1.5708	0	0.110747	0.1	0.1	0.332242	0.1	0.1	0.1	0	0	0	0	0	0	0	0.000000000
1504604825.669056892	-0.760854	0.77466	-0.79767	2.2841	0.817612	-1.59074	-0.0122718	0.155195	0	0	0.286513	0	0	0	0	0	0	0	0	0	0	0.000000000	-0.771201	0.788798	-0.788798	2.3136	0.828698	-1.5708	0	0.110747	0.1	0.1	0.332242	0.1	0.1	0.1	0	0	0	0	0	0	0	0.000000000
1504604825.688981056	-0.763922	0.77466	-0.79767	2.2933	0.816078	-1.59074	-0.0122718	0.107442	0	0	0.334265	0	0	0	0	0	0	0	0	0	0	0.000000000	-0.775187	0.788798	-0.788798	2.32556	0.828698	-1.5708	0	0.1	0.1	0.1	0.275037	0.1	0.1	0.1	0	0	0	0	0	0	0	0.000000000
1504604825.709141016	-0.763922	0.77466	-0.79767	2.2933	0.816078	-1.59074	-0.0122718	0.107442	0	0	0.334265	0	0	0	0	0	0	0	0	0	0	0.000000000	-0.775187	0.788798	-0.788798	2.32556	0.828698	-1.5708	0	0.1	0.1	0.1	0.275037	0.1	0.1	0.1	0	0	0	0	0	0	0	0.000000000
1504604825.728940010	-0.765456	0.77466	-0.79767	2.30251	0.816078	-1.59074	-0.0122718	0	0	0	0.334265	0	0	0	0	0	0	0	0	0	0	0.000000000	-0.778395	0.788798	-0.788798	2.33519	0.828698	-1.5708	0	0.1	0.1	0.1	0.221325	0.1	0.1	0.1	0	0	0	0	0	0	0	0.000000000
1504604825.749039888	-0.768524	0.776194	-0.79767	2.31018	0.817612	-1.59074	-0.0122718	0.107442	0	0	0.286513	0	0	0	0	0	0	0	0	0	0	0.000000000	-0.778395	0.788798	-0.788798	2.33519	0.828698	-1.5708	0	0.1	0.1	0.1	0.221325	0.1	0.1	0.1	0	0	0	0	0	0	0	0.000000000
1504604825.769006013	-0.770058	0.77466	-0.79767	2.31478	0.817612	-1.59074	-0.0122718	0	0	0	0.191009	0	0	0	0	0	0	0	0	0	0	0.000000000	-0.778395	0.788798	-0.788798	2.33519	0.828698	-1.5708	0	0.1	0.1	0.1	0.221325	0.1	0.1	0.1	0	0	0	0	0	0	0	0.000000000
1504604825.788970947	-0.770058	0.77466	-0.79767	2.32091	0.817612	-1.59074	-0.0107379	0	0	0	0.238761	0	0	0	0	0	0	0	0	0	0	0.000000000	-0.780884	0.788798	-0.788798	2.34265	0.828698	-1.5708	0	0.1	0.1	0.1	0.171753	0.1	0.1	0.1	0	0	0	0	0	0	0	0.000000000
1504604825.808968067	-0.771592	0.77466	-0.79767	2.32091	0.817612	-1.59074	-0.0107379	0	0	0	0.238761	0	0	0	0	0	0	0	0	0	0	0.000000000	-0.780884	0.788798	-0.788798	2.34265	0.828698	-1.5708	0	0.1	0.1	0.1	0.171753	0.1	0.1	0.1	0	0	0	0	0	0	0	0.000000000
1504604825.829025030	-0.771592	0.77466	-0.79767	2.32551	0.816078	-1.59074	-0.0122718	0	0	0	0.191009	0	0	0	0	0	0	0	0	0	0	0.000000000	-0.782725	0.788798	-0.788798	2.34818	0.828698	-1.5708	0	0.1	0.1	0.1	0.127023	0.1	0.1	0.1	0	0	0	0	0	0	0	0.000000000
1504604825.849051952	-0.77466	0.77466	-0.79767	2.33165	0.816078	-1.59074	-0.0107379	0.107442	0	0	0.191009	0	0	0	0	0	0	0	0	0	0	0.000000000	-0.782725	0.788798	-0.788798	2.34818	0.828698	-1.5708	0	0.1	0.1	0.1	0.127023	0.1	0.1	0.1	0	0	0	0	0	0	0	0.000000000
1504604825.869048118	-0.776194	0.776194	-0.79767	2.33625	0.817612	-1.59074	-0.0122718	0.107442	0	0	0.191009	0	0	0	0	0	0	0	0	0	0	0.000000000	-0.783998	0.788798	-0.788798	2.35199	0.828698	-1.5708	0	0.1	0.1	0.1	0.1	0.1	0.1	0.1	0	0	0	0	0	0	0	0.000000000
1504604825.888993024	-0.776194	0.77466	-0.79767	2.33932	0.816078	-1.59074	-0.0107379	0	0	0	0.143257	0	0	0	0	0	0	0	0	0	0	0.000000000	-0.783998	0.788798	-0.788798	2.35199	0.828698	-1.5708	0	0.1	0.1	0.1	0.1	0.1	0.1	0.1	0	0	0	0	0	0	0	0.000000000
1504604825.909049987	-0.776194	0.77466	-0.79767	2.33932	0.816078	-1.59074	-0.0107379	0	0	0	0.143257	0	0	0	0	0	0	0	0	0	0	0.000000000	-0.784794	0.788798	-0.788798	2.35438	0.828698	-1.5708	0	0.1	0.1	0.1	0.1	0.1	0.1	0.1	0	0	0	0	0	0	0	0.000000000
1504604825.929090023	-0.776194	0.77466	-0.79767	2.34085	0.817612	-1.59074	-0.0107379	0	0	0	0	0	0	0	0	0	0	0	0	0	0	0.000000000	-0.784794	0.788798	-0.788798	2.35438	0.828698	-1.5708	0	0.1	0.1	0.1	0.1	0.1	0.1	0.1	0	0	0	0	0	0	0	0.000000000
1504604825.948960065	-0.777728	0.77466	-0.79767	2.34085	0.816078	-1.59074	-0.0122718	0	0	0	0	0	0	0	0	0	0	0	0	0	0	0.000000000	-0.785215	0.788798	-0.788798	2.35565	0.828698	-1.5708	0	0.1	0.1	0.1	0.1	0.1	0.1	0.1	0	0	0	0	0	0	0	0.000000000
1504604825.969048023	-0.777728	0.77466	-0.79767	2.34239	0.817612	-1.59074	-0.0122718	0	0	0	0	0	0	0	0	0	0	0	0	0	0	0.000000000	-0.785215	0.788798	-0.788798	2.35565	0.828698	-1.5708	0	0.1	0.1	0.1	0.1	0.1	0.1	0.1	0	0	0	0	0	0	0	0.000000000
1504604825.988965988	-0.777728	0.77466	-0.79767	2.34239	0.816078	-1.59074	-0.0107379	0	0	0	0	0	0	0	0	0	0	0	0	0	0	0.000000000	-0.785375	0.788798	-0.788798	2.35612	0.828698	-1.5708	0	0.1	0.1	0.1	0.1	0.1	0.1	0.1	0	0	0	0	0	0	0	0.000000000
1504604826.009032011	-0.777728	0.77466	-0.79767	2.34239	0.816078	-1.59074	-0.0107379	0	0	0	0	0	0	0	0	0	0	0	0	0	0	0.000000000	-0.785375	0.788798	-0.788798	2.35612	0.828698	-1.5708	0	0.1	0.1	0.1	0.1	0.1	0.1	0.1	0	0	0	0	0	0	0	0.000000000
1504604826.029006958	-0.777728	0.77466	-0.79767	2.34546	0.816078	-1.59074	-0.0122718	0	0	0	0.0955044	0	0	0	0	0	0	0	0	0	0	0.000000000	-0.785375	0.788798	-0.788798	2.35612	0.828698	-1.5708	0	0.1	0.1	0.1	0.1	0.1	0.1	0.1	0	0	0	0	0	0	0	0.000000000
1504604826.049173116	-0.777728	0.77466	-0.79767	2.34546	0.817612	-1.59074	-0.0107379	0	0	0	0	0	0	0	0	0	0	0	0	0	0	0.000000000	-0.785398	0.788798	-0.788798	2.35619	0.828698	-1.5708	0	0.1	0.1	0.1	0.1	0.1	0.1	0.1	0	0	0	0	0	0	0	0.000000000
1504604826.069041967	-0.777728	0.776194	-0.79767	2.34699	0.817612	-1.59074	-0.0122718	0	0	0	0	0	0	0	0	0	0	0	0	0	0	0.000000000	-0.785398	0.788798	-0.788798	2.35619	0.828698	-1.5708	0	0.1	0.1	0.1	0.1	0.1	0.1	0.1	0	0	0	0	0	0	0	0.000000000
1504604826.089050054	-0.777728	0.77466	-0.79767	2.34699	0.816078	-1.59074	-0.0107379	0	0	0	0	0	0	0	0	0	0	0	0	0	0	0.000000000	-0.785398	0.788819	-0.788794	2.35619	0.828701	-1.57083	0	0.1	0.1	0.1	0.1	0.1	0.1	0.1	0	0	0	0	0	0	0	0.000000000
1504604826.108958005	-0.777728	0.77466	-0.79767	2.34699	0.816078	-1.59074	-0.0107379	0	0	0	0	0	0	0	0	0	0	0	0	0	0	0.000000000	-0.785398	0.788819	-0.788794	2.35619	0.828701	-1.57083	0	0.1	0.1	0.1	0.1	0.1	0.1	0.1	0	0	0	0	0	0	0	0.000000000
1504604826.129175901	-0.777728	0.77466	-0.79767	2.34546	0.816078	-1.59074	-0.0107379	0	0	0	0	0	0	0	0	0	0	0	0	0	0	0.000000000	-0.785398	0.788962	-0.788767	2.35619	0.828719	-1.57107	0	0.1	0.1	0.1	0.1	0.1	0.1	0.1	0	0	0	0	0	0	0	0.000000000
1504604826.149079084	-0.777728	0.77466	-0.79767	2.34546	0.816078	-1.59074	-0.0122718	0	0	0	0	0	0	0	0	0	0	0	0	0	0	0.000000000	-0.785398	0.788962	-0.788767	2.35619	0.828719	-1.57107	0	0.1	0.1	0.1	0.1	0.1	0.1	0.1	0	0	0	0	0	0	0	0.000000000
1504604826.169063091	-0.777728	0.776194	-0.79767	2.34546	0.816078	-1.59074	-0.0122718	0	0	0	0	0	0	0	0	0	0	0	0	0	0	0.000000000	-0.785398	0.789338	-0.788696	2.35619	0.828767	-1.5717	0	0.1	0.1	0.1	0.1	0.1	0.1	0.1	0	0	0	0	0	0	0	0.000000000
1504604826.189013004	-0.777728	0.77466	-0.79767	2.34546	0.816078	-1.59074	-0.0122718	0	0	0	0	0	0	0	0	0	0	0	0	0	0	0.000000000	-0.785398	0.789338	-0.788696	2.35619	0.828767	-1.5717	0	0.1	0.1	0.1	0.1	0.1	0.1	0.1	0	0	0	0	0	0	0	0.000000000
1504604826.209012985	-0.777728	0.77466	-0.79767	2.34546	0.816078	-1.59074	-0.0122718	0	0	0	0	0	0	0	0	0	0	0	0	0	0	0.000000000	-0.785398	0.790049	-0.788562	2.35619	0.828859	-1.57289	0	0.1	0.1	0.1	0.1	0.1	0.1	0.1	0	0	0	0	0	0	0	0.000000000
1504604826.229007005	-0.777728	0.77466	-0.79767	2.34546	0.816078	-1.59074	-0.0107379	0	0	0	0	0	0	0	0	0	0	0	0	0	0	0.000000000	-0.785398	0.790049	-0.788562	2.35619	0.828859	-1.57289	0	0.1	0.1	0.1	0.1	0.1	0.1	0.1	0	0	0	0	0	0	0	0.000000000
1504604826.249010086	-0.777728	0.77466	-0.79767	2.34546	0.816078	-1.59074	-0.0122718	0	0	0	0	0	0	0	0	0	0	0	0	0	0	0.000000000	-0.785398	0.791188	-0.788346	2.35619	0.82901	-1.57479	0	0.1	0.1	0.1	0.1	0.1	0.1	0.1	0	0	0	0	0	0	0	0.000000000
1504604826.269038915	-0.777728	0.77466	-0.79767	2.34546	0.816078	-1.59074	-0.0107379	0	0	0	0	0	0	0	0	0	0	0	0	0	0	0.000000000	-0.785398	0.791188	-0.788346	2.35619	0.82901	-1.57479	0	0.1	0.1	0.1	0.1	0.1	0.1	0.1	0	0	0	0	0	0	0	0.000000000
1504604826.289071083	-0.777728	0.77466	-0.79767	2.34699	0.816078	-1.59074	-0.0122718	0	0	0	0	0	0	0	0	0	0	0	0	0	0	0.000000000	-0.785398	0.791188	-0.788346	2.35619	0.82901	-1.57479	0	0.1	0.1	0.1	0.1	0.1	0.1	0.1	0	0	0	0	0	0	0	0.000000000
1504604826.309034109	-0.777728	0.77466	-0.79767	2.34699	0.816078	-1.59074	-0.0122718	0	0	0	0	0	0	0	0	0	0	0	0	0	0	0.000000000	-0.785398	0.792839	-0.788033	2.35619	0.829233	-1.57753	0	0.1	0.1	0.1	0.1	0.1	0.1	0.1	0	0	0	0	0	0	0	0.000000000
1504604826.329101085	-0.777728	0.77466	-0.79767	2.34546	0.816078	-1.59074	-0.0107379	0	0	0	0	0	0	0	0	0	0	0	0	0	0	0.000000000	-0.785398	0.792839	-0.788033	2.35619	0.829233	-1.57753	0	0.1	0.1	0.1	0.1	0.1	0.1	0.1	0	0	0	0	0	0	0	0.000000000
1504604826.349059104	-0.777728	0.776194	-0.79767	2.34546	0.816078	-1.59074	-0.0122718	0	0	0	0	0	0	0	0	0	0	0	0	0	0	0.000000000	-0.785398	0.795076	-0.787607	2.35619	0.829548	-1.58122	0	0.1	0.1	0.1	0.1	0.1	0.1	0.1	0	0	0	0	0	0	0	0.000000000
1504604826.369060993	-0.777728	0.77466	-0.79767	2.34699	0.817612	-1.59074	-0.0122718	0	0	0	0	0	0	0	0	0	0	0	0	0	0	0.000000000	-0.785398	0.795076	-0.787607	2.35619	0.829548	-1.58122	0	0.1	0.1	0.1	0.1	0.1	0.1	0.1	0	0	0	0	0	0	0	0.000000000
1504604826.388971090	-0.777728	0.77466	-0.79767	2.34699	0.816078	-1.59074	-0.0107379	0	0	0	0	0	0	0	0	0	0	0	0	0	0	0.000000000	-0.785398	0.797969	-0.787055	2.35619	0.829973	-1.58595	0	0.1	0.1	0.1	0.1	0.1	0.10879	0.1	0	0	0	0	0	0	0	0.000000000
1504604826.408996105	-0.777728	0.77466	-0.79767	2.34699	0.816078	-1.59074	-0.0107379	0	0	0	0	0	0	0	0	0	0	0	0	0	0	0.000000000	-0.785398	0.797969	-0.787055	2.35619	0.829973	-1.58595	0	0.1	0.1	0.1	0.1	0.1	0.10879	0.1	0	0	0	0	0	0	0	0.000000000
1504604826.429094076	-0.777728	0.77466	-0.79767	2.34699	0.816078	-1.59227	-0.0122718	0	0	0	0	0	0	0	0	0	0	0	0	0	0	0.000000000	-0.785398	0.80158	-0.786363	2.35619	0.830532	-1.59179	0	0.1	0.1	0.1	0.1	0.1	0.134346	0.1	0	0	0	0	0	0	0	0.000000000
1504604826.449022054	-0.777728	0.776194	-0.79767	2.34546	0.816078	-1.59687	-0.0122718	0	0	0	0	0	0.155195	0	0	0	0	0	0	0	0	0.000000000	-0.785398	0.80158	-0.786363	2.35619	0.830532	-1.59179	0	0.1	0.1	0.1	0.1	0.1	0.134346	0.1	0	0	0	0	0	0	0	0.000000000
1504604826.469039916	-0.777728	0.776194	-0.79767	2.34546	0.816078	-1.59994	-0.0122718	0	0	0	0	0	0.155195	0	0	0	0	0	0	0	0	0.000000000	-0.785398	0.805964	-0.785517	2.35619	0.831255	-1.59879	0	0.1	0.100837	0.1	0.1	0.1	0.161049	0.1	0	0	0	0	0	0	0	0.000000000
1504604826.488954067	-0.777728	0.779262	-0.79767	2.34546	0.816078	-1.60454	-0.0122718	0	0.0955044	0	0	0	0.155195	0	0	0	0	0	0	0	0	0.000000000	-0.785398	0.805964	-0.785517	2.35619	0.831255	-1.59879	0	0.1	0.100837	0.1	0.1	0.1	0.161049	0.1	0	0	0	0	0	0	0	0.000000000
1504604826.508956909	-0.777728	0.779262	-0.79767	2.34546	0.816078	-1.60454	-0.0122718	0	0.0955044	0	0	0	0.155195	0	0	0	0	0	0	0	0	0.000000000	-0.785398	0.805964	-0.785517	2.35619	0.831255	-1.59879	0	0.1	0.100837	0.1	0.1	0.1	0.161049	0.1	0	0	0	0	0	0	0	0.000000000
1504604826.529055118	-0.777728	0.78233	-0.79767	2.34546	0.816078	-1.60915	-0.0122718	0	0.0955044	0	0	0	0.155195	0	0	0	0	0	0	0	0	0.000000000	-0.785398	0.811173	-0.784505	2.35619	0.832172	-1.60698	0	0.1	0.119797	0.1	0.1	0.1	0.188426	0.1	0	0	0	0	0	0	0	0.000000000
1504604826.548969984	-0.777728	0.783864	-0.79767	2.34546	0.816078	-1.61221	-0.0107379	0	0.0955044	0	0	0	0.155195	0	0	0	0	0	0	0	0	0.000000000	-0.785398	0.811173	-0.784505	2.35619	0.832172	-1.60698	0	0.1	0.119797	0.1	0.1	0.1	0.188426	0.1	0	0	0	0	0	0	0	0.000000000
1504604826.569042921	-0.777728	0.786932	-0.79767	2.34699	0.816078	-1.61835	-0.0107379	0	0.0955044	0	0	0	0.202947	0	0	0	0	0	0	0	0	0.000000000	-0.785398	0.817251	-0.783314	2.35619	0.833324	-1.61637	0	0.1	0.139806	0.1	0.1	0.1	0.216018	0.1	0	0	0	0	0	0	0	0.000000000
1504604826.588953018	-0.777728	0.788466	-0.79767	2.34546	0.816078	-1.62295	-0.0107379	0	0	0	0	0	0.202947	0	0	0	0	0	0	0	0	0.000000000	-0.785398	0.817251	-0.783314	2.35619	0.833324	-1.61637	0	0.1	0.139806	0.1	0.1	0.1	0.216018	0.1	0	0	0	0	0	0	0	0.000000000
1504604826.608942031	-0.777728	0.788466	-0.79767	2.34546	0.816078	-1.62295	-0.0107379	0	0	0	0	0	0.202947	0	0	0	0	0	0	0	0	0.000000000	-0.785398	0.824241	-0.781931	2.35619	0.834751	-1.62696	0	0.1	0.160764	0.1	0.1	0.1	0.243385	0.1	0	0	0	0	0	0	0	0.000000000
1504604826.629018068	-0.777728	0.791534	-0.79767	2.34546	0.816078	-1.62755	-0.0122718	0	0.143257	0	0	0	0.202947	0	0	0	0	0	0	0	0	0.000000000	-0.785398	0.824241	-0.781931	2.35619	0.834751	-1.62696	0	0.1	0.160764	0.1	0.1	0.1	0.243385	0.1	0	0	0	0	0	0	0	0.000000000
1504604826.648961067	-0.777728	0.796136	-0.79767	2.34699	0.816078	-1.63369	-0.0122718	0	0.143257	0	0	0	0.202947	0	0	0	0	0	0	0	0	0.000000000	-0.785398	0.832178	-0.780342	2.35619	0.836503	-1.6387	0	0.1	0.18256	0.1	0.1	0.1	0.270104	0.1	0	0	0	0	0	0	0	0.000000000
1504604826.668998956	-0.777728	0.799204	-0.79767	2.34546	0.817612	-1.63983	-0.0122718	0	0.143257	0	0	0	0.250699	0	0	0	0	0	0	0	0	0.000000000	-0.785398	0.832178	-0.780342	2.35619	0.836503	-1.6387	0	0.1	0.18256	0.1	0.1	0.1	0.270104	0.1	0	0	0	0	0	0	0	0.000000000
1504604826.688992977	-0.776194	0.803806	-0.79767	2.34546	0.816078	-1.6475	-0.0122718	0	0.143257	0	0	0	0.250699	0	0	0	0	0	0	0	0	0.000000000	-0.785398	0.841096	-0.778531	2.35619	0.838632	-1.65156	0	0.1	0.205103	0.1	0.1	0.1	0.295781	0.1	0	0	0	0	0	0	0	0.000000000
1504604826.709709882	-0.777728	0.808408	-0.79767	2.34546	0.817612	-1.6475	-0.0122718	0	0.143257	0	0	0	0.250699	0	0	0	0	0	0	0	0	0.000000000	-0.785398	0.841096	-0.778531	2.35619	0.838632	-1.65156	0	0.1	0.205103	0.1	0.1	0.1	0.295781	0.1	0	0	0	0	0	0	0	0.000000000
1504604826.728956937	-0.777728	0.808408	-0.79767	2.34546	0.817612	-1.65363	-0.0122718	0	0.143257	0	0	0	0.250699	0	0	0	0	0	0	0	0	0.000000000	-0.785398	0.851021	-0.776485	2.35619	0.841195	-1.66547	0	0.1	0.228285	0.1	0.1	0.1	0.320049	0.1	0	0	0	0	0	0	0	0.000000000
1504604826.748965024	-0.777728	0.81301	-0.79767	2.34546	0.816078	-1.65977	-0.0122718	0	0.143257	0	0	0	0.250699	0	0	0	0	0	0	0	0	0.000000000	-0.785398	0.851021	-0.776485	2.35619	0.841195	-1.66547	0	0.1	0.228285	0.1	0.1	0.1	0.320049	0.1	0	0	0	0	0	0	0	0.000000000
1504604826.769067049	-0.777728	0.816078	-0.79767	2.34546	0.817612	-1.66744	-0.0107379	0	0.143257	0	0	0	0.298451	0	0	0	0	0	0	0	0	0.000000000	-0.785398	0.851021	-0.776485	2.35619	0.841195	-1.66547	0	0.1	0.228285	0.1	0.1	0.1	0.320049	0.1	0	0	0	0	0	0	0	0.000000000
1504604826.788970947	-0.777728	0.82068	-0.79767	2.34699	0.817612	-1.67664	-0.0122718	0	0.143257	0	0	0	0.346204	0	0	0	0	0	0	0	0	0.000000000	-0.785398	0.861978	-0.774185	2.35619	0.844252	-1.68037	0	0.1	0.25201	0.1	0.1	0.1	0.342587	0.1	0	0	0	0	0	0	0	0.000000000
1504604826.809048891	-0.777728	0.82068	-0.79767	2.34699	0.817612	-1.67664	-0.0122718	0	0.143257	0	0	0	0.346204	0	0	0	0	0	0	0	0	0.000000000	-0.785398	0.861978	-0.774185	2.35619	0.844252	-1.68037	0	0.1	0.25201	0.1	0.1	0.1	0.342587	0.1	0	0	0	0	0	0	0	0.000000000
1504604826.829288959	-0.777728	0.823748	-0.79767	2.34699	0.817612	-1.68584	-0.0107379	0	0.0955044	0	0	0	0.346204	0	0	0	0	0	0	0	0	0.000000000	-0.785398	0.873985	-0.771614	2.35619	0.847865	-1.69616	0	0.1	0.276165	0.1	0.1	0.1	0.363096	0.1	0	0	0	0	0	0	0	0.000000000
1504604826.849018096	-0.776194	0.831418	-0.79767	2.34699	0.817612	-1.69505	-0.0122718	0	0.238761	0	0	0	0.346204	0	0	0	0	0	0	0	0	0.000000000	-0.785398	0.873985	-0.771614	2.35619	0.847865	-1.69616	0	0.1	0.276165	0.1	0.1	0.1	0.363096	0.1	0	0	0	0	0	0	0	0.000000000
1504604826.869033098	-0.776194	0.837554	-0.79767	2.34699	0.817612	-1.70272	-0.0107379	0	0.238761	0	0	0	0.298451	0	0	0	0	0	0	0	0	0.000000000	-0.785398	0.887057	-0.768753	2.35619	0.852099	-1.71274	0	0.1	0.300641	0.1	0.1	0.1	0.381326	0.1	0	0	0	0	0	0	0	0.000000000
1504604826.888978958	-0.777728	0.845223	-0.79767	2.34699	0.819146	-1.71346	-0.0122718	0	0.238761	0	0	0	0.393956	0	0	0	0	0	0	0	0	0.000000000	-0.785398	0.887057	-0.768753	2.35619	0.852099	-1.71274	0	0.1	0.300641	0.1	0.1	0.1	0.381326	0.1	0	0	0	0	0	0	0	0.000000000
1504604826.909019947	-0.777728	0.845223	-0.79767	2.34699	0.819146	-1.71346	-0.0122718	0	0.238761	0	0	0	0.393956	0	0	0	0	0	0	0	0	0.000000000	-0.785398	0.901201	-0.76558	2.35619	0.857018	-1.73	0	0.1	0.325316	0.1	0.1	0.113134	0.39707	0.1	0	0	0	0	0	0	0	0.000000000
1504604826.929100990	-0.776194	0.851359	-0.79767	2.34699	0.822214	-1.72419	-0.0107379	0	0.238761	0	0	0.0955044	0.393956	0	0	0	0	0	0	0	0	0.000000000	-0.785398	0.901201	-0.76558	2.35619	0.857018	-1.73	0	0.1	0.325316	0.1	0.1	0.113134	0.39707	0.1	0	0	0	0	0	0	0	0.000000000
1504604826.949126958	-0.777728	0.859029	-0.79767	2.34699	0.825282	-1.73493	-0.0122718	0	0.238761	0	0	0.143257	0.393956	0	0	0	0	0	0	0	0	0.000000000	-0.785398	0.916421	-0.762075	2.35619	0.862686	-1.74783	0	0.1	0.350063	0.1	0.1	0.130353	0.410159	0.1	0	0	0	0	0	0	0	0.000000000
1504604826.968997955	-0.776194	0.866699	-0.796136	2.34546	0.82835	-1.7426	-0.0122718	0	0.238761	0	0	0.0955044	0.298451	0	0	0	0	0	0	0	0	0.000000000	-0.785398	0.916421	-0.762075	2.35619	0.862686	-1.74783	0	0.1	0.350063	0.1	0.1	0.130353	0.410159	0.1	0	0	0	0	0	0	0	0.000000000
1504604826.988991022	-0.777728	0.875903	-0.794602	2.34546	0.831418	-1.75334	-0.0107379	0	0.286513	0	0	0.0955044	0.346204	0	0	0	0	0	0	0	0	0.000000000	-0.785398	0.932714	-0.758212	2.35619	0.869163	-1.76611	0	0.1	0.374742	0.1	0.1	0.148989	0.42046	0.1	0	0	0	0	0	0	0	0.000000000
1504604827.009063005	-0.777728	0.875903	-0.794602	2.34546	0.831418	-1.75334	-0.0107379	0	0.286513	0	0	0.0955044	0.346204	0	0	0	0	0	0	0	0	0.000000000	-0.785398	0.932714	-0.758212	2.35619	0.869163	-1.76611	0	0.1	0.374742	0.1	0.1	0.148989	0.42046	0.1	0	0	0	0	0	0	0	0.000000000
1504604827.029727935	-0.776194	0.886641	-0.793068	2.34699	0.83602	-1.76408	-0.0107379	0	0.382018	0	0	0.143257	0.393956	0	0	0	0	0	0	0	0	0.000000000	-0.785398	0.932714	-0.758212	2.35619	0.869163	-1.76611	0	0.1	0.374742	0.1	0.1	0.148989	0.42046	0.1	0	0	0	0	0	0	0	0.000000000
1504604827.049024105	-0.776194	0.895845	-0.793068	2.34699	0.840621	-1.77328	-0.0107379	0	0.334265	0	0	0.143257	0.346204	0	0	0	0	0	0	0	0	0.000000000	-0.785398	0.950071	-0.753968	2.35619	0.876509	-1.78472	0	0.1	0.399214	0.1	0.1	0.168957	0.427888	0.1	0	0	0	0	0	0	0	0.000000000
1504604827.069123029	-0.776194	0.906583	-0.791534	2.34546	0.846757	-1.78402	-0.0107379	0	0.334265	0	0	0.191009	0.393956	0	0	0	0	0	0	0	0	0.000000000	-0.785398	0.950071	-0.753968	2.35619	0.876509	-1.78472	0	0.1	0.399214	0.1	0.1	0.168957	0.427888	0.1	0	0	0	0	0	0	0	0.000000000
1504604827.088977098	-0.777728	0.917321	-0.788466	2.34546	0.851359	-1.79476	-0.0122718	0	0.382018	0.143257	0	0.191009	0.393956	0	0	0	0	0	0	0	0	0.000000000	-0.785398	0.968477	-0.749318	2.35619	0.884777	-1.80352	0	0.1	0.42332	0.106966	0.1	0.190147	0.432393	0.1	0	0	0	0	0	0	0	0.000000000
1504604827.109050035	-0.777728	0.917321	-0.788466	2.34546	0.851359	-1.79476	-0.0122718	0	0.382018	0.143257	0	0.191009	0.393956	0	0	0	0	0	0	0	0	0.000000000	-0.785398	0.968477	-0.749318	2.35619	0.884777	-1.80352	0	0.1	0.42332	0.106966	0.1	0.190147	0.432393	0.1	0	0	0	0	0	0	0	0.000000000
1504604827.129044055	-0.777728	0.928058	-0.786932	2.34546	0.857495	-1.8055	-0.0122718	0	0.382018	0.0955044	0	0.191009	0.393956	0	0	0	0	0	0	0	0	0.000000000	-0.785398	0.987908	-0.744234	2.35619	0.894012	-1.82239	0	0.1	0.446918	0.116921	0.1	0.212414	0.433977	0.1	0	0	0	0	0	0	0	0.000000000
1504604827.149096012	-0.777728	0.94033	-0.785398	2.34546	0.862097	-1.81623	-0.0122718	0	0.42977	0	0	0.191009	0.393956	0	0	0	0	0	0	0	0	0.000000000	-0.785398	0.987908	-0.744234	2.35619	0.894012	-1.82239	0	0.1	0.446918	0.116921	0.1	0.212414	0.433977	0.1	0	0	0	0	0	0	0	0.000000000
1504604827.168931961	-0.776194	0.951068	-0.785398	2.34546	0.868233	-1.82851	-0.0107379	0	0.382018	0	0	0.191009	0.441708	0	0	0	0	0	0	0	0	0.000000000	-0.785398	1.00833	-0.738692	2.35619	0.904254	-1.8412	0	0.1	0.469822	0.12747	0.1	0.235571	0.432639	0.1	0	0	0	0	0	0	0	0.000000000
1504604827.188997030	-0.777728	0.961806	-0.783864	2.34546	0.874369	-1.83924	-0.0122718	0	0.382018	0	0	0.238761	0.393956	0	0	0	0	0	0	0	0	0.000000000	-0.785398	1.00833	-0.738692	2.35619	0.904254	-1.8412	0	0.1	0.469822	0.12747	0.1	0.235571	0.432639	0.1	0	0	0	0	0	0	0	0.000000000
1504604827.209367990	-0.777728	0.974078	-0.777728	2.34546	0.882039	-1.85151	-0.0122718	0	0.42977	0.238761	0	0.238761	0.441708	0	0	0	0	0	0	0	0	0.000000000	-0.785398	1.02972	-0.732666	2.35619	0.915533	-1.85983	0	0.1	0.491901	0.138609	0.1	0.259417	0.428477	0.1	0	0	0	0	0	0	0	0.000000000
1504604827.229243040	-0.777728	0.974078	-0.777728	2.34546	0.882039	-1.85151	-0.0122718	0	0.42977	0.238761	0	0.238761	0.441708	0	0	0	0	0	0	0	0	0.000000000	-0.785398	1.02972	-0.732666	2.35619	0.915533	-1.85983	0	0.1	0.491901	0.138609	0.1	0.259417	0.428477	0.1	0	0	0	0	0	0	0	0.000000000
1504604827.249053955	-0.777728	0.989418	-0.771592	2.34546	0.888175	-1.86225	-0.0122718	0	0.477522	0.238761	0	0.238761	0.441708	0	0	0	0	0	0	0	0	0.000000000	-0.785398	1.05202	-0.726131	2.35619	0.927868	-1.87815	0	0.1	0.512955	0.150303	0.1	0.283697	0.421557	0.1	0	0	0	0	0	0	0	0.000000000
1504604827.269052982	-0.777728	1.00169	-0.765456	2.34546	0.894311	-1.87452	-0.0107379	0	0.477522	0.191009	0	0.238761	0.441708	0	0	0	0	0	0	0	0	0.000000000	-0.785398	1.05202	-0.726131	2.35619	0.927868	-1.87815	0	0.1	0.512955	0.150303	0.1	0.283697	0.421557	0.1	0	0	0	0	0	0	0	0.000000000
1504604827.289005994	-0.777728	1.0155	-0.760854	2.34546	0.900447	-1.88526	-0.0122718	0	0.477522	0.191009	0	0.238761	0.393956	0	0	0	0	0	0	0	0	0.000000000	-0.785398	1.05202	-0.726131	2.35619	0.927868	-1.87815	0	0.1	0.512955	0.150303	0.1	0.283697	0.421557	0.1	0	0	0	0	0	0	0	0.000000000
1504604827.309113979	-0.777728	1.0155	-0.760854	2.34546	0.900447	-1.88526	-0.0122718	0	0.477522	0.191009	0	0.238761	0.393956	0	0	0	0	0	0	0	0	0.000000000	-0.785398	1.07519	-0.719065	2.35619	0.941266	-1.89607	0	0.1	0.532855	0.162518	0.1	0.308151	0.412028	0.1	0	0	0	0	0	0	0	0.000000000
1504604827.329050064	-0.777728	1.02777	-0.757787	2.34546	0.908117	-1.89447	-0.0122718	0	0.42977	0.143257	0	0.286513	0.393956	0	0	0	0	0	0	0	0	0.000000000	-0.785398	1.07519	-0.719065	2.35619	0.941266	-1.89607	0	0.1	0.532855	0.162518	0.1	0.308151	0.412028	0.1	0	0	0	0	0	0	0	0.000000000
1504604827.348984956	-0.777728	1.04311	-0.756253	2.34546	0.917321	-1.9052	-0.0122718	0	0.477522	0	0	0.286513	0.346204	0	0	0	0	0	0	0	0	0.000000000	-0.785398	1.09917	-0.711448	2.35619	0.955721	-1.91346	0	0.1	0.55142	0.175183	0.1	0.332475	0.400039	0.1	0	0	0	0	0	0	0	0.000000000
1504604827.368947982	-0.777728	1.05691	-0.753185	2.34546	0.92499	-1.91594	-0.0107379	0	0.525274	0.0955044	0	0.286513	0.393956	0	0	0	0	0	0	0	0	0.000000000	-0.785398	1.09917	-0.711448	2.35619	0.955721	-1.91346	0	0.1	0.55142	0.175183	0.1	0.332475	0.400039	0.1	0	0	0	0	0	0	0	0.000000000
1504604827.389014959	-0.777728	1.07072	-0.748583	2.34546	0.934194	-1.92668	-0.0122718	0	0.525274	0.191009	0	0.334265	0.346204	0	0	0	0	0	0	0	0	0.000000000	-0.785398	1.12388	-0.703264	2.35619	0.971215	-1.93023	0	0.1	0.568524	0.188233	0.1	0.35636	0.385795	0.1	0	0	0	0	0	0	0	0.000000000
1504604827.409388065	-0.776194	1.08606	-0.745515	2.34546	0.934194	-1.92668	-0.0122718	0	0.477522	0.0955044	0	0.334265	0.346204	0	0	0	0	0	0	0	0	0.000000000	-0.785398	1.12388	-0.703264	2.35619	0.971215	-1.93023	0	0.1	0.568524	0.188233	0.1	0.35636	0.385795	0.1	0	0	0	0	0	0	0	0.000000000
1504604827.429035902	-0.776194	1.08606	-0.745515	2.34546	0.944932	-1.93588	-0.0107379	0	0.477522	0.0955044	0	0.382018	0.346204	0	0	0	0	0	0	0	0	0.000000000	-0.785398	1.14928	-0.6945	2.35619	0.987713	-1.9463	0	0.1	0.583998	0.201559	0.1	0.379462	0.36949	0.1	0	0	0	0	0	0	0	0.000000000
1504604827.449016094	-0.776194	1.10447	-0.737845	2.34392	0.95567	-1.94355	-0.0122718	0	0.573026	0.238761	0	0.382018	0.298451	0	0	0	0	0	0	0	0	0.000000000	-0.785398	1.14928	-0.6945	2.35619	0.987713	-1.9463	0	0.1	0.583998	0.201559	0.1	0.379462	0.36949	0.1	0	0	0	0	0	0	0	0.000000000
1504604827.469046115	-0.777728	1.11827	-0.730175	2.34392	0.964874	-1.95429	-0.0107379	0	0.573026	0.286513	0	0.382018	0.346204	0	0	0	0	0	0	0	0	0.000000000	-0.785398	1.17526	-0.68515	2.35619	1.00517	-1.96158	0	0.1	0.597741	0.215055	0.1	0.401463	0.351385	0.1	0	0	0	0	0	0	0	0.000000000
1504604827.489037990	-0.776194	1.13515	-0.724039	2.34546	0.974078	-1.96503	-0.0122718	0	0.620779	0.238761	0	0.334265	0.393956	0	0	0	0	0	0	0	0	0.000000000	-0.785398	1.17526	-0.68515	2.35619	1.00517	-1.96158	0	0.1	0.597741	0.215055	0.1	0.401463	0.351385	0.1	0	0	0	0	0	0	0	0.000000000
1504604827.509021043	-0.776194	1.13515	-0.724039	2.34546	0.974078	-1.96503	-0.0122718	0	0.620779	0.238761	0	0.334265	0.393956	0	0	0	0	0	0	0	0	0.000000000	-0.785398	1.17526	-0.68515	2.35619	1.00517	-1.96158	0	0.1	0.597741	0.215055	0.1	0.401463	0.351385	0.1	0	0	0	0	0	0	0	0.000000000
1504604827.529078006	-0.777728	1.14895	-0.720971	2.34546	0.984816	-1.97577	-0.0122718	0	0.525274	0.0955044	0	0.382018	0.393956	0	0	0	0	0	0	0	0	0.000000000	-0.785398	1.20177	-0.675212	2.35619	1.02352	-1.976	0	0.1	0.609609	0.228582	0.1	0.422004	0.331725	0.1	0	0	0	0	0	0	0	0.000000000
1504604827.548999071	-0.776194	1.16583	-0.717903	2.34392	0.998621	-1.98344	-0.0122718	0	0.573026	0.0955044	0	0.42977	0.298451	0	0	0	0	0	0	0	0	0.000000000	-0.785398	1.20177	-0.675212	2.35619	1.02352	-1.976	0	0.1	0.609609	0.228582	0.1	0.422004	0.331725	0.1	0	0	0	0	0	0	0	0.000000000
