DingWan/Reconbot3Ddemo/02_MATLAB_Code/sensors_data/2T2R_X0Y0_0905_encoders_data.txt
time_stamp	actual_pos_joint_4	actual_pos_joint_5	actual_pos_joint_3	actual_pos_joint_1	actual_pos_joint_2	actual_pos_joint_6	actual_pos_joint_7	actual_vel_joint_4	actual_vel_joint_5	actual_vel_joint_3	actual_vel_joint_1	actual_vel_joint_2	actual_vel_joint_6	actual_vel_joint_7	actual_acc_joint_4	actual_acc_joint_5	actual_acc_joint_3	actual_acc_joint_1	actual_acc_joint_2	actual_acc_joint_6	actual_acc_joint_7	actual_time_from_start	desired_pos_joint_4	desired_pos_joint_5	desired_pos_joint_3	desired_pos_joint_1	desired_pos_joint_2	desired_pos_joint_6	desired_pos_joint_7	desired_vel_joint_4	desired_vel_joint_5	desired_vel_joint_3	desired_vel_joint_1	desired_vel_joint_2	desired_vel_joint_6	desired_vel_joint_7	desired_acc_joint_4	desired_acc_joint_5	desired_acc_joint_3	desired_acc_joint_1	desired_acc_joint_2	desired_acc_joint_6	desired_acc_joint_7	desired_time_from_start
1504608121.709065914	-0.0076699	0.768524	-0.802272	0.0076699	0.816078	-1.58614	-0.00920388	0	0	0	0	0	0	0	0	0	0	0	0	0	0	0.000000000	3.38813e-20	0.788798	-0.788798	2.22045e-15	0.828698	-1.5708	0	0.1	0.1	0.1	0.1	0.1	0.1	0.1	0	0	0	0	0	0	0	0.000000000
1504608121.729162931	-0.00613592	0.768524	-0.803806	0.0076699	0.816078	-1.58614	-0.00920388	0	0	0	0	0	0	0	0	0	0	0	0	0	0	0.000000000	3.38813e-20	0.788798	-0.788798	2.22045e-15	0.828698	-1.5708	0	0.1	0.1	0.1	0.1	0.1	0.1	0.1	0	0	0	0	0	0	0	0.000000000
1504608121.749057054	-0.0076699	0.768524	-0.803806	0.0076699	0.816078	-1.58614	-0.0107379	0	0	0	0	0	0	0	0	0	0	0	0	0	0	0.000000000	3.38813e-20	0.788798	-0.788798	2.22045e-15	0.828698	-1.5708	0	0.1	0.1	0.1	0.1	0.1	0.1	0.1	0	0	0	0	0	0	0	0.000000000
1504608121.769153118	-0.0076699	0.768524	-0.803806	0.0076699	0.816078	-1.58614	-0.0107379	0	0	0	0	0	0	0	0	0	0	0	0	0	0	0.000000000	3.38813e-20	0.788798	-0.788798	2.22045e-15	0.828698	-1.5708	0	0.1	0.1	0.1	0.1	0.1	0.1	0.1	0	0	0	0	0	0	0	0.000000000
1504608121.789115905	-0.0076699	0.768524	-0.802272	0.0076699	0.816078	-1.58614	-0.0107379	0	0	0	0	0	0	0	0	0	0	0	0	0	0	0.000000000	3.38813e-20	0.788798	-0.788798	2.22045e-15	0.828698	-1.5708	0	0.1	0.1	0.1	0.1	0.1	0.1	0.1	0	0	0	0	0	0	0	0.000000000
1504608121.809036016	-0.00613592	0.768524	-0.802272	0.00613592	0.816078	-1.58614	-0.00920388	0	0	0	0	0	0	0	0	0	0	0	0	0	0	0.000000000	3.38813e-20	0.788798	-0.788798	2.22045e-15	0.828698	-1.5708	0	0.1	0.1	0.1	0.1	0.1	0.1	0.1	0	0	0	0	0	0	0	0.000000000
1504608121.829186916	-0.00613592	0.768524	-0.802272	0.0076699	0.816078	-1.58614	-0.00920388	0	0	0	0	0	0	0	0	0	0	0	0	0	0	0.000000000	3.38813e-20	0.788798	-0.788798	2.22045e-15	0.828698	-1.5708	0	0.1	0.1	0.1	0.1	0.1	0.1	0.1	0	0	0	0	0	0	0	0.000000000
1504608121.849087953	-0.00613592	0.768524	-0.803806	0.0076699	0.816078	-1.58614	-0.00920388	0	0	0	0	0	0	0	0	0	0	0	0	0	0	0.000000000	3.38813e-20	0.788798	-0.788798	2.22045e-15	0.828698	-1.5708	0	0.1	0.1	0.1	0.1	0.1	0.1	0.1	0	0	0	0	0	0	0	0.000000000
1504608121.869159936	-0.00613592	0.768524	-0.803806	0.0076699	0.816078	-1.58614	-0.00920388	0	0	0	0	0	0	0	0	0	0	0	0	0	0	0.000000000	3.38813e-20	0.788798	-0.788798	2.22045e-15	0.828698	-1.5708	0	0.1	0.1	0.1	0.1	0.1	0.1	0.1	0	0	0	0	0	0	0	0.000000000
1504608121.889777898	-0.00613592	0.768524	-0.802272	0.0076699	0.816078	-1.58614	-0.00920388	0	0	0	0	0	0	0	0	0	0	0	0	0	0	0.000000000	3.38813e-20	0.788798	-0.788798	2.22045e-15	0.828698	-1.5708	0	0.1	0.1	0.1	0.1	0.1	0.1	0.1	0	0	0	0	0	0	0	0.000000000
1504608121.909101963	-0.00613592	0.768524	-0.802272	0.0076699	0.816078	-1.58614	-0.00920388	0	0	0	0	0	0	0	0	0	0	0	0	0	0	0.000000000	3.38813e-20	0.788798	-0.788798	2.22045e-15	0.828698	-1.5708	0	0.1	0.1	0.1	0.1	0.1	0.1	0.1	0	0	0	0	0	0	0	0.000000000
1504608121.929091930	-0.00613592	0.768524	-0.802272	0.0076699	0.816078	-1.58614	-0.00920388	0	0	0	0	0	0	0	0	0	0	0	0	0	0	0.000000000	3.38813e-20	0.788798	-0.788798	2.22045e-15	0.828698	-1.5708	0	0.1	0.1	0.1	0.1	0.1	0.1	0.1	0	0	0	0	0	0	0	0.000000000
1504608121.949235916	-0.00613592	0.768524	-0.802272	0.0076699	0.816078	-1.58614	-0.00920388	0	0	0	0	0	0	0	0	0	0	0	0	0	0	0.000000000	3.38813e-20	0.788798	-0.788798	2.22045e-15	0.828698	-1.5708	0	0.1	0.1	0.1	0.1	0.1	0.1	0.1	0	0	0	0	0	0	0	0.000000000
1504608121.969158887	-0.00613592	0.768524	-0.803806	0.0076699	0.816078	-1.58614	-0.00920388	0	0	0	0	0	0	0	0	0	0	0	0	0	0	0.000000000	3.38813e-20	0.788798	-0.788798	2.22045e-15	0.828698	-1.5708	0	0.1	0.1	0.1	0.1	0.1	0.1	0.1	0	0	0	0	0	0	0	0.000000000
1504608121.989335060	-0.00613592	0.768524	-0.802272	0.0076699	0.816078	-1.58614	-0.0107379	0	0	0	0	0	0	0	0	0	0	0	0	0	0	0.000000000	3.38813e-20	0.788798	-0.788798	2.22045e-15	0.828698	-1.5708	0	0.1	0.1	0.1	0.1	0.1	0.1	0.1	0	0	0	0	0	0	0	0.000000000
1504608122.009557962	-0.00613592	0.768524	-0.802272	0.0076699	0.816078	-1.58614	-0.0107379	0	0	0	0	0	0	0	0	0	0	0	0	0	0	0.000000000	3.38813e-20	0.788798	-0.788798	2.22045e-15	0.828698	-1.5708	0	0.1	0.1	0.1	0.1	0.1	0.1	0.1	0	0	0	0	0	0	0	0.000000000
1504608122.029130935	-0.0076699	0.768524	-0.802272	0.0076699	0.816078	-1.58614	-0.00920388	0	0	0	0	0	0	0	0	0	0	0	0	0	0	0.000000000	3.38813e-20	0.788798	-0.788798	2.22045e-15	0.828698	-1.5708	0	0.1	0.1	0.1	0.1	0.1	0.1	0.1	0	0	0	0	0	0	0	0.000000000
1504608122.048964023	-0.0076699	0.768524	-0.802272	0.0076699	0.816078	-1.58614	-0.00920388	0	0	0	0	0	0	0	0	0	0	0	0	0	0	0.000000000	3.38813e-20	0.788798	-0.788798	2.22045e-15	0.828698	-1.5708	0	0.1	0.1	0.1	0.1	0.1	0.1	0.1	0	0	0	0	0	0	0	0.000000000
1504608122.068964004	-0.00613592	0.768524	-0.802272	0.0076699	0.816078	-1.58614	-0.00920388	0	0	0	0	0	0	0	0	0	0	0	0	0	0	0.000000000	3.38813e-20	0.788798	-0.788798	2.22045e-15	0.828698	-1.5708	0	0.1	0.1	0.1	0.1	0.1	0.1	0.1	0	0	0	0	0	0	0	0.000000000
1504608122.089013099	-0.00613592	0.768524	-0.802272	0.0076699	0.816078	-1.58614	-0.00920388	0	0	0	0	0	0	0	0	0	0	0	0	0	0	0.000000000	3.38813e-20	0.788798	-0.788798	2.22045e-15	0.828698	-1.5708	0	0.1	0.1	0.1	0.1	0.1	0.1	0.1	0	0	0	0	0	0	0	0.000000000
1504608122.108987092	-0.00613592	0.768524	-0.803806	0.0076699	0.816078	-1.58614	-0.00920388	0	0	0	0	0	0	0	0	0	0	0	0	0	0	0.000000000	3.38813e-20	0.788798	-0.788798	2.22045e-15	0.828698	-1.5708	0	0.1	0.1	0.1	0.1	0.1	0.1	0.1	0	0	0	0	0	0	0	0.000000000
1504608122.129132032	-0.0076699	0.768524	-0.803806	0.0076699	0.816078	-1.58614	-0.00920388	0	0	0	0	0	0	0	0	0	0	0	0	0	0	0.000000000	3.38813e-20	0.788798	-0.788798	2.22045e-15	0.828698	-1.5708	0	0.1	0.1	0.1	0.1	0.1	0.1	0.1	0	0	0	0	0	0	0	0.000000000
1504608122.149044990	-0.0076699	0.768524	-0.802272	0.0076699	0.816078	-1.58614	-0.00920388	0	0	0	0	0	0	0	0	0	0	0	0	0	0	0.000000000	3.38813e-20	0.788798	-0.788798	2.22045e-15	0.828698	-1.5708	0	0.1	0.1	0.1	0.1	0.1	0.1	0.1	0	0	0	0	0	0	0	0.000000000
1504608122.169017076	-0.00613592	0.768524	-0.802272	0.0076699	0.816078	-1.58614	-0.00920388	0	0	0	0	0	0	0	0	0	0	0	0	0	0	0.000000000	3.38813e-20	0.788798	-0.788798	2.22045e-15	0.828698	-1.5708	0	0.1	0.1	0.1	0.1	0.1	0.1	0.1	0	0	0	0	0	0	0	0.000000000
1504608122.189049005	-0.00613592	0.768524	-0.802272	0.0076699	0.816078	-1.58614	-0.00920388	0	0	0	0	0	0	0	0	0	0	0	0	0	0	0.000000000	3.38813e-20	0.788798	-0.788798	2.22045e-15	0.828698	-1.5708	0	0.1	0.1	0.1	0.1	0.1	0.1	0.1	0	0	0	0	0	0	0	0.000000000
1504608122.209250926	-0.00613592	0.768524	-0.802272	0.0076699	0.816078	-1.58614	-0.00920388	0	0	0	0	0	0	0	0	0	0	0	0	0	0	0.000000000	3.38813e-20	0.788798	-0.788798	2.22045e-15	0.828698	-1.5708	0	0.1	0.1	0.1	0.1	0.1	0.1	0.1	0	0	0	0	0	0	0	0.000000000
1504608122.229419946	-0.00613592	0.768524	-0.803806	0.0076699	0.816078	-1.58614	-0.00920388	0	0	0	0	0	0	0	0	0	0	0	0	0	0	0.000000000	3.38813e-20	0.788798	-0.788798	2.22045e-15	0.828698	-1.5708	0	0.1	0.1	0.1	0.1	0.1	0.1	0.1	0	0	0	0	0	0	0	0.000000000
1504608122.249829053	-0.0076699	0.768524	-0.802272	0.0076699	0.816078	-1.58614	-0.00920388	0	0	0	0	0	0	0	0	0	0	0	0	0	0	0.000000000	3.38813e-20	0.788798	-0.788798	2.22045e-15	0.828698	-1.5708	0	0.1	0.1	0.1	0.1	0.1	0.1	0.1	0	0	0	0	0	0	0	0.000000000
1504608122.269083976	-0.0076699	0.768524	-0.802272	0.0076699	0.816078	-1.58614	-0.00920388	0	0	0	0	0	0	0	0	0	0	0	0	0	0	0.000000000	3.38813e-20	0.788798	-0.788798	2.22045e-15	0.828698	-1.5708	0	0.1	0.1	0.1	0.1	0.1	0.1	0.1	0	0	0	0	0	0	0	0.000000000
1504608122.289374113	-0.00613592	0.768524	-0.802272	0.0076699	0.816078	-1.58614	-0.00920388	0	0	0	0	0	0	0	0	0	0	0	0	0	0	0.000000000	3.38813e-20	0.788798	-0.788798	2.22045e-15	0.828698	-1.5708	0	0.1	0.1	0.1	0.1	0.1	0.1	0.1	0	0	0	0	0	0	0	0.000000000
1504608122.309123992	-0.00613592	0.768524	-0.802272	0.0076699	0.816078	-1.58614	-0.0107379	0	0	0	0	0	0	0	0	0	0	0	0	0	0	0.000000000	3.38813e-20	0.788798	-0.788798	2.22045e-15	0.828698	-1.5708	0	0.1	0.1	0.1	0.1	0.1	0.1	0.1	0	0	0	0	0	0	0	0.000000000
1504608122.329139947	-0.00613592	0.768524	-0.803806	0.0076699	0.816078	-1.58614	-0.00920388	0	0	0	0	0	0	0	0	0	0	0	0	0	0	0.000000000	3.38813e-20	0.788798	-0.788798	2.22045e-15	0.828698	-1.5708	0	0.1	0.1	0.1	0.1	0.1	0.1	0.1	0	0	0	0	0	0	0	0.000000000
1504608122.349163055	-0.0076699	0.768524	-0.802272	0.0076699	0.816078	-1.58614	-0.0107379	0	0	0	0	0	0	0	0	0	0	0	0	0	0	0.000000000	3.38813e-20	0.788798	-0.788798	2.22045e-15	0.828698	-1.5708	0	0.1	0.1	0.1	0.1	0.1	0.1	0.1	0	0	0	0	0	0	0	0.000000000
1504608122.369019031	-0.0076699	0.768524	-0.802272	0.0076699	0.816078	-1.58614	-0.0107379	0	0	0	0	0	0	0	0	0	0	0	0	0	0	0.000000000	3.38813e-20	0.788798	-0.788798	2.22045e-15	0.828698	-1.5708	0	0.1	0.1	0.1	0.1	0.1	0.1	0.1	0	0	0	0	0	0	0	0.000000000
1504608122.389050006	-0.00613592	0.768524	-0.802272	0.0076699	0.816078	-1.58614	-0.00920388	0	0	0	0	0	0	0	0	0	0	0	0	0	0	0.000000000	3.38813e-20	0.788798	-0.788798	2.22045e-15	0.828698	-1.5708	0	0.1	0.1	0.1	0.1	0.1	0.1	0.1	0	0	0	0	0	0	0	0.000000000
1504608122.409053087	-0.0076699	0.768524	-0.802272	0.0076699	0.816078	-1.58614	-0.00920388	0	0	0	0	0	0	0	0	0	0	0	0	0	0	0.000000000	3.38813e-20	0.788798	-0.788798	2.22045e-15	0.828698	-1.5708	0	0.1	0.1	0.1	0.1	0.1	0.1	0.1	0	0	0	0	0	0	0	0.000000000
1504608122.429033041	-0.00613592	0.768524	-0.802272	0.0076699	0.816078	-1.58614	-0.0107379	0	0	0	0	0	0	0	0	0	0	0	0	0	0	0.000000000	3.38813e-20	0.788798	-0.788798	2.22045e-15	0.828698	-1.5708	0	0.1	0.1	0.1	0.1	0.1	0.1	0.1	0	0	0	0	0	0	0	0.000000000
1504608122.449064970	-0.0076699	0.768524	-0.802272	0.0076699	0.816078	-1.58614	-0.00920388	0	0	0	0	0	0	0	0	0	0	0	0	0	0	0.000000000	3.38813e-20	0.788798	-0.788798	2.22045e-15	0.828698	-1.5708	0	0.1	0.1	0.1	0.1	0.1	0.1	0.1	0	0	0	0	0	0	0	0.000000000
1504608122.469059944	-0.0076699	0.768524	-0.802272	0.0076699	0.816078	-1.58614	-0.00920388	0	0	0	0	0	0	0	0	0	0	0	0	0	0	0.000000000	3.38813e-20	0.788798	-0.788798	2.22045e-15	0.828698	-1.5708	0	0.1	0.1	0.1	0.1	0.1	0.1	0.1	0	0	0	0	0	0	0	0.000000000
1504608122.489303112	-0.0076699	0.768524	-0.802272	0.0076699	0.817612	-1.58614	-0.00920388	0	0	0	0	0	0	0	0	0	0	0	0	0	0	0.000000000	3.38813e-20	0.788798	-0.788798	2.22045e-15	0.828698	-1.5708	0	0.1	0.1	0.1	0.1	0.1	0.1	0.1	0	0	0	0	0	0	0	0.000000000
1504608122.509143114	-0.0076699	0.768524	-0.802272	0.0076699	0.816078	-1.58614	-0.0107379	0	0	0	0	0	0	0	0	0	0	0	0	0	0	0.000000000	3.38813e-20	0.788798	-0.788798	2.22045e-15	0.828698	-1.5708	0	0.1	0.1	0.1	0.1	0.1	0.1	0.1	0	0	0	0	0	0	0	0.000000000
1504608122.529115915	-0.0076699	0.768524	-0.803806	0.0076699	0.816078	-1.58614	-0.00920388	0	0	0	0	0	0	0	0	0	0	0	0	0	0	0.000000000	3.38813e-20	0.788798	-0.788798	2.22045e-15	0.828698	-1.5708	0	0.1	0.1	0.1	0.1	0.1	0.1	0.1	0	0	0	0	0	0	0	0.000000000
1504608122.549047946	-0.0076699	0.768524	-0.802272	0.00613592	0.816078	-1.58614	-0.00920388	0	0	0	0	0	0	0	0	0	0	0	0	0	0	0.000000000	3.38813e-20	0.788798	-0.788798	2.22045e-15	0.828698	-1.5708	0	0.1	0.1	0.1	0.1	0.1	0.1	0.1	0	0	0	0	0	0	0	0.000000000
1504608122.569112062	-0.0076699	0.768524	-0.802272	0.00613592	0.816078	-1.58614	-0.00920388	0	0	0	0	0	0	0	0	0	0	0	0	0	0	0.000000000	3.38813e-20	0.788798	-0.788798	2.22045e-15	0.828698	-1.5708	0	0.1	0.1	0.1	0.1	0.1	0.1	0.1	0	0	0	0	0	0	0	0.000000000
1504608122.589117050	-0.00613592	0.768524	-0.802272	0.0076699	0.816078	-1.58614	-0.00920388	0	0	0	0	0	0	0	0	0	0	0	0	0	0	0.000000000	3.38813e-20	0.788798	-0.788798	2.22045e-15	0.828698	-1.5708	0	0.1	0.1	0.1	0.1	0.1	0.1	0.1	0	0	0	0	0	0	0	0.000000000
1504608122.609137058	-0.00613592	0.768524	-0.802272	0.0076699	0.816078	-1.58614	-0.00920388	0	0	0	0	0	0	0	0	0	0	0	0	0	0	0.000000000	3.38813e-20	0.788798	-0.788798	2.22045e-15	0.828698	-1.5708	0	0.1	0.1	0.1	0.1	0.1	0.1	0.1	0	0	0	0	0	0	0	0.000000000
1504608122.629523038	-0.00613592	0.768524	-0.803806	0.0076699	0.816078	-1.58614	-0.00920388	0	0	0	0	0	0	0	0	0	0	0	0	0	0	0.000000000	3.38813e-20	0.788798	-0.788798	2.22045e-15	0.828698	-1.5708	0	0.1	0.1	0.1	0.1	0.1	0.1	0.1	0	0	0	0	0	0	0	0.000000000
1504608122.651106119	-0.00613592	0.768524	-0.803806	0.0076699	0.816078	-1.58614	-0.00920388	0	0	0	0	0	0	0	0	0	0	0	0	0	0	0.000000000	3.38813e-20	0.788798	-0.788798	2.22045e-15	0.828698	-1.5708	0	0.1	0.1	0.1	0.1	0.1	0.1	0.1	0	0	0	0	0	0	0	0.000000000
1504608122.669332981	-0.00613592	0.768524	-0.802272	0.0076699	0.816078	-1.58614	-0.0107379	0	0	0	0	0	0	0	0	0	0	0	0	0	0	0.000000000	3.38813e-20	0.788798	-0.788798	2.22045e-15	0.828698	-1.5708	0	0.1	0.1	0.1	0.1	0.1	0.1	0.1	0	0	0	0	0	0	0	0.000000000
1504608122.689111948	-0.0076699	0.768524	-0.802272	0.0076699	0.816078	-1.58614	-0.00920388	0	0	0	0	0	0	0	0	0	0	0	0	0	0	0.000000000	3.38813e-20	0.788798	-0.788798	2.22045e-15	0.828698	-1.5708	0	0.1	0.1	0.1	0.1	0.1	0.1	0.1	0	0	0	0	0	0	0	0.000000000
1504608122.709014892	-0.00613592	0.768524	-0.803806	0.0076699	0.816078	-1.58614	-0.00920388	0	0	0	0	0	0	0	0	0	0	0	0	0	0	0.000000000	3.38813e-20	0.788798	-0.788798	2.22045e-15	0.828698	-1.5708	0	0.1	0.1	0.1	0.1	0.1	0.1	0.1	0	0	0	0	0	0	0	0.000000000
1504608122.729120016	-0.0076699	0.768524	-0.802272	0.0076699	0.816078	-1.58614	-0.00920388	0	0	0	0	0	0	0	0	0	0	0	0	0	0	0.000000000	3.38813e-20	0.788798	-0.788798	2.22045e-15	0.828698	-1.5708	0	0.1	0.1	0.1	0.1	0.1	0.1	0.1	0	0	0	0	0	0	0	0.000000000
1504608122.749646902	-0.00613592	0.768524	-0.802272	0.0076699	0.816078	-1.58614	-0.00920388	0	0	0	0	0	0	0	0	0	0	0	0	0	0	0.000000000	3.38813e-20	0.788798	-0.788798	2.22045e-15	0.828698	-1.5708	0	0.1	0.1	0.1	0.1	0.1	0.1	0.1	0	0	0	0	0	0	0	0.000000000
1504608122.769212007	-0.00613592	0.768524	-0.802272	0.0076699	0.816078	-1.58614	-0.00920388	0	0	0	0	0	0	0	0	0	0	0	0	0	0	0.000000000	3.38813e-20	0.788798	-0.788798	2.22045e-15	0.828698	-1.5708	0	0.1	0.1	0.1	0.1	0.1	0.1	0.1	0	0	0	0	0	0	0	0.000000000
1504608122.799566030	-0.0076699	0.768524	-0.802272	0.0076699	0.816078	-1.58614	-0.00920388	0	0	0	0	0	0	0	0	0	0	0	0	0	0	0.000000000	3.38813e-20	0.788798	-0.788798	2.22045e-15	0.828698	-1.5708	0	0.1	0.1	0.1	0.1	0.1	0.1	0.1	0	0	0	0	0	0	0	0.000000000
1504608122.809175014	-0.0076699	0.768524	-0.802272	0.0076699	0.816078	-1.58614	-0.00920388	0	0	0	0	0	0	0	0	0	0	0	0	0	0	0.000000000	3.38813e-20	0.788798	-0.788798	2.22045e-15	0.828698	-1.5708	0	0.1	0.1	0.1	0.1	0.1	0.1	0.1	0	0	0	0	0	0	0	0.000000000
1504608122.831552028	-0.0076699	0.768524	-0.802272	0.0076699	0.816078	-1.58614	-0.00920388	0	0	0	0	0	0	0	0	0	0	0	0	0	0	0.000000000	3.38813e-20	0.788798	-0.788798	2.22045e-15	0.828698	-1.5708	0	0.1	0.1	0.1	0.1	0.1	0.1	0.1	0	0	0	0	0	0	0	0.000000000
1504608122.849169969	-0.0076699	0.768524	-0.803806	0.0076699	0.816078	-1.58614	-0.00920388	0	0	0	0	0	0	0	0	0	0	0	0	0	0	0.000000000	3.38813e-20	0.788798	-0.788798	2.22045e-15	0.828698	-1.5708	0	0.1	0.1	0.1	0.1	0.1	0.1	0.1	0	0	0	0	0	0	0	0.000000000
1504608122.870038032	-0.00613592	0.768524	-0.802272	0.0076699	0.816078	-1.58614	-0.00920388	0	0	0	0	0	0	0	0	0	0	0	0	0	0	0.000000000	3.38813e-20	0.788798	-0.788798	2.22045e-15	0.828698	-1.5708	0	0.1	0.1	0.1	0.1	0.1	0.1	0.1	0	0	0	0	0	0	0	0.000000000
1504608122.889029979	-0.00613592	0.768524	-0.802272	0.0076699	0.816078	-1.58614	-0.0107379	0	0	0	0	0	0	0	0	0	0	0	0	0	0	0.000000000	3.38813e-20	0.788798	-0.788798	2.22045e-15	0.828698	-1.5708	0	0.1	0.1	0.1	0.1	0.1	0.1	0.1	0	0	0	0	0	0	0	0.000000000
1504608122.909132003	-0.00613592	0.768524	-0.803806	0.0076699	0.816078	-1.58614	-0.00920388	0	0	0	0	0	0	0	0	0	0	0	0	0	0	0.000000000	3.38813e-20	0.788798	-0.788798	2.22045e-15	0.828698	-1.5708	0	0.1	0.1	0.1	0.1	0.1	0.1	0.1	0	0	0	0	0	0	0	0.000000000
1504608122.929017066	-0.0076699	0.768524	-0.802272	0.0076699	0.816078	-1.58614	-0.0107379	0	0	0	0	0	0	0	0	0	0	0	0	0	0	0.000000000	3.38813e-20	0.788798	-0.788798	2.22045e-15	0.828698	-1.5708	0	0.1	0.1	0.1	0.1	0.1	0.1	0.1	0	0	0	0	0	0	0	0.000000000
1504608122.949052095	-0.00613592	0.768524	-0.803806	0.0076699	0.816078	-1.58614	-0.00920388	0	0	0	0	0	0	0	0	0	0	0	0	0	0	0.000000000	3.38813e-20	0.788798	-0.788798	2.22045e-15	0.828698	-1.5708	0	0.1	0.1	0.1	0.1	0.1	0.1	0.1	0	0	0	0	0	0	0	0.000000000
1504608122.969064950	-0.00613592	0.768524	-0.803806	0.0076699	0.816078	-1.58614	-0.00920388	0	0	0	0	0	0	0	0	0	0	0	0	0	0	0.000000000	3.38813e-20	0.788798	-0.788798	2.22045e-15	0.828698	-1.5708	0	0.1	0.1	0.1	0.1	0.1	0.1	0.1	0	0	0	0	0	0	0	0.000000000
1504608122.989314079	-0.0076699	0.768524	-0.802272	0.0076699	0.816078	-1.58614	-0.0107379	0	0	0	0	0	0	0	0	0	0	0	0	0	0	0.000000000	3.38813e-20	0.788798	-0.788798	2.22045e-15	0.828698	-1.5708	0	0.1	0.1	0.1	0.1	0.1	0.1	0.1	0	0	0	0	0	0	0	0.000000000
1504608123.009092092	-0.00613592	0.768524	-0.802272	0.0076699	0.816078	-1.58614	-0.00920388	0	0	0	0	0	0	0	0	0	0	0	0	0	0	0.000000000	3.38813e-20	0.788798	-0.788798	2.22045e-15	0.828698	-1.5708	0	0.1	0.1	0.1	0.1	0.1	0.1	0.1	0	0	0	0	0	0	0	0.000000000
1504608123.030164957	-0.00613592	0.768524	-0.802272	0.0076699	0.816078	-1.58614	-0.00920388	0	0	0	0	0	0	0	0	0	0	0	0	0	0	0.000000000	3.38813e-20	0.788798	-0.788798	2.22045e-15	0.828698	-1.5708	0	0.1	0.1	0.1	0.1	0.1	0.1	0.1	0	0	0	0	0	0	0	0.000000000
1504608123.049158096	-0.00613592	0.768524	-0.802272	0.0076699	0.816078	-1.58614	-0.00920388	0	0	0	0	0	0	0	0	0	0	0	0	0	0	0.000000000	3.38813e-20	0.788798	-0.788798	2.22045e-15	0.828698	-1.5708	0	0.1	0.1	0.1	0.1	0.1	0.1	0.1	0	0	0	0	0	0	0	0.000000000
1504608123.070270061	-0.00613592	0.768524	-0.803806	0.0076699	0.816078	-1.58614	-0.00920388	0	0	0	0	0	0	0	0	0	0	0	0	0	0	0.000000000	3.38813e-20	0.788798	-0.788798	2.22045e-15	0.828698	-1.5708	0	0.1	0.1	0.1	0.1	0.1	0.1	0.1	0	0	0	0	0	0	0	0.000000000
1504608123.089133024	-0.0076699	0.768524	-0.802272	0.0076699	0.816078	-1.58614	-0.00920388	0	0	0	0	0	0	0	0	0	0	0	0	0	0	0.000000000	3.38813e-20	0.788798	-0.788798	2.22045e-15	0.828698	-1.5708	0	0.1	0.1	0.1	0.1	0.1	0.1	0.1	0	0	0	0	0	0	0	0.000000000
1504608123.109209060	-0.0076699	0.768524	-0.802272	0.0076699	0.816078	-1.58614	-0.00920388	0	0	0	0	0	0	0	0	0	0	0	0	0	0	0.000000000	3.38813e-20	0.788798	-0.788798	2.22045e-15	0.828698	-1.5708	0	0.1	0.1	0.1	0.1	0.1	0.1	0.1	0	0	0	0	0	0	0	0.000000000
1504608123.129245042	-0.00613592	0.768524	-0.803806	0.0076699	0.816078	-1.58614	-0.0107379	0	0	0	0	0	0	0	0	0	0	0	0	0	0	0.000000000	3.38813e-20	0.788798	-0.788798	2.22045e-15	0.828698	-1.5708	0	0.1	0.1	0.1	0.1	0.1	0.1	0.1	0	0	0	0	0	0	0	0.000000000
1504608123.149153947	-0.0076699	0.768524	-0.802272	0.00613592	0.816078	-1.58614	-0.00920388	0	0	0	0	0	0	0	0	0	0	0	0	0	0	0.000000000	3.38813e-20	0.788798	-0.788798	2.22045e-15	0.828698	-1.5708	0	0.1	0.1	0.1	0.1	0.1	0.1	0.1	0	0	0	0	0	0	0	0.000000000
1504608123.169256925	-0.0076699	0.768524	-0.802272	0.00613592	0.816078	-1.58614	-0.00920388	0	0	0	0	0	0	0	0	0	0	0	0	0	0	0.000000000	3.38813e-20	0.788798	-0.788798	2.22045e-15	0.828698	-1.5708	0	0.1	0.1	0.1	0.1	0.1	0.1	0.1	0	0	0	0	0	0	0	0.000000000
1504608123.189481019	-0.0076699	0.768524	-0.802272	0.0076699	0.816078	-1.58614	-0.0107379	0	0	0	0	0	0	0	0	0	0	0	0	0	0	0.000000000	3.38813e-20	0.788798	-0.788798	2.22045e-15	0.828698	-1.5708	0	0.1	0.1	0.1	0.1	0.1	0.1	0.1	0	0	0	0	0	0	0	0.000000000
1504608123.209371089	-0.0076699	0.768524	-0.802272	0.0076699	0.816078	-1.58614	-0.00920388	0	0	0	0	0	0	0	0	0	0	0	0	0	0	0.000000000	3.38813e-20	0.788798	-0.788798	2.22045e-15	0.828698	-1.5708	0	0.1	0.1	0.1	0.1	0.1	0.1	0.1	0	0	0	0	0	0	0	0.000000000
1504608123.229624032	-0.00613592	0.768524	-0.802272	0.0076699	0.816078	-1.58614	-0.00920388	0	0	0	0	0	0	0	0	0	0	0	0	0	0	0.000000000	3.38813e-20	0.788798	-0.788798	2.22045e-15	0.828698	-1.5708	0	0.1	0.1	0.1	0.1	0.1	0.1	0.1	0	0	0	0	0	0	0	0.000000000
1504608123.249208927	-0.00613592	0.768524	-0.802272	0.0076699	0.816078	-1.58614	-0.00920388	0	0	0	0	0	0	0	0	0	0	0	0	0	0	0.000000000	3.38813e-20	0.788798	-0.788798	2.22045e-15	0.828698	-1.5708	0	0.1	0.1	0.1	0.1	0.1	0.1	0.1	0	0	0	0	0	0	0	0.000000000
1504608123.269190073	-0.00613592	0.768524	-0.803806	0.0076699	0.816078	-1.58614	-0.0107379	0	0	0	0	0	0	0	0	0	0	0	0	0	0	0.000000000	3.38813e-20	0.788798	-0.788798	2.22045e-15	0.828698	-1.5708	0	0.1	0.1	0.1	0.1	0.1	0.1	0.1	0	0	0	0	0	0	0	0.000000000
1504608123.289248943	-0.0076699	0.768524	-0.802272	0.0076699	0.816078	-1.58614	-0.00920388	0	0	0	0	0	0	0	0	0	0	0	0	0	0	0.000000000	3.38813e-20	0.788798	-0.788798	2.22045e-15	0.828698	-1.5708	0	0.1	0.1	0.1	0.1	0.1	0.1	0.1	0	0	0	0	0	0	0	0.000000000
1504608123.309264898	-0.00613592	0.768524	-0.802272	0.0076699	0.816078	-1.58614	-0.0107379	0	0	0	0	0	0	0	0	0	0	0	0	0	0	0.000000000	3.38813e-20	0.788798	-0.788798	2.22045e-15	0.828698	-1.5708	0	0.1	0.1	0.1	0.1	0.1	0.1	0.1	0	0	0	0	0	0	0	0.000000000
1504608123.329359054	-0.00613592	0.768524	-0.802272	0.0076699	0.816078	-1.58614	-0.0107379	0	0	0	0	0	0	0	0	0	0	0	0	0	0	0.000000000	3.38813e-20	0.788798	-0.788798	2.22045e-15	0.828698	-1.5708	0	0.1	0.1	0.1	0.1	0.1	0.1	0.1	0	0	0	0	0	0	0	0.000000000
1504608123.349334955	-0.00613592	0.768524	-0.802272	0.00613592	0.816078	-1.58614	-0.00920388	0	0	0	0	0	0	0	0	0	0	0	0	0	0	0.000000000	3.38813e-20	0.788798	-0.788798	2.22045e-15	0.828698	-1.5708	0	0.1	0.1	0.1	0.1	0.1	0.1	0.1	0	0	0	0	0	0	0	0.000000000
1504608123.369282960	-0.0076699	0.768524	-0.802272	0.0076699	0.816078	-1.58614	-0.0107379	0	0	0	0	0	0	0	0	0	0	0	0	0	0	0.000000000	3.38813e-20	0.788798	-0.788798	2.22045e-15	0.828698	-1.5708	0	0.1	0.1	0.1	0.1	0.1	0.1	0.1	0	0	0	0	0	0	0	0.000000000
1504608123.389313936	-0.00613592	0.768524	-0.802272	0.0076699	0.816078	-1.58614	-0.0107379	0	0	0	0	0	0	0	0	0	0	0	0	0	0	0.000000000	3.38813e-20	0.788798	-0.788798	2.22045e-15	0.828698	-1.5708	0	0.1	0.1	0.1	0.1	0.1	0.1	0.1	0	0	0	0	0	0	0	0.000000000
1504608123.409171104	-0.00613592	0.768524	-0.802272	0.0076699	0.816078	-1.58614	-0.00920388	0	0	0	0	0	0	0	0	0	0	0	0	0	0	0.000000000	3.38813e-20	0.788798	-0.788798	2.22045e-15	0.828698	-1.5708	0	0.1	0.1	0.1	0.1	0.1	0.1	0.1	0	0	0	0	0	0	0	0.000000000
1504608123.430516004	-0.0076699	0.768524	-0.802272	0.0076699	0.816078	-1.58614	-0.00920388	0	0	0	0	0	0	0	0	0	0	0	0	0	0	0.000000000	3.38813e-20	0.788798	-0.788798	2.22045e-15	0.828698	-1.5708	0	0.1	0.1	0.1	0.1	0.1	0.1	0.1	0	0	0	0	0	0	0	0.000000000
1504608123.449443101	-0.0076699	0.768524	-0.802272	0.0076699	0.816078	-1.58614	-0.00920388	0	0	0	0	0	0	0	0	0	0	0	0	0	0	0.000000000	3.38813e-20	0.788798	-0.788798	2.22045e-15	0.828698	-1.5708	0	0.1	0.1	0.1	0.1	0.1	0.1	0.1	0	0	0	0	0	0	0	0.000000000
1504608123.469186067	-0.0076699	0.768524	-0.803806	0.0076699	0.816078	-1.58614	-0.00920388	0	0	0	0	0	0	0	0	0	0	0	0	0	0	0.000000000	3.38813e-20	0.788798	-0.788798	2.22045e-15	0.828698	-1.5708	0	0.1	0.1	0.1	0.1	0.1	0.1	0.1	0	0	0	0	0	0	0	0.000000000
1504608123.489202976	-0.00613592	0.768524	-0.803806	0.0076699	0.816078	-1.58614	-0.0107379	0	0	0	0	0	0	0	0	0	0	0	0	0	0	0.000000000	3.38813e-20	0.788798	-0.788798	2.22045e-15	0.828698	-1.5708	0	0.1	0.1	0.1	0.1	0.1	0.1	0.1	0	0	0	0	0	0	0	0.000000000
1504608123.509217023	-0.00613592	0.768524	-0.802272	0.0076699	0.816078	-1.5846	-0.00920388	0	0	0	0	0	0	0	0	0	0	0	0	0	0	0.000000000	3.38813e-20	0.788798	-0.788798	2.22045e-15	0.828698	-1.5708	0	0.1	0.1	0.1	0.1	0.1	0.1	0.1	0	0	0	0	0	0	0	0.000000000
1504608123.529206037	-0.00613592	0.768524	-0.802272	0.0076699	0.816078	-1.5846	-0.00920388	0	0	0	0	0	0	0	0	0	0	0	0	0	0	0.000000000	3.38813e-20	0.788798	-0.788798	2.22045e-15	0.828698	-1.5708	0	0.1	0.1	0.1	0.1	0.1	0.1	0.1	0	0	0	0	0	0	0	0.000000000
1504608123.549237966	-0.00613592	0.768524	-0.802272	0.0076699	0.816078	-1.58614	-0.00920388	0	0	0	0	0	0	0	0	0	0	0	0	0	0	0.000000000	3.38813e-20	0.788798	-0.788798	2.22045e-15	0.828698	-1.5708	0	0.1	0.1	0.1	0.1	0.1	0.1	0.1	0	0	0	0	0	0	0	0.000000000
1504608123.569212913	-0.00613592	0.768524	-0.802272	0.0076699	0.816078	-1.58614	-0.00920388	0	0	0	0	0	0	0	0	0	0	0	0	0	0	0.000000000	3.38813e-20	0.788798	-0.788798	2.22045e-15	0.828698	-1.5708	0	0.1	0.1	0.1	0.1	0.1	0.1	0.1	0	0	0	0	0	0	0	0.000000000
1504608123.589181900	-0.0076699	0.768524	-0.802272	0.0076699	0.816078	-1.58614	-0.00920388	0	0	0	0	0	0	0	0	0	0	0	0	0	0	0.000000000	3.38813e-20	0.788798	-0.788798	2.22045e-15	0.828698	-1.5708	0	0.1	0.1	0.1	0.1	0.1	0.1	0.1	0	0	0	0	0	0	0	0.000000000
1504608123.610229015	-0.00613592	0.768524	-0.803806	0.0076699	0.816078	-1.58614	-0.0107379	0	0	0	0	0	0	0	0	0	0	0	0	0	0	0.000000000	3.38813e-20	0.788798	-0.788798	2.22045e-15	0.828698	-1.5708	0	0.1	0.1	0.1	0.1	0.1	0.1	0.1	0	0	0	0	0	0	0	0.000000000
1504608123.629647016	-0.00613592	0.768524	-0.803806	0.0076699	0.816078	-1.58614	-0.0107379	0	0	0	0	0	0	0	0	0	0	0	0	0	0	0.000000000	3.38813e-20	0.788798	-0.788798	2.22045e-15	0.828698	-1.5708	0	0.1	0.1	0.1	0.1	0.1	0.1	0.1	0	0	0	0	0	0	0	0.000000000
1504608123.649218082	-0.00613592	0.768524	-0.802272	0.0076699	0.816078	-1.58614	-0.0107379	0	0	0	0	0	0	0	0	0	0	0	0	0	0	0.000000000	3.38813e-20	0.788798	-0.788798	2.22045e-15	0.828698	-1.5708	0	0.1	0.1	0.1	0.1	0.1	0.1	0.1	0	0	0	0	0	0	0	0.000000000
1504608123.669891119	-0.00613592	0.768524	-0.802272	0.0076699	0.816078	-1.58614	-0.00920388	0	0	0	0	0	0	0	0	0	0	0	0	0	0	0.000000000	3.38813e-20	0.788798	-0.788798	2.22045e-15	0.828698	-1.5708	0	0.1	0.1	0.1	0.1	0.1	0.1	0.1	0	0	0	0	0	0	0	0.000000000
1504608123.689841032	-0.0076699	0.768524	-0.802272	0.0076699	0.816078	-1.58614	-0.0107379	0	0	0	0	0	0	0	0	0	0	0	0	0	0	0.000000000	3.38813e-20	0.788798	-0.788798	2.22045e-15	0.828698	-1.5708	0	0.1	0.1	0.1	0.1	0.1	0.1	0.1	0	0	0	0	0	0	0	0.000000000
1504608123.709374904	-0.0076699	0.768524	-0.802272	0.0076699	0.816078	-1.58614	-0.00920388	0	0	0	0	0	0	0	0	0	0	0	0	0	0	0.000000000	3.38813e-20	0.788798	-0.788798	2.22045e-15	0.828698	-1.5708	0	0.1	0.1	0.1	0.1	0.1	0.1	0.1	0	0	0	0	0	0	0	0.000000000
1504608123.730012893	-0.0076699	0.768524	-0.802272	0.0076699	0.816078	-1.58614	-0.00920388	0	0	0	0	0	0	0	0	0	0	0	0	0	0	0.000000000	3.38813e-20	0.788798	-0.788798	2.22045e-15	0.828698	-1.5708	0	0.1	0.1	0.1	0.1	0.1	0.1	0.1	0	0	0	0	0	0	0	0.000000000
1504608123.749021053	-0.0076699	0.768524	-0.802272	0.0076699	0.816078	-1.58614	-0.00920388	0	0	0	0	0	0	0	0	0	0	0	0	0	0	0.000000000	3.38813e-20	0.788798	-0.788798	2.22045e-15	0.828698	-1.5708	0	0.1	0.1	0.1	0.1	0.1	0.1	0.1	0	0	0	0	0	0	0	0.000000000
1504608123.768978118	-0.0076699	0.768524	-0.802272	0.0076699	0.816078	-1.58614	-0.00920388	0	0	0	0	0	0	0	0	0	0	0	0	0	0	0.000000000	3.38813e-20	0.788798	-0.788798	2.22045e-15	0.828698	-1.5708	0	0.1	0.1	0.1	0.1	0.1	0.1	0.1	0	0	0	0	0	0	0	0.000000000
1504608123.788954973	-0.0076699	0.768524	-0.802272	0.0076699	0.816078	-1.58614	-0.00920388	0	0	0	0	0	0	0	0	0	0	0	0	0	0	0.000000000	3.38813e-20	0.788798	-0.788798	2.22045e-15	0.828698	-1.5708	0	0.1	0.1	0.1	0.1	0.1	0.1	0.1	0	0	0	0	0	0	0	0.000000000
1504608123.809149980	-0.00613592	0.768524	-0.803806	0.0076699	0.816078	-1.58614	-0.00920388	0	0	0	0	0	0	0	0	0	0	0	0	0	0	0.000000000	3.38813e-20	0.788798	-0.788798	2.22045e-15	0.828698	-1.5708	0	0.1	0.1	0.1	0.1	0.1	0.1	0.1	0	0	0	0	0	0	0	0.000000000
1504608123.829020023	-0.0076699	0.768524	-0.802272	0.0076699	0.816078	-1.58614	-0.00920388	0	0	0	0	0	0	0	0	0	0	0	0	0	0	0.000000000	3.38813e-20	0.788798	-0.788798	2.22045e-15	0.828698	-1.5708	0	0.1	0.1	0.1	0.1	0.1	0.1	0.1	0	0	0	0	0	0	0	0.000000000
1504608123.848936080	-0.0076699	0.768524	-0.802272	0.0076699	0.816078	-1.58614	-0.00920388	0	0	0	0	0	0	0	0	0	0	0	0	0	0	0.000000000	3.38813e-20	0.788798	-0.788798	2.22045e-15	0.828698	-1.5708	0	0.1	0.1	0.1	0.1	0.1	0.1	0.1	0	0	0	0	0	0	0	0.000000000
1504608123.868925094	-0.00613592	0.768524	-0.802272	0.0076699	0.816078	-1.58614	-0.00920388	0	0	0	0	0	0	0	0	0	0	0	0	0	0	0.000000000	3.38813e-20	0.788798	-0.788798	2.22045e-15	0.828698	-1.5708	0	0.1	0.1	0.1	0.1	0.1	0.1	0.1	0	0	0	0	0	0	0	0.000000000
1504608123.888923883	-0.00613592	0.768524	-0.802272	0.0076699	0.816078	-1.58614	-0.00920388	0	0	0	0	0	0	0	0	0	0	0	0	0	0	0.000000000	3.38813e-20	0.788798	-0.788798	2.22045e-15	0.828698	-1.5708	0	0.1	0.1	0.1	0.1	0.1	0.1	0.1	0	0	0	0	0	0	0	0.000000000
1504608123.908920049	-0.00613592	0.768524	-0.802272	0.0076699	0.816078	-1.58614	-0.00920388	0	0	0	0	0	0	0	0	0	0	0	0	0	0	0.000000000	3.38813e-20	0.788798	-0.788798	2.22045e-15	0.828698	-1.5708	0	0.1	0.1	0.1	0.1	0.1	0.1	0.1	0	0	0	0	0	0	0	0.000000000
1504608123.928966999	-0.0076699	0.768524	-0.802272	0.0076699	0.816078	-1.58614	-0.00920388	0	0	0	0	0	0	0	0	0	0	0	0	0	0	0.000000000	3.38813e-20	0.788798	-0.788798	2.22045e-15	0.828698	-1.5708	0	0.1	0.1	0.1	0.1	0.1	0.1	0.1	0	0	0	0	0	0	0	0.000000000
1504608123.949040889	-0.0076699	0.768524	-0.802272	0.0076699	0.816078	-1.58614	-0.00920388	0	0	0	0	0	0	0	0	0	0	0	0	0	0	0.000000000	3.38813e-20	0.788798	-0.788798	2.22045e-15	0.828698	-1.5708	0	0.1	0.1	0.1	0.1	0.1	0.1	0.1	0	0	0	0	0	0	0	0.000000000
1504608123.968928098	-0.00613592	0.768524	-0.803806	0.0076699	0.816078	-1.58614	-0.00920388	0	0	0	0	0	0	0	0	0	0	0	0	0	0	0.000000000	3.38813e-20	0.788798	-0.788798	2.22045e-15	0.828698	-1.5708	0	0.1	0.1	0.1	0.1	0.1	0.1	0.1	0	0	0	0	0	0	0	0.000000000
1504608123.988977909	-0.00613592	0.768524	-0.803806	0.0076699	0.816078	-1.58614	-0.00920388	0	0	0	0	0	0	0	0	0	0	0	0	0	0	0.000000000	3.38813e-20	0.788798	-0.788798	2.22045e-15	0.828698	-1.5708	0	0.1	0.1	0.1	0.1	0.1	0.1	0.1	0	0	0	0	0	0	0	0.000000000
1504608124.009089946	-0.00613592	0.768524	-0.803806	0.0076699	0.816078	-1.58614	-0.00920388	0	0	0	0	0	0	0	0	0	0	0	0	0	0	0.000000000	3.38813e-20	0.788798	-0.788798	2.22045e-15	0.828698	-1.5708	0	0.1	0.1	0.1	0.1	0.1	0.1	0.1	0	0	0	0	0	0	0	0.000000000
1504608124.028930902	-0.00613592	0.768524	-0.802272	0.0076699	0.816078	-1.58614	-0.00920388	0	0	0	0	0	0	0	0	0	0	0	0	0	0	0.000000000	3.38813e-20	0.788798	-0.788798	2.22045e-15	0.828698	-1.5708	0	0.1	0.1	0.1	0.1	0.1	0.1	0.1	0	0	0	0	0	0	0	0.000000000
1504608124.048959016	-0.0076699	0.768524	-0.802272	0.0076699	0.816078	-1.58614	-0.00920388	0	0	0	0	0	0	0	0	0	0	0	0	0	0	0.000000000	3.38813e-20	0.788798	-0.788798	2.22045e-15	0.828698	-1.5708	0	0.1	0.1	0.1	0.1	0.1	0.1	0.1	0	0	0	0	0	0	0	0.000000000
1504608124.069360971	-0.0076699	0.768524	-0.802272	0.0076699	0.816078	-1.58614	-0.00920388	0	0	0	0	0	0	0	0	0	0	0	0	0	0	0.000000000	3.38813e-20	0.788798	-0.788798	2.22045e-15	0.828698	-1.5708	0	0.1	0.1	0.1	0.1	0.1	0.1	0.1	0	0	0	0	0	0	0	0.000000000
1504608124.088928937	-0.0076699	0.768524	-0.802272	0.0076699	0.816078	-1.58614	-0.00920388	0	0	0	0	0	0	0	0	0	0	0	0	0	0	0.000000000	3.38813e-20	0.788798	-0.788798	2.22045e-15	0.828698	-1.5708	0	0.1	0.1	0.1	0.1	0.1	0.1	0.1	0	0	0	0	0	0	0	0.000000000
1504608124.108967065	-0.0076699	0.768524	-0.802272	0.0076699	0.816078	-1.58614	-0.00920388	0	0	0	0	0	0	0	0	0	0	0	0	0	0	0.000000000	3.38813e-20	0.788798	-0.788798	2.22045e-15	0.828698	-1.5708	0	0.1	0.1	0.1	0.1	0.1	0.1	0.1	0	0	0	0	0	0	0	0.000000000
1504608124.128994941	-0.00613592	0.768524	-0.802272	0.0076699	0.816078	-1.58614	-0.00920388	0	0	0	0	0	0	0	0	0	0	0	0	0	0	0.000000000	3.38813e-20	0.788798	-0.788798	2.22045e-15	0.828698	-1.5708	0	0.1	0.1	0.1	0.1	0.1	0.1	0.1	0	0	0	0	0	0	0	0.000000000
1504608124.149094104	-0.0076699	0.768524	-0.802272	0.0076699	0.816078	-1.58614	-0.00920388	0	0	0	0	0	0	0	0	0	0	0	0	0	0	0.000000000	3.38813e-20	0.788798	-0.788798	2.22045e-15	0.828698	-1.5708	0	0.1	0.1	0.1	0.1	0.1	0.1	0.1	0	0	0	0	0	0	0	0.000000000
1504608124.169104099	-0.0076699	0.768524	-0.802272	0.0076699	0.816078	-1.58614	-0.00920388	0	0	0	0	0	0	0	0	0	0	0	0	0	0	0.000000000	3.38813e-20	0.788798	-0.788798	2.22045e-15	0.828698	-1.5708	0	0.1	0.1	0.1	0.1	0.1	0.1	0.1	0	0	0	0	0	0	0	0.000000000
1504608124.189220905	-0.0076699	0.768524	-0.803806	0.0076699	0.816078	-1.58614	-0.0107379	0	0	0	0	0	0	0	0	0	0	0	0	0	0	0.000000000	3.38813e-20	0.788798	-0.788798	2.22045e-15	0.828698	-1.5708	0	0.1	0.1	0.1	0.1	0.1	0.1	0.1	0	0	0	0	0	0	0	0.000000000
1504608124.209177017	-0.0076699	0.768524	-0.802272	0.0076699	0.816078	-1.58614	-0.00920388	0	0	0	0	0	0	0	0	0	0	0	0	0	0	0.000000000	3.38813e-20	0.788798	-0.788798	2.22045e-15	0.828698	-1.5708	0	0.1	0.1	0.1	0.1	0.1	0.1	0.1	0	0	0	0	0	0	0	0.000000000
1504608124.229724884	-0.00613592	0.768524	-0.803806	0.0076699	0.816078	-1.58614	-0.00920388	0	0	0	0	0	0	0	0	0	0	0	0	0	0	0.000000000	3.38813e-20	0.788798	-0.788798	2.22045e-15	0.828698	-1.5708	0	0.1	0.1	0.1	0.1	0.1	0.1	0.1	0	0	0	0	0	0	0	0.000000000
1504608124.249999046	-0.0076699	0.768524	-0.802272	0.0076699	0.816078	-1.58614	-0.00920388	0	0	0	0	0	0	0	0	0	0	0	0	0	0	0.000000000	3.38813e-20	0.788798	-0.788798	2.22045e-15	0.828698	-1.5708	0	0.1	0.1	0.1	0.1	0.1	0.1	0.1	0	0	0	0	0	0	0	0.000000000
1504608124.269098043	-0.0076699	0.768524	-0.802272	0.0076699	0.816078	-1.58614	-0.00920388	0	0	0	0	0	0	0	0	0	0	0	0	0	0	0.000000000	3.38813e-20	0.788798	-0.788798	2.22045e-15	0.828698	-1.5708	0	0.1	0.1	0.1	0.1	0.1	0.1	0.1	0	0	0	0	0	0	0	0.000000000
1504608124.289119005	-0.0076699	0.768524	-0.802272	0.0076699	0.816078	-1.58614	-0.00920388	0	0	0	0	0	0	0	0	0	0	0	0	0	0	0.000000000	3.38813e-20	0.788798	-0.788798	2.22045e-15	0.828698	-1.5708	0	0.1	0.1	0.1	0.1	0.1	0.1	0.1	0	0	0	0	0	0	0	0.000000000
1504608124.309099912	-0.0076699	0.768524	-0.802272	0.0076699	0.816078	-1.58614	-0.0107379	0	0	0	0	0	0	0	0	0	0	0	0	0	0	0.000000000	3.38813e-20	0.788798	-0.788798	2.22045e-15	0.828698	-1.5708	0	0.1	0.1	0.1	0.1	0.1	0.1	0.1	0	0	0	0	0	0	0	0.000000000
1504608124.329298019	-0.0076699	0.768524	-0.803806	0.0076699	0.814544	-1.58614	-0.00920388	0	0	0	0	0	0	0	0	0	0	0	0	0	0	0.000000000	3.38813e-20	0.788798	-0.788798	2.22045e-15	0.828698	-1.5708	0	0.1	0.1	0.1	0.1	0.1	0.1	0.1	0	0	0	0	0	0	0	0.000000000
1504608124.349024057	-0.0076699	0.768524	-0.802272	0.0076699	0.816078	-1.58614	-0.0107379	0	0	0	0	0	0	0	0	0	0	0	0	0	0	0.000000000	3.38813e-20	0.788798	-0.788798	2.22045e-15	0.828698	-1.5708	0	0.1	0.1	0.1	0.1	0.1	0.1	0.1	0	0	0	0	0	0	0	0.000000000
1504608124.369095087	-0.0076699	0.768524	-0.802272	0.0076699	0.816078	-1.58614	-0.0107379	0	0	0	0	0	0	0	0	0	0	0	0	0	0	0.000000000	3.38813e-20	0.788798	-0.788798	2.22045e-15	0.828698	-1.5708	0	0.1	0.1	0.1	0.1	0.1	0.1	0.1	0	0	0	0	0	0	0	0.000000000
1504608124.389065980	-0.00613592	0.768524	-0.802272	0.0076699	0.816078	-1.58614	-0.00920388	0	0	0	0	0	0	0	0	0	0	0	0	0	0	0.000000000	3.38813e-20	0.788798	-0.788798	2.22045e-15	0.828698	-1.5708	0	0.1	0.1	0.1	0.1	0.1	0.1	0.1	0	0	0	0	0	0	0	0.000000000
1504608124.409084081	-0.0076699	0.768524	-0.802272	0.0076699	0.816078	-1.58614	-0.00920388	0	0	0	0	0	0	0	0	0	0	0	0	0	0	0.000000000	3.38813e-20	0.788798	-0.788798	2.22045e-15	0.828698	-1.5708	0	0.1	0.1	0.1	0.1	0.1	0.1	0.1	0	0	0	0	0	0	0	0.000000000
1504608124.428988933	-0.00613592	0.768524	-0.802272	0.0076699	0.816078	-1.58614	-0.00920388	0	0	0	0	0	0	0	0	0	0	0	0	0	0	0.000000000	3.38813e-20	0.788798	-0.788798	2.22045e-15	0.828698	-1.5708	0	0.1	0.1	0.1	0.1	0.1	0.1	0.1	0	0	0	0	0	0	0	0.000000000
1504608124.449060916	-0.00613592	0.768524	-0.803806	0.0076699	0.816078	-1.58614	-0.00920388	0	0	0	0	0	0	0	0	0	0	0	0	0	0	0.000000000	3.38813e-20	0.788798	-0.788798	2.22045e-15	0.828698	-1.5708	0	0.1	0.1	0.1	0.1	0.1	0.1	0.1	0	0	0	0	0	0	0	0.000000000
1504608124.469039916	-0.00613592	0.768524	-0.803806	0.0076699	0.816078	-1.58614	-0.00920388	0	0	0	0	0	0	0	0	0	0	0	0	0	0	0.000000000	3.38813e-20	0.788798	-0.788798	2.22045e-15	0.828698	-1.5708	0	0.1	0.1	0.1	0.1	0.1	0.1	0.1	0	0	0	0	0	0	0	0.000000000
1504608124.489085912	-0.00613592	0.768524	-0.802272	0.0076699	0.816078	-1.58614	-0.0107379	0	0	0	0	0	0	0	0	0	0	0	0	0	0	0.000000000	3.38813e-20	0.788798	-0.788798	2.22045e-15	0.828698	-1.5708	0	0.1	0.1	0.1	0.1	0.1	0.1	0.1	0	0	0	0	0	0	0	0.000000000
1504608124.509027957	-0.00613592	0.768524	-0.802272	0.00613592	0.816078	-1.5846	-0.00920388	0	0	0	0	0	0	0	0	0	0	0	0	0	0	0.000000000	3.38813e-20	0.788798	-0.788798	2.22045e-15	0.828698	-1.5708	0	0.1	0.1	0.1	0.1	0.1	0.1	0.1	0	0	0	0	0	0	0	0.000000000
1504608124.529126882	-0.00613592	0.768524	-0.803806	0.0076699	0.816078	-1.58614	-0.00920388	0	0	0	0	0	0	0	0	0	0	0	0	0	0	0.000000000	3.38813e-20	0.788798	-0.788798	2.22045e-15	0.828698	-1.5708	0	0.1	0.1	0.1	0.1	0.1	0.1	0.1	0	0	0	0	0	0	0	0.000000000
1504608124.549061059	-0.0076699	0.768524	-0.802272	0.0076699	0.816078	-1.58614	-0.00920388	0	0	0	0	0	0	0	0	0	0	0	0	0	0	0.000000000	3.38813e-20	0.788798	-0.788798	2.22045e-15	0.828698	-1.5708	0	0.1	0.1	0.1	0.1	0.1	0.1	0.1	0	0	0	0	0	0	0	0.000000000
1504608124.569056987	-0.0076699	0.768524	-0.802272	0.0076699	0.816078	-1.58614	-0.00920388	0	0	0	0	0	0	0	0	0	0	0	0	0	0	0.000000000	3.38813e-20	0.788798	-0.788798	2.22045e-15	0.828698	-1.5708	0	0.1	0.1	0.1	0.1	0.1	0.1	0.1	0	0	0	0	0	0	0	0.000000000
1504608124.589137077	-0.00613592	0.768524	-0.802272	0.0076699	0.816078	-1.58614	-0.0107379	0	0	0	0	0	0	0	0	0	0	0	0	0	0	0.000000000	3.38813e-20	0.788798	-0.788798	2.22045e-15	0.828698	-1.5708	0	0.1	0.1	0.1	0.1	0.1	0.1	0.1	0	0	0	0	0	0	0	0.000000000
1504608124.609294891	-0.00613592	0.768524	-0.802272	0.0076699	0.816078	-1.58614	-0.00920388	0	0	0	0	0	0	0	0	0	0	0	0	0	0	0.000000000	3.38813e-20	0.788798	-0.788798	2.22045e-15	0.828698	-1.5708	0	0.1	0.1	0.1	0.1	0.1	0.1	0.1	0	0	0	0	0	0	0	0.000000000
1504608124.629125118	-0.0076699	0.768524	-0.802272	0.0076699	0.816078	-1.58614	-0.00920388	0	0	0	0	0	0	0	0	0	0	0	0	0	0	0.000000000	3.38813e-20	0.788798	-0.788798	2.22045e-15	0.828698	-1.5708	0	0.1	0.1	0.1	0.1	0.1	0.1	0.1	0	0	0	0	0	0	0	0.000000000
1504608124.649198055	-0.0076699	0.768524	-0.802272	0.0076699	0.816078	-1.58614	-0.0107379	0	0	0	0	0	0	0	0	0	0	0	0	0	0	0.000000000	3.38813e-20	0.788798	-0.788798	2.22045e-15	0.828698	-1.5708	0	0.1	0.1	0.1	0.1	0.1	0.1	0.1	0	0	0	0	0	0	0	0.000000000
1504608124.669255971	-0.0076699	0.768524	-0.802272	0.0076699	0.816078	-1.58614	-0.0107379	0	0	0	0	0	0	0	0	0	0	0	0	0	0	0.000000000	3.38813e-20	0.788798	-0.788798	2.22045e-15	0.828698	-1.5708	0	0.1	0.1	0.1	0.1	0.1	0.1	0.1	0	0	0	0	0	0	0	0.000000000
1504608124.689476013	-0.00613592	0.768524	-0.802272	0.0076699	0.816078	-1.58614	-0.00920388	0	0	0	0	0	0	0	0	0	0	0	0	0	0	0.000000000	3.38813e-20	0.788798	-0.788798	2.22045e-15	0.828698	-1.5708	0	0.1	0.1	0.1	0.1	0.1	0.1	0.1	0	0	0	0	0	0	0	0.000000000
1504608124.709419012	-0.00613592	0.768524	-0.802272	0.0076699	0.816078	-1.58614	-0.00920388	0	0	0	0	0	0	0	0	0	0	0	0	0	0	0.000000000	3.38813e-20	0.788798	-0.788798	2.22045e-15	0.828698	-1.5708	0	0.1	0.1	0.1	0.1	0.1	0.1	0.1	0	0	0	0	0	0	0	0.000000000
1504608124.729118108	-0.00613592	0.768524	-0.802272	0.0076699	0.816078	-1.58614	-0.00920388	0	0	0	0	0	0	0	0	0	0	0	0	0	0	0.000000000	3.38813e-20	0.788798	-0.788798	2.22045e-15	0.828698	-1.5708	0	0.1	0.1	0.1	0.1	0.1	0.1	0.1	0	0	0	0	0	0	0	0.000000000
1504608124.749159097	-0.00613592	0.768524	-0.802272	0.0076699	0.816078	-1.58614	-0.00920388	0	0	0	0	0	0	0	0	0	0	0	0	0	0	0.000000000	3.38813e-20	0.788798	-0.788798	2.22045e-15	0.828698	-1.5708	0	0.1	0.1	0.1	0.1	0.1	0.1	0.1	0	0	0	0	0	0	0	0.000000000
1504608124.769058942	-0.00613592	0.768524	-0.802272	0.0076699	0.816078	-1.58614	-0.00920388	0	0	0	0	0	0	0	0	0	0	0	0	0	0	0.000000000	3.38813e-20	0.788798	-0.788798	2.22045e-15	0.828698	-1.5708	0	0.1	0.1	0.1	0.1	0.1	0.1	0.1	0	0	0	0	0	0	0	0.000000000
1504608124.789079904	-0.00613592	0.768524	-0.802272	0.0076699	0.816078	-1.58614	-0.00920388	0	0	0	0	0	0	0	0	0	0	0	0	0	0	0.000000000	3.38813e-20	0.788798	-0.788798	2.22045e-15	0.828698	-1.5708	0	0.1	0.1	0.1	0.1	0.1	0.1	0.1	0	0	0	0	0	0	0	0.000000000
1504608124.809017896	-0.00613592	0.768524	-0.803806	0.0076699	0.816078	-1.58614	-0.0107379	0	0	0	0	0	0	0	0	0	0	0	0	0	0	0.000000000	3.38813e-20	0.788798	-0.788798	2.22045e-15	0.828698	-1.5708	0	0.1	0.1	0.1	0.1	0.1	0.1	0.1	0	0	0	0	0	0	0	0.000000000
1504608124.830615043	-0.00613592	0.768524	-0.802272	0.0076699	0.816078	-1.58614	-0.00920388	0	0	0	0	0	0	0	0	0	0	0	0	0	0	0.000000000	3.38813e-20	0.788798	-0.788798	2.22045e-15	0.828698	-1.5708	0	0.1	0.1	0.1	0.1	0.1	0.1	0.1	0	0	0	0	0	0	0	0.000000000
1504608124.849396944	-0.0076699	0.768524	-0.802272	0.0076699	0.816078	-1.58614	-0.00920388	0	0	0	0	0	0	0	0	0	0	0	0	0	0	0.000000000	3.38813e-20	0.788798	-0.788798	2.22045e-15	0.828698	-1.5708	0	0.1	0.1	0.1	0.1	0.1	0.1	0.1	0	0	0	0	0	0	0	0.000000000
1504608124.871306896	-0.0076699	0.768524	-0.803806	0.0076699	0.816078	-1.58614	-0.00920388	0	0	0	0	0	0	0	0	0	0	0	0	0	0	0.000000000	3.38813e-20	0.788798	-0.788798	2.22045e-15	0.828698	-1.5708	0	0.1	0.1	0.1	0.1	0.1	0.1	0.1	0	0	0	0	0	0	0	0.000000000
1504608124.898019075	-0.0076699	0.768524	-0.803806	0.0076699	0.816078	-1.58614	-0.00920388	0	0	0	0	0	0	0	0	0	0	0	0	0	0	0.000000000	3.38813e-20	0.788798	-0.788798	2.22045e-15	0.828698	-1.5708	0	0.1	0.1	0.1	0.1	0.1	0.1	0.1	0	0	0	0	0	0	0	0.000000000
1504608124.909060001	-0.0076699	0.768524	-0.803806	0.0076699	0.816078	-1.58614	-0.00920388	0	0	0	0	0	0	0	0	0	0	0	0	0	0	0.000000000	3.38813e-20	0.788798	-0.788798	2.22045e-15	0.828698	-1.5708	0	0.1	0.1	0.1	0.1	0.1	0.1	0.1	0	0	0	0	0	0	0	0.000000000
1504608124.929812908	-0.00613592	0.768524	-0.802272	0.0076699	0.816078	-1.58614	-0.00920388	0	0	0	0	0	0	0	0	0	0	0	0	0	0	0.000000000	3.38813e-20	0.788798	-0.788798	2.22045e-15	0.828698	-1.5708	0	0.1	0.1	0.1	0.1	0.1	0.1	0.1	0	0	0	0	0	0	0	0.000000000
1504608124.949736118	-0.00613592	0.768524	-0.802272	0.0076699	0.816078	-1.58614	-0.00920388	0	0	0	0	0	0	0	0	0	0	0	0	0	0	0.000000000	3.38813e-20	0.788798	-0.788798	2.22045e-15	0.828698	-1.5708	0	0.1	0.1	0.1	0.1	0.1	0.1	0.1	0	0	0	0	0	0	0	0.000000000
1504608124.968985080	-0.00613592	0.768524	-0.802272	0.0076699	0.816078	-1.58614	-0.00920388	0	0	0	0	0	0	0	0	0	0	0	0	0	0	0.000000000	-1.19954e-08	0.788798	-0.788798	0.00241658	0.828698	-1.5708	0	0.1	0.1	0.1	0.1	0.1	0.1	0.1	0	0	0	0	0	0	0	0.000000000
1504608124.989028930	-0.0076699	0.768524	-0.802272	0.0076699	0.816078	-1.58614	-0.00920388	0	0	0	0	0	0	0	0	0	0	0	0	0	0	0.000000000	-1.19954e-08	0.788798	-0.788798	0.00241658	0.828698	-1.5708	0	0.1	0.1	0.1	0.1	0.1	0.1	0.1	0	0	0	0	0	0	0	0.000000000
1504608125.009085893	-0.0076699	0.768524	-0.802272	0.0076699	0.816078	-1.58614	-0.00920388	0	0	0	0	0	0	0	0	0	0	0	0	0	0	0.000000000	-2.78e-08	0.788798	-0.788798	0.00560054	0.828698	-1.5708	0	0.1	0.1	0.1	0.1	0.1	0.1	0.1	0	0	0	0	0	0	0	0.000000000
1504608125.029336929	-0.00613592	0.768524	-0.802272	0.0076699	0.816078	-1.58614	-0.00920388	0	0	0	0	0	0	0	0	0	0	0	0	0	0	0.000000000	-2.78e-08	0.788798	-0.788798	0.00560054	0.828698	-1.5708	0	0.1	0.1	0.1	0.1	0.1	0.1	0.1	0	0	0	0	0	0	0	0.000000000
1504608125.048994064	-0.00613592	0.768524	-0.803806	0.00613592	0.816078	-1.58614	-0.00920388	0	0	0	0	0	0	0	0	0	0	0	0	0	0	0.000000000	-2.78e-08	0.788798	-0.788798	0.00560054	0.828698	-1.5708	0	0.1	0.1	0.1	0.1	0.1	0.1	0.1	0	0	0	0	0	0	0	0.000000000
1504608125.069123983	-0.00613592	0.768524	-0.803806	0.00613592	0.816078	-1.58614	-0.00920388	0	0	0	0	0	0	0	0	0	0	0	0	0	0	0.000000000	-5.30742e-08	0.788798	-0.788798	0.0106922	0.828698	-1.5708	0	0.1	0.1	0.1	0.117109	0.1	0.1	0.1	0	0	0	0	0	0	0	0.000000000
1504608125.089057922	-0.00613592	0.768524	-0.802272	0.0076699	0.816078	-1.58614	-0.00920388	0	0	0	0	0	0	0	0	0	0	0	0	0	0	0.000000000	-5.30742e-08	0.788798	-0.788798	0.0106922	0.828698	-1.5708	0	0.1	0.1	0.1	0.117109	0.1	0.1	0.1	0	0	0	0	0	0	0	0.000000000
1504608125.109349966	-0.0076699	0.768524	-0.803806	0.0076699	0.816078	-1.58614	-0.00920388	0	0	0	0	0	0	0	0	0	0	0	0	0	0	0.000000000	-8.96253e-08	0.788798	-0.788798	0.0180558	0.828698	-1.5708	0	0.1	0.1	0.1	0.169361	0.1	0.1	0.1	0	0	0	0	0	0	0	0.000000000
1504608125.129268884	-0.0076699	0.768524	-0.802272	0.0076699	0.816078	-1.58614	-0.00920388	0	0	0	0	0	0	0	0	0	0	0	0	0	0	0.000000000	-8.96253e-08	0.788798	-0.788798	0.0180558	0.828698	-1.5708	0	0.1	0.1	0.1	0.169361	0.1	0.1	0.1	0	0	0	0	0	0	0	0.000000000
1504608125.149029016	-0.00613592	0.768524	-0.802272	0.0076699	0.816078	-1.58614	-0.00920388	0	0	0	0	0	0	0	0	0	0	0	0	0	0	0.000000000	-1.39049e-07	0.788798	-0.788798	0.0280126	0.828698	-1.5708	0	0.1	0.1	0.1	0.229006	0.1	0.1	0.1	0	0	0	0	0	0	0	0.000000000
1504608125.168983936	-0.00613592	0.768524	-0.802272	0.0076699	0.816078	-1.58614	-0.00920388	0	0	0	0	0	0	0	0	0	0	0	0	0	0	0.000000000	-1.39049e-07	0.788798	-0.788798	0.0280126	0.828698	-1.5708	0	0.1	0.1	0.1	0.229006	0.1	0.1	0.1	0	0	0	0	0	0	0	0.000000000
1504608125.189181089	-0.00613592	0.768524	-0.802272	0.00920388	0.816078	-1.58614	-0.00920388	0	0	0	0	0	0	0	0	0	0	0	0	0	0	0.000000000	-2.02736e-07	0.788798	-0.788798	0.0408428	0.828698	-1.5708	0	0.1	0.1	0.1	0.295096	0.1	0.1	0.1	0	0	0	0	0	0	0	0.000000000
1504608125.209151983	-0.00613592	0.768524	-0.802272	0.0138058	0.816078	-1.58614	-0.00920388	0	0	0	0.143257	0	0	0	0	0	0	0	0	0	0	0.000000000	-2.02736e-07	0.788798	-0.788798	0.0408428	0.828698	-1.5708	0	0.1	0.1	0.1	0.295096	0.1	0.1	0.1	0	0	0	0	0	0	0	0.000000000
1504608125.229475975	-0.0076699	0.768524	-0.802272	0.0214757	0.816078	-1.58614	-0.00920388	0	0	0	0.238761	0	0	0	0	0	0	0	0	0	0	0.000000000	-2.81879e-07	0.788798	-0.788798	0.056787	0.828698	-1.5708	0	0.1	0.1	0.1	0.366716	0.1	0.1	0.1	0	0	0	0	0	0	0	0.000000000
1504608125.249536037	-0.00613592	0.768524	-0.802272	0.0291456	0.816078	-1.58614	-0.00920388	0	0	0	0.286513	0	0	0	0	0	0	0	0	0	0	0.000000000	-2.81879e-07	0.788798	-0.788798	0.056787	0.828698	-1.5708	0	0.1	0.1	0.1	0.366716	0.1	0.1	0.1	0	0	0	0	0	0	0	0.000000000
1504608125.269145011	-0.00613592	0.768524	-0.802272	0.0291456	0.816078	-1.58614	-0.00920388	0	0	0	0.286513	0	0	0	0	0	0	0	0	0	0	0.000000000	-3.77483e-07	0.788798	-0.788798	0.0760471	0.828698	-1.5708	0	0.1	0.1	0.1	0.442984	0.1	0.1	0.1	0	0	0	0	0	0	0	0.000000000
1504608125.289021968	-0.0076699	0.768524	-0.802272	0.0383495	0.816078	-1.58614	-0.0107379	0	0	0	0.334265	0	0	0	0	0	0	0	0	0	0	0.000000000	-3.77483e-07	0.788798	-0.788798	0.0760471	0.828698	-1.5708	0	0.1	0.1	0.1	0.442984	0.1	0.1	0.1	0	0	0	0	0	0	0	0.000000000
1504608125.309089899	-0.00613592	0.768524	-0.802272	0.0475534	0.816078	-1.58614	-0.00920388	0	0	0	0.334265	0	0	0	0	0	0	0	0	0	0	0.000000000	-3.77483e-07	0.788798	-0.788798	0.0760471	0.828698	-1.5708	0	0.1	0.1	0.1	0.442984	0.1	0.1	0.1	0	0	0	0	0	0	0	0.000000000
1504608125.329330921	-0.0076699	0.768524	-0.802272	0.0567573	0.816078	-1.58614	-0.00920388	0	0	0	0.334265	0	0	0	0	0	0	0	0	0	0	0.000000000	-4.90366e-07	0.788798	-0.788798	0.0987885	0.828698	-1.5708	0	0.1	0.1	0.1	0.523052	0.1	0.1	0.1	0	0	0	0	0	0	0	0.000000000
1504608125.349416971	-0.0076699	0.768524	-0.802272	0.0674952	0.816078	-1.58614	-0.0107379	0	0	0	0.382018	0	0	0	0	0	0	0	0	0	0	0.000000000	-4.90366e-07	0.788798	-0.788798	0.0987885	0.828698	-1.5708	0	0.1	0.1	0.1	0.523052	0.1	0.1	0.1	0	0	0	0	0	0	0	0.000000000
1504608125.369151115	-0.0076699	0.768524	-0.802272	0.0674952	0.816078	-1.58614	-0.0107379	0	0	0	0.382018	0	0	0	0	0	0	0	0	0	0	0.000000000	-6.21175e-07	0.788798	-0.788798	0.125141	0.828698	-1.5708	0	0.1	0.1	0.1	0.606106	0.1	0.1	0.1	0	0	0	0	0	0	0	0.000000000
1504608125.389322042	-0.0076699	0.768524	-0.802272	0.0843689	0.816078	-1.58614	-0.00920388	0	0	0	0.525274	0	0	0	0	0	0	0	0	0	0	0.000000000	-6.21175e-07	0.788798	-0.788798	0.125141	0.828698	-1.5708	0	0.1	0.1	0.1	0.606106	0.1	0.1	0.1	0	0	0	0	0	0	0	0.000000000
1504608125.409292936	-0.0076699	0.768524	-0.802272	0.0843689	0.816078	-1.58614	-0.00920388	0	0	0	0.525274	0	0	0	0	0	0	0	0	0	0	0.000000000	-7.70383e-07	0.788798	-0.788798	0.1552	0.828698	-1.5708	0	0.1	0.1	0.1	0.691364	0.1	0.1	0.1	0	0	0	0	0	0	0	0.000000000
1504608125.429378986	-0.00613592	0.768524	-0.803806	0.0997088	0.816078	-1.58614	-0.0107379	0	0	0	0.477522	0	0	0	0	0	0	0	0	0	0	0.000000000	-7.70383e-07	0.788798	-0.788798	0.1552	0.828698	-1.5708	0	0.1	0.1	0.1	0.691364	0.1	0.1	0.1	0	0	0	0	0	0	0	0.000000000
1504608125.450197935	-0.0076699	0.768524	-0.802272	0.111981	0.816078	-1.58614	-0.00920388	0	0	0	0.525274	0	0	0	0	0	0	0	0	0	0	0.000000000	-9.38305e-07	0.788798	-0.788798	0.18903	0.828698	-1.5708	0	0.1	0.1	0.1	0.778076	0.1	0.1	0.1	0	0	0	0	0	0	0	0.000000000
1504608125.469202041	-0.00613592	0.768524	-0.802272	0.125786	0.816078	-1.58614	-0.0107379	0	0	0	0.525274	0	0	0	0	0	0	0	0	0	0	0.000000000	-9.38305e-07	0.788798	-0.788798	0.18903	0.828698	-1.5708	0	0.1	0.1	0.1	0.778076	0.1	0.1	0.1	0	0	0	0	0	0	0	0.000000000
1504608125.492088079	-0.00613592	0.768524	-0.802272	0.145728	0.816078	-1.58614	-0.00920388	0	0	0	0.573026	0	0	0	0	0	0	0	0	0	0	0.000000000	-1.1251e-06	0.788798	-0.788798	0.226661	0.828698	-1.5708	0	0.1	0.1	0.1	0.865528	0.1	0.1	0.1	0	0	0	0	0	0	0	0.000000000
1504608125.509599924	-0.00613592	0.768524	-0.802272	0.145728	0.816078	-1.58614	-0.00920388	0	0	0	0.573026	0	0	0	0	0	0	0	0	0	0	0.000000000	-1.1251e-06	0.788798	-0.788798	0.226661	0.828698	-1.5708	0	0.1	0.1	0.1	0.865528	0.1	0.1	0.1	0	0	0	0	0	0	0	0.000000000
1504608125.529287099	-0.0076699	0.768524	-0.802272	0.162602	0.816078	-1.58614	-0.00920388	0	0	0	0.668531	0	0	0	0	0	0	0	0	0	0	0.000000000	-1.33078e-06	0.788798	-0.788798	0.268098	0.828698	-1.5708	0	0.1	0.1	0.1	0.95304	0.1	0.1	0.1	0	0	0	0	0	0	0	0.000000000
1504608125.552392959	-0.00613592	0.768524	-0.802272	0.187146	0.816078	-1.5846	-0.00920388	0	0	0	0.764035	0	0	0	0	0	0	0	0	0	0	0.000000000	-1.33078e-06	0.788798	-0.788798	0.268098	0.828698	-1.5708	0	0.1	0.1	0.1	0.95304	0.1	0.1	0.1	0	0	0	0	0	0	0	0.000000000
1504608125.569523096	-0.00613592	0.768524	-0.802272	0.187146	0.816078	-1.5846	-0.00920388	0	0	0	0.764035	0	0	0	0	0	0	0	0	0	0	0.000000000	-1.33078e-06	0.788798	-0.788798	0.268098	0.828698	-1.5708	0	0.1	0.1	0.1	0.95304	0.1	0.1	0.1	0	0	0	0	0	0	0	0.000000000
1504608125.589310884	-0.00613592	0.768524	-0.802272	0.214757	0.816078	-1.58614	-0.0107379	0	0	0	0.85954	0	0	0	0	0	0	0	0	0	0	0.000000000	-1.55523e-06	0.788798	-0.788798	0.313313	0.828698	-1.5708	0	0.1	0.1	0.1	1.03996	0.1	0.1	0.1	0	0	0	0	0	0	0	0.000000000
1504608125.609327077	-0.0076699	0.768524	-0.802272	0.250039	0.816078	-1.58614	-0.0107379	0	0	0	0.907292	0	0	0	0	0	0	0	0	0	0	0.000000000	-1.55523e-06	0.788798	-0.788798	0.313313	0.828698	-1.5708	0	0.1	0.1	0.1	1.03996	0.1	0.1	0.1	0	0	0	0	0	0	0	0.000000000
1504608125.633547067	-0.0076699	0.768524	-0.802272	0.250039	0.816078	-1.58614	-0.0107379	0	0	0	0.907292	0	0	0	0	0	0	0	0	0	0	0.000000000	-1.79817e-06	0.788798	-0.788798	0.362256	0.828698	-1.5708	0	0.1	0.1	0.1	1.12568	0.1	0.1	0.1	0	0	0	0	0	0	0	0.000000000
1504608125.649120092	-0.0076699	0.768524	-0.802272	0.274583	0.816078	-1.58614	-0.00920388	0	0	0	0.85954	0	0	0	0	0	0	0	0	0	0	0.000000000	-1.79817e-06	0.788798	-0.788798	0.362256	0.828698	-1.5708	0	0.1	0.1	0.1	1.12568	0.1	0.1	0.1	0	0	0	0	0	0	0	0.000000000
1504608125.669378995	-0.00613592	0.768524	-0.803806	0.306796	0.816078	-1.58614	-0.00920388	0	0	0	0.907292	0	0	0	0	0	0	0	0	0	0	0.000000000	-2.05922e-06	0.788798	-0.788798	0.414847	0.828698	-1.5708	0	0.1	0.1	0.1	1.2096	0.1	0.1	0.1	0	0	0	0	0	0	0	0.000000000
1504608125.689590930	-0.0076699	0.768524	-0.803806	0.326738	0.816078	-1.58614	-0.0107379	0	0	0	0.907292	0	0	0	0	0	0	0	0	0	0	0.000000000	-2.05922e-06	0.788798	-0.788798	0.414847	0.828698	-1.5708	0	0.1	0.1	0.1	1.2096	0.1	0.1	0.1	0	0	0	0	0	0	0	0.000000000
1504608125.709086894	-0.0076699	0.768524	-0.803806	0.326738	0.816078	-1.58614	-0.0107379	0	0	0	0.907292	0	0	0	0	0	0	0	0	0	0	0.000000000	-2.33788e-06	0.788798	-0.788798	0.470986	0.828698	-1.5708	0	0.1	0.1	0.1	1.29119	0.1	0.1	0.1	0	0	0	0	0	0	0	0.000000000
1504608125.729152917	-0.00613592	0.768524	-0.803806	0.35435	0.816078	-1.58614	-0.00920388	0	0	0	1.0028	0	0	0	0	0	0	0	0	0	0	0.000000000	-2.33788e-06	0.788798	-0.788798	0.470986	0.828698	-1.5708	0	0.1	0.1	0.1	1.29119	0.1	0.1	0.1	0	0	0	0	0	0	0	0.000000000
1504608125.749274969	-0.0076699	0.768524	-0.802272	0.388097	0.816078	-1.5846	-0.00920388	0	0	0	1.05055	0	0	0	0	0	0	0	0	0	0	0.000000000	-2.63354e-06	0.788798	-0.788798	0.530548	0.828698	-1.5708	0	0.1	0.1	0.1	1.36993	0.1	0.1	0.1	0	0	0	0	0	0	0	0.000000000
1504608125.769252061	-0.00613592	0.768524	-0.802272	0.420311	0.816078	-1.58614	-0.00920388	0	0	0	1.14605	0	0	0	0	0	0	0	0	0	0	0.000000000	-2.63354e-06	0.788798	-0.788798	0.530548	0.828698	-1.5708	0	0.1	0.1	0.1	1.36993	0.1	0.1	0.1	0	0	0	0	0	0	0	0.000000000
1504608125.789083957	-0.0076699	0.768524	-0.802272	0.447922	0.816078	-1.58614	-0.0107379	0	0	0	1.24156	0	0	0	0	0	0	0	0	0	0	0.000000000	-2.63354e-06	0.788798	-0.788798	0.530548	0.828698	-1.5708	0	0.1	0.1	0.1	1.36993	0.1	0.1	0.1	0	0	0	0	0	0	0	0.000000000
1504608125.809097051	-0.0076699	0.768524	-0.802272	0.447922	0.816078	-1.58614	-0.0107379	0	0	0	1.24156	0	0	0	0	0	0	0	0	0	0	0.000000000	-2.94546e-06	0.788798	-0.788798	0.593389	0.828698	-1.5708	0	0.1	0.1	0.1	1.44533	0.1	0.1	0.1	0	0	0	0	0	0	0	0.000000000
1504608125.831563949	-0.0076699	0.768524	-0.802272	0.484738	0.816078	-1.58614	-0.00920388	0	0	0	1.14605	0	0	0	0	0	0	0	0	0	0	0.000000000	-2.94546e-06	0.788798	-0.788798	0.593389	0.828698	-1.5708	0	0.1	0.1	0.1	1.44533	0.1	0.1	0.1	0	0	0	0	0	0	0	0.000000000
1504608125.849915027	-0.0076699	0.768524	-0.802272	0.484738	0.816078	-1.58614	-0.00920388	0	0	0	1.14605	0	0	0	0	0	0	0	0	0	0	0.000000000	-3.27285e-06	0.788798	-0.788798	0.659343	0.828698	-1.5708	0	0.1	0.1	0.1	1.51695	0.1	0.1	0.1	0	0	0	0	0	0	0	0.000000000
1504608125.869168996	-0.00613592	0.768524	-0.802272	0.530757	0.816078	-1.58614	-0.0107379	0	0	0	1.28931	0	0	0	0	0	0	0	0	0	0	0.000000000	-3.27285e-06	0.788798	-0.788798	0.659343	0.828698	-1.5708	0	0.1	0.1	0.1	1.51695	0.1	0.1	0.1	0	0	0	0	0	0	0	0.000000000
1504608125.889182090	-0.0076699	0.768524	-0.803806	0.569107	0.816078	-1.58614	-0.00920388	0	0	0	1.38481	0	0	0	0	0	0	0	0	0	0	0.000000000	-3.61478e-06	0.788798	-0.788798	0.728229	0.828698	-1.5708	0	0.1	0.1	0.1	1.58437	0.1	0.1	0.1	0	0	0	0	0	0	0	0.000000000
1504608125.912508010	-0.00613592	0.768524	-0.803806	0.604388	0.816078	-1.58614	-0.0107379	0	0	0	1.24156	0	0	0	0	0	0	0	0	0	0	0.000000000	-3.61478e-06	0.788798	-0.788798	0.728229	0.828698	-1.5708	0	0.1	0.1	0.1	1.58437	0.1	0.1	0.1	0	0	0	0	0	0	0	0.000000000
1504608125.929378986	-0.0076699	0.768524	-0.802272	0.635068	0.816078	-1.58614	-0.00920388	0	0	0	1.24156	0	0	0	0	0	0	0	0	0	0	0.000000000	-3.97028e-06	0.788798	-0.788798	0.799847	0.828698	-1.5708	0	0.1	0.1	0.1	1.64721	0.1	0.1	0.1	0	0	0	0	0	0	0	0.000000000
1504608125.949430942	-0.0076699	0.768524	-0.803806	0.67035	0.817612	-1.58614	-0.00920388	0	0	0	1.57582	0	0	0	0	0	0	0	0	0	0	0.000000000	-3.97028e-06	0.788798	-0.788798	0.799847	0.828698	-1.5708	0	0.1	0.1	0.1	1.64721	0.1	0.1	0.1	0	0	0	0	0	0	0	0.000000000
1504608125.969137907	-0.0076699	0.768524	-0.803806	0.67035	0.817612	-1.58614	-0.00920388	0	0	0	1.57582	0	0	0	0	0	0	0	0	0	0	0.000000000	-4.33827e-06	0.788798	-0.788798	0.873983	0.828698	-1.5708	0	0.1	0.1	0.1	1.70512	0.1	0.1	0.1	0	0	0	0	0	0	0	0.000000000
1504608125.989876985	-0.0076699	0.768524	-0.802272	0.717903	0.817612	-1.58614	-0.00920388	0	0	0	1.48032	0	0	0	0	0	0	0	0	0	0	0.000000000	-4.33827e-06	0.788798	-0.788798	0.873983	0.828698	-1.5708	0	0.1	0.1	0.1	1.70512	0.1	0.1	0.1	0	0	0	0	0	0	0	0.000000000
1504608126.009165048	-0.0076699	0.768524	-0.802272	0.763922	0.817612	-1.58614	-0.00920388	0	0	0	1.43257	0	0	0	0	0	0	0	0	0	0	0.000000000	-4.71763e-06	0.788798	-0.788798	0.950408	0.828698	-1.5708	0	0.1	0.1	0.1	1.75778	0.1	0.1	0.1	0	0	0	0	0	0	0	0.000000000
1504608126.029989004	-0.0076699	0.768524	-0.802272	0.763922	0.817612	-1.58614	-0.00920388	0	0	0	1.43257	0	0	0	0	0	0	0	0	0	0	0.000000000	-4.71763e-06	0.788798	-0.788798	0.950408	0.828698	-1.5708	0	0.1	0.1	0.1	1.75778	0.1	0.1	0.1	0	0	0	0	0	0	0	0.000000000
1504608126.049293041	-0.0076699	0.768524	-0.803806	0.803806	0.817612	-1.58614	-0.00920388	0	0	0	1.52807	0	0	0	0	0	0	0	0	0	0	0.000000000	-4.71763e-06	0.788798	-0.788798	0.950408	0.828698	-1.5708	0	0.1	0.1	0.1	1.75778	0.1	0.1	0.1	0	0	0	0	0	0	0	0.000000000
1504608126.069199085	-0.0076699	0.768524	-0.803806	0.803806	0.817612	-1.58614	-0.00920388	0	0	0	1.52807	0	0	0	0	0	0	0	0	0	0	0.000000000	-5.10716e-06	0.788798	-0.788798	1.02888	0.828698	-1.5708	0	0.1	0.1	0.1	1.80491	0.1	0.1	0.1	0	0	0	0	0	0	0	0.000000000
1504608126.089112997	-0.00613592	0.768524	-0.803806	0.872835	0.817612	-1.58614	-0.00920388	0	0	0	1.48032	0	0	0	0	0	0	0	0	0	0	0.000000000	-5.10716e-06	0.788798	-0.788798	1.02888	0.828698	-1.5708	0	0.1	0.1	0.1	1.80491	0.1	0.1	0.1	0	0	0	0	0	0	0	0.000000000
1504608126.109394073	-0.0076699	0.768524	-0.802272	0.929592	0.817612	-1.58614	-0.00920388	0	0	0	1.52807	0	0	0	0	0	0	0	0	0	0	0.000000000	-5.50562e-06	0.788798	-0.788798	1.10915	0.828698	-1.5708	0	0.1	0.1	0.1	1.84625	0.1	0.1	0.1	0	0	0	0	0	0	0	0.000000000
1504608126.129623889	-0.00613592	0.768524	-0.803806	0.981748	0.817612	-1.58614	-0.00920388	0	0	0	1.76683	0	0	0	0	0	0	0	0	0	0	0.000000000	-5.50562e-06	0.788798	-0.788798	1.10915	0.828698	-1.5708	0	0.1	0.1	0.1	1.84625	0.1	0.1	0.1	0	0	0	0	0	0	0	0.000000000
1504608126.149549007	-0.00613592	0.768524	-0.802272	1.0385	0.817612	-1.58614	-0.00920388	0	0	0	1.81458	0	0	0	0	0	0	0	0	0	0	0.000000000	-5.9117e-06	0.788798	-0.788798	1.19096	0.828698	-1.5708	0	0.1	0.1	0.1	1.88161	0.1	0.1	0.1	0	0	0	0	0	0	0	0.000000000
1504608126.170948028	-0.0076699	0.768524	-0.803806	1.07839	0.817612	-1.58614	-0.00920388	0	0	0	1.81458	0	0	0	0	0	0	0	0	0	0	0.000000000	-5.9117e-06	0.788798	-0.788798	1.19096	0.828698	-1.5708	0	0.1	0.1	0.1	1.88161	0.1	0.1	0.1	0	0	0	0	0	0	0	0.000000000
1504608126.189102888	-0.0076699	0.768524	-0.803806	1.07839	0.817612	-1.58614	-0.00920388	0	0	0	1.81458	0	0	0	0	0	0	0	0	0	0	0.000000000	-6.32408e-06	0.788798	-0.788798	1.27404	0.828698	-1.5708	0	0.1	0.1	0.1	1.91079	0.1	0.1	0.1	0	0	0	0	0	0	0	0.000000000
1504608126.209135055	-0.0076699	0.768524	-0.802272	1.12134	0.817612	-1.58614	-0.0107379	0	0	0	1.67133	0	0	0	0	0	0	0	0	0	0	0.000000000	-6.32408e-06	0.788798	-0.788798	1.27404	0.828698	-1.5708	0	0.1	0.1	0.1	1.91079	0.1	0.1	0.1	0	0	0	0	0	0	0	0.000000000
1504608126.229404926	-0.0076699	0.768524	-0.802272	1.12134	0.817612	-1.58614	-0.0107379	0	0	0	1.67133	0	0	0	0	0	0	0	0	0	0	0.000000000	-6.7414e-06	0.788798	-0.788798	1.35811	0.828698	-1.5708	0	0.1	0.1	0.1	1.93363	0.1	0.1	0.1	0	0	0	0	0	0	0	0.000000000
1504608126.253060102	-0.00613592	0.768524	-0.803806	1.18117	0.817612	-1.58614	-0.00920388	0	0	0	1.57582	0	0	0	0	0	0	0	0	0	0	0.000000000	-6.7414e-06	0.788798	-0.788798	1.35811	0.828698	-1.5708	0	0.1	0.1	0.1	1.93363	0.1	0.1	0.1	0	0	0	0	0	0	0	0.000000000
1504608126.269139051	-0.00613592	0.768524	-0.802272	1.23639	0.817612	-1.58614	-0.00920388	0	0	0	1.71908	0	0	0	0	0	0	0	0	0	0	0.000000000	-7.16225e-06	0.788798	-0.788798	1.4429	0.828698	-1.5708	0	0.1	0.1	0.1	1.95004	0.1	0.1	0.1	0	0	0	0	0	0	0	0.000000000
1504608126.289104938	-0.00613592	0.768524	-0.803806	1.27627	0.817612	-1.58614	-0.00920388	0	0	0	1.67133	0	0	0	0	0	0	0	0	0	0	0.000000000	-7.16225e-06	0.788798	-0.788798	1.4429	0.828698	-1.5708	0	0.1	0.1	0.1	1.95004	0.1	0.1	0.1	0	0	0	0	0	0	0	0.000000000
1504608126.309134960	-0.00613592	0.768524	-0.802272	1.32076	0.817612	-1.58614	-0.00920388	0	0	0	1.62358	0	0	0	0	0	0	0	0	0	0	0.000000000	-7.16225e-06	0.788798	-0.788798	1.4429	0.828698	-1.5708	0	0.1	0.1	0.1	1.95004	0.1	0.1	0.1	0	0	0	0	0	0	0	0.000000000
1504608126.329116106	-0.00613592	0.768524	-0.803806	1.36984	0.817612	-1.58614	-0.00920388	0	0	0	1.81458	0	0	0	0	0	0	0	0	0	0	0.000000000	-7.58523e-06	0.788798	-0.788798	1.52811	0.828698	-1.5708	0	0.1	0.1	0.1	1.95991	0.1	0.1	0.1	0	0	0	0	0	0	0	0.000000000
1504608126.349220991	-0.00613592	0.768524	-0.803806	1.36984	0.817612	-1.58614	-0.00920388	0	0	0	1.81458	0	0	0	0	0	0	0	0	0	0	0.000000000	-7.58523e-06	0.788798	-0.788798	1.52811	0.828698	-1.5708	0	0.1	0.1	0.1	1.95991	0.1	0.1	0.1	0	0	0	0	0	0	0	0.000000000
1504608126.370218038	-0.00613592	0.770058	-0.802272	1.40973	0.817612	-1.58767	-0.00920388	0	0	0	1.91009	0	0	0	0	0	0	0	0	0	0	0.000000000	-8.00893e-06	0.788798	-0.788798	1.61347	0.828698	-1.5708	0	0.1	0.1	0.1	1.96321	0.1	0.1	0.1	0	0	0	0	0	0	0	0.000000000
1504608126.389156103	-0.00613592	0.768524	-0.802272	1.47262	0.817612	-1.58767	-0.00920388	0	0	0	1.91009	0	0	0	0	0	0	0	0	0	0	0.000000000	-8.00893e-06	0.788798	-0.788798	1.61347	0.828698	-1.5708	0	0.1	0.1	0.1	1.96321	0.1	0.1	0.1	0	0	0	0	0	0	0	0.000000000
1504608126.409009933	-0.00613592	0.768524	-0.803806	1.52478	0.819146	-1.58614	-0.00920388	0	0	0	1.81458	0	0	0	0	0	0	0	0	0	0	0.000000000	-8.43191e-06	0.788798	-0.788798	1.69868	0.828698	-1.5708	0	0.1	0.1	0.1	1.95991	0.1	0.1	0.1	0	0	0	0	0	0	0	0.000000000
1504608126.429939031	-0.00613592	0.768524	-0.802272	1.57847	0.819146	-1.58767	-0.0107379	0	0	0	1.52807	0	0	0	0	0	0	0	0	0	0	0.000000000	-8.43191e-06	0.788798	-0.788798	1.69868	0.828698	-1.5708	0	0.1	0.1	0.1	1.95991	0.1	0.1	0.1	0	0	0	0	0	0	0	0.000000000
1504608126.449320077	-0.00613592	0.768524	-0.802272	1.57847	0.819146	-1.58767	-0.0107379	0	0	0	1.52807	0	0	0	0	0	0	0	0	0	0	0.000000000	-8.85276e-06	0.788798	-0.788798	1.78346	0.828698	-1.5708	0	0.1	0.1	0.1	1.95004	0.1	0.1	0.1	0	0	0	0	0	0	0	0.000000000
1504608126.469168901	-0.00613592	0.770058	-0.803806	1.62909	0.817612	-1.58767	-0.00920388	0	0	0	1.91009	0	0	0	0	0	0	0	0	0	0	0.000000000	-8.85276e-06	0.788798	-0.788798	1.78346	0.828698	-1.5708	0	0.1	0.1	0.1	1.95004	0.1	0.1	0.1	0	0	0	0	0	0	0	0.000000000
1504608126.489064931	-0.00460194	0.770058	-0.802272	1.68431	0.817612	-1.58767	-0.0107379	0	0	0	2.00559	0	0	0	0	0	0	0	0	0	0	0.000000000	-9.27007e-06	0.788798	-0.788798	1.86754	0.828698	-1.5708	0	0.1	0.1	0.1	1.93364	0.1	0.1	0.1	0	0	0	0	0	0	0	0.000000000
1504608126.509202003	-0.00613592	0.770058	-0.803806	1.73033	0.819146	-1.58767	-0.00920388	0	0	0	1.67133	0	0	0	0	0	0	0	0	0	0	0.000000000	-9.27007e-06	0.788798	-0.788798	1.86754	0.828698	-1.5708	0	0.1	0.1	0.1	1.93364	0.1	0.1	0.1	0	0	0	0	0	0	0	0.000000000
1504608126.529318094	-0.00613592	0.770058	-0.803806	1.77788	0.819146	-1.58767	-0.00920388	0	0	0	1.71908	0	0	0	0	0	0	0	0	0	0	0.000000000	-9.68246e-06	0.788798	-0.788798	1.95061	0.828698	-1.5708	0	0.1	0.1	0.1	1.91079	0.1	0.1	0.1	0	0	0	0	0	0	0	0.000000000
1504608126.549247980	-0.00613592	0.770058	-0.803806	1.77788	0.819146	-1.58767	-0.00920388	0	0	0	1.71908	0	0	0	0	0	0	0	0	0	0	0.000000000	-9.68246e-06	0.788798	-0.788798	1.95061	0.828698	-1.5708	0	0.1	0.1	0.1	1.91079	0.1	0.1	0.1	0	0	0	0	0	0	0	0.000000000
1504608126.569616079	-0.00613592	0.770058	-0.802272	1.83157	0.819146	-1.58767	-0.0107379	0	0	0	1.91009	0	0	0	0	0	0	0	0	0	0	0.000000000	-9.68246e-06	0.788798	-0.788798	1.95061	0.828698	-1.5708	0	0.1	0.1	0.1	1.91079	0.1	0.1	0.1	0	0	0	0	0	0	0	0.000000000
1504608126.589128017	-0.00613592	0.770058	-0.803806	1.88066	0.819146	-1.58767	-0.0107379	0	0	0	1.67133	0	0	0	0	0	0	0	0	0	0	0.000000000	-1.00885e-05	0.788798	-0.788798	2.03242	0.828698	-1.5708	0	0.1	0.1	0.1	1.88161	0.1	0.1	0.1	0	0	0	0	0	0	0	0.000000000
1504608126.609282970	-0.00613592	0.770058	-0.803806	1.92361	0.817612	-1.58767	-0.00920388	0	0	0	1.62358	0	0	0	0	0	0	0	0	0	0	0.000000000	-1.00885e-05	0.788798	-0.788798	2.03242	0.828698	-1.5708	0	0.1	0.1	0.1	1.88161	0.1	0.1	0.1	0	0	0	0	0	0	0	0.000000000
1504608126.629178047	-0.00613592	0.770058	-0.803806	1.92361	0.817612	-1.58767	-0.00920388	0	0	0	1.62358	0	0	0	0	0	0	0	0	0	0	0.000000000	-1.0487e-05	0.788798	-0.788798	2.1127	0.828698	-1.5708	0	0.1	0.1	0.1	1.84626	0.1	0.1	0.1	0	0	0	0	0	0	0	0.000000000
1504608126.649105072	-0.00460194	0.770058	-0.803806	1.9727	0.817612	-1.58767	-0.0107379	0	0	0	1.67133	0	0	0	0	0	0	0	0	0	0	0.000000000	-1.0487e-05	0.788798	-0.788798	2.1127	0.828698	-1.5708	0	0.1	0.1	0.1	1.84626	0.1	0.1	0.1	0	0	0	0	0	0	0	0.000000000
1504608126.669176101	-0.00613592	0.771592	-0.803806	2.01872	0.817612	-1.58767	-0.00920388	0	0	0	1.71908	0	0	0	0	0	0	0	0	0	0	0.000000000	-1.08765e-05	0.788798	-0.788798	2.19117	0.828698	-1.5708	0	0.1	0.1	0.1	1.8049	0.1	0.1	0.1	0	0	0	0	0	0	0	0.000000000
1504608126.689157962	-0.00613592	0.771592	-0.803806	2.06167	0.817612	-1.58767	-0.0107379	0	0	0	1.57582	0	0	0	0	0	0	0	0	0	0	0.000000000	-1.08765e-05	0.788798	-0.788798	2.19117	0.828698	-1.5708	0	0.1	0.1	0.1	1.8049	0.1	0.1	0.1	0	0	0	0	0	0	0	0.000000000
1504608126.709141969	-0.00613592	0.771592	-0.803806	2.10769	0.817612	-1.58767	-0.00920388	0	0	0	1.62358	0	0	0	0	0	0	0	0	0	0	0.000000000	-1.12559e-05	0.788798	-0.788798	2.26759	0.828698	-1.5708	0	0.1	0.1	0.1	1.75778	0.1	0.1	0.1	0	0	0	0	0	0	0	0.000000000
1504608126.729324102	-0.00613592	0.771592	-0.803806	2.10769	0.817612	-1.58767	-0.00920388	0	0	0	1.62358	0	0	0	0	0	0	0	0	0	0	0.000000000	-1.12559e-05	0.788798	-0.788798	2.26759	0.828698	-1.5708	0	0.1	0.1	0.1	1.75778	0.1	0.1	0.1	0	0	0	0	0	0	0	0.000000000
1504608126.749252080	-0.00613592	0.770058	-0.803806	2.15371	0.817612	-1.58767	-0.0107379	0	0	0	1.67133	0	0	0	0	0	0	0	0	0	0	0.000000000	-1.16239e-05	0.788798	-0.788798	2.34173	0.828698	-1.5708	0	0.1	0.1	0.1	1.70512	0.1	0.1	0.1	0	0	0	0	0	0	0	0.000000000
1504608126.769088983	-0.00613592	0.771592	-0.803806	2.19819	0.817612	-1.58767	-0.0107379	0	0	0	1.57582	0	0	0	0	0	0	0	0	0	0	0.000000000	-1.16239e-05	0.788798	-0.788798	2.34173	0.828698	-1.5708	0	0.1	0.1	0.1	1.70512	0.1	0.1	0.1	0	0	0	0	0	0	0	0.000000000
1504608126.789127111	-0.00613592	0.771592	-0.803806	2.24268	0.817612	-1.58767	-0.00920388	0	0	0	1.62358	0	0	0	0	0	0	0	0	0	0	0.000000000	-1.16239e-05	0.788798	-0.788798	2.34173	0.828698	-1.5708	0	0.1	0.1	0.1	1.70512	0.1	0.1	0.1	0	0	0	0	0	0	0	0.000000000
1504608126.809042930	-0.00613592	0.771592	-0.80534	2.28717	0.817612	-1.58767	-0.00920388	0	0	0	1.52807	0	0	0	0	0	0	0	0	0	0	0.000000000	-1.19794e-05	0.788798	-0.788798	2.41335	0.828698	-1.5708	0	0.1	0.1	0.1	1.64721	0.1	0.1	0.1	0	0	0	0	0	0	0	0.000000000
1504608126.829116106	-0.00613592	0.771592	-0.80534	2.33012	0.817612	-1.58767	-0.00920388	0	0	0	1.62358	0	0	0	0	0	0	0	0	0	0	0.000000000	-1.19794e-05	0.788798	-0.788798	2.41335	0.828698	-1.5708	0	0.1	0.1	0.1	1.64721	0.1	0.1	0.1	0	0	0	0	0	0	0	0.000000000
1504608126.849621057	-0.00613592	0.771592	-0.80534	2.33012	0.817612	-1.58767	-0.00920388	0	0	0	1.62358	0	0	0	0	0	0	0	0	0	0	0.000000000	-1.23213e-05	0.788798	-0.788798	2.48223	0.828698	-1.5708	0	0.1	0.1	0.1	1.58437	0.1	0.1	0.1	0	0	0	0	0	0	0	0.000000000
1504608126.869065046	-0.00613592	0.771592	-0.803806	2.37153	0.817612	-1.58767	-0.00920388	0	0	0	1.48032	0	0	0	0	0	0	0	0	0	0	0.000000000	-1.23213e-05	0.788798	-0.788798	2.48223	0.828698	-1.5708	0	0.1	0.1	0.1	1.58437	0.1	0.1	0.1	0	0	0	0	0	0	0	0.000000000
1504608126.889101028	-0.00613592	0.771592	-0.803806	2.41295	0.817612	-1.58767	-0.00920388	0	0	0	1.52807	0	0	0	0	0	0	0	0	0	0	0.000000000	-1.26487e-05	0.788798	-0.788798	2.54819	0.828698	-1.5708	0	0.1	0.1	0.1	1.51695	0.1	0.1	0.1	0	0	0	0	0	0	0	0.000000000
1504608126.909960031	-0.00613592	0.773126	-0.803806	2.4559	0.816078	-1.58767	-0.0107379	0	0	0	1.52807	0	0	0	0	0	0	0	0	0	0	0.000000000	-1.26487e-05	0.788798	-0.788798	2.54819	0.828698	-1.5708	0	0.1	0.1	0.1	1.51695	0.1	0.1	0.1	0	0	0	0	0	0	0	0.000000000
1504608126.929610013	-0.00613592	0.773126	-0.803806	2.4559	0.816078	-1.58767	-0.0107379	0	0	0	1.52807	0	0	0	0	0	0	0	0	0	0	0.000000000	-1.29606e-05	0.788798	-0.788798	2.61103	0.828698	-1.5708	0	0.1	0.1	0.1	1.44534	0.1	0.1	0.1	0	0	0	0	0	0	0	0.000000000
1504608126.949016094	-0.00460194	0.773126	-0.803806	2.49272	0.816078	-1.58767	-0.00920388	0	0	0	1.33706	0	0	0	0	0	0	0	0	0	0	0.000000000	-1.29606e-05	0.788798	-0.788798	2.61103	0.828698	-1.5708	0	0.1	0.1	0.1	1.44534	0.1	0.1	0.1	0	0	0	0	0	0	0	0.000000000
1504608126.969047069	-0.00613592	0.773126	-0.803806	2.52647	0.816078	-1.58767	-0.00920388	0	0	0	1.24156	0	0	0	0	0	0	0	0	0	0	0.000000000	-1.32563e-05	0.788798	-0.788798	2.67059	0.828698	-1.5708	0	0.1	0.1	0.1	1.36993	0.1	0.1	0.1	0	0	0	0	0	0	0	0.000000000
1504608126.989137887	-0.00460194	0.773126	-0.803806	2.56788	0.814544	-1.58614	-0.0107379	0	0	0	1.38481	0	0	0	0	0	0	0	0	0	0	0.000000000	-1.32563e-05	0.788798	-0.788798	2.67059	0.828698	-1.5708	0	0.1	0.1	0.1	1.36993	0.1	0.1	0.1	0	0	0	0	0	0	0	0.000000000
1504608127.009174108	-0.00460194	0.773126	-0.803806	2.60317	0.816078	-1.58614	-0.00920388	0	0	0	1.33706	0	0	0	0	0	0	0	0	0	0	0.000000000	-1.35349e-05	0.788798	-0.788798	2.72673	0.828698	-1.5708	0	0.1	0.1	0.1	1.2912	0.1	0.1	0.1	0	0	0	0	0	0	0	0.000000000
1504608127.030711889	-0.00460194	0.773126	-0.803806	2.60317	0.816078	-1.58614	-0.00920388	0	0	0	1.33706	0	0	0	0	0	0	0	0	0	0	0.000000000	-1.35349e-05	0.788798	-0.788798	2.72673	0.828698	-1.5708	0	0.1	0.1	0.1	1.2912	0.1	0.1	0.1	0	0	0	0	0	0	0	0.000000000
1504608127.049233913	-0.00460194	0.773126	-0.803806	2.63998	0.814544	-1.58767	-0.00920388	0	0	0	1.19381	0	0	0	0	0	0	0	0	0	0	0.000000000	-1.35349e-05	0.788798	-0.788798	2.72673	0.828698	-1.5708	0	0.1	0.1	0.1	1.2912	0.1	0.1	0.1	0	0	0	0	0	0	0	0.000000000
1504608127.069195985	-0.00613592	0.77466	-0.803806	2.66913	0.814544	-1.58614	-0.00920388	0	0	0	1.14605	0	0	0	0	0	0	0	0	0	0	0.000000000	-1.3796e-05	0.788798	-0.788798	2.77932	0.828698	-1.5708	0	0.1	0.1	0.1	1.2096	0.1	0.1	0.1	0	0	0	0	0	0	0	0.000000000
1504608127.089168071	-0.00613592	0.77466	-0.803806	2.70287	0.814544	-1.58614	-0.00920388	0	0	0	1.19381	0	0	0	0	0	0	0	0	0	0	0.000000000	-1.3796e-05	0.788798	-0.788798	2.77932	0.828698	-1.5708	0	0.1	0.1	0.1	1.2096	0.1	0.1	0.1	0	0	0	0	0	0	0	0.000000000
1504608127.109096050	-0.00460194	0.77466	-0.80534	2.73509	0.814544	-1.58767	-0.00920388	0	0	0	1.0983	0	0	0	0	0	0	0	0	0	0	0.000000000	-1.40389e-05	0.788798	-0.788798	2.82826	0.828698	-1.5708	0	0.1	0.1	0.1	1.12567	0.1	0.1	0.1	0	0	0	0	0	0	0	0.000000000
1504608127.129061937	-0.00460194	0.776194	-0.80534	2.76577	0.814544	-1.58767	-0.0107379	0	0	0	1.0983	0	0	0	0	0	0	0	0	0	0	0.000000000	-1.40389e-05	0.788798	-0.788798	2.82826	0.828698	-1.5708	0	0.1	0.1	0.1	1.12567	0.1	0.1	0.1	0	0	0	0	0	0	0	0.000000000
1504608127.149070978	-0.00460194	0.776194	-0.80534	2.76577	0.814544	-1.58767	-0.0107379	0	0	0	1.0983	0	0	0	0	0	0	0	0	0	0	0.000000000	-1.42634e-05	0.788798	-0.788798	2.87348	0.828698	-1.5708	0	0.1	0.1	0.1	1.03996	0.1	0.1	0.1	0	0	0	0	0	0	0	0.000000000
1504608127.169210910	-0.00460194	0.776194	-0.803806	2.79645	0.814544	-1.58767	-0.00920388	0	0	0	1.05055	0	0	0	0	0	0	0	0	0	0	0.000000000	-1.42634e-05	0.788798	-0.788798	2.87348	0.828698	-1.5708	0	0.1	0.1	0.1	1.03996	0.1	0.1	0.1	0	0	0	0	0	0	0	0.000000000
1504608127.189356088	-0.00613592	0.776194	-0.803806	2.82713	0.814544	-1.58614	-0.0107379	0	0	0	0.907292	0	0	0	0	0	0	0	0	0	0	0.000000000	-1.44691e-05	0.788798	-0.788798	2.91492	0.828698	-1.5708	0	0.1	0.1	0.1	0.953038	0.1	0.1	0.1	0	0	0	0	0	0	0	0.000000000
1504608127.209209918	-0.00613592	0.776194	-0.803806	2.82713	0.814544	-1.58614	-0.0107379	0	0	0	0.907292	0	0	0	0	0	0	0	0	0	0	0.000000000	-1.44691e-05	0.788798	-0.788798	2.91492	0.828698	-1.5708	0	0.1	0.1	0.1	0.953038	0.1	0.1	0.1	0	0	0	0	0	0	0	0.000000000
1504608127.229541063	-0.00613592	0.776194	-0.80534	2.87621	0.814544	-1.58767	-0.00920388	0	0	0	0.955044	0	0	0	0	0	0	0	0	0	0	0.000000000	-1.46559e-05	0.788798	-0.788798	2.95255	0.828698	-1.5708	0	0.1	0.1	0.1	0.86553	0.1	0.1	0.1	0	0	0	0	0	0	0	0.000000000
1504608127.249322891	-0.00613592	0.776194	-0.80534	2.87621	0.814544	-1.58767	-0.00920388	0	0	0	0.955044	0	0	0	0	0	0	0	0	0	0	0.000000000	-1.46559e-05	0.788798	-0.788798	2.95255	0.828698	-1.5708	0	0.1	0.1	0.1	0.86553	0.1	0.1	0.1	0	0	0	0	0	0	0	0.000000000
1504608127.269176006	-0.00613592	0.776194	-0.803806	2.89769	0.814544	-1.58614	-0.00920388	0	0	0	0.764035	0	0	0	0	0	0	0	0	0	0	0.000000000	-1.48238e-05	0.788798	-0.788798	2.98638	0.828698	-1.5708	0	0.1	0.1	0.1	0.778072	0.1	0.1	0.1	0	0	0	0	0	0	0	0.000000000
1504608127.289143085	-0.00460194	0.776194	-0.803806	2.91763	0.814544	-1.58614	-0.00920388	0	0	0	0.716283	0	0	0	0	0	0	0	0	0	0	0.000000000	-1.48238e-05	0.788798	-0.788798	2.98638	0.828698	-1.5708	0	0.1	0.1	0.1	0.778072	0.1	0.1	0.1	0	0	0	0	0	0	0	0.000000000
1504608127.309060096	-0.00613592	0.776194	-0.80534	2.93757	0.814544	-1.58767	-0.00920388	0	0	0	0.764035	0	0	0	0	0	0	0	0	0	0	0.000000000	-1.48238e-05	0.788798	-0.788798	2.98638	0.828698	-1.5708	0	0.1	0.1	0.1	0.778072	0.1	0.1	0.1	0	0	0	0	0	0	0	0.000000000
1504608127.329216957	-0.00613592	0.776194	-0.80534	2.93757	0.814544	-1.58767	-0.00920388	0	0	0	0.764035	0	0	0	0	0	0	0	0	0	0	0.000000000	-1.4973e-05	0.788798	-0.788798	3.01644	0.828698	-1.5708	0	0.1	0.1	0.1	0.691365	0.1	0.1	0.1	0	0	0	0	0	0	0	0.000000000
1504608127.349251031	-0.00613592	0.776194	-0.803806	2.96212	0.814544	-1.58614	-0.00920388	0	0	0	0.85954	0	0	0	0	0	0	0	0	0	0	0.000000000	-1.4973e-05	0.788798	-0.788798	3.01644	0.828698	-1.5708	0	0.1	0.1	0.1	0.691365	0.1	0.1	0.1	0	0	0	0	0	0	0	0.000000000
1504608127.369088888	-0.00613592	0.777728	-0.80534	2.98359	0.81301	-1.58614	-0.00920388	0	0	0	0.764035	0	0	0	0	0	0	0	0	0	0	0.000000000	-1.51038e-05	0.788798	-0.788798	3.04279	0.828698	-1.5708	0	0.1	0.1	0.1	0.606102	0.1	0.1	0.1	0	0	0	0	0	0	0	0.000000000
1504608127.389043092	-0.00613592	0.776194	-0.803806	3.002	0.814544	-1.58614	-0.00920388	0	0	0	0.668531	0	0	0	0	0	0	0	0	0	0	0.000000000	-1.51038e-05	0.788798	-0.788798	3.04279	0.828698	-1.5708	0	0.1	0.1	0.1	0.606102	0.1	0.1	0.1	0	0	0	0	0	0	0	0.000000000
1504608127.409950971	-0.00613592	0.776194	-0.80534	3.01734	0.814544	-1.58614	-0.00920388	0	0	0	0.620779	0	0	0	0	0	0	0	0	0	0	0.000000000	-1.52167e-05	0.788798	-0.788798	3.06553	0.828698	-1.5708	0	0.1	0.1	0.1	0.52305	0.1	0.1	0.1	0	0	0	0	0	0	0	0.000000000
1504608127.431694984	-0.00613592	0.776194	-0.80534	3.01734	0.814544	-1.58614	-0.00920388	0	0	0	0.620779	0	0	0	0	0	0	0	0	0	0	0.000000000	-1.52167e-05	0.788798	-0.788798	3.06553	0.828698	-1.5708	0	0.1	0.1	0.1	0.52305	0.1	0.1	0.1	0	0	0	0	0	0	0	0.000000000
1504608127.449186086	-0.00613592	0.777728	-0.803806	3.03115	0.814544	-1.58767	-0.00920388	0	0	0	0.525274	0	0	0	0	0	0	0	0	0	0	0.000000000	-1.53123e-05	0.788798	-0.788798	3.08479	0.828698	-1.5708	0	0.1	0.1	0.1	0.442984	0.1	0.1	0.1	0	0	0	0	0	0	0	0.000000000
1504608127.469075918	-0.00613592	0.776194	-0.80534	3.04495	0.81301	-1.58614	-0.00920388	0	0	0	0.525274	0	0	0	0	0	0	0	0	0	0	0.000000000	-1.53123e-05	0.788798	-0.788798	3.08479	0.828698	-1.5708	0	0.1	0.1	0.1	0.442984	0.1	0.1	0.1	0	0	0	0	0	0	0	0.000000000
1504608127.489099025	-0.00613592	0.777728	-0.80534	3.05876	0.81301	-1.58614	-0.0107379	0	0	0	0.477522	0	0	0	0	0	0	0	0	0	0	0.000000000	-1.53914e-05	0.788798	-0.788798	3.10073	0.828698	-1.5708	0	0.1	0.1	0.1	0.366718	0.1	0.1	0.1	0	0	0	0	0	0	0	0.000000000
1504608127.509124994	-0.00613592	0.777728	-0.80534	3.06796	0.81301	-1.58767	-0.00920388	0	0	0	0.382018	0	0	0	0	0	0	0	0	0	0	0.000000000	-1.53914e-05	0.788798	-0.788798	3.10073	0.828698	-1.5708	0	0.1	0.1	0.1	0.366718	0.1	0.1	0.1	0	0	0	0	0	0	0	0.000000000
1504608127.529644966	-0.00460194	0.777728	-0.80534	3.0787	0.814544	-1.58614	-0.00920388	0	0	0	0.382018	0	0	0	0	0	0	0	0	0	0	0.000000000	-1.53914e-05	0.788798	-0.788798	3.10073	0.828698	-1.5708	0	0.1	0.1	0.1	0.366718	0.1	0.1	0.1	0	0	0	0	0	0	0	0.000000000
1504608127.549124002	-0.00460194	0.777728	-0.80534	3.0787	0.814544	-1.58614	-0.00920388	0	0	0	0.382018	0	0	0	0	0	0	0	0	0	0	0.000000000	-1.54551e-05	0.788798	-0.788798	3.11356	0.828698	-1.5708	0	0.1	0.1	0.1	0.295096	0.1	0.1	0.1	0	0	0	0	0	0	0	0.000000000
1504608127.569353103	-0.00613592	0.777728	-0.80534	3.0879	0.81301	-1.58614	-0.00920388	0	0	0	0.334265	0	0	0	0	0	0	0	0	0	0	0.000000000	-1.54551e-05	0.788798	-0.788798	3.11356	0.828698	-1.5708	0	0.1	0.1	0.1	0.295096	0.1	0.1	0.1	0	0	0	0	0	0	0	0.000000000
1504608127.589206933	-0.00613592	0.777728	-0.80534	3.09711	0.814544	-1.58614	-0.0107379	0	0	0	0.334265	0	0	0	0	0	0	0	0	0	0	0.000000000	-1.55045e-05	0.788798	-0.788798	3.12352	0.828698	-1.5708	0	0.1	0.1	0.1	0.229007	0.1	0.1	0.1	0	0	0	0	0	0	0	0.000000000
1504608127.609049081	-0.00460194	0.777728	-0.80534	3.10324	0.81301	-1.58614	-0.0107379	0	0	0	0.191009	0	0	0	0	0	0	0	0	0	0	0.000000000	-1.55045e-05	0.788798	-0.788798	3.12352	0.828698	-1.5708	0	0.1	0.1	0.1	0.229007	0.1	0.1	0.1	0	0	0	0	0	0	0	0.000000000
1504608127.632359981	-0.00613592	0.777728	-0.80534	3.11091	0.814544	-1.58767	-0.0107379	0	0	0	0.286513	0	0	0	0	0	0	0	0	0	0	0.000000000	-1.55411e-05	0.788798	-0.788798	3.13088	0.828698	-1.5708	0	0.1	0.1	0.1	0.169362	0.1	0.1	0.1	0	0	0	0	0	0	0	0.000000000
1504608127.649116039	-0.00613592	0.777728	-0.80534	3.11091	0.814544	-1.58767	-0.00920388	0	0	0	0.286513	0	0	0	0	0	0	0	0	0	0	0.000000000	-1.55411e-05	0.788798	-0.788798	3.13088	0.828698	-1.5708	0	0.1	0.1	0.1	0.169362	0.1	0.1	0.1	0	0	0	0	0	0	0	0.000000000
1504608127.669092893	-0.00613592	0.777728	-0.80534	3.11551	0.814544	-1.58614	-0.0107379	0	0	0	0.238761	0	0	0	0	0	0	0	0	0	0	0.000000000	-1.55664e-05	0.788798	-0.788798	3.13598	0.828698	-1.5708	0	0.1	0.1	0.1	0.117108	0.1	0.1	0.1	0	0	0	0	0	0	0	0.000000000
1504608127.689143896	-0.00460194	0.777728	-0.80534	3.12165	0.814544	-1.58614	-0.00920388	0	0	0	0.191009	0	0	0	0	0	0	0	0	0	0	0.000000000	-1.55664e-05	0.788798	-0.788798	3.13598	0.828698	-1.5708	0	0.1	0.1	0.1	0.117108	0.1	0.1	0.1	0	0	0	0	0	0	0	0.000000000
1504608127.709237098	-0.00613592	0.777728	-0.80534	3.12472	0.814544	-1.58614	-0.00920388	0	0	0	0.143257	0	0	0	0	0	0	0	0	0	0	0.000000000	-1.55822e-05	0.788798	-0.788798	3.13916	0.828698	-1.5708	0	0.1	0.1	0.1	0.1	0.1	0.1	0.1	0	0	0	0	0	0	0	0.000000000
1504608127.729321956	-0.00613592	0.777728	-0.80534	3.12472	0.814544	-1.58614	-0.00920388	0	0	0	0.143257	0	0	0	0	0	0	0	0	0	0	0.000000000	-1.55822e-05	0.788798	-0.788798	3.13916	0.828698	-1.5708	0	0.1	0.1	0.1	0.1	0.1	0.1	0.1	0	0	0	0	0	0	0	0.000000000
1504608127.749454021	-0.00613592	0.777728	-0.80534	3.12779	0.81301	-1.58614	-0.0107379	0	0	0	0.0955044	0	0	0	0	0	0	0	0	0	0	0.000000000	-1.55905e-05	0.788798	-0.788798	3.14084	0.828698	-1.5708	0	0.1	0.1	0.1	0.1	0.1	0.1	0.1	0	0	0	0	0	0	0	0.000000000
1504608127.769113063	-0.00613592	0.777728	-0.80534	3.12932	0.81301	-1.58614	-0.00920388	0	0	0	0	0	0	0	0	0	0	0	0	0	0	0.000000000	-1.55905e-05	0.788798	-0.788798	3.14084	0.828698	-1.5708	0	0.1	0.1	0.1	0.1	0.1	0.1	0.1	0	0	0	0	0	0	0	0.000000000
1504608127.789133071	-0.00613592	0.777728	-0.80534	3.13085	0.81301	-1.58614	-0.00920388	0	0	0	0	0	0	0	0	0	0	0	0	0	0	0.000000000	-1.55905e-05	0.788798	-0.788798	3.14084	0.828698	-1.5708	0	0.1	0.1	0.1	0.1	0.1	0.1	0.1	0	0	0	0	0	0	0	0.000000000
1504608127.809340000	-0.00613592	0.777728	-0.80534	3.13239	0.81301	-1.58767	-0.00920388	0	0	0	0	0	0	0	0	0	0	0	0	0	0	0.000000000	-1.55937e-05	0.788798	-0.788798	3.14148	0.828698	-1.5708	0	0.1	0.1	0.1	0.1	0.1	0.1	0.1	0	0	0	0	0	0	0	0.000000000
1504608127.829430103	-0.00613592	0.777728	-0.80534	3.13239	0.81301	-1.58767	-0.00920388	0	0	0	0	0	0	0	0	0	0	0	0	0	0	0.000000000	-1.55937e-05	0.788798	-0.788798	3.14148	0.828698	-1.5708	0	0.1	0.1	0.1	0.1	0.1	0.1	0.1	0	0	0	0	0	0	0	0.000000000
1504608127.849634885	-0.00613592	0.777728	-0.80534	3.13239	0.81301	-1.58614	-0.00920388	0	0	0	0	0	0	0	0	0	0	0	0	0	0	0.000000000	-1.55942e-05	0.788798	-0.788798	3.14158	0.828698	-1.5708	0	0.1	0.1	0.1	0.1	0.1	0.1	0.1	0	0	0	0	0	0	0	0.000000000
1504608127.869039058	-0.00613592	0.777728	-0.80534	3.13392	0.814544	-1.58614	-0.00920388	0	0	0	0	0	0	0	0	0	0	0	0	0	0	0.000000000	-1.55942e-05	0.788798	-0.788798	3.14158	0.828698	-1.5708	0	0.1	0.1	0.1	0.1	0.1	0.1	0.1	0	0	0	0	0	0	0	0.000000000
1504608127.889283895	-0.00613592	0.777728	-0.80534	3.13239	0.81301	-1.58614	-0.0107379	0	0	0	0	0	0	0	0	0	0	0	0	0	0	0.000000000	-1.55942e-05	0.788798	-0.788782	3.14158	0.828681	-1.57083	0	0.1	0.1	0.1	0.1	0.1	0.1	0.1	0	0	0	0	0	0	0	0.000000000
1504608127.909142017	-0.00613592	0.777728	-0.80534	3.13239	0.814544	-1.58767	-0.0107379	0	0	0	0	0	0	0	0	0	0	0	0	0	0	0.000000000	-1.55942e-05	0.788798	-0.788782	3.14158	0.828681	-1.57083	0	0.1	0.1	0.1	0.1	0.1	0.1	0.1	0	0	0	0	0	0	0	0.000000000
1504608127.929104089	-0.00613592	0.777728	-0.80534	3.13239	0.814544	-1.58767	-0.0107379	0	0	0	0	0	0	0	0	0	0	0	0	0	0	0.000000000	-0.00012203	0.7888	-0.788675	3.14147	0.828565	-1.57106	0	0.1	0.1	0.1	0.1	0.1	0.1	0.1	0	0	0	0	0	0	0	0.000000000
1504608127.949218988	-0.00613592	0.777728	-0.80534	3.13392	0.814544	-1.58767	-0.0107379	0	0	0	0	0	0	0	0	0	0	0	0	0	0	0.000000000	-0.00012203	0.7888	-0.788675	3.14147	0.828565	-1.57106	0	0.1	0.1	0.1	0.1	0.1	0.1	0.1	0	0	0	0	0	0	0	0.000000000
1504608127.969182968	-0.00613592	0.777728	-0.80534	3.13239	0.81301	-1.58614	-0.00920388	0	0	0	0	0	0	0	0	0	0	0	0	0	0	0.000000000	-0.000402766	0.788803	-0.78839	3.14119	0.82826	-1.57167	0	0.1	0.1	0.1	0.1	0.1	0.1	0.1	0	0	0	0	0	0	0	0.000000000
1504608127.989061117	-0.00613592	0.777728	-0.80534	3.13392	0.81301	-1.58767	-0.00920388	0	0	0	0	0	0	0	0	0	0	0	0	0	0	0.000000000	-0.000402766	0.788803	-0.78839	3.14119	0.82826	-1.57167	0	0.1	0.1	0.1	0.1	0.1	0.1	0.1	0	0	0	0	0	0	0	0.000000000
1504608128.010279893	-0.00460194	0.777728	-0.80534	3.13239	0.81301	-1.58767	-0.00920388	0	0	0	0	0	0	0	0	0	0	0	0	0	0	0.000000000	-0.000933428	0.78881	-0.787853	3.14066	0.827682	-1.57283	0	0.1	0.1	0.1	0.1	0.1	0.1	0.1	0	0	0	0	0	0	0	0.000000000
1504608128.029230117	-0.00613592	0.777728	-0.80534	3.13392	0.814544	-1.58767	-0.00920388	0	0	0	0	0	0	0	0	0	0	0	0	0	0	0.000000000	-0.000933428	0.78881	-0.787853	3.14066	0.827682	-1.57283	0	0.1	0.1	0.1	0.1	0.1	0.1	0.1	0	0	0	0	0	0	0	0.000000000
1504608128.049125909	-0.00613592	0.777728	-0.80534	3.13392	0.814544	-1.58614	-0.00920388	0	0	0	0	0	0	0	0	0	0	0	0	0	0	0.000000000	-0.000933428	0.78881	-0.787853	3.14066	0.827682	-1.57283	0	0.1	0.1	0.1	0.1	0.1	0.1	0.1	0	0	0	0	0	0	0	0.000000000
1504608128.069190979	-0.00613592	0.777728	-0.80534	3.13392	0.814544	-1.58614	-0.00920388	0	0	0	0	0	0	0	0	0	0	0	0	0	0	0.000000000	-0.00178205	0.788821	-0.786995	3.13981	0.826758	-1.57467	0	0.1	0.1	0.1	0.1	0.1	0.1	0.1	0	0	0	0	0	0	0	0.000000000
1504608128.089251041	-0.00613592	0.776194	-0.80534	3.13392	0.814544	-1.58614	-0.00920388	0	0	0	0	0	0	0	0	0	0	0	0	0	0	0.000000000	-0.00178205	0.788821	-0.786995	3.13981	0.826758	-1.57467	0	0.1	0.1	0.1	0.1	0.1	0.1	0.1	0	0	0	0	0	0	0	0.000000000
1504608128.109333038	-0.00613592	0.777728	-0.80534	3.13239	0.81301	-1.58614	-0.0107379	0	0	0	0	0	0	0	0	0	0	0	0	0	0	0.000000000	-0.00300931	0.788838	-0.785754	3.13858	0.825423	-1.57734	0	0.1	0.1	0.1	0.1	0.1	0.1	0.1	0	0	0	0	0	0	0	0.000000000
1504608128.129194021	-0.00613592	0.777728	-0.80534	3.13239	0.81301	-1.58614	-0.0107379	0	0	0	0	0	0	0	0	0	0	0	0	0	0	0.000000000	-0.00300931	0.788838	-0.785754	3.13858	0.825423	-1.57734	0	0.1	0.1	0.1	0.1	0.1	0.1	0.1	0	0	0	0	0	0	0	0.000000000
1504608128.149089097	-0.00613592	0.777728	-0.80534	3.13392	0.81301	-1.58614	-0.0107379	0	0	0	0	0	0	0	0	0	0	0	0	0	0	0.000000000	-0.00466879	0.788863	-0.784077	3.13692	0.82362	-1.58094	0	0.1	0.1	0.1	0.1	0.1	0.1	0.1	0	0	0	0	0	0	0	0.000000000
1504608128.169110059	-0.00613592	0.777728	-0.80534	3.13392	0.814544	-1.58614	-0.00920388	0	0	0	0	0	0	0	0	0	0	0	0	0	0	0.000000000	-0.00466879	0.788863	-0.784077	3.13692	0.82362	-1.58094	0	0.1	0.1	0.1	0.1	0.1	0.1	0.1	0	0	0	0	0	0	0	0.000000000
1504608128.189090013	-0.00613592	0.777728	-0.80534	3.13392	0.81301	-1.58614	-0.00920388	0	0	0	0	0	0	0	0	0	0	0	0	0	0	0.000000000	-0.00680717	0.788896	-0.781919	3.13479	0.821298	-1.58557	0	0.1	0.1	0.1	0.1	0.1	0.106481	0.1	0	0	0	0	0	0	0	0.000000000
1504608128.209399938	-0.00613592	0.777728	-0.80534	3.13392	0.811476	-1.59074	-0.00920388	0	0	0	0	0	0.155195	0	0	0	0	0	0	0	0	0.000000000	-0.00680717	0.788896	-0.781919	3.13479	0.821298	-1.58557	0	0.1	0.1	0.1	0.1	0.1	0.106481	0.1	0	0	0	0	0	0	0	0.000000000
1504608128.229532957	-0.00613592	0.777728	-0.80534	3.13392	0.811476	-1.59074	-0.00920388	0	0	0	0	0	0.155195	0	0	0	0	0	0	0	0	0.000000000	-0.00946454	0.788941	-0.77924	3.13213	0.818417	-1.59131	0	0.1	0.1	0.1	0.1	0.1	0.13198	0.1	0	0	0	0	0	0	0	0.000000000
1504608128.249119043	-0.00613592	0.777728	-0.803806	3.13392	0.809942	-1.59534	-0.0107379	0	0	0	0	0	0.155195	0	0	0	0	0	0	0	0	0.000000000	-0.00946454	0.788941	-0.77924	3.13213	0.818417	-1.59131	0	0.1	0.1	0.1	0.1	0.1	0.13198	0.1	0	0	0	0	0	0	0	0.000000000
1504608128.269311904	-0.00613592	0.777728	-0.80534	3.13392	0.806874	-1.59841	-0.00920388	0	0	0	0	0.107442	0.155195	0	0	0	0	0	0	0	0	0.000000000	-0.0126746	0.789001	-0.77601	3.12892	0.814942	-1.59822	0	0.1	0.1	0.1	0.1	0.1	0.158927	0.1	0	0	0	0	0	0	0	0.000000000
1504608128.289093971	-0.00460194	0.777728	-0.80534	3.13392	0.806874	-1.60148	-0.0107379	0	0	0	0	0	0.155195	0	0	0	0	0	0	0	0	0.000000000	-0.0126746	0.789001	-0.77601	3.12892	0.814942	-1.59822	0	0.1	0.1	0.1	0.1	0.1	0.158927	0.1	0	0	0	0	0	0	0	0.000000000
1504608128.309137105	-0.00613592	0.777728	-0.80534	3.13239	0.806874	-1.60454	-0.00920388	0	0	0	0	0	0.107442	0	0	0	0	0	0	0	0	0.000000000	-0.0126746	0.789001	-0.77601	3.12892	0.814942	-1.59822	0	0.1	0.1	0.1	0.1	0.1	0.158927	0.1	0	0	0	0	0	0	0	0.000000000
1504608128.329227924	-0.00613592	0.777728	-0.80534	3.13239	0.806874	-1.60454	-0.00920388	0	0	0	0	0	0.107442	0	0	0	0	0	0	0	0	0.000000000	-0.0164648	0.789078	-0.772203	3.12513	0.810847	-1.60635	0	0.1	0.1	0.1	0.1	0.1	0.186951	0.1	0	0	0	0	0	0	0	0.000000000
1504608128.349169015	-0.00613592	0.777728	-0.80534	3.13239	0.80534	-1.60761	-0.00920388	0	0	0	0	0	0.155195	0	0	0	0	0	0	0	0	0.000000000	-0.0164648	0.789078	-0.772203	3.12513	0.810847	-1.60635	0	0.1	0.1	0.1	0.1	0.1	0.186951	0.1	0	0	0	0	0	0	0	0.000000000
1504608128.369476079	-0.00920388	0.777728	-0.803806	3.13239	0.800738	-1.61375	-0.00920388	0.107442	0	0	0	0.155195	0.202947	0	0	0	0	0	0	0	0	0.000000000	-0.0208569	0.789176	-0.767803	3.12074	0.806111	-1.61573	0	0.101018	0.1	0.101208	0.101019	0.108917	0.215692	0.1	0	0	0	0	0	0	0	0.000000000
1504608128.389112949	-0.0107379	0.776194	-0.80534	3.13085	0.799204	-1.61835	-0.0107379	0.107442	0	0	0	0.155195	0.202947	0	0	0	0	0	0	0	0	0.000000000	-0.0208569	0.789176	-0.767803	3.12074	0.806111	-1.61573	0	0.101018	0.1	0.101208	0.101019	0.108917	0.215692	0.1	0	0	0	0	0	0	0	0.000000000
1504608128.409655094	-0.0107379	0.776194	-0.80534	3.13085	0.799204	-1.61835	-0.0107379	0.107442	0	0	0	0.155195	0.202947	0	0	0	0	0	0	0	0	0.000000000	-0.0258668	0.7893	-0.762798	3.11573	0.800722	-1.62637	0	0.115228	0.1	0.115122	0.115227	0.123945	0.244811	0.1	0	0	0	0	0	0	0	0.000000000
1504608128.430299043	-0.0153398	0.777728	-0.80534	3.12472	0.796136	-1.62909	-0.0107379	0	0	0	0.155195	0	0.202947	0	0	0	0	0	0	0	0	0.000000000	-0.0258668	0.7893	-0.762798	3.11573	0.800722	-1.62637	0	0.115228	0.1	0.115122	0.115227	0.123945	0.244811	0.1	0	0	0	0	0	0	0	0.000000000
1504608128.449031114	-0.0153398	0.777728	-0.80534	3.12472	0.796136	-1.62909	-0.0107379	0	0	0	0.155195	0	0.202947	0	0	0	0	0	0	0	0	0.000000000	-0.0315051	0.789455	-0.757183	3.11009	0.794673	-1.63828	0	0.12968	0.1	0.129142	0.129677	0.139135	0.273973	0.1	0	0	0	0	0	0	0	0.000000000
1504608128.469121932	-0.0184078	0.777728	-0.803806	3.12012	0.794602	-1.63369	-0.00920388	0.107442	0	0	0.155195	0	0.155195	0	0	0	0	0	0	0	0	0.000000000	-0.0315051	0.789455	-0.757183	3.11009	0.794673	-1.63828	0	0.12968	0.1	0.129142	0.129677	0.139135	0.273973	0.1	0	0	0	0	0	0	0	0.000000000
1504608128.489125967	-0.0214757	0.776194	-0.802272	3.11858	0.791534	-1.64136	-0.00920388	0.155195	0	0	0.107442	0.155195	0.298451	0	0	0	0	0	0	0	0	0.000000000	-0.0377771	0.789645	-0.75096	3.10382	0.787962	-1.65145	0	0.144256	0.1	0.143127	0.144258	0.154348	0.302869	0.1	0	0	0	0	0	0	0	0.000000000
1504608128.509469985	-0.0245437	0.777728	-0.799204	3.11551	0.785398	-1.65056	-0.0107379	0.155195	0	0.0955044	0.107442	0.202947	0.298451	0	0	0	0	0	0	0	0	0.000000000	-0.0377771	0.789645	-0.75096	3.10382	0.787962	-1.65145	0	0.144256	0.1	0.143127	0.144258	0.154348	0.302869	0.1	0	0	0	0	0	0	0	0.000000000
1504608128.529053926	-0.0276117	0.776194	-0.794602	3.11091	0.780796	-1.6567	-0.0107379	0.107442	0	0.191009	0.155195	0.155195	0.298451	0	0	0	0	0	0	0	0	0.000000000	-0.0377771	0.789645	-0.75096	3.10382	0.787962	-1.65145	0	0.144256	0.1	0.143127	0.144258	0.154348	0.302869	0.1	0	0	0	0	0	0	0	0.000000000
1504608128.549102067	-0.0276117	0.776194	-0.794602	3.11091	0.780796	-1.6567	-0.0107379	0.107442	0	0.191009	0.155195	0.155195	0.298451	0	0	0	0	0	0	0	0	0.000000000	-0.0446832	0.789875	-0.744136	3.09691	0.780594	-1.66585	0	0.158841	0.1	0.156937	0.158839	0.169463	0.331208	0.1	0	0	0	0	0	0	0	0.000000000
1504608128.569109916	-0.0322136	0.776194	-0.79	3.10938	0.776194	-1.66284	-0.00920388	0.202947	0	0.143257	0.107442	0.202947	0.298451	0	0	0	0	0	0	0	0	0.000000000	-0.0446832	0.789875	-0.744136	3.09691	0.780594	-1.66585	0	0.158841	0.1	0.156937	0.158839	0.169463	0.331208	0.1	0	0	0	0	0	0	0	0.000000000
1504608128.589147090	-0.0368155	0.776194	-0.788466	3.10478	0.773126	-1.67051	-0.00920388	0.202947	0	0.0955044	0.155195	0.155195	0.298451	0	0	0	0	0	0	0	0	0.000000000	-0.0522192	0.79015	-0.736726	3.08937	0.772578	-1.68145	0	0.173328	0.1	0.170446	0.173327	0.184369	0.358723	0.1	0	0	0	0	0	0	0	0.000000000
1504608128.612360000	-0.0414175	0.776194	-0.785398	3.10171	0.770058	-1.68124	-0.0107379	0.202947	0	0.0955044	0.155195	0.155195	0.346204	0	0	0	0	0	0	0	0	0.000000000	-0.0522192	0.79015	-0.736726	3.08937	0.772578	-1.68145	0	0.173328	0.1	0.170446	0.173327	0.184369	0.358723	0.1	0	0	0	0	0	0	0	0.000000000
1504608128.629323959	-0.0414175	0.776194	-0.785398	3.10171	0.770058	-1.68124	-0.0107379	0.202947	0	0.0955044	0.155195	0.155195	0.346204	0	0	0	0	0	0	0	0	0.000000000	-0.0603763	0.790476	-0.728746	3.08122	0.763928	-1.69819	0	0.187614	0.1	0.183523	0.187617	0.198961	0.385167	0.1	0	0	0	0	0	0	0	0.000000000
1504608128.649193048	-0.0444854	0.776194	-0.78233	3.09711	0.765456	-1.69198	-0.0107379	0.107442	0	0.0955044	0.155195	0.155195	0.393956	0	0	0	0	0	0	0	0	0.000000000	-0.0603763	0.790476	-0.728746	3.08122	0.763928	-1.69819	0	0.187614	0.1	0.183523	0.187617	0.198961	0.385167	0.1	0	0	0	0	0	0	0	0.000000000
1504608128.669068098	-0.0475534	0.776194	-0.777728	3.09251	0.760854	-1.69965	-0.00920388	0.155195	0	0.191009	0.155195	0.202947	0.346204	0	0	0	0	0	0	0	0	0.000000000	-0.0691416	0.790857	-0.720222	3.07245	0.75466	-1.71603	0	0.201601	0.1	0.196056	0.2016	0.21315	0.410315	0.1	0	0	0	0	0	0	0	0.000000000
1504608128.689378023	-0.0506214	0.777728	-0.771592	3.0879	0.754719	-1.70732	-0.00920388	0.155195	0	0.191009	0.155195	0.250699	0.346204	0	0	0	0	0	0	0	0	0.000000000	-0.0691416	0.790857	-0.720222	3.07245	0.75466	-1.71603	0	0.201601	0.1	0.196056	0.2016	0.21315	0.410315	0.1	0	0	0	0	0	0	0	0.000000000
1504608128.709114074	-0.0552233	0.777728	-0.763922	3.0833	0.750117	-1.71959	-0.0107379	0.155195	0	0.286513	0.155195	0.202947	0.393956	0	0	0	0	0	0	0	0	0.000000000	-0.0784981	0.791296	-0.711182	3.06309	0.744797	-1.7349	0	0.2152	0.1	0.207934	0.2152	0.226854	0.433969	0.1	0	0	0	0	0	0	0	0.000000000
1504608128.729924917	-0.0628932	0.776194	-0.763922	3.0833	0.750117	-1.71959	-0.0107379	0.202947	0	0.286513	0.155195	0.202947	0.393956	0	0	0	0	0	0	0	0	0.000000000	-0.0784981	0.791296	-0.711182	3.06309	0.744797	-1.7349	0	0.2152	0.1	0.207934	0.2152	0.226854	0.433969	0.1	0	0	0	0	0	0	0	0.000000000
1504608128.749300003	-0.0628932	0.776194	-0.757787	3.0787	0.742447	-1.73033	-0.00920388	0.202947	0	0.191009	0.155195	0.250699	0.441708	0	0	0	0	0	0	0	0	0.000000000	-0.0884252	0.791798	-0.701658	3.05317	0.734362	-1.75473	0	0.228323	0.1	0.219055	0.228322	0.240003	0.455958	0.1	0	0	0	0	0	0	0	0.000000000
1504608128.769062042	-0.0674952	0.776194	-0.757787	3.07256	0.739379	-1.74107	-0.0107379	0.202947	0	0	0.202947	0.155195	0.393956	0	0	0	0	0	0	0	0	0.000000000	-0.0884252	0.791798	-0.701658	3.05317	0.734362	-1.75473	0	0.228323	0.1	0.219055	0.228322	0.240003	0.455958	0.1	0	0	0	0	0	0	0	0.000000000
1504608128.789796113	-0.0736311	0.776194	-0.753185	3.0695	0.734777	-1.75027	-0.00920388	0.250699	0	0.0955044	0.155195	0.155195	0.441708	0	0	0	0	0	0	0	0	0.000000000	-0.0988986	0.792364	-0.691687	3.04269	0.723382	-1.77543	0	0.24089	0.1	0.229327	0.24089	0.252536	0.47613	0.1	0	0	0	0	0	0	0	0.000000000
1504608128.809318065	-0.078233	0.776194	-0.753185	3.06183	0.728641	-1.76561	-0.00920388	0.202947	0	0.0955044	0.250699	0.202947	0.441708	0	0	0	0	0	0	0	0	0.000000000	-0.0988986	0.792364	-0.691687	3.04269	0.723382	-1.77543	0	0.24089	0.1	0.229327	0.24089	0.252536	0.47613	0.1	0	0	0	0	0	0	0	0.000000000
1504608128.829602956	-0.082835	0.777728	-0.739379	3.05569	0.722505	-1.77482	-0.00920388	0.155195	0	0.238761	0.250699	0.250699	0.48946	0	0	0	0	0	0	0	0	0.000000000	-0.0988986	0.792364	-0.691687	3.04269	0.723382	-1.77543	0	0.24089	0.1	0.229327	0.24089	0.252536	0.47613	0.1	0	0	0	0	0	0	0	0.000000000
1504608128.849174976	-0.082835	0.777728	-0.739379	3.05569	0.722505	-1.77482	-0.00920388	0.155195	0	0.238761	0.250699	0.250699	0.48946	0	0	0	0	0	0	0	0	0.000000000	-0.109891	0.792995	-0.68131	3.0317	0.711886	-1.79692	0	0.252827	0.1	0.238669	0.252828	0.264405	0.49436	0.1	0	0	0	0	0	0	0	0.000000000
1504608128.869061946	-0.0889709	0.777728	-0.731709	3.04802	0.714835	-1.78555	-0.00920388	0.202947	0	0.286513	0.298451	0.250699	0.441708	0	0	0	0	0	0	0	0	0.000000000	-0.109891	0.792995	-0.68131	3.0317	0.711886	-1.79692	0	0.252827	0.1	0.238669	0.252828	0.264405	0.49436	0.1	0	0	0	0	0	0	0	0.000000000
1504608128.889385938	-0.0935728	0.777728	-0.725573	3.04495	0.708699	-1.79783	-0.0107379	0.155195	0	0.238761	0.155195	0.250699	0.441708	0	0	0	0	0	0	0	0	0.000000000	-0.121372	0.793693	-0.67057	3.02022	0.699905	-1.81912	0	0.264062	0.1	0.24701	0.264063	0.27556	0.510537	0.1	0	0	0	0	0	0	0	0.000000000
1504608128.909073114	-0.0997088	0.776194	-0.720971	3.03882	0.701029	-1.8101	-0.00920388	0.250699	0	0.191009	0.202947	0.298451	0.441708	0	0	0	0	0	0	0	0	0.000000000	-0.121372	0.793693	-0.67057	3.02022	0.699905	-1.81912	0	0.264062	0.1	0.24701	0.264063	0.27556	0.510537	0.1	0	0	0	0	0	0	0	0.000000000
1504608128.929790973	-0.107379	0.776194	-0.720971	3.03882	0.701029	-1.8101	-0.00920388	0.298451	0	0.191009	0.202947	0.298451	0.441708	0	0	0	0	0	0	0	0	0.000000000	-0.133309	0.794455	-0.659514	3.00828	0.687472	-1.84193	0	0.274538	0.1	0.254295	0.274539	0.285974	0.524597	0.1	0	0	0	0	0	0	0	0.000000000
1504608128.949986934	-0.113515	0.776194	-0.708699	3.02501	0.687223	-1.82084	-0.00920388	0.298451	0	0.238761	0.298451	0.298451	0.393956	0	0	0	0	0	0	0	0	0.000000000	-0.133309	0.794455	-0.659514	3.00828	0.687472	-1.84193	0	0.274538	0.1	0.254295	0.274539	0.285974	0.524597	0.1	0	0	0	0	0	0	0	0.000000000
1504608128.969430923	-0.113515	0.776194	-0.708699	3.02501	0.687223	-1.83311	-0.0107379	0.298451	0	0.238761	0.298451	0.298451	0.48946	0	0	0	0	0	0	0	0	0.000000000	-0.145664	0.795279	-0.648189	2.99593	0.674619	-1.86525	0	0.284186	0.1	0.260464	0.284188	0.295603	0.536463	0.1	0	0	0	0	0	0	0	0.000000000
1504608128.989046096	-0.119651	0.776194	-0.702563	3.01734	0.681087	-1.84691	-0.00920388	0.250699	0	0.238761	0.298451	0.250699	0.48946	0	0	0	0	0	0	0	0	0.000000000	-0.145664	0.795279	-0.648189	2.99593	0.674619	-1.86525	0	0.284186	0.1	0.260464	0.284188	0.295603	0.536463	0.1	0	0	0	0	0	0	0	0.000000000
1504608129.009179115	-0.125786	0.777728	-0.693359	3.0112	0.674952	-1.86225	-0.00920388	0.250699	0	0.238761	0.250699	0.250699	0.537212	0	0	0	0	0	0	0	0	0.000000000	-0.158402	0.796161	-0.636646	2.98319	0.661383	-1.88899	0	0.292966	0.1	0.265493	0.292964	0.304435	0.546109	0.1	0	0	0	0	0	0	0	0.000000000
1504608129.030230998	-0.133456	0.776194	-0.687223	3.00353	0.665748	-1.87606	-0.00920388	0.298451	0	0.191009	0.250699	0.298451	0.537212	0	0	0	0	0	0	0	0	0.000000000	-0.158402	0.796161	-0.636646	2.98319	0.661383	-1.88899	0	0.292966	0.1	0.265493	0.292964	0.304435	0.546109	0.1	0	0	0	0	0	0	0	0.000000000
1504608129.049272060	-0.133456	0.776194	-0.687223	3.00353	0.665748	-1.87606	-0.0107379	0.298451	0	0.191009	0.250699	0.298451	0.537212	0	0	0	0	0	0	0	0	0.000000000	-0.158402	0.796161	-0.636646	2.98319	0.661383	-1.88899	0	0.292966	0.1	0.265493	0.292964	0.304435	0.546109	0.1	0	0	0	0	0	0	0	0.000000000
1504608129.069740056	-0.14266	0.777728	-0.682621	2.9974	0.659612	-1.88986	-0.00920388	0.298451	0	0.143257	0.298451	0.250699	0.48946	0	0	0	0	0	0	0	0	0.000000000	-0.171481	0.797097	-0.624936	2.97011	0.647799	-1.91306	0	0.300818	0.1	0.269346	0.300819	0.312438	0.553503	0.1	0	0	0	0	0	0	0	0.000000000
1504608129.089375019	-0.148796	0.776194	-0.676486	2.98973	0.653476	-1.90214	-0.0107379	0.250699	0	0.191009	0.250699	0.250699	0.48946	0	0	0	0	0	0	0	0	0.000000000	-0.171481	0.797097	-0.624936	2.97011	0.647799	-1.91306	0	0.300818	0.1	0.269346	0.300819	0.312438	0.553503	0.1	0	0	0	0	0	0	0	0.000000000
1504608129.109149932	-0.154932	0.777728	-0.668816	2.98206	0.645806	-1.91901	-0.00920388	0.250699	0	0.286513	0.298451	0.250699	0.48946	0	0	0	0	0	0	0	0	0.000000000	-0.18486	0.798079	-0.613109	2.95673	0.633903	-1.93735	0	0.307713	0.1	0.272024	0.30771	0.319603	0.558659	0.1	0	0	0	0	0	0	0	0.000000000
1504608129.129631042	-0.161068	0.777728	-0.661146	2.97439	0.638136	-1.92975	-0.0107379	0.202947	0	0.286513	0.298451	0.298451	0.48946	0	0	0	0	0	0	0	0	0.000000000	-0.18486	0.798079	-0.613109	2.95673	0.633903	-1.93735	0	0.307713	0.1	0.272024	0.30771	0.319603	0.558659	0.1	0	0	0	0	0	0	0	0.000000000
1504608129.149066925	-0.161068	0.777728	-0.661146	2.97439	0.638136	-1.92975	-0.0107379	0.202947	0	0.286513	0.298451	0.298451	0.48946	0	0	0	0	0	0	0	0	0.000000000	-0.198495	0.799101	-0.601217	2.9431	0.619733	-1.96177	0	0.313602	0.1	0.273511	0.313602	0.325901	0.561573	0.1	0	0	0	0	0	0	0	0.000000000
1504608129.169173955	-0.170272	0.777728	-0.653476	2.96672	0.627398	-1.94509	-0.0107379	0.298451	0	0.286513	0.298451	0.346204	0.48946	0	0	0	0	0	0	0	0	0.000000000	-0.198495	0.799101	-0.601217	2.9431	0.619733	-1.96177	0	0.313602	0.1	0.273511	0.313602	0.325901	0.561573	0.1	0	0	0	0	0	0	0	0.000000000
1504608129.189090967	-0.177942	0.777728	-0.64734	2.95905	0.621262	-1.95736	-0.00920388	0.298451	0	0.238761	0.298451	0.298451	0.48946	0	0	0	0	0	0	0	0	0.000000000	-0.212341	0.800153	-0.589311	2.92925	0.605328	-1.98621	0	0.318468	0.1	0.273836	0.318469	0.331334	0.562303	0.1	0	0	0	0	0	0	0	0.000000000
1504608129.209068059	-0.185612	0.777728	-0.63967	2.95138	0.613592	-1.97423	-0.00920388	0.298451	0	0.286513	0.298451	0.298451	0.584965	0	0	0	0	0	0	0	0	0.000000000	-0.212341	0.800153	-0.589311	2.92925	0.605328	-1.98621	0	0.318468	0.1	0.273836	0.318469	0.331334	0.562303	0.1	0	0	0	0	0	0	0	0.000000000
1504608129.229254007	-0.193282	0.777728	-0.633534	2.94371	0.613592	-1.97423	-0.00920388	0.298451	0	0.238761	0.298451	0.298451	0.584965	0	0	0	0	0	0	0	0	0.000000000	-0.226353	0.801226	-0.577441	2.91524	0.590725	-2.0106	0	0.322272	0.1	0.273006	0.322271	0.335869	0.560868	0.1	0	0	0	0	0	0	0	0.000000000
1504608129.249104976	-0.193282	0.777728	-0.633534	2.94371	0.605922	-1.98497	-0.0107379	0.298451	0	0.238761	0.298451	0.250699	0.537212	0	0	0	0	0	0	0	0	0.000000000	-0.226353	0.801226	-0.577441	2.91524	0.590725	-2.0106	0	0.322272	0.1	0.273006	0.322271	0.335869	0.560868	0.1	0	0	0	0	0	0	0	0.000000000
1504608129.269452095	-0.200951	0.777728	-0.627398	2.93604	0.595185	-2.00031	-0.00920388	0.298451	0	0.238761	0.250699	0.346204	0.537212	0	0	0	0	0	0	0	0	0.000000000	-0.240484	0.802311	-0.565655	2.90111	0.575964	-2.03483	0	0.32501	0.1	0.271071	0.325011	0.339506	0.557359	0.1	0	0	0	0	0	0	0	0.000000000
1504608129.289161920	-0.208621	0.777728	-0.622796	2.9299	0.589049	-2.01258	-0.0107379	0.298451	0	0.143257	0.250699	0.250699	0.48946	0	0	0	0	0	0	0	0	0.000000000	-0.240484	0.802311	-0.565655	2.90111	0.575964	-2.03483	0	0.32501	0.1	0.271071	0.325011	0.339506	0.557359	0.1	0	0	0	0	0	0	0	0.000000000
1504608129.309082031	-0.216291	0.777728	-0.61666	2.92223	0.581379	-2.02639	-0.00920388	0.298451	0	0.191009	0.250699	0.250699	0.537212	0	0	0	0	0	0	0	0	0.000000000	-0.240484	0.802311	-0.565655	2.90111	0.575964	-2.03483	0	0.32501	0.1	0.271071	0.325011	0.339506	0.557359	0.1	0	0	0	0	0	0	0	0.000000000
1504608129.331850051	-0.225495	0.779262	-0.610524	2.91303	0.581379	-2.02639	-0.00920388	0.298451	0	0.238761	0.298451	0.250699	0.537212	0	0	0	0	0	0	0	0	0.000000000	-0.254686	0.803397	-0.554	2.88691	0.561085	-2.05882	0	0.326652	0.1	0.268062	0.326652	0.342218	0.551826	0.1	0	0	0	0	0	0	0	0.000000000
1504608129.349093914	-0.225495	0.779262	-0.610524	2.91303	0.572175	-2.04326	-0.00920388	0.298451	0	0.238761	0.298451	0.298451	0.584965	0	0	0	0	0	0	0	0	0.000000000	-0.254686	0.803397	-0.554	2.88691	0.561085	-2.05882	0	0.326652	0.1	0.268062	0.326652	0.342218	0.551826	0.1	0	0	0	0	0	0	0	0.000000000
1504608129.369381904	-0.231631	0.779262	-0.602854	2.90229	0.562971	-2.05553	-0.0107379	0.298451	0	0.286513	0.393956	0.346204	0.537212	0	0	0	0	0	0	0	0	0.000000000	-0.268912	0.804474	-0.54252	2.87268	0.546128	-2.08249	0	0.327205	0.1	0.264041	0.327204	0.343999	0.544379	0.1	0	0	0	0	0	0	0	0.000000000
1504608129.389055013	-0.240835	0.779262	-0.592117	2.89462	0.552233	-2.07241	-0.0107379	0.346204	0	0.286513	0.346204	0.346204	0.584965	0	0	0	0	0	0	0	0	0.000000000	-0.268912	0.804474	-0.54252	2.87268	0.546128	-2.08249	0	0.327205	0.1	0.264041	0.327204	0.343999	0.544379	0.1	0	0	0	0	0	0	0	0.000000000
1504608129.409152984	-0.250039	0.779262	-0.585981	2.88542	0.544563	-2.08621	-0.00920388	0.298451	0	0.238761	0.346204	0.298451	0.537212	0	0	0	0	0	0	0	0	0.000000000	-0.283115	0.805531	-0.531257	2.85848	0.531136	-2.10576	0	0.326652	0.1	0.259062	0.326652	0.34482	0.535095	0.1	0	0	0	0	0	0	0	0.000000000
1504608129.429538965	-0.257709	0.780796	-0.579845	2.87775	0.535359	-2.10002	-0.0107379	0.250699	0	0.191009	0.298451	0.346204	0.537212	0	0	0	0	0	0	0	0	0.000000000	-0.283115	0.805531	-0.531257	2.85848	0.531136	-2.10576	0	0.326652	0.1	0.259062	0.326652	0.34482	0.535095	0.1	0	0	0	0	0	0	0	0.000000000
