DingWan/Reconbot3Ddemo/02_MATLAB_Code/sensors_data/3T1R_0905_encoders_data.txt
time_stamp	actual_pos_joint_4	actual_pos_joint_5	actual_pos_joint_3	actual_pos_joint_1	actual_pos_joint_2	actual_pos_joint_6	actual_pos_joint_7	actual_vel_joint_4	actual_vel_joint_5	actual_vel_joint_3	actual_vel_joint_1	actual_vel_joint_2	actual_vel_joint_6	actual_vel_joint_7	actual_acc_joint_4	actual_acc_joint_5	actual_acc_joint_3	actual_acc_joint_1	actual_acc_joint_2	actual_acc_joint_6	actual_acc_joint_7	actual_time_from_start	desired_pos_joint_4	desired_pos_joint_5	desired_pos_joint_3	desired_pos_joint_1	desired_pos_joint_2	desired_pos_joint_6	desired_pos_joint_7	desired_vel_joint_4	desired_vel_joint_5	desired_vel_joint_3	desired_vel_joint_1	desired_vel_joint_2	desired_vel_joint_6	desired_vel_joint_7	desired_acc_joint_4	desired_acc_joint_5	desired_acc_joint_3	desired_acc_joint_1	desired_acc_joint_2	desired_acc_joint_6	desired_acc_joint_7	desired_time_from_start
1504606210.449634075	0.00613592	0.777728	-0.81301	0.00920388	0.785398	-1.60761	-0.0122718	0	0	0	0	0	0	0	0	0	0	0	0	0	0	0.000000000	-1.11022e-15	0.788798	-0.788798	2.77556e-17	0.828698	-1.5708	0	0.1	0.1	0.1	0.1	0.1	0.1	0.1	0	0	0	0	0	0	0	0.000000000
1504606210.469904899	0.00613592	0.777728	-0.81301	0.00920388	0.786932	-1.60761	-0.0107379	0	0	0	0	0	0	0	0	0	0	0	0	0	0	0.000000000	-1.11022e-15	0.788798	-0.788798	2.77556e-17	0.828698	-1.5708	0	0.1	0.1	0.1	0.1	0.1	0.1	0.1	0	0	0	0	0	0	0	0.000000000
1504606210.490411043	0.00613592	0.777728	-0.81301	0.00920388	0.785398	-1.60915	-0.0122718	0	0	0	0	0	0	0	0	0	0	0	0	0	0	0.000000000	-1.11022e-15	0.788798	-0.788798	2.77556e-17	0.828698	-1.5708	0	0.1	0.1	0.1	0.1	0.1	0.1	0.1	0	0	0	0	0	0	0	0.000000000
1504606210.509162902	0.00613592	0.777728	-0.81301	0.00920388	0.785398	-1.60915	-0.0122718	0	0	0	0	0	0	0	0	0	0	0	0	0	0	0.000000000	-1.11022e-15	0.788798	-0.788798	2.77556e-17	0.828698	-1.5708	0	0.1	0.1	0.1	0.1	0.1	0.1	0.1	0	0	0	0	0	0	0	0.000000000
1504606210.529383897	0.00613592	0.777728	-0.81301	0.00920388	0.785398	-1.60761	-0.0107379	0	0	0	0	0	0	0	0	0	0	0	0	0	0	0.000000000	-1.11022e-15	0.788798	-0.788798	2.77556e-17	0.828698	-1.5708	0	0.1	0.1	0.1	0.1	0.1	0.1	0.1	0	0	0	0	0	0	0	0.000000000
1504606210.549545049	0.00613592	0.777728	-0.81301	0.00920388	0.785398	-1.60761	-0.0107379	0	0	0	0	0	0	0	0	0	0	0	0	0	0	0.000000000	-1.11022e-15	0.788798	-0.788798	2.77556e-17	0.828698	-1.5708	0	0.1	0.1	0.1	0.1	0.1	0.1	0.1	0	0	0	0	0	0	0	0.000000000
1504606210.570017099	0.00613592	0.777728	-0.81301	0.00920388	0.785398	-1.60915	-0.0122718	0	0	0	0	0	0	0	0	0	0	0	0	0	0	0.000000000	-1.11022e-15	0.788798	-0.788798	2.77556e-17	0.828698	-1.5708	0	0.1	0.1	0.1	0.1	0.1	0.1	0.1	0	0	0	0	0	0	0	0.000000000
1504606210.589229106	0.00613592	0.777728	-0.814544	0.00920388	0.785398	-1.60915	-0.0107379	0	0	0	0	0	0	0	0	0	0	0	0	0	0	0.000000000	-1.11022e-15	0.788798	-0.788798	2.77556e-17	0.828698	-1.5708	0	0.1	0.1	0.1	0.1	0.1	0.1	0.1	0	0	0	0	0	0	0	0.000000000
1504606210.609025955	0.00613592	0.777728	-0.814544	0.00920388	0.785398	-1.60761	-0.0122718	0	0	0	0	0	0	0	0	0	0	0	0	0	0	0.000000000	-1.11022e-15	0.788798	-0.788798	2.77556e-17	0.828698	-1.5708	0	0.1	0.1	0.1	0.1	0.1	0.1	0.1	0	0	0	0	0	0	0	0.000000000
1504606210.629070043	0.00613592	0.777728	-0.81301	0.00920388	0.785398	-1.60915	-0.0122718	0	0	0	0	0	0	0	0	0	0	0	0	0	0	0.000000000	-1.11022e-15	0.788798	-0.788798	2.77556e-17	0.828698	-1.5708	0	0.1	0.1	0.1	0.1	0.1	0.1	0.1	0	0	0	0	0	0	0	0.000000000
1504606210.648940086	0.00613592	0.777728	-0.814544	0.00920388	0.786932	-1.60915	-0.0122718	0	0	0	0	0	0	0	0	0	0	0	0	0	0	0.000000000	-1.11022e-15	0.788798	-0.788798	2.77556e-17	0.828698	-1.5708	0	0.1	0.1	0.1	0.1	0.1	0.1	0.1	0	0	0	0	0	0	0	0.000000000
1504606210.668948888	0.00613592	0.777728	-0.81301	0.00920388	0.785398	-1.60761	-0.0107379	0	0	0	0	0	0	0	0	0	0	0	0	0	0	0.000000000	-1.11022e-15	0.788798	-0.788798	2.77556e-17	0.828698	-1.5708	0	0.1	0.1	0.1	0.1	0.1	0.1	0.1	0	0	0	0	0	0	0	0.000000000
1504606210.688944101	0.00613592	0.777728	-0.81301	0.00920388	0.785398	-1.60761	-0.0107379	0	0	0	0	0	0	0	0	0	0	0	0	0	0	0.000000000	-1.11022e-15	0.788798	-0.788798	2.77556e-17	0.828698	-1.5708	0	0.1	0.1	0.1	0.1	0.1	0.1	0.1	0	0	0	0	0	0	0	0.000000000
1504606210.709330081	0.0076699	0.777728	-0.814544	0.00920388	0.785398	-1.60761	-0.0107379	0	0	0	0	0	0	0	0	0	0	0	0	0	0	0.000000000	-1.11022e-15	0.788798	-0.788798	2.77556e-17	0.828698	-1.5708	0	0.1	0.1	0.1	0.1	0.1	0.1	0.1	0	0	0	0	0	0	0	0.000000000
1504606210.728955030	0.0076699	0.777728	-0.814544	0.00920388	0.785398	-1.60761	-0.0107379	0	0	0	0	0	0	0	0	0	0	0	0	0	0	0.000000000	-1.11022e-15	0.788798	-0.788798	2.77556e-17	0.828698	-1.5708	0	0.1	0.1	0.1	0.1	0.1	0.1	0.1	0	0	0	0	0	0	0	0.000000000
1504606210.748994112	0.00613592	0.777728	-0.81301	0.00920388	0.786932	-1.60761	-0.0107379	0	0	0	0	0	0	0	0	0	0	0	0	0	0	0.000000000	-1.11022e-15	0.788798	-0.788798	2.77556e-17	0.828698	-1.5708	0	0.1	0.1	0.1	0.1	0.1	0.1	0.1	0	0	0	0	0	0	0	0.000000000
1504606210.769062042	0.00613592	0.777728	-0.814544	0.00920388	0.785398	-1.60761	-0.0107379	0	0	0	0	0	0	0	0	0	0	0	0	0	0	0.000000000	-1.11022e-15	0.788798	-0.788798	2.77556e-17	0.828698	-1.5708	0	0.1	0.1	0.1	0.1	0.1	0.1	0.1	0	0	0	0	0	0	0	0.000000000
1504606210.788988113	0.0076699	0.777728	-0.81301	0.00920388	0.785398	-1.60761	-0.0107379	0	0	0	0	0	0	0	0	0	0	0	0	0	0	0.000000000	-1.11022e-15	0.788798	-0.788798	2.77556e-17	0.828698	-1.5708	0	0.1	0.1	0.1	0.1	0.1	0.1	0.1	0	0	0	0	0	0	0	0.000000000
1504606210.809274911	0.0076699	0.777728	-0.81301	0.00920388	0.785398	-1.60761	-0.0107379	0	0	0	0	0	0	0	0	0	0	0	0	0	0	0.000000000	-1.11022e-15	0.788798	-0.788798	2.77556e-17	0.828698	-1.5708	0	0.1	0.1	0.1	0.1	0.1	0.1	0.1	0	0	0	0	0	0	0	0.000000000
1504606210.831151962	0.00613592	0.777728	-0.814544	0.00920388	0.785398	-1.60761	-0.0107379	0	0	0	0	0	0	0	0	0	0	0	0	0	0	0.000000000	-1.11022e-15	0.788798	-0.788798	2.77556e-17	0.828698	-1.5708	0	0.1	0.1	0.1	0.1	0.1	0.1	0.1	0	0	0	0	0	0	0	0.000000000
1504606210.849272966	0.00613592	0.777728	-0.81301	0.00920388	0.785398	-1.60761	-0.0122718	0	0	0	0	0	0	0	0	0	0	0	0	0	0	0.000000000	-1.11022e-15	0.788798	-0.788798	2.77556e-17	0.828698	-1.5708	0	0.1	0.1	0.1	0.1	0.1	0.1	0.1	0	0	0	0	0	0	0	0.000000000
1504606210.869357109	0.0076699	0.777728	-0.81301	0.00920388	0.785398	-1.60761	-0.0107379	0	0	0	0	0	0	0	0	0	0	0	0	0	0	0.000000000	-1.11022e-15	0.788798	-0.788798	2.77556e-17	0.828698	-1.5708	0	0.1	0.1	0.1	0.1	0.1	0.1	0.1	0	0	0	0	0	0	0	0.000000000
1504606210.889448881	0.0076699	0.777728	-0.81301	0.00920388	0.785398	-1.60761	-0.0107379	0	0	0	0	0	0	0	0	0	0	0	0	0	0	0.000000000	-1.11022e-15	0.788798	-0.788798	2.77556e-17	0.828698	-1.5708	0	0.1	0.1	0.1	0.1	0.1	0.1	0.1	0	0	0	0	0	0	0	0.000000000
1504606210.909228086	0.00613592	0.777728	-0.81301	0.00920388	0.785398	-1.60915	-0.0107379	0	0	0	0	0	0	0	0	0	0	0	0	0	0	0.000000000	-1.11022e-15	0.788798	-0.788798	2.77556e-17	0.828698	-1.5708	0	0.1	0.1	0.1	0.1	0.1	0.1	0.1	0	0	0	0	0	0	0	0.000000000
1504606210.929250955	0.00613592	0.777728	-0.81301	0.00920388	0.785398	-1.60761	-0.0107379	0	0	0	0	0	0	0	0	0	0	0	0	0	0	0.000000000	-1.11022e-15	0.788798	-0.788798	2.77556e-17	0.828698	-1.5708	0	0.1	0.1	0.1	0.1	0.1	0.1	0.1	0	0	0	0	0	0	0	0.000000000
1504606210.949464082	0.00613592	0.777728	-0.81301	0.00920388	0.786932	-1.60761	-0.0122718	0	0	0	0	0	0	0	0	0	0	0	0	0	0	0.000000000	-1.11022e-15	0.788798	-0.788798	2.77556e-17	0.828698	-1.5708	0	0.1	0.1	0.1	0.1	0.1	0.1	0.1	0	0	0	0	0	0	0	0.000000000
1504606210.969352006	0.00613592	0.777728	-0.81301	0.00920388	0.786932	-1.60761	-0.0122718	0	0	0	0	0	0	0	0	0	0	0	0	0	0	0.000000000	-1.11022e-15	0.788798	-0.788798	2.77556e-17	0.828698	-1.5708	0	0.1	0.1	0.1	0.1	0.1	0.1	0.1	0	0	0	0	0	0	0	0.000000000
1504606210.989290952	0.00613592	0.777728	-0.81301	0.00920388	0.785398	-1.60761	-0.0107379	0	0	0	0	0	0	0	0	0	0	0	0	0	0	0.000000000	-1.11022e-15	0.788798	-0.788798	2.77556e-17	0.828698	-1.5708	0	0.1	0.1	0.1	0.1	0.1	0.1	0.1	0	0	0	0	0	0	0	0.000000000
1504606211.009176015	0.00613592	0.777728	-0.81301	0.00920388	0.785398	-1.60761	-0.0122718	0	0	0	0	0	0	0	0	0	0	0	0	0	0	0.000000000	-1.11022e-15	0.788798	-0.788798	2.77556e-17	0.828698	-1.5708	0	0.1	0.1	0.1	0.1	0.1	0.1	0.1	0	0	0	0	0	0	0	0.000000000
1504606211.029778957	0.00613592	0.777728	-0.81301	0.00920388	0.785398	-1.60761	-0.0122718	0	0	0	0	0	0	0	0	0	0	0	0	0	0	0.000000000	-1.11022e-15	0.788798	-0.788798	2.77556e-17	0.828698	-1.5708	0	0.1	0.1	0.1	0.1	0.1	0.1	0.1	0	0	0	0	0	0	0	0.000000000
1504606211.049174070	0.00613592	0.777728	-0.814544	0.00920388	0.785398	-1.60761	-0.0122718	0	0	0	0	0	0	0	0	0	0	0	0	0	0	0.000000000	-1.11022e-15	0.788798	-0.788798	2.77556e-17	0.828698	-1.5708	0	0.1	0.1	0.1	0.1	0.1	0.1	0.1	0	0	0	0	0	0	0	0.000000000
1504606211.069236040	0.00613592	0.777728	-0.814544	0.00920388	0.785398	-1.60761	-0.0122718	0	0	0	0	0	0	0	0	0	0	0	0	0	0	0.000000000	-1.11022e-15	0.788798	-0.788798	2.77556e-17	0.828698	-1.5708	0	0.1	0.1	0.1	0.1	0.1	0.1	0.1	0	0	0	0	0	0	0	0.000000000
1504606211.089183092	0.00613592	0.777728	-0.81301	0.00920388	0.785398	-1.60761	-0.0107379	0	0	0	0	0	0	0	0	0	0	0	0	0	0	0.000000000	-1.11022e-15	0.788798	-0.788798	2.77556e-17	0.828698	-1.5708	0	0.1	0.1	0.1	0.1	0.1	0.1	0.1	0	0	0	0	0	0	0	0.000000000
1504606211.110030889	0.00613592	0.777728	-0.814544	0.00920388	0.785398	-1.60915	-0.0107379	0	0	0	0	0	0	0	0	0	0	0	0	0	0	0.000000000	-1.11022e-15	0.788798	-0.788798	2.77556e-17	0.828698	-1.5708	0	0.1	0.1	0.1	0.1	0.1	0.1	0.1	0	0	0	0	0	0	0	0.000000000
1504606211.129266977	0.00613592	0.777728	-0.81301	0.00920388	0.785398	-1.60761	-0.0107379	0	0	0	0	0	0	0	0	0	0	0	0	0	0	0.000000000	-1.11022e-15	0.788798	-0.788798	2.77556e-17	0.828698	-1.5708	0	0.1	0.1	0.1	0.1	0.1	0.1	0.1	0	0	0	0	0	0	0	0.000000000
1504606211.149086952	0.0076699	0.777728	-0.814544	0.00920388	0.785398	-1.60915	-0.0107379	0	0	0	0	0	0	0	0	0	0	0	0	0	0	0.000000000	-1.11022e-15	0.788798	-0.788798	2.77556e-17	0.828698	-1.5708	0	0.1	0.1	0.1	0.1	0.1	0.1	0.1	0	0	0	0	0	0	0	0.000000000
1504606211.169043064	0.00613592	0.777728	-0.81301	0.00920388	0.785398	-1.60761	-0.0107379	0	0	0	0	0	0	0	0	0	0	0	0	0	0	0.000000000	-1.11022e-15	0.788798	-0.788798	2.77556e-17	0.828698	-1.5708	0	0.1	0.1	0.1	0.1	0.1	0.1	0.1	0	0	0	0	0	0	0	0.000000000
1504606211.189037084	0.00613592	0.777728	-0.814544	0.00920388	0.785398	-1.60761	-0.0107379	0	0	0	0	0	0	0	0	0	0	0	0	0	0	0.000000000	-1.11022e-15	0.788798	-0.788798	2.77556e-17	0.828698	-1.5708	0	0.1	0.1	0.1	0.1	0.1	0.1	0.1	0	0	0	0	0	0	0	0.000000000
1504606211.209017038	0.00613592	0.777728	-0.814544	0.00920388	0.785398	-1.60761	-0.0107379	0	0	0	0	0	0	0	0	0	0	0	0	0	0	0.000000000	-1.11022e-15	0.788798	-0.788798	2.77556e-17	0.828698	-1.5708	0	0.1	0.1	0.1	0.1	0.1	0.1	0.1	0	0	0	0	0	0	0	0.000000000
1504606211.229211091	0.00613592	0.777728	-0.81301	0.00920388	0.785398	-1.60761	-0.0107379	0	0	0	0	0	0	0	0	0	0	0	0	0	0	0.000000000	-1.11022e-15	0.788798	-0.788798	2.77556e-17	0.828698	-1.5708	0	0.1	0.1	0.1	0.1	0.1	0.1	0.1	0	0	0	0	0	0	0	0.000000000
1504606211.249013900	0.00613592	0.777728	-0.814544	0.00920388	0.786932	-1.60915	-0.0107379	0	0	0	0	0	0	0	0	0	0	0	0	0	0	0.000000000	-1.11022e-15	0.788798	-0.788798	2.77556e-17	0.828698	-1.5708	0	0.1	0.1	0.1	0.1	0.1	0.1	0.1	0	0	0	0	0	0	0	0.000000000
1504606211.269109010	0.00613592	0.777728	-0.81301	0.00920388	0.785398	-1.60761	-0.0122718	0	0	0	0	0	0	0	0	0	0	0	0	0	0	0.000000000	-1.11022e-15	0.788798	-0.788798	2.77556e-17	0.828698	-1.5708	0	0.1	0.1	0.1	0.1	0.1	0.1	0.1	0	0	0	0	0	0	0	0.000000000
1504606211.291682958	0.00613592	0.777728	-0.81301	0.00920388	0.785398	-1.60761	-0.0122718	0	0	0	0	0	0	0	0	0	0	0	0	0	0	0.000000000	-1.11022e-15	0.788798	-0.788798	2.77556e-17	0.828698	-1.5708	0	0.1	0.1	0.1	0.1	0.1	0.1	0.1	0	0	0	0	0	0	0	0.000000000
1504606211.309741020	0.00613592	0.777728	-0.81301	0.00920388	0.785398	-1.60761	-0.0107379	0	0	0	0	0	0	0	0	0	0	0	0	0	0	0.000000000	-1.11022e-15	0.788798	-0.788798	2.77556e-17	0.828698	-1.5708	0	0.1	0.1	0.1	0.1	0.1	0.1	0.1	0	0	0	0	0	0	0	0.000000000
1504606211.329371929	0.00613592	0.777728	-0.81301	0.00920388	0.785398	-1.60915	-0.0122718	0	0	0	0	0	0	0	0	0	0	0	0	0	0	0.000000000	-1.11022e-15	0.788798	-0.788798	2.77556e-17	0.828698	-1.5708	0	0.1	0.1	0.1	0.1	0.1	0.1	0.1	0	0	0	0	0	0	0	0.000000000
1504606211.349354028	0.00613592	0.777728	-0.81301	0.00920388	0.785398	-1.60915	-0.0107379	0	0	0	0	0	0	0	0	0	0	0	0	0	0	0.000000000	-1.11022e-15	0.788798	-0.788798	2.77556e-17	0.828698	-1.5708	0	0.1	0.1	0.1	0.1	0.1	0.1	0.1	0	0	0	0	0	0	0	0.000000000
1504606211.369992971	0.00613592	0.777728	-0.814544	0.00920388	0.785398	-1.60761	-0.0107379	0	0	0	0	0	0	0	0	0	0	0	0	0	0	0.000000000	-1.11022e-15	0.788798	-0.788798	2.77556e-17	0.828698	-1.5708	0	0.1	0.1	0.1	0.1	0.1	0.1	0.1	0	0	0	0	0	0	0	0.000000000
1504606211.391985893	0.00613592	0.777728	-0.814544	0.00920388	0.785398	-1.60761	-0.0107379	0	0	0	0	0	0	0	0	0	0	0	0	0	0	0.000000000	-1.11022e-15	0.788798	-0.788798	2.77556e-17	0.828698	-1.5708	0	0.1	0.1	0.1	0.1	0.1	0.1	0.1	0	0	0	0	0	0	0	0.000000000
1504606211.409953117	0.00613592	0.777728	-0.814544	0.00920388	0.785398	-1.60761	-0.0107379	0	0	0	0	0	0	0	0	0	0	0	0	0	0	0.000000000	-1.11022e-15	0.788798	-0.788798	2.77556e-17	0.828698	-1.5708	0	0.1	0.1	0.1	0.1	0.1	0.1	0.1	0	0	0	0	0	0	0	0.000000000
1504606211.429315090	0.00613592	0.777728	-0.81301	0.00920388	0.785398	-1.60915	-0.0122718	0	0	0	0	0	0	0	0	0	0	0	0	0	0	0.000000000	-1.11022e-15	0.788798	-0.788798	2.77556e-17	0.828698	-1.5708	0	0.1	0.1	0.1	0.1	0.1	0.1	0.1	0	0	0	0	0	0	0	0.000000000
1504606211.448983907	0.00613592	0.777728	-0.81301	0.00920388	0.785398	-1.60761	-0.0122718	0	0	0	0	0	0	0	0	0	0	0	0	0	0	0.000000000	-1.11022e-15	0.788798	-0.788798	2.77556e-17	0.828698	-1.5708	0	0.1	0.1	0.1	0.1	0.1	0.1	0.1	0	0	0	0	0	0	0	0.000000000
1504606211.468967914	0.00613592	0.777728	-0.814544	0.00920388	0.785398	-1.60761	-0.0122718	0	0	0	0	0	0	0	0	0	0	0	0	0	0	0.000000000	-1.11022e-15	0.788798	-0.788798	2.77556e-17	0.828698	-1.5708	0	0.1	0.1	0.1	0.1	0.1	0.1	0.1	0	0	0	0	0	0	0	0.000000000
1504606211.488955974	0.00613592	0.777728	-0.814544	0.00920388	0.785398	-1.60761	-0.0107379	0	0	0	0	0	0	0	0	0	0	0	0	0	0	0.000000000	-1.11022e-15	0.788798	-0.788798	2.77556e-17	0.828698	-1.5708	0	0.1	0.1	0.1	0.1	0.1	0.1	0.1	0	0	0	0	0	0	0	0.000000000
1504606211.508945941	0.00613592	0.777728	-0.814544	0.00920388	0.785398	-1.60761	-0.0107379	0	0	0	0	0	0	0	0	0	0	0	0	0	0	0.000000000	-1.11022e-15	0.788798	-0.788798	2.77556e-17	0.828698	-1.5708	0	0.1	0.1	0.1	0.1	0.1	0.1	0.1	0	0	0	0	0	0	0	0.000000000
1504606211.528938055	0.00613592	0.777728	-0.814544	0.00920388	0.785398	-1.60915	-0.0107379	0	0	0	0	0	0	0	0	0	0	0	0	0	0	0.000000000	-1.11022e-15	0.788798	-0.788798	2.77556e-17	0.828698	-1.5708	0	0.1	0.1	0.1	0.1	0.1	0.1	0.1	0	0	0	0	0	0	0	0.000000000
1504606211.548945903	0.00613592	0.777728	-0.81301	0.00920388	0.785398	-1.60761	-0.0107379	0	0	0	0	0	0	0	0	0	0	0	0	0	0	0.000000000	-1.11022e-15	0.788798	-0.788798	2.77556e-17	0.828698	-1.5708	0	0.1	0.1	0.1	0.1	0.1	0.1	0.1	0	0	0	0	0	0	0	0.000000000
1504606211.568949937	0.00613592	0.777728	-0.81301	0.00920388	0.785398	-1.60761	-0.0107379	0	0	0	0	0	0	0	0	0	0	0	0	0	0	0.000000000	-1.11022e-15	0.788798	-0.788798	2.77556e-17	0.828698	-1.5708	0	0.1	0.1	0.1	0.1	0.1	0.1	0.1	0	0	0	0	0	0	0	0.000000000
1504606211.588958024	0.00613592	0.777728	-0.81301	0.00920388	0.785398	-1.60761	-0.0107379	0	0	0	0	0	0	0	0	0	0	0	0	0	0	0.000000000	-1.11022e-15	0.788798	-0.788798	2.77556e-17	0.828698	-1.5708	0	0.1	0.1	0.1	0.1	0.1	0.1	0.1	0	0	0	0	0	0	0	0.000000000
1504606211.608921051	0.00613592	0.777728	-0.81301	0.00920388	0.785398	-1.60761	-0.0107379	0	0	0	0	0	0	0	0	0	0	0	0	0	0	0.000000000	-1.11022e-15	0.788798	-0.788798	2.77556e-17	0.828698	-1.5708	0	0.1	0.1	0.1	0.1	0.1	0.1	0.1	0	0	0	0	0	0	0	0.000000000
1504606211.629004955	0.00613592	0.777728	-0.814544	0.00920388	0.785398	-1.60761	-0.0122718	0	0	0	0	0	0	0	0	0	0	0	0	0	0	0.000000000	-1.11022e-15	0.788798	-0.788798	2.77556e-17	0.828698	-1.5708	0	0.1	0.1	0.1	0.1	0.1	0.1	0.1	0	0	0	0	0	0	0	0.000000000
1504606211.648942947	0.00613592	0.777728	-0.814544	0.00920388	0.785398	-1.60761	-0.0107379	0	0	0	0	0	0	0	0	0	0	0	0	0	0	0.000000000	-1.11022e-15	0.788798	-0.788798	2.77556e-17	0.828698	-1.5708	0	0.1	0.1	0.1	0.1	0.1	0.1	0.1	0	0	0	0	0	0	0	0.000000000
1504606211.668971061	0.00613592	0.777728	-0.814544	0.00920388	0.785398	-1.60761	-0.0107379	0	0	0	0	0	0	0	0	0	0	0	0	0	0	0.000000000	-1.11022e-15	0.788798	-0.788798	2.77556e-17	0.828698	-1.5708	0	0.1	0.1	0.1	0.1	0.1	0.1	0.1	0	0	0	0	0	0	0	0.000000000
1504606211.688901901	0.00613592	0.777728	-0.81301	0.00920388	0.785398	-1.60761	-0.0122718	0	0	0	0	0	0	0	0	0	0	0	0	0	0	0.000000000	-1.11022e-15	0.788798	-0.788798	2.77556e-17	0.828698	-1.5708	0	0.1	0.1	0.1	0.1	0.1	0.1	0.1	0	0	0	0	0	0	0	0.000000000
1504606211.708976030	0.00613592	0.777728	-0.81301	0.00920388	0.785398	-1.60761	-0.0122718	0	0	0	0	0	0	0	0	0	0	0	0	0	0	0.000000000	-1.11022e-15	0.788798	-0.788798	2.77556e-17	0.828698	-1.5708	0	0.1	0.1	0.1	0.1	0.1	0.1	0.1	0	0	0	0	0	0	0	0.000000000
1504606211.728935003	0.00613592	0.777728	-0.81301	0.00920388	0.785398	-1.60761	-0.0107379	0	0	0	0	0	0	0	0	0	0	0	0	0	0	0.000000000	-1.11022e-15	0.788798	-0.788798	2.77556e-17	0.828698	-1.5708	0	0.1	0.1	0.1	0.1	0.1	0.1	0.1	0	0	0	0	0	0	0	0.000000000
1504606211.748930931	0.00613592	0.777728	-0.81301	0.00920388	0.785398	-1.60761	-0.0107379	0	0	0	0	0	0	0	0	0	0	0	0	0	0	0.000000000	-1.11022e-15	0.788798	-0.788798	2.77556e-17	0.828698	-1.5708	0	0.1	0.1	0.1	0.1	0.1	0.1	0.1	0	0	0	0	0	0	0	0.000000000
1504606211.769033908	0.00613592	0.777728	-0.81301	0.00920388	0.785398	-1.60761	-0.0107379	0	0	0	0	0	0	0	0	0	0	0	0	0	0	0.000000000	-1.11022e-15	0.788798	-0.788798	2.77556e-17	0.828698	-1.5708	0	0.1	0.1	0.1	0.1	0.1	0.1	0.1	0	0	0	0	0	0	0	0.000000000
1504606211.788932085	0.00613592	0.777728	-0.81301	0.00920388	0.785398	-1.60915	-0.0107379	0	0	0	0	0	0	0	0	0	0	0	0	0	0	0.000000000	-1.11022e-15	0.788798	-0.788798	2.77556e-17	0.828698	-1.5708	0	0.1	0.1	0.1	0.1	0.1	0.1	0.1	0	0	0	0	0	0	0	0.000000000
1504606211.809176921	0.00613592	0.777728	-0.81301	0.00920388	0.785398	-1.60761	-0.0107379	0	0	0	0	0	0	0	0	0	0	0	0	0	0	0.000000000	-1.11022e-15	0.788798	-0.788798	2.77556e-17	0.828698	-1.5708	0	0.1	0.1	0.1	0.1	0.1	0.1	0.1	0	0	0	0	0	0	0	0.000000000
1504606211.829230070	0.00613592	0.777728	-0.81301	0.00920388	0.785398	-1.60761	-0.0107379	0	0	0	0	0	0	0	0	0	0	0	0	0	0	0.000000000	-1.11022e-15	0.788798	-0.788798	2.77556e-17	0.828698	-1.5708	0	0.1	0.1	0.1	0.1	0.1	0.1	0.1	0	0	0	0	0	0	0	0.000000000
1504606211.849034070	0.00613592	0.777728	-0.81301	0.00920388	0.785398	-1.60761	-0.0122718	0	0	0	0	0	0	0	0	0	0	0	0	0	0	0.000000000	-1.11022e-15	0.788798	-0.788798	2.77556e-17	0.828698	-1.5708	0	0.1	0.1	0.1	0.1	0.1	0.1	0.1	0	0	0	0	0	0	0	0.000000000
1504606211.869117975	0.00613592	0.777728	-0.81301	0.00920388	0.785398	-1.60761	-0.0107379	0	0	0	0	0	0	0	0	0	0	0	0	0	0	0.000000000	-1.11022e-15	0.788798	-0.788798	2.77556e-17	0.828698	-1.5708	0	0.1	0.1	0.1	0.1	0.1	0.1	0.1	0	0	0	0	0	0	0	0.000000000
1504606211.889823913	0.00613592	0.777728	-0.81301	0.00920388	0.785398	-1.60761	-0.0107379	0	0	0	0	0	0	0	0	0	0	0	0	0	0	0.000000000	-1.11022e-15	0.788798	-0.788798	2.77556e-17	0.828698	-1.5708	0	0.1	0.1	0.1	0.1	0.1	0.1	0.1	0	0	0	0	0	0	0	0.000000000
1504606211.909328937	0.00613592	0.777728	-0.81301	0.00920388	0.785398	-1.60761	-0.0107379	0	0	0	0	0	0	0	0	0	0	0	0	0	0	0.000000000	-1.11022e-15	0.788798	-0.788798	2.77556e-17	0.828698	-1.5708	0	0.1	0.1	0.1	0.1	0.1	0.1	0.1	0	0	0	0	0	0	0	0.000000000
1504606211.929558992	0.0076699	0.777728	-0.814544	0.00920388	0.785398	-1.60761	-0.0107379	0	0	0	0	0	0	0	0	0	0	0	0	0	0	0.000000000	-1.11022e-15	0.788798	-0.788798	2.77556e-17	0.828698	-1.5708	0	0.1	0.1	0.1	0.1	0.1	0.1	0.1	0	0	0	0	0	0	0	0.000000000
1504606211.949254989	0.00613592	0.777728	-0.81301	0.00920388	0.785398	-1.60761	-0.0107379	0	0	0	0	0	0	0	0	0	0	0	0	0	0	0.000000000	-1.11022e-15	0.788798	-0.788798	2.77556e-17	0.828698	-1.5708	0	0.1	0.1	0.1	0.1	0.1	0.1	0.1	0	0	0	0	0	0	0	0.000000000
1504606211.969186067	0.00613592	0.777728	-0.81301	0.00920388	0.785398	-1.60761	-0.0107379	0	0	0	0	0	0	0	0	0	0	0	0	0	0	0.000000000	-1.11022e-15	0.788798	-0.788798	2.77556e-17	0.828698	-1.5708	0	0.1	0.1	0.1	0.1	0.1	0.1	0.1	0	0	0	0	0	0	0	0.000000000
1504606211.989264965	0.00613592	0.777728	-0.81301	0.00920388	0.785398	-1.60761	-0.0107379	0	0	0	0	0	0	0	0	0	0	0	0	0	0	0.000000000	-1.11022e-15	0.788798	-0.788798	2.77556e-17	0.828698	-1.5708	0	0.1	0.1	0.1	0.1	0.1	0.1	0.1	0	0	0	0	0	0	0	0.000000000
1504606212.009186983	0.00613592	0.777728	-0.814544	0.00920388	0.785398	-1.60761	-0.0107379	0	0	0	0	0	0	0	0	0	0	0	0	0	0	0.000000000	-1.11022e-15	0.788798	-0.788798	2.77556e-17	0.828698	-1.5708	0	0.1	0.1	0.1	0.1	0.1	0.1	0.1	0	0	0	0	0	0	0	0.000000000
1504606212.030697107	0.00613592	0.777728	-0.81301	0.00920388	0.785398	-1.60761	-0.0107379	0	0	0	0	0	0	0	0	0	0	0	0	0	0	0.000000000	-1.11022e-15	0.788798	-0.788798	2.77556e-17	0.828698	-1.5708	0	0.1	0.1	0.1	0.1	0.1	0.1	0.1	0	0	0	0	0	0	0	0.000000000
1504606212.049947023	0.00613592	0.777728	-0.81301	0.00920388	0.785398	-1.60761	-0.0107379	0	0	0	0	0	0	0	0	0	0	0	0	0	0	0.000000000	-1.11022e-15	0.788798	-0.788798	2.77556e-17	0.828698	-1.5708	0	0.1	0.1	0.1	0.1	0.1	0.1	0.1	0	0	0	0	0	0	0	0.000000000
1504606212.069390058	0.00613592	0.777728	-0.81301	0.00920388	0.785398	-1.60915	-0.0107379	0	0	0	0	0	0	0	0	0	0	0	0	0	0	0.000000000	-1.11022e-15	0.788798	-0.788798	2.77556e-17	0.828698	-1.5708	0	0.1	0.1	0.1	0.1	0.1	0.1	0.1	0	0	0	0	0	0	0	0.000000000
1504606212.089068889	0.00613592	0.777728	-0.81301	0.00920388	0.785398	-1.60761	-0.0122718	0	0	0	0	0	0	0	0	0	0	0	0	0	0	0.000000000	-1.11022e-15	0.788798	-0.788798	2.77556e-17	0.828698	-1.5708	0	0.1	0.1	0.1	0.1	0.1	0.1	0.1	0	0	0	0	0	0	0	0.000000000
1504606212.109019041	0.00613592	0.777728	-0.81301	0.00920388	0.785398	-1.60761	-0.0122718	0	0	0	0	0	0	0	0	0	0	0	0	0	0	0.000000000	-1.11022e-15	0.788798	-0.788798	2.77556e-17	0.828698	-1.5708	0	0.1	0.1	0.1	0.1	0.1	0.1	0.1	0	0	0	0	0	0	0	0.000000000
1504606212.129029989	0.00613592	0.777728	-0.81301	0.00920388	0.785398	-1.60761	-0.0107379	0	0	0	0	0	0	0	0	0	0	0	0	0	0	0.000000000	-1.11022e-15	0.788798	-0.788798	2.77556e-17	0.828698	-1.5708	0	0.1	0.1	0.1	0.1	0.1	0.1	0.1	0	0	0	0	0	0	0	0.000000000
1504606212.149015903	0.00613592	0.777728	-0.814544	0.00920388	0.785398	-1.60915	-0.0107379	0	0	0	0	0	0	0	0	0	0	0	0	0	0	0.000000000	-1.11022e-15	0.788798	-0.788798	2.77556e-17	0.828698	-1.5708	0	0.1	0.1	0.1	0.1	0.1	0.1	0.1	0	0	0	0	0	0	0	0.000000000
1504606212.169080018	0.00613592	0.777728	-0.81301	0.00920388	0.786932	-1.60761	-0.0122718	0	0	0	0	0	0	0	0	0	0	0	0	0	0	0.000000000	-1.11022e-15	0.788798	-0.788798	2.77556e-17	0.828698	-1.5708	0	0.1	0.1	0.1	0.1	0.1	0.1	0.1	0	0	0	0	0	0	0	0.000000000
1504606212.189030885	0.00613592	0.777728	-0.814544	0.00920388	0.785398	-1.60761	-0.0107379	0	0	0	0	0	0	0	0	0	0	0	0	0	0	0.000000000	-1.11022e-15	0.788798	-0.788798	2.77556e-17	0.828698	-1.5708	0	0.1	0.1	0.1	0.1	0.1	0.1	0.1	0	0	0	0	0	0	0	0.000000000
1504606212.209037065	0.00613592	0.777728	-0.814544	0.00920388	0.785398	-1.60761	-0.0107379	0	0	0	0	0	0	0	0	0	0	0	0	0	0	0.000000000	-1.11022e-15	0.788798	-0.788798	2.77556e-17	0.828698	-1.5708	0	0.1	0.1	0.1	0.1	0.1	0.1	0.1	0	0	0	0	0	0	0	0.000000000
1504606212.229403018	0.00613592	0.777728	-0.814544	0.00920388	0.785398	-1.60761	-0.0107379	0	0	0	0	0	0	0	0	0	0	0	0	0	0	0.000000000	-1.11022e-15	0.788798	-0.788798	2.77556e-17	0.828698	-1.5708	0	0.1	0.1	0.1	0.1	0.1	0.1	0.1	0	0	0	0	0	0	0	0.000000000
1504606212.249651908	0.00613592	0.777728	-0.81301	0.00920388	0.785398	-1.60761	-0.0107379	0	0	0	0	0	0	0	0	0	0	0	0	0	0	0.000000000	-1.11022e-15	0.788798	-0.788798	2.77556e-17	0.828698	-1.5708	0	0.1	0.1	0.1	0.1	0.1	0.1	0.1	0	0	0	0	0	0	0	0.000000000
1504606212.269128084	0.00613592	0.777728	-0.81301	0.00920388	0.785398	-1.60915	-0.0107379	0	0	0	0	0	0	0	0	0	0	0	0	0	0	0.000000000	-1.11022e-15	0.788798	-0.788798	2.77556e-17	0.828698	-1.5708	0	0.1	0.1	0.1	0.1	0.1	0.1	0.1	0	0	0	0	0	0	0	0.000000000
1504606212.289103984	0.00613592	0.777728	-0.814544	0.00920388	0.785398	-1.60915	-0.0107379	0	0	0	0	0	0	0	0	0	0	0	0	0	0	0.000000000	-1.11022e-15	0.788798	-0.788798	2.77556e-17	0.828698	-1.5708	0	0.1	0.1	0.1	0.1	0.1	0.1	0.1	0	0	0	0	0	0	0	0.000000000
1504606212.309168100	0.00613592	0.777728	-0.814544	0.00920388	0.785398	-1.60915	-0.0107379	0	0	0	0	0	0	0	0	0	0	0	0	0	0	0.000000000	-1.11022e-15	0.788798	-0.788798	2.77556e-17	0.828698	-1.5708	0	0.1	0.1	0.1	0.1	0.1	0.1	0.1	0	0	0	0	0	0	0	0.000000000
1504606212.329299926	0.00613592	0.777728	-0.81301	0.00920388	0.785398	-1.60761	-0.0107379	0	0	0	0	0	0	0	0	0	0	0	0	0	0	0.000000000	-1.11022e-15	0.788798	-0.788798	2.77556e-17	0.828698	-1.5708	0	0.1	0.1	0.1	0.1	0.1	0.1	0.1	0	0	0	0	0	0	0	0.000000000
1504606212.349107980	0.00613592	0.777728	-0.81301	0.00920388	0.785398	-1.60761	-0.0107379	0	0	0	0	0	0	0	0	0	0	0	0	0	0	0.000000000	-1.11022e-15	0.788798	-0.788798	2.77556e-17	0.828698	-1.5708	0	0.1	0.1	0.1	0.1	0.1	0.1	0.1	0	0	0	0	0	0	0	0.000000000
1504606212.369462966	0.00613592	0.777728	-0.81301	0.00920388	0.785398	-1.60761	-0.0107379	0	0	0	0	0	0	0	0	0	0	0	0	0	0	0.000000000	-1.11022e-15	0.788798	-0.788798	2.77556e-17	0.828698	-1.5708	0	0.1	0.1	0.1	0.1	0.1	0.1	0.1	0	0	0	0	0	0	0	0.000000000
1504606212.389372110	0.00613592	0.777728	-0.81301	0.00920388	0.785398	-1.60761	-0.0107379	0	0	0	0	0	0	0	0	0	0	0	0	0	0	0.000000000	-1.11022e-15	0.788798	-0.788798	2.77556e-17	0.828698	-1.5708	0	0.1	0.1	0.1	0.1	0.1	0.1	0.1	0	0	0	0	0	0	0	0.000000000
1504606212.409336090	0.00613592	0.777728	-0.81301	0.00920388	0.785398	-1.60761	-0.0107379	0	0	0	0	0	0	0	0	0	0	0	0	0	0	0.000000000	-1.11022e-15	0.788798	-0.788798	2.77556e-17	0.828698	-1.5708	0	0.1	0.1	0.1	0.1	0.1	0.1	0.1	0	0	0	0	0	0	0	0.000000000
1504606212.431713104	0.00613592	0.777728	-0.81301	0.00920388	0.785398	-1.60761	-0.0107379	0	0	0	0	0	0	0	0	0	0	0	0	0	0	0.000000000	-1.11022e-15	0.788798	-0.788798	2.77556e-17	0.828698	-1.5708	0	0.1	0.1	0.1	0.1	0.1	0.1	0.1	0	0	0	0	0	0	0	0.000000000
1504606212.449507951	0.00613592	0.777728	-0.81301	0.00920388	0.785398	-1.60915	-0.0107379	0	0	0	0	0	0	0	0	0	0	0	0	0	0	0.000000000	-1.11022e-15	0.788798	-0.788798	2.77556e-17	0.828698	-1.5708	0	0.1	0.1	0.1	0.1	0.1	0.1	0.1	0	0	0	0	0	0	0	0.000000000
1504606212.469801902	0.00613592	0.777728	-0.81301	0.00920388	0.786932	-1.60761	-0.0107379	0	0	0	0	0	0	0	0	0	0	0	0	0	0	0.000000000	-1.11022e-15	0.788798	-0.788798	2.77556e-17	0.828698	-1.5708	0	0.1	0.1	0.1	0.1	0.1	0.1	0.1	0	0	0	0	0	0	0	0.000000000
1504606212.489022016	0.00613592	0.777728	-0.81301	0.00920388	0.785398	-1.60761	-0.0122718	0	0	0	0	0	0	0	0	0	0	0	0	0	0	0.000000000	-1.11022e-15	0.788798	-0.788798	2.77556e-17	0.828698	-1.5708	0	0.1	0.1	0.1	0.1	0.1	0.1	0.1	0	0	0	0	0	0	0	0.000000000
1504606212.509001016	0.00613592	0.777728	-0.81301	0.00920388	0.785398	-1.60761	-0.0122718	0	0	0	0	0	0	0	0	0	0	0	0	0	0	0.000000000	-1.11022e-15	0.788798	-0.788798	2.77556e-17	0.828698	-1.5708	0	0.1	0.1	0.1	0.1	0.1	0.1	0.1	0	0	0	0	0	0	0	0.000000000
1504606212.528981924	0.00613592	0.777728	-0.814544	0.00920388	0.785398	-1.60915	-0.0107379	0	0	0	0	0	0	0	0	0	0	0	0	0	0	0.000000000	-1.11022e-15	0.788798	-0.788798	2.77556e-17	0.828698	-1.5708	0	0.1	0.1	0.1	0.1	0.1	0.1	0.1	0	0	0	0	0	0	0	0.000000000
1504606212.549019098	0.00613592	0.777728	-0.814544	0.00920388	0.785398	-1.60761	-0.0107379	0	0	0	0	0	0	0	0	0	0	0	0	0	0	0.000000000	-1.11022e-15	0.788798	-0.788798	2.77556e-17	0.828698	-1.5708	0	0.1	0.1	0.1	0.1	0.1	0.1	0.1	0	0	0	0	0	0	0	0.000000000
1504606212.569056987	0.0076699	0.777728	-0.814544	0.00920388	0.785398	-1.60761	-0.0107379	0	0	0	0	0	0	0	0	0	0	0	0	0	0	0.000000000	-1.11022e-15	0.788798	-0.788798	2.77556e-17	0.828698	-1.5708	0	0.1	0.1	0.1	0.1	0.1	0.1	0.1	0	0	0	0	0	0	0	0.000000000
1504606212.589010000	0.00613592	0.777728	-0.814544	0.00920388	0.785398	-1.60761	-0.0122718	0	0	0	0	0	0	0	0	0	0	0	0	0	0	0.000000000	-1.11022e-15	0.788798	-0.788798	2.77556e-17	0.828698	-1.5708	0	0.1	0.1	0.1	0.1	0.1	0.1	0.1	0	0	0	0	0	0	0	0.000000000
1504606212.609090089	0.00613592	0.777728	-0.814544	0.00920388	0.785398	-1.60761	-0.0122718	0	0	0	0	0	0	0	0	0	0	0	0	0	0	0.000000000	-1.11022e-15	0.788798	-0.788798	2.77556e-17	0.828698	-1.5708	0	0.1	0.1	0.1	0.1	0.1	0.1	0.1	0	0	0	0	0	0	0	0.000000000
1504606212.629287958	0.00613592	0.777728	-0.81301	0.00920388	0.785398	-1.60761	-0.0107379	0	0	0	0	0	0	0	0	0	0	0	0	0	0	0.000000000	-1.11022e-15	0.788798	-0.788798	2.77556e-17	0.828698	-1.5708	0	0.1	0.1	0.1	0.1	0.1	0.1	0.1	0	0	0	0	0	0	0	0.000000000
1504606212.649059057	0.00613592	0.777728	-0.81301	0.00920388	0.785398	-1.60761	-0.0107379	0	0	0	0	0	0	0	0	0	0	0	0	0	0	0.000000000	-1.11022e-15	0.788798	-0.788798	2.77556e-17	0.828698	-1.5708	0	0.1	0.1	0.1	0.1	0.1	0.1	0.1	0	0	0	0	0	0	0	0.000000000
1504606212.669051885	0.00613592	0.777728	-0.814544	0.00920388	0.785398	-1.60761	-0.0107379	0	0	0	0	0	0	0	0	0	0	0	0	0	0	0.000000000	-1.11022e-15	0.788798	-0.788798	2.77556e-17	0.828698	-1.5708	0	0.1	0.1	0.1	0.1	0.1	0.1	0.1	0	0	0	0	0	0	0	0.000000000
1504606212.689129114	0.00613592	0.777728	-0.814544	0.00920388	0.785398	-1.60761	-0.0107379	0	0	0	0	0	0	0	0	0	0	0	0	0	0	0.000000000	-1.11022e-15	0.788798	-0.788798	2.77556e-17	0.828698	-1.5708	0	0.1	0.1	0.1	0.1	0.1	0.1	0.1	0	0	0	0	0	0	0	0.000000000
1504606212.713165998	0.00613592	0.777728	-0.814544	0.00920388	0.785398	-1.60761	-0.0107379	0	0	0	0	0	0	0	0	0	0	0	0	0	0	0.000000000	-1.11022e-15	0.788798	-0.788798	2.77556e-17	0.828698	-1.5708	0	0.1	0.1	0.1	0.1	0.1	0.1	0.1	0	0	0	0	0	0	0	0.000000000
1504606212.729490995	0.00613592	0.777728	-0.814544	0.00920388	0.785398	-1.60761	-0.0107379	0	0	0	0	0	0	0	0	0	0	0	0	0	0	0.000000000	-1.11022e-15	0.788798	-0.788798	2.77556e-17	0.828698	-1.5708	0	0.1	0.1	0.1	0.1	0.1	0.1	0.1	0	0	0	0	0	0	0	0.000000000
1504606212.756455898	0.00613592	0.777728	-0.814544	0.00920388	0.785398	-1.60761	-0.0107379	0	0	0	0	0	0	0	0	0	0	0	0	0	0	0.000000000	-1.11022e-15	0.788798	-0.788798	2.77556e-17	0.828698	-1.5708	0	0.1	0.1	0.1	0.1	0.1	0.1	0.1	0	0	0	0	0	0	0	0.000000000
1504606212.770412921	0.00613592	0.777728	-0.814544	0.00920388	0.785398	-1.60761	-0.0107379	0	0	0	0	0	0	0	0	0	0	0	0	0	0	0.000000000	-1.11022e-15	0.788798	-0.788798	2.77556e-17	0.828698	-1.5708	0	0.1	0.1	0.1	0.1	0.1	0.1	0.1	0	0	0	0	0	0	0	0.000000000
1504606212.789361000	0.00613592	0.777728	-0.81301	0.00920388	0.785398	-1.60761	-0.0107379	0	0	0	0	0	0	0	0	0	0	0	0	0	0	0.000000000	-0.000836246	0.788798	-0.788798	-7.38085e-05	0.828698	-1.5708	0	0.1	0.1	0.1	0.1	0.1	0.1	0.1	0	0	0	0	0	0	0	0.000000000
1504606212.809947967	0.00613592	0.777728	-0.814544	0.00920388	0.785398	-1.60761	-0.0107379	0	0	0	0	0	0	0	0	0	0	0	0	0	0	0.000000000	-0.00193804	0.788798	-0.788798	-0.000171055	0.828698	-1.5708	0	0.1	0.1	0.1	0.1	0.1	0.1	0.1	0	0	0	0	0	0	0	0.000000000
1504606212.829216957	0.00613592	0.777728	-0.814544	0.00920388	0.785398	-1.60761	-0.0107379	0	0	0	0	0	0	0	0	0	0	0	0	0	0	0.000000000	-0.00193804	0.788798	-0.788798	-0.000171055	0.828698	-1.5708	0	0.1	0.1	0.1	0.1	0.1	0.1	0.1	0	0	0	0	0	0	0	0.000000000
1504606212.849468946	0.00613592	0.777728	-0.81301	0.00920388	0.786932	-1.60915	-0.0107379	0	0	0	0	0	0	0	0	0	0	0	0	0	0	0.000000000	-0.00193804	0.788798	-0.788798	-0.000171055	0.828698	-1.5708	0	0.1	0.1	0.1	0.1	0.1	0.1	0.1	0	0	0	0	0	0	0	0.000000000
1504606212.869060993	0.00613592	0.777728	-0.814544	0.00920388	0.785398	-1.60915	-0.0107379	0	0	0	0	0	0	0	0	0	0	0	0	0	0	0.000000000	-0.0037	0.788798	-0.788798	-0.000326568	0.828698	-1.5708	0	0.1	0.1	0.1	0.1	0.1	0.1	0.1	0	0	0	0	0	0	0	0.000000000
1504606212.889338016	0.00613592	0.777728	-0.814544	0.00920388	0.785398	-1.60761	-0.0107379	0	0	0	0	0	0	0	0	0	0	0	0	0	0	0.000000000	-0.0037	0.788798	-0.788798	-0.000326568	0.828698	-1.5708	0	0.1	0.1	0.1	0.1	0.1	0.1	0.1	0	0	0	0	0	0	0	0.000000000
1504606212.909111022	0.00613592	0.777728	-0.81301	0.00920388	0.786932	-1.60761	-0.0122718	0	0	0	0	0	0	0	0	0	0	0	0	0	0	0.000000000	-0.00624811	0.788798	-0.788798	-0.000551469	0.828698	-1.5708	0	0.1	0.1	0.1	0.1	0.1	0.1	0.1	0	0	0	0	0	0	0	0.000000000
1504606212.929289102	0.00613592	0.777728	-0.81301	0.00920388	0.786932	-1.60761	-0.0122718	0	0	0	0	0	0	0	0	0	0	0	0	0	0	0.000000000	-0.00624811	0.788798	-0.788798	-0.000551469	0.828698	-1.5708	0	0.1	0.1	0.1	0.1	0.1	0.1	0.1	0	0	0	0	0	0	0	0.000000000
1504606212.949357986	0.00460194	0.777728	-0.814544	0.00920388	0.785398	-1.60761	-0.0107379	0	0	0	0	0	0	0	0	0	0	0	0	0	0	0.000000000	-0.00969361	0.788798	-0.788798	-0.000855575	0.828698	-1.5708	0	0.1	0.1	0.1	0.1	0.1	0.1	0.1	0	0	0	0	0	0	0	0.000000000
1504606212.969096899	0.00153398	0.777728	-0.814544	0.00920388	0.786932	-1.60915	-0.0107379	0.107442	0	0	0	0	0	0	0	0	0	0	0	0	0	0.000000000	-0.00969361	0.788798	-0.788798	-0.000855575	0.828698	-1.5708	0	0.1	0.1	0.1	0.1	0.1	0.1	0.1	0	0	0	0	0	0	0	0.000000000
1504606212.989130973	-0.00306796	0.777728	-0.81301	0.00920388	0.785398	-1.60761	-0.0122718	0.155195	0	0	0	0	0	0	0	0	0	0	0	0	0	0.000000000	-0.0141335	0.788798	-0.788798	-0.00124744	0.828698	-1.5708	0	0.102116	0.1	0.1	0.1	0.1	0.1	0.1	0	0	0	0	0	0	0	0.000000000
1504606213.009067058	-0.00613592	0.777728	-0.814544	0.00920388	0.785398	-1.60761	-0.0107379	0.107442	0	0	0	0	0	0	0	0	0	0	0	0	0	0.000000000	-0.0141335	0.788798	-0.788798	-0.00124744	0.828698	-1.5708	0	0.102116	0.1	0.1	0.1	0.1	0.1	0.1	0	0	0	0	0	0	0	0.000000000
1504606213.029917001	-0.0076699	0.777728	-0.814544	0.00920388	0.786932	-1.60761	-0.0107379	0.107442	0	0	0	0	0	0	0	0	0	0	0	0	0	0.000000000	-0.0196509	0.788798	-0.788798	-0.00173442	0.828698	-1.5708	0	0.1269	0.1	0.1	0.1	0.1	0.1	0.1	0	0	0	0	0	0	0	0.000000000
1504606213.049160957	-0.0076699	0.777728	-0.814544	0.00920388	0.786932	-1.60761	-0.0107379	0.107442	0	0	0	0	0	0	0	0	0	0	0	0	0	0.000000000	-0.0196509	0.788798	-0.788798	-0.00173442	0.828698	-1.5708	0	0.1269	0.1	0.1	0.1	0.1	0.1	0.1	0	0	0	0	0	0	0	0.000000000
1504606213.069104909	-0.00920388	0.777728	-0.81301	0.00920388	0.785398	-1.60761	-0.0107379	0	0	0	0	0	0	0	0	0	0	0	0	0	0	0.000000000	-0.0196509	0.788798	-0.788798	-0.00173442	0.828698	-1.5708	0	0.1269	0.1	0.1	0.1	0.1	0.1	0.1	0	0	0	0	0	0	0	0.000000000
1504606213.089148044	-0.0107379	0.777728	-0.81301	0.00920388	0.786932	-1.60761	-0.0107379	0	0	0	0	0	0	0	0	0	0	0	0	0	0	0.000000000	-0.0263157	0.788798	-0.788798	-0.00232267	0.828698	-1.5708	0	0.153292	0.1	0.1	0.1	0.1	0.1	0.1	0	0	0	0	0	0	0	0.000000000
1504606213.109556913	-0.0138058	0.777728	-0.81301	0.00920388	0.786932	-1.60761	-0.0107379	0.107442	0	0	0	0	0	0	0	0	0	0	0	0	0	0.000000000	-0.0263157	0.788798	-0.788798	-0.00232267	0.828698	-1.5708	0	0.153292	0.1	0.1	0.1	0.1	0.1	0.1	0	0	0	0	0	0	0	0.000000000
1504606213.130312919	-0.0184078	0.777728	-0.81301	0.00920388	0.785398	-1.60761	-0.0107379	0.155195	0	0	0	0	0	0	0	0	0	0	0	0	0	0.000000000	-0.0341853	0.788798	-0.788798	-0.00301725	0.828698	-1.5708	0	0.180999	0.1	0.1	0.1	0.1	0.1	0.1	0	0	0	0	0	0	0	0.000000000
1504606213.149008989	-0.0184078	0.777728	-0.81301	0.00920388	0.785398	-1.60761	-0.0107379	0.155195	0	0	0	0	0	0	0	0	0	0	0	0	0	0.000000000	-0.0341853	0.788798	-0.788798	-0.00301725	0.828698	-1.5708	0	0.180999	0.1	0.1	0.1	0.1	0.1	0.1	0	0	0	0	0	0	0	0.000000000
1504606213.169066905	-0.0230097	0.777728	-0.81301	0.0076699	0.785398	-1.60915	-0.0107379	0.202947	0	0	0	0	0	0	0	0	0	0	0	0	0	0.000000000	-0.0433044	0.788798	-0.788798	-0.00382212	0.828698	-1.5708	0	0.20974	0.1	0.1	0.1	0.1	0.1	0.1	0	0	0	0	0	0	0	0.000000000
1504606213.189184904	-0.0260777	0.777728	-0.814544	0.0076699	0.785398	-1.60761	-0.0122718	0.155195	0	0	0	0	0	0	0	0	0	0	0	0	0	0.000000000	-0.0433044	0.788798	-0.788798	-0.00382212	0.828698	-1.5708	0	0.20974	0.1	0.1	0.1	0.1	0.1	0.1	0	0	0	0	0	0	0	0.000000000
1504606213.209075927	-0.0322136	0.777728	-0.814544	0.00613592	0.785398	-1.60761	-0.0107379	0.250699	0	0	0	0	0	0	0	0	0	0	0	0	0	0.000000000	-0.0537063	0.788798	-0.788798	-0.00474021	0.828698	-1.5708	0	0.239243	0.1	0.1	0.1	0.1	0.1	0.1	0	0	0	0	0	0	0	0.000000000
1504606213.229022979	-0.0322136	0.777728	-0.814544	0.00613592	0.785398	-1.60761	-0.0107379	0.250699	0	0	0	0	0	0	0	0	0	0	0	0	0	0.000000000	-0.0537063	0.788798	-0.788798	-0.00474021	0.828698	-1.5708	0	0.239243	0.1	0.1	0.1	0.1	0.1	0.1	0	0	0	0	0	0	0	0.000000000
1504606213.249067068	-0.0383495	0.777728	-0.81301	0.00613592	0.786932	-1.60761	-0.0122718	0.250699	0	0	0	0	0	0	0	0	0	0	0	0	0	0.000000000	-0.0654128	0.788798	-0.788798	-0.00577344	0.828698	-1.5708	0	0.269249	0.1	0.1	0.1	0.1	0.1	0.1	0	0	0	0	0	0	0	0.000000000
1504606213.269257068	-0.0444854	0.777728	-0.814544	0.00613592	0.785398	-1.60915	-0.0107379	0.250699	0	0	0	0	0	0	0	0	0	0	0	0	0	0.000000000	-0.0654128	0.788798	-0.788798	-0.00577344	0.828698	-1.5708	0	0.269249	0.1	0.1	0.1	0.1	0.1	0.1	0	0	0	0	0	0	0	0.000000000
1504606213.289134025	-0.0506214	0.777728	-0.81301	0.00460194	0.786932	-1.60761	-0.0122718	0.250699	0	0	0	0	0	0	0	0	0	0	0	0	0	0.000000000	-0.078435	0.788798	-0.788798	-0.00692281	0.828698	-1.5708	0	0.299512	0.1	0.1	0.1	0.1	0.1	0.1	0	0	0	0	0	0	0	0.000000000
1504606213.309675931	-0.0552233	0.777728	-0.81301	0.00306796	0.785398	-1.60915	-0.0107379	0.202947	0	0	0	0	0	0	0	0	0	0	0	0	0	0.000000000	-0.078435	0.788798	-0.788798	-0.00692281	0.828698	-1.5708	0	0.299512	0.1	0.1	0.1	0.1	0.1	0.1	0	0	0	0	0	0	0	0.000000000
1504606213.329648971	-0.0628932	0.777728	-0.81301	0.00306796	0.785398	-1.60915	-0.0107379	0.250699	0	0	0	0	0	0	0	0	0	0	0	0	0	0.000000000	-0.078435	0.788798	-0.788798	-0.00692281	0.828698	-1.5708	0	0.299512	0.1	0.1	0.1	0.1	0.1	0.1	0	0	0	0	0	0	0	0.000000000
1504606213.349154949	-0.0628932	0.777728	-0.81301	0.00153398	0.785398	-1.60915	-0.0107379	0.250699	0	0	0	0	0	0	0	0	0	0	0	0	0	0.000000000	-0.0927739	0.788798	-0.788798	-0.00818839	0.828698	-1.5708	0	0.329795	0.1	0.1	0.1	0.1	0.1	0.1	0	0	0	0	0	0	0	0.000000000
1504606213.369087934	-0.0705631	0.777728	-0.81301	0	0.785398	-1.60761	-0.0107379	0.298451	0	0	0	0	0	0	0	0	0	0	0	0	0	0.000000000	-0.0927739	0.788798	-0.788798	-0.00818839	0.828698	-1.5708	0	0.329795	0.1	0.1	0.1	0.1	0.1	0.1	0	0	0	0	0	0	0	0.000000000
1504606213.389199972	-0.078233	0.777728	-0.814544	0	0.786932	-1.60915	-0.0107379	0.298451	0	0	0	0	0	0	0	0	0	0	0	0	0	0.000000000	-0.108421	0.788798	-0.788798	-0.00956939	0.828698	-1.5708	0	0.359873	0.1	0.1	0.1	0.1	0.1	0.1	0	0	0	0	0	0	0	0.000000000
1504606213.410464048	-0.0874369	0.777728	-0.814544	0	0.786932	-1.60915	-0.0107379	0.298451	0	0	0	0	0	0	0	0	0	0	0	0	0	0.000000000	-0.108421	0.788798	-0.788798	-0.00956939	0.828698	-1.5708	0	0.359873	0.1	0.1	0.1	0.1	0.1	0.1	0	0	0	0	0	0	0	0.000000000
1504606213.429605960	-0.0935728	0.777728	-0.814544	0	0.786932	-1.60761	-0.0107379	0.250699	0	0	0	0	0	0	0	0	0	0	0	0	0	0.000000000	-0.125357	0.788798	-0.788798	-0.0110642	0.828698	-1.5708	0	0.389534	0.1	0.1	0.1	0.1	0.1	0.1	0	0	0	0	0	0	0	0.000000000
1504606213.449016094	-0.0935728	0.777728	-0.814544	0	0.786932	-1.60761	-0.0107379	0.250699	0	0	0	0	0	0	0	0	0	0	0	0	0	0.000000000	-0.125357	0.788798	-0.788798	-0.0110642	0.828698	-1.5708	0	0.389534	0.1	0.1	0.1	0.1	0.1	0.1	0	0	0	0	0	0	0	0.000000000
1504606213.469466924	-0.102777	0.777728	-0.81301	-0.00153398	0.785398	-1.60761	-0.0122718	0.346204	0	0	0	0	0	0	0	0	0	0	0	0	0	0.000000000	-0.143556	0.788798	-0.788798	-0.0126705	0.828698	-1.5708	0	0.418577	0.1	0.1	0.1	0.1	0.1	0.1	0	0	0	0	0	0	0	0.000000000
1504606213.489011049	-0.113515	0.777728	-0.81301	-0.00306796	0.786932	-1.60761	-0.0107379	0.393956	0	0	0.107442	0	0	0	0	0	0	0	0	0	0	0.000000000	-0.143556	0.788798	-0.788798	-0.0126705	0.828698	-1.5708	0	0.418577	0.1	0.1	0.1	0.1	0.1	0.1	0	0	0	0	0	0	0	0.000000000
1504606213.509006977	-0.122718	0.777728	-0.81301	-0.00460194	0.785398	-1.60761	-0.0122718	0.346204	0	0	0.107442	0	0	0	0	0	0	0	0	0	0	0.000000000	-0.162982	0.788798	-0.788798	-0.0143851	0.828698	-1.5708	0	0.446811	0.1	0.1	0.1	0.1	0.1	0.1	0	0	0	0	0	0	0	0.000000000
1504606213.529169082	-0.122718	0.777728	-0.81301	-0.00460194	0.785398	-1.60761	-0.0122718	0.346204	0	0	0.107442	0	0	0	0	0	0	0	0	0	0	0.000000000	-0.162982	0.788798	-0.788798	-0.0143851	0.828698	-1.5708	0	0.446811	0.1	0.1	0.1	0.1	0.1	0.1	0	0	0	0	0	0	0	0.000000000
1504606213.549323081	-0.133456	0.777728	-0.81301	-0.00460194	0.786932	-1.60761	-0.0107379	0.393956	0	0	0	0	0	0	0	0	0	0	0	0	0	0.000000000	-0.183594	0.788798	-0.788798	-0.0162043	0.828698	-1.5708	0	0.474057	0.1	0.1	0.1	0.1	0.1	0.1	0	0	0	0	0	0	0	0.000000000
1504606213.569032907	-0.144194	0.777728	-0.81301	-0.00613592	0.785398	-1.60761	-0.0107379	0.393956	0	0	0	0	0	0	0	0	0	0	0	0	0	0.000000000	-0.183594	0.788798	-0.788798	-0.0162043	0.828698	-1.5708	0	0.474057	0.1	0.1	0.1	0.1	0.1	0.1	0	0	0	0	0	0	0	0.000000000
1504606213.589142084	-0.156466	0.777728	-0.81301	-0.00613592	0.785398	-1.60761	-0.0107379	0.393956	0	0	0	0	0	0	0	0	0	0	0	0	0	0.000000000	-0.183594	0.788798	-0.788798	-0.0162043	0.828698	-1.5708	0	0.474057	0.1	0.1	0.1	0.1	0.1	0.1	0	0	0	0	0	0	0	0.000000000
1504606213.609277963	-0.167204	0.777728	-0.814544	-0.00920388	0.785398	-1.60761	-0.0107379	0.393956	0	0	0.107442	0	0	0	0	0	0	0	0	0	0	0.000000000	-0.205339	0.788798	-0.788798	-0.0181236	0.828698	-1.5708	0	0.500151	0.1	0.1	0.1	0.1	0.1	0.1	0	0	0	0	0	0	0	0.000000000
1504606213.629136085	-0.174874	0.777728	-0.814544	-0.00920388	0.785398	-1.60761	-0.0107379	0.298451	0	0	0	0	0	0	0	0	0	0	0	0	0	0.000000000	-0.205339	0.788798	-0.788798	-0.0181236	0.828698	-1.5708	0	0.500151	0.1	0.1	0.1	0.1	0.1	0.1	0	0	0	0	0	0	0	0.000000000
1504606213.649399042	-0.174874	0.777728	-0.814544	-0.00920388	0.785398	-1.60761	-0.0107379	0.298451	0	0	0	0	0	0	0	0	0	0	0	0	0	0.000000000	-0.228162	0.788798	-0.788798	-0.020138	0.828698	-1.5708	0	0.524934	0.1	0.1	0.1	0.1	0.1	0.1	0	0	0	0	0	0	0	0.000000000
1504606213.669017076	-0.18868	0.777728	-0.81301	-0.0107379	0.786932	-1.60915	-0.0107379	0.48946	0	0	0	0	0	0	0	0	0	0	0	0	0	0.000000000	-0.228162	0.788798	-0.788798	-0.020138	0.828698	-1.5708	0	0.524934	0.1	0.1	0.1	0.1	0.1	0.1	0	0	0	0	0	0	0	0.000000000
1504606213.689054965	-0.202485	0.777728	-0.81301	-0.0122718	0.785398	-1.60761	-0.0107379	0.537212	0	0	0	0	0	0	0	0	0	0	0	0	0	0.000000000	-0.252	0.788798	-0.788798	-0.022242	0.828698	-1.5708	0	0.548265	0.1	0.1	0.1	0.1	0.1	0.1	0	0	0	0	0	0	0	0.000000000
1504606213.709328889	-0.219359	0.777728	-0.81301	-0.0122718	0.785398	-1.60761	-0.0107379	0.584965	0	0	0	0	0	0	0	0	0	0	0	0	0	0.000000000	-0.252	0.788798	-0.788798	-0.022242	0.828698	-1.5708	0	0.548265	0.1	0.1	0.1	0.1	0.1	0.1	0	0	0	0	0	0	0	0.000000000
1504606213.729573965	-0.219359	0.777728	-0.81301	-0.0122718	0.785398	-1.60761	-0.0107379	0.584965	0	0	0	0	0	0	0	0	0	0	0	0	0	0.000000000	-0.276783	0.788798	-0.788798	-0.0244294	0.828698	-1.5708	0	0.570009	0.1	0.1	0.1	0.1	0.1	0.1	0	0	0	0	0	0	0	0.000000000
1504606213.749846935	-0.236233	0.777728	-0.81301	-0.0138058	0.785398	-1.60761	-0.0107379	0.584965	0	0	0	0	0	0	0	0	0	0	0	0	0	0.000000000	-0.276783	0.788798	-0.788798	-0.0244294	0.828698	-1.5708	0	0.570009	0.1	0.1	0.1	0.1	0.1	0.1	0	0	0	0	0	0	0	0.000000000
1504606213.769368886	-0.248505	0.777728	-0.81301	-0.0153398	0.786932	-1.60915	-0.0107379	0.48946	0	0	0	0	0	0	0	0	0	0	0	0	0	0.000000000	-0.302437	0.788798	-0.788798	-0.0266936	0.828698	-1.5708	0	0.590048	0.1	0.1	0.1	0.1	0.1	0.1	0	0	0	0	0	0	0	0.000000000
1504606213.790180921	-0.259243	0.777728	-0.81301	-0.0168738	0.786932	-1.60915	-0.0107379	0.346204	0	0	0	0	0	0	0	0	0	0	0	0	0	0.000000000	-0.302437	0.788798	-0.788798	-0.0266936	0.828698	-1.5708	0	0.590048	0.1	0.1	0.1	0.1	0.1	0.1	0	0	0	0	0	0	0	0.000000000
1504606213.809211969	-0.259243	0.777728	-0.81301	-0.0168738	0.786932	-1.60761	-0.0107379	0.346204	0	0	0	0	0	0	0	0	0	0	0	0	0	0.000000000	-0.328884	0.788798	-0.788798	-0.0290279	0.828698	-1.5708	0	0.608271	0.1	0.1	0.1	0.1	0.1	0.1	0	0	0	0	0	0	0	0.000000000
1504606213.829284906	-0.276117	0.777728	-0.814544	-0.0168738	0.786932	-1.60761	-0.0122718	0.48946	0	0	0	0	0	0	0	0	0	0	0	0	0	0.000000000	-0.328884	0.788798	-0.788798	-0.0290279	0.828698	-1.5708	0	0.608271	0.1	0.1	0.1	0.1	0.1	0.1	0	0	0	0	0	0	0	0.000000000
1504606213.849776983	-0.29299	0.777728	-0.81301	-0.0199418	0.786932	-1.60761	-0.0107379	0.584965	0	0	0	0	0	0	0	0	0	0	0	0	0	0.000000000	-0.328884	0.788798	-0.788798	-0.0290279	0.828698	-1.5708	0	0.608271	0.1	0.1	0.1	0.1	0.1	0.1	0	0	0	0	0	0	0	0.000000000
1504606213.870587110	-0.306796	0.777728	-0.81301	-0.0199418	0.786932	-1.60761	-0.0122718	0.584965	0	0	0	0	0	0	0	0	0	0	0	0	0	0.000000000	-0.356039	0.788798	-0.788798	-0.0314247	0.828698	-1.5708	0	0.624579	0.1	0.1	0.1	0.1	0.1	0.1	0	0	0	0	0	0	0	0.000000000
1504606213.889285087	-0.322136	0.777728	-0.814544	-0.0214757	0.786932	-1.60761	-0.0107379	0.537212	0	0	0	0	0	0	0	0	0	0	0	0	0	0.000000000	-0.356039	0.788798	-0.788798	-0.0314247	0.828698	-1.5708	0	0.624579	0.1	0.1	0.1	0.1	0.1	0.1	0	0	0	0	0	0	0	0.000000000
1504606213.909133911	-0.322136	0.777728	-0.814544	-0.0214757	0.786932	-1.60761	-0.0107379	0.537212	0	0	0	0	0	0	0	0	0	0	0	0	0	0.000000000	-0.383817	0.788798	-0.788798	-0.0338764	0.828698	-1.5708	0	0.638887	0.1	0.1	0.1	0.1	0.1	0.1	0	0	0	0	0	0	0	0.000000000
1504606213.929280042	-0.33901	0.777728	-0.814544	-0.0230097	0.786932	-1.60915	-0.0107379	0.632717	0	0	0	0	0	0	0	0	0	0	0	0	0	0.000000000	-0.383817	0.788798	-0.788798	-0.0338764	0.828698	-1.5708	0	0.638887	0.1	0.1	0.1	0.1	0.1	0.1	0	0	0	0	0	0	0	0.000000000
1504606213.949136018	-0.35435	0.777728	-0.81301	-0.0245437	0.786932	-1.60761	-0.0107379	0.584965	0	0	0	0	0	0	0	0	0	0	0	0	0	0.000000000	-0.412127	0.788798	-0.788798	-0.036375	0.828698	-1.5708	0	0.651123	0.1	0.1	0.1	0.1	0.1	0.1	0	0	0	0	0	0	0	0.000000000
1504606213.969415903	-0.369689	0.777728	-0.814544	-0.0260777	0.786932	-1.60761	-0.0107379	0.537212	0	0	0	0	0	0	0	0	0	0	0	0	0	0.000000000	-0.412127	0.788798	-0.788798	-0.036375	0.828698	-1.5708	0	0.651123	0.1	0.1	0.1	0.1	0.1	0.1	0	0	0	0	0	0	0	0.000000000
1504606213.989200115	-0.380427	0.777728	-0.81301	-0.0276117	0.786932	-1.60761	-0.0107379	0.48946	0	0	0	0	0	0	0	0	0	0	0	0	0	0.000000000	-0.440876	0.788798	-0.788798	-0.0389124	0.828698	-1.5708	0	0.661219	0.1	0.1	0.1	0.1	0.1	0.1	0	0	0	0	0	0	0	0.000000000
1504606214.009413003	-0.380427	0.777728	-0.81301	-0.0276117	0.786932	-1.60761	-0.0107379	0.48946	0	0	0	0	0	0	0	0	0	0	0	0	0	0.000000000	-0.440876	0.788798	-0.788798	-0.0389124	0.828698	-1.5708	0	0.661219	0.1	0.1	0.1	0.1	0.1	0.1	0	0	0	0	0	0	0	0.000000000
1504606214.034238100	-0.401903	0.777728	-0.814544	-0.0306796	0.786932	-1.60761	-0.0107379	0.680469	0	0	0.107442	0	0	0	0	0	0	0	0	0	0	0.000000000	-0.469968	0.788798	-0.788798	-0.0414802	0.828698	-1.5708	0	0.669125	0.1	0.1	0.1	0.1	0.1	0.1	0	0	0	0	0	0	0	0.000000000
1504606214.049179077	-0.401903	0.777728	-0.814544	-0.0306796	0.786932	-1.60761	-0.0107379	0.680469	0	0	0.107442	0	0	0	0	0	0	0	0	0	0	0.000000000	-0.469968	0.788798	-0.788798	-0.0414802	0.828698	-1.5708	0	0.669125	0.1	0.1	0.1	0.1	0.1	0.1	0	0	0	0	0	0	0	0.000000000
1504606214.069165945	-0.429515	0.777728	-0.814544	-0.0322136	0.786932	-1.60761	-0.0122718	0.680469	0	0	0	0	0	0	0	0	0	0	0	0	0	0.000000000	-0.499307	0.788798	-0.788798	-0.0440697	0.828698	-1.5708	0	0.674802	0.1	0.1	0.1	0.1	0.1	0.1	0	0	0	0	0	0	0	0.000000000
1504606214.089215993	-0.429515	0.777728	-0.814544	-0.0322136	0.786932	-1.60761	-0.0122718	0.680469	0	0	0	0	0	0	0	0	0	0	0	0	0	0.000000000	-0.499307	0.788798	-0.788798	-0.0440697	0.828698	-1.5708	0	0.674802	0.1	0.1	0.1	0.1	0.1	0.1	0	0	0	0	0	0	0	0.000000000
1504606214.110526084	-0.460194	0.777728	-0.81301	-0.0352816	0.786932	-1.60761	-0.0107379	0.441708	0	0	0	0	0	0	0	0	0	0	0	0	0	0.000000000	-0.499307	0.788798	-0.788798	-0.0440697	0.828698	-1.5708	0	0.674802	0.1	0.1	0.1	0.1	0.1	0.1	0	0	0	0	0	0	0	0.000000000
1504606214.129647970	-0.472466	0.777728	-0.814544	-0.0368155	0.786932	-1.60915	-0.0107379	0.680469	0	0	0	0	0	0	0	0	0	0	0	0	0	0.000000000	-0.528795	0.788798	-0.788798	-0.0466724	0.828698	-1.5708	0	0.678218	0.1	0.1	0.1	0.1	0.1	0.1	0	0	0	0	0	0	0	0.000000000
1504606214.150084972	-0.48934	0.777728	-0.81301	-0.0368155	0.786932	-1.60915	-0.0107379	0.728221	0	0	0	0	0	0	0	0	0	0	0	0	0	0.000000000	-0.528795	0.788798	-0.788798	-0.0466724	0.828698	-1.5708	0	0.678218	0.1	0.1	0.1	0.1	0.1	0.1	0	0	0	0	0	0	0	0.000000000
1504606214.169085025	-0.48934	0.777728	-0.81301	-0.0383495	0.786932	-1.60761	-0.0107379	0.728221	0	0	0	0	0	0	0	0	0	0	0	0	0	0.000000000	-0.558332	0.788798	-0.788798	-0.0492794	0.828698	-1.5708	0	0.67936	0.1	0.1	0.1	0.1	0.1	0.1	0	0	0	0	0	0	0	0.000000000
1504606214.192325115	-0.507748	0.777728	-0.81301	-0.0398835	0.786932	-1.60915	-0.0107379	0.728221	0	0	0	0	0	0	0	0	0	0	0	0	0	0.000000000	-0.558332	0.788798	-0.788798	-0.0492794	0.828698	-1.5708	0	0.67936	0.1	0.1	0.1	0.1	0.1	0.1	0	0	0	0	0	0	0	0.000000000
1504606214.209119081	-0.530757	0.777728	-0.814544	-0.0414175	0.786932	-1.60761	-0.0122718	0.775973	0	0	0.107442	0	0	0	0	0	0	0	0	0	0	0.000000000	-0.58782	0.788798	-0.788798	-0.051882	0.828698	-1.5708	0	0.678218	0.1	0.1	0.1	0.1	0.1	0.1	0	0	0	0	0	0	0	0.000000000
1504606214.229657888	-0.547631	0.777728	-0.81301	-0.0429515	0.786932	-1.60915	-0.0107379	0.632717	0	0	0	0	0	0	0	0	0	0	0	0	0	0.000000000	-0.58782	0.788798	-0.788798	-0.051882	0.828698	-1.5708	0	0.678218	0.1	0.1	0.1	0.1	0.1	0.1	0	0	0	0	0	0	0	0.000000000
1504606214.249221086	-0.553767	0.777728	-0.814544	-0.0429515	0.786932	-1.60915	-0.0107379	0.537212	0	0	0	0	0	0	0	0	0	0	0	0	0	0.000000000	-0.617159	0.788798	-0.788798	-0.0544715	0.828698	-1.5708	0	0.674802	0.1	0.1	0.1	0.1	0.1	0.1	0	0	0	0	0	0	0	0.000000000
1504606214.269026041	-0.561437	0.777728	-0.81301	-0.0429515	0.786932	-1.60761	-0.0107379	0.441708	0	0	0	0	0	0	0	0	0	0	0	0	0	0.000000000	-0.617159	0.788798	-0.788798	-0.0544715	0.828698	-1.5708	0	0.674802	0.1	0.1	0.1	0.1	0.1	0.1	0	0	0	0	0	0	0	0.000000000
1504606214.289087057	-0.579845	0.777728	-0.814544	-0.0444854	0.786932	-1.60761	-0.0122718	0.632717	0	0	0	0	0	0	0	0	0	0	0	0	0	0.000000000	-0.646251	0.788798	-0.788798	-0.0570393	0.828698	-1.5708	0	0.669125	0.1	0.1	0.1	0.1	0.1	0.1	0	0	0	0	0	0	0	0.000000000
1504606214.309104919	-0.598253	0.777728	-0.814544	-0.0460194	0.786932	-1.60761	-0.0107379	0.680469	0	0	0	0	0	0	0	0	0	0	0	0	0	0.000000000	-0.646251	0.788798	-0.788798	-0.0570393	0.828698	-1.5708	0	0.669125	0.1	0.1	0.1	0.1	0.1	0.1	0	0	0	0	0	0	0	0.000000000
1504606214.329272031	-0.618194	0.777728	-0.81301	-0.0490874	0.786932	-1.60761	-0.0122718	0.728221	0	0	0.107442	0	0	0	0	0	0	0	0	0	0	0.000000000	-0.646251	0.788798	-0.788798	-0.0570393	0.828698	-1.5708	0	0.669125	0.1	0.1	0.1	0.1	0.1	0.1	0	0	0	0	0	0	0	0.000000000
1504606214.349040985	-0.618194	0.777728	-0.81301	-0.0490874	0.786932	-1.60761	-0.0122718	0.728221	0	0	0.107442	0	0	0	0	0	0	0	0	0	0	0.000000000	-0.675	0.788798	-0.788798	-0.0595767	0.828698	-1.5708	0	0.66122	0.1	0.1	0.1	0.1	0.1	0.1	0	0	0	0	0	0	0	0.000000000
1504606214.368968963	-0.636602	0.777728	-0.814544	-0.0490874	0.788466	-1.60915	-0.0122718	0.728221	0	0	0	0	0	0	0	0	0	0	0	0	0	0.000000000	-0.675	0.788798	-0.788798	-0.0595767	0.828698	-1.5708	0	0.66122	0.1	0.1	0.1	0.1	0.1	0.1	0	0	0	0	0	0	0	0.000000000
1504606214.389035940	-0.651942	0.776194	-0.814544	-0.0490874	0.786932	-1.60761	-0.0107379	0.537212	0	0	0	0	0	0	0	0	0	0	0	0	0	0.000000000	-0.70331	0.788798	-0.788798	-0.0620753	0.828698	-1.5708	0	0.651122	0.1	0.1	0.1	0.1	0.1	0.1	0	0	0	0	0	0	0	0.000000000
1504606214.409054040	-0.665748	0.777728	-0.81301	-0.0506214	0.788466	-1.60761	-0.0107379	0.537212	0	0	0	0	0	0	0	0	0	0	0	0	0	0.000000000	-0.70331	0.788798	-0.788798	-0.0620753	0.828698	-1.5708	0	0.651122	0.1	0.1	0.1	0.1	0.1	0.1	0	0	0	0	0	0	0	0.000000000
1504606214.429052114	-0.681087	0.777728	-0.814544	-0.0521553	0.788466	-1.60761	-0.0107379	0.632717	0	0	0	0	0	0	0	0	0	0	0	0	0	0.000000000	-0.731088	0.788798	-0.788798	-0.0645271	0.828698	-1.5708	0	0.638886	0.1	0.1	0.1	0.1	0.1	0.1	0	0	0	0	0	0	0	0.000000000
1504606214.449022054	-0.681087	0.777728	-0.814544	-0.0521553	0.788466	-1.60761	-0.0107379	0.632717	0	0	0	0	0	0	0	0	0	0	0	0	0	0.000000000	-0.731088	0.788798	-0.788798	-0.0645271	0.828698	-1.5708	0	0.638886	0.1	0.1	0.1	0.1	0.1	0.1	0	0	0	0	0	0	0	0.000000000
1504606214.469134092	-0.701029	0.777728	-0.814544	-0.0536893	0.788466	-1.60761	-0.0122718	0.632717	0	0	0	0	0	0	0	0	0	0	0	0	0	0.000000000	-0.758243	0.788798	-0.788798	-0.0669239	0.828698	-1.5708	0	0.62458	0.1	0.1	0.1	0.1	0.1	0.1	0	0	0	0	0	0	0	0.000000000
1504606214.489027023	-0.716369	0.777728	-0.81301	-0.0552233	0.788466	-1.60761	-0.0107379	0.584965	0	0	0	0	0	0	0	0	0	0	0	0	0	0.000000000	-0.758243	0.788798	-0.788798	-0.0669239	0.828698	-1.5708	0	0.62458	0.1	0.1	0.1	0.1	0.1	0.1	0	0	0	0	0	0	0	0.000000000
1504606214.509093046	-0.733243	0.777728	-0.814544	-0.0567573	0.788466	-1.60761	-0.0107379	0.632717	0	0	0	0	0	0	0	0	0	0	0	0	0	0.000000000	-0.78469	0.788798	-0.788798	-0.0692581	0.828698	-1.5708	0	0.60827	0.1	0.1	0.1	0.1	0.1	0.1	0	0	0	0	0	0	0	0.000000000
1504606214.529000043	-0.748583	0.777728	-0.81301	-0.0582913	0.788466	-1.60761	-0.0107379	0.584965	0	0	0	0	0	0	0	0	0	0	0	0	0	0.000000000	-0.78469	0.788798	-0.788798	-0.0692581	0.828698	-1.5708	0	0.60827	0.1	0.1	0.1	0.1	0.1	0.1	0	0	0	0	0	0	0	0.000000000
1504606214.549010038	-0.748583	0.777728	-0.81301	-0.0582913	0.788466	-1.60761	-0.0107379	0.584965	0	0	0	0	0	0	0	0	0	0	0	0	0	0.000000000	-0.810344	0.788798	-0.788798	-0.0715224	0.828698	-1.5708	0	0.590048	0.1	0.1	0.1	0.1	0.1	0.1	0	0	0	0	0	0	0	0.000000000
1504606214.569040060	-0.763922	0.777728	-0.814544	-0.0598253	0.788466	-1.60761	-0.0107379	0.584965	0	0	0	0	0	0	0	0	0	0	0	0	0	0.000000000	-0.810344	0.788798	-0.788798	-0.0715224	0.828698	-1.5708	0	0.590048	0.1	0.1	0.1	0.1	0.1	0.1	0	0	0	0	0	0	0	0.000000000
1504606214.589061021	-0.777728	0.777728	-0.814544	-0.0613592	0.788466	-1.60915	-0.0107379	0.48946	0	0	0	0	0	0	0	0	0	0	0	0	0	0.000000000	-0.810344	0.788798	-0.788798	-0.0715224	0.828698	-1.5708	0	0.590048	0.1	0.1	0.1	0.1	0.1	0.1	0	0	0	0	0	0	0	0.000000000
1504606214.609149932	-0.791534	0.777728	-0.81301	-0.0628932	0.788466	-1.60915	-0.0107379	0.48946	0	0	0	0	0	0	0	0	0	0	0	0	0	0.000000000	-0.835127	0.788798	-0.788798	-0.0737098	0.828698	-1.5708	0	0.570009	0.1	0.1	0.1	0.1	0.1	0.1	0	0	0	0	0	0	0	0.000000000
1504606214.629064083	-0.80534	0.777728	-0.814544	-0.0644272	0.788466	-1.60761	-0.0122718	0.48946	0	0	0	0	0	0	0	0	0	0	0	0	0	0.000000000	-0.835127	0.788798	-0.788798	-0.0737098	0.828698	-1.5708	0	0.570009	0.1	0.1	0.1	0.1	0.1	0.1	0	0	0	0	0	0	0	0.000000000
1504606214.648992061	-0.80534	0.777728	-0.814544	-0.0644272	0.788466	-1.60761	-0.0122718	0.48946	0	0	0	0	0	0	0	0	0	0	0	0	0	0.000000000	-0.858965	0.788798	-0.788798	-0.0758137	0.828698	-1.5708	0	0.548264	0.1	0.1	0.1	0.1	0.1	0.1	0	0	0	0	0	0	0	0.000000000
1504606214.669878959	-0.82068	0.777728	-0.814544	-0.0659612	0.788466	-1.60761	-0.0107379	0.584965	0	0	0	0	0	0	0	0	0	0	0	0	0	0.000000000	-0.858965	0.788798	-0.788798	-0.0758137	0.828698	-1.5708	0	0.548264	0.1	0.1	0.1	0.1	0.1	0.1	0	0	0	0	0	0	0	0.000000000
1504606214.688977003	-0.83602	0.777728	-0.81301	-0.0674952	0.788466	-1.60761	-0.0107379	0.584965	0	0	0	0	0	0	0	0	0	0	0	0	0	0.000000000	-0.881788	0.788798	-0.788798	-0.0778281	0.828698	-1.5708	0	0.524934	0.1	0.1	0.1	0.1	0.1	0.1	0	0	0	0	0	0	0	0.000000000
1504606214.708992958	-0.849825	0.777728	-0.81301	-0.0674952	0.788466	-1.60915	-0.0107379	0.537212	0	0	0	0	0	0	0	0	0	0	0	0	0	0.000000000	-0.881788	0.788798	-0.788798	-0.0778281	0.828698	-1.5708	0	0.524934	0.1	0.1	0.1	0.1	0.1	0.1	0	0	0	0	0	0	0	0.000000000
1504606214.729080915	-0.863631	0.777728	-0.814544	-0.0690291	0.788466	-1.60915	-0.0122718	0.537212	0	0	0	0	0	0	0	0	0	0	0	0	0	0.000000000	-0.903533	0.788798	-0.788798	-0.0797474	0.828698	-1.5708	0	0.500151	0.1	0.1	0.1	0.1	0.1	0.1	0	0	0	0	0	0	0	0.000000000
1504606214.749118089	-0.863631	0.777728	-0.814544	-0.0690291	0.788466	-1.60915	-0.0122718	0.537212	0	0	0	0	0	0	0	0	0	0	0	0	0	0.000000000	-0.903533	0.788798	-0.788798	-0.0797474	0.828698	-1.5708	0	0.500151	0.1	0.1	0.1	0.1	0.1	0.1	0	0	0	0	0	0	0	0.000000000
1504606214.769009113	-0.874369	0.777728	-0.814544	-0.0705631	0.788466	-1.60761	-0.0107379	0.441708	0	0	0	0	0	0	0	0	0	0	0	0	0	0.000000000	-0.924145	0.788798	-0.788798	-0.0815666	0.828698	-1.5708	0	0.474058	0.1	0.1	0.1	0.1	0.1	0.1	0	0	0	0	0	0	0	0.000000000
1504606214.789062976	-0.885107	0.777728	-0.814544	-0.0705631	0.79	-1.60761	-0.0107379	0.393956	0	0	0	0	0	0	0	0	0	0	0	0	0	0.000000000	-0.924145	0.788798	-0.788798	-0.0815666	0.828698	-1.5708	0	0.474058	0.1	0.1	0.1	0.1	0.1	0.1	0	0	0	0	0	0	0	0.000000000
1504606214.809026002	-0.898913	0.777728	-0.81301	-0.0720971	0.788466	-1.60761	-0.0107379	0.441708	0	0	0	0	0	0	0	0	0	0	0	0	0	0.000000000	-0.924145	0.788798	-0.788798	-0.0815666	0.828698	-1.5708	0	0.474058	0.1	0.1	0.1	0.1	0.1	0.1	0	0	0	0	0	0	0	0.000000000
1504606214.831090927	-0.912719	0.777728	-0.814544	-0.0736311	0.79	-1.60761	-0.0107379	0.537212	0	0	0	0	0	0	0	0	0	0	0	0	0	0.000000000	-0.943571	0.788798	-0.788798	-0.0832812	0.828698	-1.5708	0	0.44681	0.1	0.1	0.1	0.1	0.1	0.1	0	0	0	0	0	0	0	0.000000000
1504606214.849018096	-0.912719	0.777728	-0.814544	-0.0736311	0.79	-1.60761	-0.0107379	0.537212	0	0	0	0	0	0	0	0	0	0	0	0	0	0.000000000	-0.943571	0.788798	-0.788798	-0.0832812	0.828698	-1.5708	0	0.44681	0.1	0.1	0.1	0.1	0.1	0.1	0	0	0	0	0	0	0	0.000000000
1504606214.869240999	-0.923456	0.777728	-0.814544	-0.0751651	0.79	-1.60761	-0.0107379	0.48946	0	0	0	0	0	0	0	0	0	0	0	0	0	0.000000000	-0.96177	0.788798	-0.788798	-0.0848875	0.828698	-1.5708	0	0.418578	0.1	0.1	0.1	0.1	0.1	0.1	0	0	0	0	0	0	0	0.000000000
1504606214.889070034	-0.935728	0.777728	-0.814544	-0.0751651	0.788466	-1.60915	-0.0107379	0.441708	0	0	0	0	0	0	0	0	0	0	0	0	0	0.000000000	-0.96177	0.788798	-0.788798	-0.0848875	0.828698	-1.5708	0	0.418578	0.1	0.1	0.1	0.1	0.1	0.1	0	0	0	0	0	0	0	0.000000000
1504606214.910391092	-0.946466	0.777728	-0.814544	-0.076699	0.79	-1.60761	-0.0107379	0.393956	0	0	0	0	0	0	0	0	0	0	0	0	0	0.000000000	-0.978706	0.788798	-0.788798	-0.0863823	0.828698	-1.5708	0	0.389534	0.1	0.1	0.1	0.1	0.1	0.1	0	0	0	0	0	0	0	0.000000000
1504606214.929184913	-0.946466	0.777728	-0.814544	-0.076699	0.79	-1.60761	-0.0107379	0.393956	0	0	0	0	0	0	0	0	0	0	0	0	0	0.000000000	-0.978706	0.788798	-0.788798	-0.0863823	0.828698	-1.5708	0	0.389534	0.1	0.1	0.1	0.1	0.1	0.1	0	0	0	0	0	0	0	0.000000000
1504606214.949208021	-0.957204	0.777728	-0.814544	-0.076699	0.79	-1.60915	-0.0122718	0.346204	0	0	0	0	0	0	0	0	0	0	0	0	0	0.000000000	-0.994353	0.788798	-0.788798	-0.0877633	0.828698	-1.5708	0	0.359873	0.1	0.1	0.1	0.1	0.1	0.1	0	0	0	0	0	0	0	0.000000000
1504606214.969239950	-0.966408	0.777728	-0.814544	-0.078233	0.79	-1.60915	-0.0107379	0.298451	0	0	0	0	0	0	0	0	0	0	0	0	0	0.000000000	-0.994353	0.788798	-0.788798	-0.0877633	0.828698	-1.5708	0	0.359873	0.1	0.1	0.1	0.1	0.1	0.1	0	0	0	0	0	0	0	0.000000000
1504606214.989993095	-0.974078	0.777728	-0.814544	-0.078233	0.79	-1.60915	-0.0107379	0.393956	0	0	0	0	0	0	0	0	0	0	0	0	0	0.000000000	-1.00869	0.788798	-0.788798	-0.0890289	0.828698	-1.5708	0	0.329795	0.1	0.1	0.1	0.1	0.1	0.1	0	0	0	0	0	0	0	0.000000000
1504606215.009114027	-0.974078	0.777728	-0.814544	-0.078233	0.79	-1.60915	-0.0107379	0.393956	0	0	0	0	0	0	0	0	0	0	0	0	0	0.000000000	-1.00869	0.788798	-0.788798	-0.0890289	0.828698	-1.5708	0	0.329795	0.1	0.1	0.1	0.1	0.1	0.1	0	0	0	0	0	0	0	0.000000000
1504606215.029190063	-0.992486	0.777728	-0.814544	-0.079767	0.79	-1.60915	-0.0107379	0.298451	0	0	0	0	0	0	0	0	0	0	0	0	0	0.000000000	-1.02171	0.788798	-0.788798	-0.0901783	0.828698	-1.5708	0	0.299513	0.1	0.1	0.1	0.1	0.1	0.1	0	0	0	0	0	0	0	0.000000000
1504606215.049093008	-0.992486	0.777728	-0.814544	-0.079767	0.79	-1.60915	-0.0107379	0.298451	0	0	0	0	0	0	0	0	0	0	0	0	0	0.000000000	-1.02171	0.788798	-0.788798	-0.0901783	0.828698	-1.5708	0	0.299513	0.1	0.1	0.1	0.1	0.1	0.1	0	0	0	0	0	0	0	0.000000000
1504606215.069134950	-1.00016	0.777728	-0.814544	-0.081301	0.79	-1.60761	-0.0107379	0.250699	0	0	0	0	0	0	0	0	0	0	0	0	0	0.000000000	-1.02171	0.788798	-0.788798	-0.0901783	0.828698	-1.5708	0	0.299513	0.1	0.1	0.1	0.1	0.1	0.1	0	0	0	0	0	0	0	0.000000000
1504606215.089099884	-1.00783	0.777728	-0.814544	-0.081301	0.79	-1.60761	-0.0107379	0.298451	0	0	0	0	0	0	0	0	0	0	0	0	0	0.000000000	-1.03342	0.788798	-0.788798	-0.0912115	0.828698	-1.5708	0	0.269249	0.1	0.1	0.1	0.1	0.1	0.1	0	0	0	0	0	0	0	0.000000000
1504606215.109071016	-1.0155	0.777728	-0.814544	-0.082835	0.79	-1.60915	-0.0107379	0.298451	0	0	0	0	0	0	0	0	0	0	0	0	0	0.000000000	-1.03342	0.788798	-0.788798	-0.0912115	0.828698	-1.5708	0	0.269249	0.1	0.1	0.1	0.1	0.1	0.1	0	0	0	0	0	0	0	0.000000000
1504606215.129231929	-1.0155	0.777728	-0.814544	-0.082835	0.79	-1.60915	-0.0107379	0.298451	0	0	0	0	0	0	0	0	0	0	0	0	0	0.000000000	-1.04382	0.788798	-0.788798	-0.0921296	0.828698	-1.5708	0	0.239242	0.1	0.1	0.1	0.1	0.1	0.1	0	0	0	0	0	0	0	0.000000000
1504606215.149175882	-1.02163	0.777728	-0.814544	-0.081301	0.79	-1.60915	-0.0107379	0.202947	0	0	0	0	0	0	0	0	0	0	0	0	0	0.000000000	-1.04382	0.788798	-0.788798	-0.0921296	0.828698	-1.5708	0	0.239242	0.1	0.1	0.1	0.1	0.1	0.1	0	0	0	0	0	0	0	0.000000000
1504606215.169157981	-1.02777	0.777728	-0.814544	-0.082835	0.79	-1.60761	-0.0107379	0.250699	0	0	0	0	0	0	0	0	0	0	0	0	0	0.000000000	-1.05294	0.788798	-0.788798	-0.0929345	0.828698	-1.5708	0	0.209739	0.1	0.1	0.1	0.1	0.1	0.1	0	0	0	0	0	0	0	0.000000000
1504606215.190179109	-1.03544	0.777728	-0.814544	-0.082835	0.79	-1.60915	-0.0107379	0.250699	0	0	0	0	0	0	0	0	0	0	0	0	0	0.000000000	-1.05294	0.788798	-0.788798	-0.0929345	0.828698	-1.5708	0	0.209739	0.1	0.1	0.1	0.1	0.1	0.1	0	0	0	0	0	0	0	0.000000000
1504606215.209155082	-1.03544	0.777728	-0.814544	-0.082835	0.79	-1.60915	-0.0107379	0.250699	0	0	0	0	0	0	0	0	0	0	0	0	0	0.000000000	-1.06081	0.788798	-0.788798	-0.093629	0.828698	-1.5708	0	0.180998	0.1	0.1	0.1	0.1	0.1	0.1	0	0	0	0	0	0	0	0.000000000
1504606215.230787038	-1.04004	0.777728	-0.81301	-0.0843689	0.79	-1.60761	-0.0107379	0.155195	0	0	0	0	0	0	0	0	0	0	0	0	0	0.000000000	-1.06081	0.788798	-0.788798	-0.093629	0.828698	-1.5708	0	0.180998	0.1	0.1	0.1	0.1	0.1	0.1	0	0	0	0	0	0	0	0.000000000
1504606215.249154090	-1.04617	0.777728	-0.814544	-0.0859029	0.79	-1.60761	-0.0107379	0.202947	0	0	0	0	0	0	0	0	0	0	0	0	0	0.000000000	-1.06748	0.788798	-0.788798	-0.0942173	0.828698	-1.5708	0	0.153292	0.1	0.1	0.1	0.1	0.1	0.1	0	0	0	0	0	0	0	0.000000000
1504606215.271074056	-1.04617	0.777728	-0.814544	-0.0859029	0.79	-1.60761	-0.0107379	0.202947	0	0	0	0	0	0	0	0	0	0	0	0	0	0.000000000	-1.06748	0.788798	-0.788798	-0.0942173	0.828698	-1.5708	0	0.153292	0.1	0.1	0.1	0.1	0.1	0.1	0	0	0	0	0	0	0	0.000000000
1504606215.289248943	-1.04924	0.777728	-0.81301	-0.0859029	0.79	-1.60915	-0.0107379	0.107442	0	0	0	0	0	0	0	0	0	0	0	0	0	0.000000000	-1.07299	0.788798	-0.788798	-0.0947043	0.828698	-1.5708	0	0.126902	0.1	0.1	0.1	0.1	0.1	0.1	0	0	0	0	0	0	0	0.000000000
1504606215.309185981	-1.05384	0.777728	-0.814544	-0.0859029	0.79	-1.60761	-0.0107379	0.202947	0	0	0	0	0	0	0	0	0	0	0	0	0	0.000000000	-1.07299	0.788798	-0.788798	-0.0947043	0.828698	-1.5708	0	0.126902	0.1	0.1	0.1	0.1	0.1	0.1	0	0	0	0	0	0	0	0.000000000
1504606215.329380989	-1.05691	0.777728	-0.814544	-0.0859029	0.79	-1.60761	-0.0107379	0.155195	0	0	0	0	0	0	0	0	0	0	0	0	0	0.000000000	-1.07299	0.788798	-0.788798	-0.0947043	0.828698	-1.5708	0	0.126902	0.1	0.1	0.1	0.1	0.1	0.1	0	0	0	0	0	0	0	0.000000000
1504606215.349822044	-1.05998	0.777728	-0.814544	-0.0874369	0.79	-1.60761	-0.0107379	0.107442	0	0	0	0	0	0	0	0	0	0	0	0	0	0.000000000	-1.07743	0.788798	-0.788798	-0.0950961	0.828698	-1.5708	0	0.102116	0.1	0.1	0.1	0.1	0.1	0.1	0	0	0	0	0	0	0	0.000000000
1504606215.369153976	-1.06305	0.777728	-0.81301	-0.0874369	0.79	-1.60761	-0.0107379	0.107442	0	0	0	0	0	0	0	0	0	0	0	0	0	0.000000000	-1.07743	0.788798	-0.788798	-0.0950961	0.828698	-1.5708	0	0.102116	0.1	0.1	0.1	0.1	0.1	0.1	0	0	0	0	0	0	0	0.000000000
1504606215.389125108	-1.06458	0.777728	-0.814544	-0.0889709	0.79	-1.60761	-0.0107379	0	0	0	0	0	0	0	0	0	0	0	0	0	0	0.000000000	-1.08088	0.788798	-0.788798	-0.0954003	0.828698	-1.5708	0	0.1	0.1	0.1	0.1	0.1	0.1	0.1	0	0	0	0	0	0	0	0.000000000
1504606215.409241914	-1.06458	0.777728	-0.814544	-0.0889709	0.79	-1.60761	-0.0107379	0	0	0	0	0	0	0	0	0	0	0	0	0	0	0.000000000	-1.08088	0.788798	-0.788798	-0.0954003	0.828698	-1.5708	0	0.1	0.1	0.1	0.1	0.1	0.1	0.1	0	0	0	0	0	0	0	0.000000000
1504606215.434899091	-1.06765	0.777728	-0.814544	-0.0874369	0.79	-1.60761	-0.0122718	0.107442	0	0	0	0	0	0	0	0	0	0	0	0	0	0.000000000	-1.08343	0.788798	-0.788798	-0.0956252	0.828698	-1.5708	0	0.1	0.1	0.1	0.1	0.1	0.1	0.1	0	0	0	0	0	0	0	0.000000000
1504606215.449101924	-1.06765	0.777728	-0.814544	-0.0874369	0.79	-1.60761	-0.0122718	0.107442	0	0	0	0	0	0	0	0	0	0	0	0	0	0.000000000	-1.08343	0.788798	-0.788798	-0.0956252	0.828698	-1.5708	0	0.1	0.1	0.1	0.1	0.1	0.1	0.1	0	0	0	0	0	0	0	0.000000000
1504606215.472898960	-1.06918	0.777728	-0.814544	-0.0889709	0.79	-1.60915	-0.0107379	0	0	0	0	0	0	0	0	0	0	0	0	0	0	0.000000000	-1.08519	0.788798	-0.788798	-0.0957807	0.828698	-1.5708	0	0.1	0.1	0.1	0.1	0.1	0.1	0.1	0	0	0	0	0	0	0	0.000000000
1504606215.489044904	-1.07379	0.777728	-0.814544	-0.0889709	0.79	-1.60761	-0.0122718	0.107442	0	0	0	0	0	0	0	0	0	0	0	0	0	0.000000000	-1.08519	0.788798	-0.788798	-0.0957807	0.828698	-1.5708	0	0.1	0.1	0.1	0.1	0.1	0.1	0.1	0	0	0	0	0	0	0	0.000000000
1504606215.509046077	-1.07532	0.777728	-0.814544	-0.0889709	0.79	-1.60761	-0.0107379	0	0	0	0	0	0	0	0	0	0	0	0	0	0	0.000000000	-1.08629	0.788798	-0.788798	-0.0958779	0.828698	-1.5708	0	0.1	0.1	0.1	0.1	0.1	0.1	0.1	0	0	0	0	0	0	0	0.000000000
1504606215.533572912	-1.07532	0.777728	-0.814544	-0.0889709	0.79	-1.60761	-0.0107379	0	0	0	0	0	0	0	0	0	0	0	0	0	0	0.000000000	-1.08629	0.788798	-0.788798	-0.0958779	0.828698	-1.5708	0	0.1	0.1	0.1	0.1	0.1	0.1	0.1	0	0	0	0	0	0	0	0.000000000
1504606215.549312114	-1.07532	0.777728	-0.814544	-0.0889709	0.79	-1.60915	-0.0107379	0	0	0	0	0	0	0	0	0	0	0	0	0	0	0.000000000	-1.08629	0.788798	-0.788798	-0.0958779	0.828698	-1.5708	0	0.1	0.1	0.1	0.1	0.1	0.1	0.1	0	0	0	0	0	0	0	0.000000000
1504606215.570900917	-1.07532	0.777728	-0.814544	-0.0874369	0.79	-1.60761	-0.0107379	0	0	0	0	0	0	0	0	0	0	0	0	0	0	0.000000000	-1.08687	0.788798	-0.788798	-0.0959294	0.828698	-1.5708	0	0.1	0.1	0.1	0.1	0.1	0.1	0.1	0	0	0	0	0	0	0	0.000000000
1504606215.589330911	-1.07532	0.777728	-0.814544	-0.0889709	0.79	-1.60761	-0.0107379	0	0	0	0	0	0	0	0	0	0	0	0	0	0	0.000000000	-1.08687	0.788798	-0.788798	-0.0959294	0.828698	-1.5708	0	0.1	0.1	0.1	0.1	0.1	0.1	0.1	0	0	0	0	0	0	0	0.000000000
1504606215.609601020	-1.07532	0.777728	-0.814544	-0.0889709	0.79	-1.60761	-0.0107379	0	0	0	0	0	0	0	0	0	0	0	0	0	0	0.000000000	-1.08709	0.788798	-0.788798	-0.0959489	0.828698	-1.5708	0	0.1	0.1	0.1	0.1	0.1	0.1	0.1	0	0	0	0	0	0	0	0.000000000
1504606215.629188060	-1.07532	0.777728	-0.814544	-0.0905049	0.79	-1.60761	-0.0122718	0	0	0	0	0	0	0	0	0	0	0	0	0	0	0.000000000	-1.08709	0.788798	-0.788798	-0.0959489	0.828698	-1.5708	0	0.1	0.1	0.1	0.1	0.1	0.1	0.1	0	0	0	0	0	0	0	0.000000000
1504606215.649151086	-1.07685	0.777728	-0.814544	-0.0905049	0.79	-1.60761	-0.0122718	0	0	0	0	0	0	0	0	0	0	0	0	0	0	0.000000000	-1.08713	0.788798	-0.788798	-0.0959517	0.828698	-1.5708	0	0.1	0.1	0.1	0.1	0.1	0.1	0.1	0	0	0	0	0	0	0	0.000000000
1504606215.668975114	-1.07685	0.777728	-0.81301	-0.0905049	0.79	-1.60761	-0.0122718	0	0	0	0	0	0	0	0	0	0	0	0	0	0	0.000000000	-1.08713	0.788798	-0.788798	-0.0959517	0.828698	-1.5708	0	0.1	0.1	0.1	0.1	0.1	0.1	0.1	0	0	0	0	0	0	0	0.000000000
1504606215.689071893	-1.07532	0.777728	-0.814544	-0.0889709	0.79	-1.60761	-0.0107379	0	0	0	0	0	0	0	0	0	0	0	0	0	0	0.000000000	-1.08713	0.78882	-0.788837	-0.0959517	0.828675	-1.57081	0	0.1	0.1	0.1	0.1	0.1	0.1	0.1	0	0	0	0	0	0	0	0.000000000
1504606215.708966970	-1.07685	0.777728	-0.814544	-0.0905049	0.79	-1.60761	-0.0122718	0	0	0	0	0	0	0	0	0	0	0	0	0	0	0.000000000	-1.08713	0.78882	-0.788837	-0.0959517	0.828675	-1.57081	0	0.1	0.1	0.1	0.1	0.1	0.1	0.1	0	0	0	0	0	0	0	0.000000000
1504606215.729193925	-1.07532	0.777728	-0.814544	-0.0905049	0.79	-1.60761	-0.0107379	0	0	0	0	0	0	0	0	0	0	0	0	0	0	0.000000000	-1.0871	0.788972	-0.789104	-0.0959586	0.82852	-1.57093	0	0.1	0.1	0.1	0.1	0.1	0.1	0.1	0	0	0	0	0	0	0	0.000000000
1504606215.749085903	-1.07532	0.777728	-0.814544	-0.0905049	0.79	-1.60761	-0.0107379	0	0	0	0	0	0	0	0	0	0	0	0	0	0	0.000000000	-1.0871	0.788972	-0.789104	-0.0959586	0.82852	-1.57093	0	0.1	0.1	0.1	0.1	0.1	0.1	0.1	0	0	0	0	0	0	0	0.000000000
1504606215.768965959	-1.07685	0.777728	-0.814544	-0.0905049	0.79	-1.60761	-0.0107379	0	0	0	0	0	0	0	0	0	0	0	0	0	0	0.000000000	-1.08702	0.789374	-0.789807	-0.0959768	0.828111	-1.57123	0	0.1	0.1	0.1	0.1	0.1	0.1	0.1	0	0	0	0	0	0	0	0.000000000
1504606215.789069890	-1.07685	0.777728	-0.814544	-0.0905049	0.79	-1.60915	-0.0107379	0	0	0	0	0	0	0	0	0	0	0	0	0	0	0.000000000	-1.08702	0.789374	-0.789807	-0.0959768	0.828111	-1.57123	0	0.1	0.1	0.1	0.1	0.1	0.1	0.1	0	0	0	0	0	0	0	0.000000000
1504606215.809298992	-1.07685	0.777728	-0.814544	-0.0905049	0.79	-1.60915	-0.0107379	0	0	0	0	0	0	0	0	0	0	0	0	0	0	0.000000000	-1.08702	0.789374	-0.789807	-0.0959768	0.828111	-1.57123	0	0.1	0.1	0.1	0.1	0.1	0.1	0.1	0	0	0	0	0	0	0	0.000000000
1504606215.832876920	-1.07532	0.777728	-0.814544	-0.0905049	0.79	-1.60761	-0.0107379	0	0	0	0	0	0	0	0	0	0	0	0	0	0	0.000000000	-1.08687	0.790134	-0.791135	-0.0960114	0.827339	-1.5718	0	0.1	0.1	0.1	0.1	0.1	0.1	0.1	0	0	0	0	0	0	0	0.000000000
1504606215.849241018	-1.07532	0.777728	-0.814544	-0.0905049	0.79	-1.60761	-0.0107379	0	0	0	0	0	0	0	0	0	0	0	0	0	0	0.000000000	-1.08687	0.790134	-0.791135	-0.0960114	0.827339	-1.5718	0	0.1	0.1	0.1	0.1	0.1	0.1	0.1	0	0	0	0	0	0	0	0.000000000
1504606215.869157075	-1.07532	0.777728	-0.814544	-0.0905049	0.79	-1.60761	-0.0122718	0	0	0	0	0	0	0	0	0	0	0	0	0	0	0.000000000	-1.08663	0.791354	-0.793259	-0.0960671	0.826104	-1.57271	0	0.1	0.1	0.1	0.1	0.1	0.1	0.1	0	0	0	0	0	0	0	0.000000000
1504606215.889345884	-1.07532	0.777728	-0.814544	-0.0905049	0.79	-1.60915	-0.0122718	0	0	0	0	0	0	0	0	0	0	0	0	0	0	0.000000000	-1.08663	0.791354	-0.793259	-0.0960671	0.826104	-1.57271	0	0.1	0.1	0.1	0.1	0.1	0.1	0.1	0	0	0	0	0	0	0	0.000000000
1504606215.909205913	-1.07532	0.777728	-0.814544	-0.0905049	0.79	-1.60915	-0.0107379	0	0	0	0	0	0	0	0	0	0	0	0	0	0	0.000000000	-1.08629	0.793126	-0.796328	-0.0961487	0.82432	-1.57403	0	0.1	0.1	0.1	0.1	0.1	0.1	0.1	0	0	0	0	0	0	0	0.000000000
1504606215.929326057	-1.07685	0.777728	-0.814544	-0.0905049	0.79	-1.60915	-0.0122718	0	0	0	0	0	0	0	0	0	0	0	0	0	0	0.000000000	-1.08629	0.793126	-0.796328	-0.0961487	0.82432	-1.57403	0	0.1	0.1	0.1	0.1	0.1	0.1	0.1	0	0	0	0	0	0	0	0.000000000
1504606215.949060916	-1.07685	0.777728	-0.814544	-0.0905049	0.79	-1.60915	-0.0122718	0	0	0	0	0	0	0	0	0	0	0	0	0	0	0.000000000	-1.08583	0.795539	-0.800475	-0.0962608	0.821911	-1.5758	0	0.1	0.1	0.1	0.1	0.1	0.1	0.1	0	0	0	0	0	0	0	0.000000000
1504606215.969058036	-1.07532	0.777728	-0.814544	-0.0905049	0.79	-1.60761	-0.0107379	0	0	0	0	0	0	0	0	0	0	0	0	0	0	0.000000000	-1.08583	0.795539	-0.800475	-0.0962608	0.821911	-1.5758	0	0.1	0.1	0.1	0.1	0.1	0.1	0.1	0	0	0	0	0	0	0	0.000000000
1504606215.989082098	-1.07685	0.777728	-0.814544	-0.0905049	0.79	-1.60915	-0.0107379	0	0	0	0	0	0	0	0	0	0	0	0	0	0	0.000000000	-1.08523	0.798676	-0.805812	-0.0964084	0.818812	-1.57807	0	0.1	0.1	0.122757	0.1	0.1	0.1	0.1	0	0	0	0	0	0	0	0.000000000
1504606216.009180068	-1.07685	0.777728	-0.814544	-0.0905049	0.79	-1.60761	-0.0122718	0	0	0	0	0	0	0	0	0	0	0	0	0	0	0.000000000	-1.08523	0.798676	-0.805812	-0.0964084	0.818812	-1.57807	0	0.1	0.1	0.122757	0.1	0.1	0.1	0.1	0	0	0	0	0	0	0	0.000000000
1504606216.029130935	-1.07685	0.777728	-0.814544	-0.0905049	0.79	-1.60761	-0.0122718	0	0	0	0	0	0	0	0	0	0	0	0	0	0	0.000000000	-1.08449	0.802617	-0.812435	-0.0965967	0.814971	-1.58089	0	0.1	0.1	0.15232	0.1	0.1	0.1	0.1	0	0	0	0	0	0	0	0.000000000
1504606216.049289941	-1.07532	0.777728	-0.814544	-0.0905049	0.79	-1.60915	-0.0107379	0	0	0	0	0	0	0	0	0	0	0	0	0	0	0.000000000	-1.08449	0.802617	-0.812435	-0.0965967	0.814971	-1.58089	0	0.1	0.1	0.15232	0.1	0.1	0.1	0.1	0	0	0	0	0	0	0	0.000000000
1504606216.069158077	-1.07685	0.777728	-0.81301	-0.0905049	0.79	-1.60915	-0.0122718	0	0	0	0	0	0	0	0	0	0	0	0	0	0	0.000000000	-1.08449	0.802617	-0.812435	-0.0965967	0.814971	-1.58089	0	0.1	0.1	0.15232	0.1	0.1	0.1	0.1	0	0	0	0	0	0	0	0.000000000
1504606216.089078903	-1.07532	0.777728	-0.816078	-0.0905049	0.79	-1.60761	-0.0107379	0	0	0	0	0	0	0	0	0	0	0	0	0	0	0.000000000	-1.08359	0.807442	-0.82042	-0.0968314	0.810342	-1.58426	0	0.1	0.110974	0.183648	0.1	0.10645	0.1	0.1	0	0	0	0	0	0	0	0.000000000
1504606216.109965085	-1.07685	0.777728	-0.82068	-0.0905049	0.79	-1.60915	-0.0107379	0	0	0.155195	0	0	0	0	0	0	0	0	0	0	0	0.000000000	-1.08359	0.807442	-0.82042	-0.0968314	0.810342	-1.58426	0	0.1	0.110974	0.183648	0.1	0.10645	0.1	0.1	0	0	0	0	0	0	0	0.000000000
1504606216.129116058	-1.07685	0.777728	-0.82068	-0.0905049	0.79	-1.60915	-0.0107379	0	0	0.155195	0	0	0	0	0	0	0	0	0	0	0	0.000000000	-1.08253	0.813229	-0.829826	-0.0971189	0.804895	-1.58822	0	0.1	0.133082	0.216336	0.1	0.125278	0.1	0.1	0	0	0	0	0	0	0	0.000000000
1504606216.149487972	-1.07532	0.777728	-0.825282	-0.0905049	0.79	-1.60761	-0.0107379	0	0	0.202947	0	0	0	0	0	0	0	0	0	0	0	0.000000000	-1.08253	0.813229	-0.829826	-0.0971189	0.804895	-1.58822	0	0.1	0.133082	0.216336	0.1	0.125278	0.1	0.1	0	0	0	0	0	0	0	0.000000000
1504606216.169246912	-1.07685	0.777728	-0.829884	-0.0905049	0.79	-1.60761	-0.0107379	0	0	0.202947	0	0	0	0	0	0	0	0	0	0	0	0.000000000	-1.0813	0.820054	-0.840694	-0.097466	0.798608	-1.59277	0	0.1	0.156973	0.24997	0.1	0.144616	0.104633	0.1	0	0	0	0	0	0	0	0.000000000
1504606216.190269947	-1.07532	0.777728	-0.83602	-0.0905049	0.79	-1.60761	-0.0107379	0	0	0.202947	0	0	0	0	0	0	0	0	0	0	0	0.000000000	-1.0813	0.820054	-0.840694	-0.097466	0.798608	-1.59277	0	0.1	0.156973	0.24997	0.1	0.144616	0.104633	0.1	0	0	0	0	0	0	0	0.000000000
1504606216.209069967	-1.07685	0.777728	-0.83602	-0.0905049	0.79	-1.60761	-0.0107379	0	0	0.202947	0	0	0	0	0	0	0	0	0	0	0	0.000000000	-1.07989	0.827995	-0.853049	-0.0978806	0.791467	-1.59791	0	0.1	0.182647	0.284158	0.1	0.164236	0.118213	0.1	0	0	0	0	0	0	0	0.000000000
1504606216.229655981	-1.07685	0.777728	-0.842155	-0.0905049	0.79	-1.60761	-0.0107379	0	0	0.250699	0	0	0	0	0	0	0	0	0	0	0	0.000000000	-1.07989	0.827995	-0.853049	-0.0978806	0.791467	-1.59791	0	0.1	0.182647	0.284158	0.1	0.164236	0.118213	0.1	0	0	0	0	0	0	0	0.000000000
1504606216.249155044	-1.07685	0.777728	-0.849825	-0.0905049	0.79	-1.60761	-0.0107379	0	0	0.298451	0	0	0	0	0	0	0	0	0	0	0	0.000000000	-1.07831	0.837129	-0.866896	-0.0983712	0.78347	-1.60363	0	0.1	0.210094	0.318488	0.1	0.183924	0.13161	0.1	0	0	0	0	0	0	0	0.000000000
1504606216.269061088	-1.07839	0.779262	-0.854427	-0.0905049	0.786932	-1.60915	-0.0107379	0	0	0.250699	0	0.107442	0	0	0	0	0	0	0	0	0	0.000000000	-1.07831	0.837129	-0.866896	-0.0983712	0.78347	-1.60363	0	0.1	0.210094	0.318488	0.1	0.183924	0.13161	0.1	0	0	0	0	0	0	0	0.000000000
1504606216.289052963	-1.07839	0.78233	-0.860563	-0.0905049	0.785398	-1.60915	-0.0107379	0	0.143257	0.202947	0	0.107442	0	0	0	0	0	0	0	0	0	0.000000000	-1.07655	0.847533	-0.882225	-0.0989469	0.774624	-1.60992	0	0.1	0.239296	0.352569	0.1	0.20347	0.144666	0.1	0	0	0	0	0	0	0	0.000000000
1504606216.309997081	-1.07992	0.786932	-0.866699	-0.0905049	0.779262	-1.61528	-0.0122718	0	0.143257	0.250699	0	0.155195	0.202947	0	0	0	0	0	0	0	0	0.000000000	-1.07655	0.847533	-0.882225	-0.0989469	0.774624	-1.60992	0	0.1	0.239296	0.352569	0.1	0.20347	0.144666	0.1	0	0	0	0	0	0	0	0.000000000
1504606216.329346895	-1.07992	0.786932	-0.866699	-0.0905049	0.779262	-1.61528	-0.0122718	0	0.143257	0.250699	0	0.155195	0.202947	0	0	0	0	0	0	0	0	0.000000000	-1.07655	0.847533	-0.882225	-0.0989469	0.774624	-1.60992	0	0.1	0.239296	0.352569	0.1	0.20347	0.144666	0.1	0	0	0	0	0	0	0	0.000000000
1504606216.349677085	-1.07992	0.794602	-0.874369	-0.0905049	0.77466	-1.61682	-0.0122718	0	0.286513	0.298451	0	0.202947	0.155195	0	0	0	0	0	0	0	0	0.000000000	-1.0746	0.859282	-0.899007	-0.0996179	0.764942	-1.61676	0	0.1	0.270211	0.385997	0.1	0.222685	0.157221	0.1	0	0	0	0	0	0	0	0.000000000
1504606216.369225025	-1.07992	0.803806	-0.883573	-0.0920388	0.768524	-1.62142	-0.0122718	0	0.382018	0.346204	0	0.202947	0.155195	0	0	0	0	0	0	0	0	0.000000000	-1.0746	0.859282	-0.899007	-0.0996179	0.764942	-1.61676	0	0.1	0.270211	0.385997	0.1	0.222685	0.157221	0.1	0	0	0	0	0	0	0	0.000000000
1504606216.389134883	-1.07992	0.81301	-0.892777	-0.0935728	0.762388	-1.62602	-0.0107379	0	0.334265	0.298451	0	0.250699	0.202947	0	0	0	0	0	0	0	0	0.000000000	-1.07248	0.872446	-0.917198	-0.100395	0.754447	-1.62411	0	0.1	0.302777	0.418373	0.1	0.241389	0.169143	0.1	0	0	0	0	0	0	0	0.000000000
1504606216.410017013	-1.07992	0.823748	-0.901981	-0.0935728	0.756253	-1.62909	-0.0107379	0	0.334265	0.346204	0	0.250699	0.107442	0	0	0	0	0	0	0	0	0.000000000	-1.07248	0.872446	-0.917198	-0.100395	0.754447	-1.62411	0	0.1	0.302777	0.418373	0.1	0.241389	0.169143	0.1	0	0	0	0	0	0	0	0.000000000
1504606216.429183006	-1.07992	0.823748	-0.901981	-0.0935728	0.756253	-1.62909	-0.0107379	0	0.334265	0.346204	0	0.250699	0.107442	0	0	0	0	0	0	0	0	0.000000000	-1.07017	0.887093	-0.936733	-0.10129	0.743168	-1.63195	0	0.1	0.336892	0.449304	0.1	0.259418	0.180318	0.1	0	0	0	0	0	0	0	0.000000000
1504606216.450309991	-1.07992	0.831418	-0.914253	-0.0951068	0.751651	-1.63216	-0.0107379	0	0.286513	0.441708	0	0.155195	0.107442	0	0	0	0	0	0	0	0	0.000000000	-1.07017	0.887093	-0.936733	-0.10129	0.743168	-1.63195	0	0.1	0.336892	0.449304	0.1	0.259418	0.180318	0.1	0	0	0	0	0	0	0	0.000000000
1504606216.469080924	-1.07992	0.839087	-0.92499	-0.0951068	0.743981	-1.63676	-0.0107379	0	0.286513	0.441708	0	0.250699	0.202947	0	0	0	0	0	0	0	0	0.000000000	-1.06769	0.903285	-0.957532	-0.102315	0.731141	-1.64024	0	0.1	0.37241	0.478386	0.1	0.276624	0.190655	0.1	0	0	0	0	0	0	0	0.000000000
1504606216.489144086	-1.07992	0.846757	-0.935728	-0.0951068	0.737845	-1.64136	-0.0107379	0	0.286513	0.441708	0	0.250699	0.202947	0	0	0	0	0	0	0	0	0.000000000	-1.06769	0.903285	-0.957532	-0.102315	0.731141	-1.64024	0	0.1	0.37241	0.478386	0.1	0.276624	0.190655	0.1	0	0	0	0	0	0	0	0.000000000
1504606216.509113073	-1.07992	0.852893	-0.948	-0.0966408	0.730175	-1.6475	-0.0107379	0	0.238761	0.441708	0	0.298451	0.202947	0	0	0	0	0	0	0	0	0.000000000	-1.06769	0.903285	-0.957532	-0.102315	0.731141	-1.64024	0	0.1	0.37241	0.478386	0.1	0.276624	0.190655	0.1	0	0	0	0	0	0	0	0.000000000
1504606216.529159069	-1.07992	0.852893	-0.948	-0.0966408	0.730175	-1.6475	-0.0107379	0	0.238761	0.441708	0	0.298451	0.202947	0	0	0	0	0	0	0	0	0.000000000	-1.06504	0.921074	-0.979498	-0.103481	0.718407	-1.64894	0	0.1	0.409147	0.505226	0.1	0.292875	0.20007	0.1	0	0	0	0	0	0	0	0.000000000
1504606216.549336910	-1.07992	0.862097	-0.960272	-0.0966408	0.724039	-1.65363	-0.0107379	0	0.286513	0.441708	0	0.202947	0.202947	0	0	0	0	0	0	0	0	0.000000000	-1.06222	0.940503	-1.00252	-0.104804	0.705013	-1.65801	0	0.1	0.446868	0.529436	0.1	0.308057	0.208515	0.1	0	0	0	0	0	0	0	0.000000000
1504606216.569030046	-1.07992	0.871301	-0.97101	-0.0966408	0.719437	-1.6567	-0.0107379	0	0.334265	0.393956	0	0.202947	0.155195	0	0	0	0	0	0	0	0	0.000000000	-1.06222	0.940503	-1.00252	-0.104804	0.705013	-1.65801	0	0.1	0.446868	0.529436	0.1	0.308057	0.208515	0.1	0	0	0	0	0	0	0	0.000000000
1504606216.589176893	-1.07992	0.883573	-0.981748	-0.0981748	0.713301	-1.65977	-0.0107379	0	0.42977	0.441708	0	0.202947	0.202947	0	0	0	0	0	0	0	0	0.000000000	-1.06222	0.940503	-1.00252	-0.104804	0.705013	-1.65801	0	0.1	0.446868	0.529436	0.1	0.308057	0.208515	0.1	0	0	0	0	0	0	0	0.000000000
1504606216.610795021	-1.07839	0.894311	-0.995554	-0.0981748	0.705631	-1.66437	-0.0107379	0	0.42977	0.48946	0	0.250699	0.202947	0	0	0	0	0	0	0	0	0.000000000	-1.05924	0.961603	-1.02646	-0.106295	0.69101	-1.6674	0	0.1	0.485285	0.550639	0.1	0.32207	0.215954	0.1	0	0	0	0	0	0	0	0.000000000
1504606216.629894018	-1.07839	0.894311	-0.995554	-0.0981748	0.705631	-1.66437	-0.0107379	0	0.42977	0.48946	0	0.250699	0.202947	0	0	0	0	0	0	0	0	0.000000000	-1.05924	0.961603	-1.02646	-0.106295	0.69101	-1.6674	0	0.1	0.485285	0.550639	0.1	0.32207	0.215954	0.1	0	0	0	0	0	0	0	0.000000000
1504606216.649487972	-1.07685	0.906583	-1.00936	-0.0997088	0.697961	-1.67051	-0.0107379	0.0955044	0.477522	0.537212	0	0.298451	0.202947	0	0	0	0	0	0	0	0	0.000000000	-1.05611	0.984388	-1.05117	-0.107967	0.676452	-1.67706	0	0.1	0.524073	0.568471	0.1	0.334833	0.222367	0.1	0	0	0	0	0	0	0	0.000000000
1504606216.669158935	-1.07532	0.921922	-1.0247	-0.101243	0.687223	-1.67817	-0.0107379	0.0955044	0.477522	0.537212	0	0.346204	0.250699	0	0	0	0	0	0	0	0	0.000000000	-1.05611	0.984388	-1.05117	-0.107967	0.676452	-1.67706	0	0.1	0.524073	0.568471	0.1	0.334833	0.222367	0.1	0	0	0	0	0	0	0	0.000000000
1504606216.689404964	-1.07379	0.937262	-1.0385	-0.101243	0.67802	-1.68431	-0.0107379	0	0.525274	0.537212	0	0.346204	0.250699	0	0	0	0	0	0	0	0	0.000000000	-1.05283	1.00886	-1.0765	-0.109834	0.661396	-1.68697	0	0.1	0.562853	0.582602	0.1	0.346278	0.227748	0.1	0	0	0	0	0	0	0	0.000000000
1504606216.709093093	-1.07379	0.949534	-1.05384	-0.101243	0.67035	-1.68891	-0.0107379	0	0.525274	0.537212	0	0.298451	0.202947	0	0	0	0	0	0	0	0	0.000000000	-1.05283	1.00886	-1.0765	-0.109834	0.661396	-1.68697	0	0.1	0.562853	0.582602	0.1	0.346278	0.227748	0.1	0	0	0	0	0	0	0	0.000000000
1504606216.731106996	-1.07072	0.96334	-1.05384	-0.101243	0.67035	-1.68891	-0.0107379	0.0955044	0.477522	0.537212	0	0.298451	0.202947	0	0	0	0	0	0	0	0	0.000000000	-1.04942	1.035	-1.10228	-0.111908	0.645902	-1.69706	0	0.1	0.601237	0.592748	0.1	0.356368	0.232118	0.1	0	0	0	0	0	0	0	0.000000000
1504606216.749037981	-1.07072	0.96334	-1.06765	-0.104311	0.661146	-1.69505	-0.0107379	0.0955044	0.477522	0.48946	0	0.346204	0.250699	0	0	0	0	0	0	0	0	0.000000000	-1.04942	1.035	-1.10228	-0.111908	0.645902	-1.69706	0	0.1	0.601237	0.592748	0.1	0.356368	0.232118	0.1	0	0	0	0	0	0	0	0.000000000
1504606216.769229888	-1.06765	0.980214	-1.08146	-0.105845	0.65501	-1.70118	-0.0107379	0.0955044	0.573026	0.537212	0.107442	0.298451	0.202947	0	0	0	0	0	0	0	0	0.000000000	-1.04587	1.06277	-1.1283	-0.114201	0.63003	-1.7073	0	0.1	0.63876	0.598633	0.1	0.365051	0.235493	0.1	0	0	0	0	0	0	0	0.000000000
1504606216.789124011	-1.06458	0.99402	-1.0968	-0.107379	0.64734	-1.70425	-0.0107379	0.0955044	0.573026	0.584965	0.107442	0.250699	0.202947	0	0	0	0	0	0	0	0	0.000000000	-1.04587	1.06277	-1.1283	-0.114201	0.63003	-1.7073	0	0.1	0.63876	0.598633	0.1	0.365051	0.235493	0.1	0	0	0	0	0	0	0	0.000000000
1504606216.809185028	-1.06305	1.01243	-1.11214	-0.107379	0.638136	-1.71346	-0.0107379	0	0.573026	0.584965	0	0.346204	0.298451	0	0	0	0	0	0	0	0	0.000000000	-1.04587	1.06277	-1.1283	-0.114201	0.63003	-1.7073	0	0.1	0.63876	0.598633	0.1	0.365051	0.235493	0.1	0	0	0	0	0	0	0	0.000000000
1504606216.830099105	-1.06305	1.01243	-1.11214	-0.107379	0.638136	-1.71346	-0.0107379	0	0.573026	0.584965	0	0.346204	0.298451	0	0	0	0	0	0	0	0	0.000000000	-1.04222	1.09212	-1.15439	-0.116723	0.613842	-1.71764	0	0.1	0.675022	0.60009	0.1	0.372324	0.237914	0.1	0	0	0	0	0	0	0	0.000000000
1504606216.849309921	-1.05998	1.02623	-1.12748	-0.108913	0.627398	-1.71959	-0.0122718	0.0955044	0.525274	0.537212	0	0.346204	0.250699	0	0	0	0	0	0	0	0	0.000000000	-1.04222	1.09212	-1.15439	-0.116723	0.613842	-1.71764	0	0.1	0.675022	0.60009	0.1	0.372324	0.237914	0.1	0	0	0	0	0	0	0	0.000000000
1504606216.869119882	-1.05998	1.04004	-1.14128	-0.108913	0.619728	-1.72419	-0.0107379	0	0.525274	0.537212	0	0.298451	0.250699	0	0	0	0	0	0	0	0	0.000000000	-1.03845	1.12297	-1.18035	-0.119485	0.5974	-1.72805	0	0.1	0.709542	0.596975	0.1	0.378168	0.239408	0.1	0	0	0	0	0	0	0	0.000000000
1504606216.889050960	-1.05998	1.05691	-1.15509	-0.110447	0.612058	-1.7288	-0.0107379	0	0.620779	0.537212	0	0.298451	0.202947	0	0	0	0	0	0	0	0	0.000000000	-1.03845	1.12297	-1.18035	-0.119485	0.5974	-1.72805	0	0.1	0.709542	0.596975	0.1	0.378168	0.239408	0.1	0	0	0	0	0	0	0	0.000000000
1504606216.909187078	-1.05845	1.07225	-1.17043	-0.111981	0.604388	-1.73493	-0.0122718	0	0.573026	0.584965	0	0.298451	0.202947	0	0	0	0	0	0	0	0	0.000000000	-1.0346	1.15523	-1.20597	-0.122494	0.580765	-1.73849	0	0.1	0.741931	0.589263	0.1	0.382604	0.240039	0.1	0	0	0	0	0	0	0	0.000000000
1504606216.929239034	-1.05845	1.07225	-1.17043	-0.111981	0.604388	-1.73493	-0.0122718	0	0.573026	0.584965	0	0.298451	0.202947	0	0	0	0	0	0	0	0	0.000000000	-1.0346	1.15523	-1.20597	-0.122494	0.580765	-1.73849	0	0.1	0.741931	0.589263	0.1	0.382604	0.240039	0.1	0	0	0	0	0	0	0	0.000000000
1504606216.949275016	-1.05538	1.09833	-1.18884	-0.113515	0.592117	-1.74414	-0.0107379	0.0955044	0.716283	0.537212	0	0.393956	0.298451	0	0	0	0	0	0	0	0	0.000000000	-1.03066	1.18878	-1.23106	-0.125757	0.563999	-1.74892	0	0.1	0.771762	0.576968	0.1	0.385634	0.239844	0.1	0	0	0	0	0	0	0	0.000000000
1504606216.969161033	-1.05078	1.1152	-1.20264	-0.115049	0.581379	-1.74874	-0.0107379	0.143257	0.716283	0.584965	0	0.393956	0.250699	0	0	0	0	0	0	0	0	0.000000000	-1.03066	1.18878	-1.23106	-0.125757	0.563999	-1.74892	0	0.1	0.771762	0.576968	0.1	0.385634	0.239844	0.1	0	0	0	0	0	0	0	0.000000000
1504606216.989142894	-1.04617	1.13668	-1.21798	-0.116583	0.570641	-1.75487	-0.0107379	0.143257	0.716283	0.584965	0	0.393956	0.202947	0	0	0	0	0	0	0	0	0.000000000	-1.02665	1.22351	-1.25541	-0.129278	0.54716	-1.7593	0	0.1	0.798725	0.560246	0.1	0.3873	0.238879	0.1	0	0	0	0	0	0	0	0.000000000
1504606217.009136915	-1.04617	1.13668	-1.21798	-0.116583	0.570641	-1.75487	-0.0107379	0.143257	0.716283	0.584965	0	0.393956	0.202947	0	0	0	0	0	0	0	0	0.000000000	-1.02665	1.22351	-1.25541	-0.129278	0.54716	-1.7593	0	0.1	0.798725	0.560246	0.1	0.3873	0.238879	0.1	0	0	0	0	0	0	0	0.000000000
1504606217.031320095	-1.04004	1.17963	-1.24713	-0.121184	0.550699	-1.76561	-0.0107379	0.0955044	0.764035	0.537212	0.107442	0.393956	0.202947	0	0	0	0	0	0	0	0	0.000000000	-1.02259	1.25927	-1.27886	-0.133059	0.530306	-1.76961	0	0.1	0.822482	0.539285	0.1	0.387625	0.23719	0.1	0	0	0	0	0	0	0	0.000000000
1504606217.049220085	-1.04004	1.17963	-1.24713	-0.121184	0.550699	-1.76561	-0.0107379	0.0955044	0.764035	0.537212	0.107442	0.393956	0.202947	0	0	0	0	0	0	0	0	0.000000000	-1.02259	1.25927	-1.27886	-0.133059	0.530306	-1.76961	0	0.1	0.822482	0.539285	0.1	0.387625	0.23719	0.1	0	0	0	0	0	0	0	0.000000000
1504606217.069226980	-1.04004	1.20111	-1.2594	-0.124252	0.543029	-1.77021	-0.0107379	0	0.764035	0.48946	0.107442	0.298451	0.155195	0	0	0	0	0	0	0	0	0.000000000	-1.02259	1.25927	-1.27886	-0.133059	0.530306	-1.76961	0	0.1	0.822482	0.539285	0.1	0.387625	0.23719	0.1	0	0	0	0	0	0	0	0.000000000
1504606217.089092016	-1.0385	1.22105	-1.27014	-0.125786	0.533825	-1.77788	-0.0107379	0	0.716283	0.393956	0	0.298451	0.250699	0	0	0	0	0	0	0	0	0.000000000	-1.01849	1.29592	-1.30123	-0.1371	0.513495	-1.77982	0	0.1	0.842847	0.514411	0.1	0.386664	0.234832	0.1	0	0	0	0	0	0	0	0.000000000
1504606217.109097957	-1.03544	1.24099	-1.28241	-0.12732	0.524621	-1.78402	-0.0107379	0.0955044	0.716283	0.441708	0.107442	0.346204	0.202947	0	0	0	0	0	0	0	0	0.000000000	-1.01849	1.29592	-1.30123	-0.1371	0.513495	-1.77982	0	0.1	0.842847	0.514411	0.1	0.386664	0.234832	0.1	0	0	0	0	0	0	0	0.000000000
1504606217.129978895	-1.03544	1.24099	-1.28241	-0.12732	0.524621	-1.78402	-0.0107379	0.0955044	0.716283	0.441708	0.107442	0.346204	0.202947	0	0	0	0	0	0	0	0	0.000000000	-1.01436	1.33329	-1.32236	-0.141395	0.49678	-1.7899	0	0.1	0.859609	0.485976	0.1	0.384451	0.231841	0.1	0	0	0	0	0	0	0	0.000000000
1504606217.149158954	-1.03237	1.26093	-1.29928	-0.130388	0.513884	-1.79169	-0.0107379	0.0955044	0.811788	0.584965	0.107442	0.346204	0.250699	0	0	0	0	0	0	0	0	0.000000000	-1.01436	1.33329	-1.32236	-0.141395	0.49678	-1.7899	0	0.1	0.859609	0.485976	0.1	0.384451	0.231841	0.1	0	0	0	0	0	0	0	0.000000000
1504606217.169272899	-1.02777	1.28394	-1.31155	-0.133456	0.50468	-1.79629	-0.0107379	0.143257	0.764035	0.48946	0.107442	0.393956	0.202947	0	0	0	0	0	0	0	0	0.000000000	-1.01022	1.37124	-1.34212	-0.145941	0.480212	-1.79983	0	0.1	0.872711	0.45445	0.104538	0.381055	0.228268	0.1	0	0	0	0	0	0	0	0.000000000
1504606217.189425945	-1.02317	1.30542	-1.32383	-0.13499	0.493942	-1.80089	-0.0107379	0.191009	0.85954	0.48946	0.107442	0.393956	0.155195	0	0	0	0	0	0	0	0	0.000000000	-1.01022	1.37124	-1.34212	-0.145941	0.480212	-1.79983	0	0.1	0.872711	0.45445	0.104538	0.381055	0.228268	0.1	0	0	0	0	0	0	0	0.000000000
1504606217.210289001	-1.02163	1.33303	-1.3361	-0.138058	0.483204	-1.80856	-0.0107379	0.0955044	0.85954	0.393956	0.107442	0.393956	0.250699	0	0	0	0	0	0	0	0	0.000000000	-1.00609	1.40959	-1.36039	-0.150725	0.463842	-1.80957	0	0.1	0.882078	0.420296	0.110041	0.376512	0.224142	0.1	0	0	0	0	0	0	0	0.000000000
1504606217.229788064	-1.02163	1.33303	-1.3361	-0.138058	0.483204	-1.80856	-0.0107379	0.0955044	0.85954	0.393956	0.107442	0.393956	0.250699	0	0	0	0	0	0	0	0	0.000000000	-1.00609	1.40959	-1.36039	-0.150725	0.463842	-1.80957	0	0.1	0.882078	0.420296	0.110041	0.376512	0.224142	0.1	0	0	0	0	0	0	0	0.000000000
1504606217.249100923	-1.01856	1.36217	-1.34837	-0.141126	0.472466	-1.81623	-0.0122718	0.0955044	0.811788	0.393956	0.155195	0.346204	0.250699	0	0	0	0	0	0	0	0	0.000000000	-1.00196	1.44819	-1.37709	-0.155736	0.447716	-1.81912	0	0.1	0.887774	0.38407	0.115244	0.370898	0.219514	0.1	0	0	0	0	0	0	0	0.000000000
1504606217.273427009	-1.01856	1.38212	-1.35911	-0.145728	0.464796	-1.8193	-0.0122718	0	0.85954	0.393956	0.155195	0.298451	0.202947	0	0	0	0	0	0	0	0	0.000000000	-1.00196	1.44819	-1.37709	-0.155736	0.447716	-1.81912	0	0.1	0.887774	0.38407	0.115244	0.370898	0.219514	0.1	0	0	0	0	0	0	0	0.000000000
1504606217.290751934	-1.0155	1.40206	-1.36831	-0.147262	0.457126	-1.82544	-0.0107379	0.0955044	0.85954	0.393956	0.107442	0.298451	0.202947	0	0	0	0	0	0	0	0	0.000000000	-0.99787	1.48687	-1.39214	-0.160956	0.431879	-1.82844	0	0.1	0.889818	0.346297	0.120064	0.364255	0.214395	0.1	0	0	0	0	0	0	0	0.000000000
1504606217.309925079	-1.01243	1.4266	-1.36831	-0.147262	0.457126	-1.82544	-0.0107379	0.0955044	0.764035	0.393956	0.107442	0.298451	0.202947	0	0	0	0	0	0	0	0	0.000000000	-0.99787	1.48687	-1.39214	-0.160956	0.431879	-1.82844	0	0.1	0.889818	0.346297	0.120064	0.364255	0.214395	0.1	0	0	0	0	0	0	0	0.000000000
1504606217.330637931	-1.01243	1.4266	-1.38058	-0.148796	0.446388	-1.83157	-0.0107379	0.0955044	0.764035	0.393956	0	0.346204	0.250699	0	0	0	0	0	0	0	0	0.000000000	-0.99787	1.48687	-1.39214	-0.160956	0.431879	-1.82844	0	0.1	0.889818	0.346297	0.120064	0.364255	0.214395	0.1	0	0	0	0	0	0	0	0.000000000
1504606217.349225997	-1.00936	1.44808	-1.39132	-0.151864	0.438719	-1.83618	-0.0107379	0.0955044	0.811788	0.393956	0.107442	0.346204	0.155195	0	0	0	0	0	0	0	0	0.000000000	-0.993821	1.5255	-1.40552	-0.166366	0.416372	-1.83752	0	0.1	0.888364	0.307554	0.124426	0.356655	0.208834	0.1	0	0	0	0	0	0	0	0.000000000
1504606217.369220972	-1.00783	1.46955	-1.39899	-0.153398	0.427981	-1.84231	-0.0122718	0.0955044	0.85954	0.346204	0	0.393956	0.202947	0	0	0	0	0	0	0	0	0.000000000	-0.993821	1.5255	-1.40552	-0.166366	0.416372	-1.83752	0	0.1	0.888364	0.307554	0.124426	0.356655	0.208834	0.1	0	0	0	0	0	0	0	0.000000000
1504606217.389322042	-1.00476	1.4895	-1.40666	-0.158	0.420311	-1.84538	-0.0107379	0.0955044	0.764035	0.298451	0.155195	0.346204	0.202947	0	0	0	0	0	0	0	0	0.000000000	-0.98983	1.56391	-1.41718	-0.171942	0.401235	-1.84634	0	0.1	0.883498	0.268362	0.128249	0.34814	0.202841	0.1	0	0	0	0	0	0	0	0.000000000
1504606217.409470081	-1.00476	1.4895	-1.40666	-0.158	0.420311	-1.84538	-0.0107379	0.0955044	0.764035	0.298451	0.155195	0.346204	0.202947	0	0	0	0	0	0	0	0	0.000000000	-0.98983	1.56391	-1.41718	-0.171942	0.401235	-1.84634	0	0.1	0.883498	0.268362	0.128249	0.34814	0.202841	0.1	0	0	0	0	0	0	0	0.000000000
1504606217.429879903	-1.00016	1.52171	-1.41433	-0.161068	0.411107	-1.85458	-0.0107379	0.143257	0.811788	0.250699	0.107442	0.346204	0.250699	0	0	0	0	0	0	0	0	0.000000000	-0.985912	1.60197	-1.42715	-0.177658	0.386506	-1.85488	0	0.1	0.875417	0.229269	0.131465	0.338781	0.196452	0.1	0	0	0	0	0	0	0	0.000000000
1504606217.449522972	-1.00016	1.52171	-1.41433	-0.161068	0.411107	-1.85458	-0.0107379	0.143257	0.811788	0.250699	0.107442	0.346204	0.250699	0	0	0	0	0	0	0	0	0.000000000	-0.985912	1.60197	-1.42715	-0.177658	0.386506	-1.85488	0	0.1	0.875417	0.229269	0.131465	0.338781	0.196452	0.1	0	0	0	0	0	0	0	0.000000000
1504606217.472531080	-0.99402	1.57233	-1.42967	-0.167204	0.386563	-1.86685	-0.0107379	0.143257	0.85954	0.250699	0.107442	0.393956	0.202947	0	0	0	0	0	0	0	0	0.000000000	-0.982078	1.63955	-1.43545	-0.183484	0.372218	-1.86313	0	0.1	0.864223	0.190747	0.133997	0.32862	0.189686	0.1	0	0	0	0	0	0	0	0.000000000
1504606217.494043111	-0.990952	1.59227	-1.43427	-0.170272	0.378893	-1.86839	-0.0122718	0.0955044	0.907292	0.202947	0.107442	0.346204	0.107442	0	0	0	0	0	0	0	0	0.000000000	-0.982078	1.63955	-1.43545	-0.183484	0.372218	-1.86313	0	0.1	0.864223	0.190747	0.133997	0.32862	0.189686	0.1	0	0	0	0	0	0	0	0.000000000
1504606217.509558916	-0.990952	1.59227	-1.43427	-0.170272	0.378893	-1.86839	-0.0122718	0.0955044	0.907292	0.202947	0.107442	0.346204	0.107442	0	0	0	0	0	0	0	0	0.000000000	-0.978342	1.67651	-1.44211	-0.189387	0.358404	-1.87107	0	0.1	0.850118	0.153274	0.135791	0.317721	0.182576	0.1	0	0	0	0	0	0	0	0.000000000
1504606217.529347896	-0.987884	1.61528	-1.43734	-0.174874	0.371223	-1.87299	-0.0107379	0.0955044	0.907292	0.202947	0.155195	0.298451	0.155195	0	0	0	0	0	0	0	0	0.000000000	-0.978342	1.67651	-1.44211	-0.189387	0.358404	-1.87107	0	0.1	0.850118	0.153274	0.135791	0.317721	0.182576	0.1	0	0	0	0	0	0	0	0.000000000
1504606217.549357891	-0.98635	1.63522	-1.44194	-0.179476	0.362019	-1.87759	-0.0107379	0.0955044	0.811788	0.155195	0.202947	0.346204	0.202947	0	0	0	0	0	0	0	0	0.000000000	-0.978342	1.67651	-1.44211	-0.189387	0.358404	-1.87107	0	0.1	0.850118	0.153274	0.135791	0.317721	0.182576	0.1	0	0	0	0	0	0	0	0.000000000
1504606217.571901082	-0.984816	1.65517	-1.44654	-0.182544	0.355884	-1.87759	-0.0107379	0	0.716283	0.202947	0.155195	0.298451	0.202947	0	0	0	0	0	0	0	0	0.000000000	-0.974716	1.71273	-1.44721	-0.195335	0.345094	-1.87868	0	0.1	0.8332	0.117259	0.136786	0.306127	0.175135	0.1	0	0	0	0	0	0	0	0.000000000
1504606217.590650081	-0.980214	1.67664	-1.44961	-0.184078	0.348214	-1.88833	-0.0107379	0.0955044	0.716283	0.107442	0	0.250699	0.202947	0	0	0	0	0	0	0	0	0.000000000	-0.974716	1.71273	-1.44721	-0.195335	0.345094	-1.87868	0	0.1	0.8332	0.117259	0.136786	0.306127	0.175135	0.1	0	0	0	0	0	0	0	0.000000000
1504606217.609107971	-0.980214	1.67664	-1.44961	-0.184078	0.348214	-1.88833	-0.0107379	0.0955044	0.716283	0.107442	0	0.250699	0.202947	0	0	0	0	0	0	0	0	0.000000000	-0.971212	1.74811	-1.45082	-0.201289	0.332316	-1.88596	0	0.1	0.813638	0.1	0.136943	0.293901	0.1674	0.1	0	0	0	0	0	0	0	0.000000000
1504606217.629080057	-0.977146	1.70885	-1.45421	-0.191748	0.335942	-1.89447	-0.0122718	0.0955044	0.764035	0.107442	0.155195	0.250699	0.155195	0	0	0	0	0	0	0	0	0.000000000	-0.971212	1.74811	-1.45082	-0.201289	0.332316	-1.88596	0	0.1	0.813638	0.1	0.136943	0.293901	0.1674	0.1	0	0	0	0	0	0	0	0.000000000
1504606217.649009943	-0.977146	1.70885	-1.45421	-0.191748	0.335942	-1.89447	-0.0122718	0.0955044	0.764035	0.107442	0.155195	0.250699	0.155195	0	0	0	0	0	0	0	0	0.000000000	-0.96784	1.78252	-1.45304	-0.207212	0.320095	-1.89289	0	0.1	0.791505	0.1	0.136227	0.281084	0.159392	0.1	0	0	0	0	0	0	0	0.000000000
1504606217.669025897	-0.974078	1.73186	-1.45575	-0.194816	0.328272	-1.89907	-0.0107379	0.0955044	0.811788	0	0.155195	0.298451	0.155195	0	0	0	0	0	0	0	0	0.000000000	-0.96784	1.78252	-1.45304	-0.207212	0.320095	-1.89289	0	0.1	0.791505	0.1	0.136227	0.281084	0.159392	0.1	0	0	0	0	0	0	0	0.000000000
1504606217.689116001	-0.972544	1.75641	-1.45882	-0.19635	0.319068	-1.90214	-0.0107379	0.0955044	0.907292	0.107442	0.107442	0.346204	0.107442	0	0	0	0	0	0	0	0	0.000000000	-0.964611	1.81587	-1.45398	-0.213065	0.308454	-1.89946	0	0.1	0.766936	0.1	0.13462	0.267736	0.151153	0.1	0	0	0	0	0	0	0	0.000000000
1504606217.708987951	-0.969476	1.77788	-1.46035	-0.202485	0.311398	-1.9052	-0.0107379	0.0955044	0.85954	0	0.202947	0.298451	0.107442	0	0	0	0	0	0	0	0	0.000000000	-0.964611	1.81587	-1.45398	-0.213065	0.308454	-1.89946	0	0.1	0.766936	0.1	0.13462	0.267736	0.151153	0.1	0	0	0	0	0	0	0	0.000000000
1504606217.729140043	-0.969476	1.77788	-1.46035	-0.202485	0.311398	-1.9052	-0.0107379	0.0955044	0.85954	0	0.202947	0.298451	0.107442	0	0	0	0	0	0	0	0	0.000000000	-0.961533	1.84804	-1.45375	-0.218809	0.297414	-1.90566	0	0.1	0.739998	0.1	0.132117	0.253913	0.142709	0.1	0	0	0	0	0	0	0	0.000000000
1504606217.749119997	-0.966408	1.79783	-1.46035	-0.207087	0.303728	-1.90827	-0.0107379	0.0955044	0.716283	0	0.155195	0.250699	0.107442	0	0	0	0	0	0	0	0	0.000000000	-0.961533	1.84804	-1.45375	-0.218809	0.297414	-1.90566	0	0.1	0.739998	0.1	0.132117	0.253913	0.142709	0.1	0	0	0	0	0	0	0	0.000000000
1504606217.769062042	-0.964874	1.8147	-1.46035	-0.210155	0.296058	-1.91441	-0.0122718	0.0955044	0.620779	0	0.107442	0.298451	0.155195	0	0	0	0	0	0	0	0	0.000000000	-0.958615	1.87894	-1.45248	-0.224406	0.286994	-1.91149	0	0.1	0.710746	0.1	0.128724	0.239662	0.134093	0.1	0	0	0	0	0	0	0	0.000000000
1504606217.789038896	-0.961806	1.83157	-1.46035	-0.213223	0.289922	-1.91748	-0.0107379	0.0955044	0.620779	0	0.107442	0.250699	0.155195	0	0	0	0	0	0	0	0	0.000000000	-0.958615	1.87894	-1.45248	-0.224406	0.286994	-1.91149	0	0.1	0.710746	0.1	0.128724	0.239662	0.134093	0.1	0	0	0	0	0	0	0	0.000000000
1504606217.809047937	-0.961806	1.84845	-1.46035	-0.217825	0.28532	-1.92054	-0.0107379	0	0.668531	0	0.155195	0.202947	0.155195	0	0	0	0	0	0	0	0	0.000000000	-0.958615	1.87894	-1.45248	-0.224406	0.286994	-1.91149	0	0.1	0.710746	0.1	0.128724	0.239662	0.134093	0.1	0	0	0	0	0	0	0	0.000000000
1504606217.829247951	-0.958738	1.86839	-1.46035	-0.219359	0.280718	-1.92208	-0.0107379	0.0955044	0.668531	0	0.107442	0.155195	0.107442	0	0	0	0	0	0	0	0	0.000000000	-0.955865	1.90848	-1.45031	-0.229817	0.277209	-1.91695	0	0.1	0.679266	0.1	0.12447	0.225054	0.125354	0.1	0	0	0	0	0	0	0	0.000000000
1504606217.849122047	-0.958738	1.86839	-1.46035	-0.219359	0.280718	-1.92208	-0.0107379	0.0955044	0.668531	0	0.107442	0.155195	0.107442	0	0	0	0	0	0	0	0	0.000000000	-0.955865	1.90848	-1.45031	-0.229817	0.277209	-1.91695	0	0.1	0.679266	0.1	0.12447	0.225054	0.125354	0.1	0	0	0	0	0	0	0	0.000000000
1504606217.869106054	-0.957204	1.8868	-1.46035	-0.222427	0.274583	-1.92668	-0.0107379	0.0955044	0.716283	0	0.107442	0.202947	0.155195	0	0	0	0	0	0	0	0	0.000000000	-0.953288	1.93655	-1.44738	-0.235008	0.268073	-1.92201	0	0.1	0.64559	0.1	0.119391	0.210142	0.116524	0.1	0	0	0	0	0	0	0	0.000000000
1504606217.889127969	-0.95567	1.9052	-1.46035	-0.223961	0.268447	-1.93128	-0.0107379	0.0955044	0.668531	0	0.107442	0.202947	0.155195	0	0	0	0	0	0	0	0	0.000000000	-0.953288	1.93655	-1.44738	-0.235008	0.268073	-1.92201	0	0.1	0.64559	0.1	0.119391	0.210142	0.116524	0.1	0	0	0	0	0	0	0	0.000000000
1504606217.909058094	-0.954136	1.92208	-1.46035	-0.227029	0.262311	-1.93435	-0.0107379	0	0.620779	0	0.107442	0.202947	0.155195	0	0	0	0	0	0	0	0	0.000000000	-0.950889	1.96306	-1.44384	-0.239945	0.259594	-1.92669	0	0.1	0.609824	0.1	0.113543	0.195004	0.107647	0.1	0	0	0	0	0	0	0	0.000000000
1504606217.928975105	-0.952602	1.93435	-1.46035	-0.230097	0.256175	-1.93588	-0.0107379	0	0.525274	0	0.107442	0.250699	0	0	0	0	0	0	0	0	0	0.000000000	-0.950889	1.96306	-1.44384	-0.239945	0.259594	-1.92669	0	0.1	0.609824	0.1	0.113543	0.195004	0.107647	0.1	0	0	0	0	0	0	0	0.000000000
1504606217.949035882	-0.952602	1.93435	-1.46035	-0.230097	0.256175	-1.93588	-0.0107379	0	0.525274	0	0.107442	0.250699	0	0	0	0	0	0	0	0	0	0.000000000	-0.948674	1.98793	-1.43983	-0.244597	0.251781	-1.93099	0	0.1	0.572022	0.1	0.106992	0.179706	0.1	0.1	0	0	0	0	0	0	0	0.000000000
1504606217.969054937	-0.951068	1.95122	-1.46035	-0.234699	0.251573	-1.93742	-0.0107379	0	0.573026	0	0.155195	0.202947	0	0	0	0	0	0	0	0	0	0.000000000	-0.948674	1.98793	-1.43983	-0.244597	0.251781	-1.93099	0	0.1	0.572022	0.1	0.106992	0.179706	0.1	0.1	0	0	0	0	0	0	0	0.000000000
1504606217.989039897	-0.949534	1.96503	-1.46035	-0.237767	0.246971	-1.94049	-0.0107379	0	0.525274	0	0.107442	0.202947	0.155195	0	0	0	0	0	0	0	0	0.000000000	-0.946643	2.01108	-1.43549	-0.248937	0.244636	-1.9349	0	0.1	0.53234	0.1	0.1	0.164334	0.1	0.1	0	0	0	0	0	0	0	0.000000000
1504606218.008989095	-0.946466	1.98037	-1.46035	-0.240835	0.242369	-1.94202	-0.0107379	0.0955044	0.525274	0	0.107442	0.155195	0.107442	0	0	0	0	0	0	0	0	0.000000000	-0.946643	2.01108	-1.43549	-0.248937	0.244636	-1.9349	0	0.1	0.53234	0.1	0.1	0.164334	0.1	0.1	0	0	0	0	0	0	0	0.000000000
1504606218.028989076	-0.944932	1.99724	-1.46035	-0.242369	0.236233	-1.94662	-0.0107379	0	0.573026	0	0.107442	0.202947	0.155195	0	0	0	0	0	0	0	0	0.000000000	-0.944799	2.03242	-1.43099	-0.252943	0.238159	-1.93843	0	0.1	0.490919	0.103648	0.1	0.148968	0.1	0.1	0	0	0	0	0	0	0	0.000000000
1504606218.049110889	-0.944932	1.99724	-1.46035	-0.242369	0.236233	-1.94662	-0.0107379	0	0.573026	0	0.107442	0.202947	0.155195	0	0	0	0	0	0	0	0	0.000000000	-0.944799	2.03242	-1.43099	-0.252943	0.238159	-1.93843	0	0.1	0.490919	0.103648	0.1	0.148968	0.1	0.1	0	0	0	0	0	0	0	0.000000000
1504606218.069300889	-0.943398	2.00951	-1.45882	-0.245437	0.231631	-1.94969	-0.0107379	0	0.477522	0	0.107442	0.202947	0.107442	0	0	0	0	0	0	0	0	0.000000000	-0.944799	2.03242	-1.43099	-0.252943	0.238159	-1.93843	0	0.1	0.490919	0.103648	0.1	0.148968	0.1	0.1	0	0	0	0	0	0	0	0.000000000
