DingWan/Reconbot3Ddemo/02_MATLAB_Code/sensors_data/3T1R_0109_encoders_data.txt
time_stamp	actual_pos_joint_4	actual_pos_joint_5	actual_pos_joint_3	actual_pos_joint_1	actual_pos_joint_2	actual_pos_joint_6	actual_pos_joint_7	actual_vel_joint_4	actual_vel_joint_5	actual_vel_joint_3	actual_vel_joint_1	actual_vel_joint_2	actual_vel_joint_6	actual_vel_joint_7	actual_acc_joint_4	actual_acc_joint_5	actual_acc_joint_3	actual_acc_joint_1	actual_acc_joint_2	actual_acc_joint_6	actual_acc_joint_7	actual_time_from_start	desired_pos_joint_4	desired_pos_joint_5	desired_pos_joint_3	desired_pos_joint_1	desired_pos_joint_2	desired_pos_joint_6	desired_pos_joint_7	desired_vel_joint_4	desired_vel_joint_5	desired_vel_joint_3	desired_vel_joint_1	desired_vel_joint_2	desired_vel_joint_6	desired_vel_joint_7	desired_acc_joint_4	desired_acc_joint_5	desired_acc_joint_3	desired_acc_joint_1	desired_acc_joint_2	desired_acc_joint_6	desired_acc_joint_7	desired_time_from_start
1504276733.498684883	-0.938796	-0.383495	-1.21184	1.1152	-0.204019	-3.14006	0.558369	0	0	0	0	0	0	0	0	0	0	0	0	0	0	0.000000000	0	0.788798	-0.788798	0	0.828698	-1.5708	0	0.1	0.1	0.1	0.1	0.1	0.1	0.1	0	0	0	0	0	0	0	0.000000000
1504276733.518661975	-0.938796	-0.383495	-1.21184	1.1152	-0.204019	-3.14006	0.558369	0	0	0	0	0	0	0	0	0	0	0	0	0	0	0.000000000	0	0.788798	-0.788798	0	0.828698	-1.5708	0	0.1	0.1	0.1	0.1	0.1	0.1	0.1	0	0	0	0	0	0	0	0.000000000
1504276733.538737058	-0.938796	-0.383495	-1.21184	1.1152	-0.204019	-3.14006	0.558369	0	0	0	0	0	0	0	0	0	0	0	0	0	0	0.000000000	0	0.788798	-0.788798	0	0.828698	-1.5708	0	0.1	0.1	0.1	0.1	0.1	0.1	0.1	0	0	0	0	0	0	0	0.000000000
1504276733.559688091	-0.938796	-0.383495	-1.21184	1.1152	-0.204019	-3.14006	0.558369	0	0	0	0	0	0	0	0	0	0	0	0	0	0	0.000000000	0	0.788798	-0.788798	0	0.828698	-1.5708	0	0.1	0.1	0.1	0.1	0.1	0.1	0.1	0	0	0	0	0	0	0	0.000000000
1504276733.578768968	-0.938796	-0.383495	-1.21184	1.1152	-0.204019	-3.14006	0.558369	0	0	0	0	0	0	0	0	0	0	0	0	0	0	0.000000000	0	0.788798	-0.788798	0	0.828698	-1.5708	0	0.1	0.1	0.1	0.1	0.1	0.1	0.1	0	0	0	0	0	0	0	0.000000000
1504276733.598670959	-0.938796	-0.383495	-1.21184	1.1152	-0.204019	-3.14006	0.558369	0	0	0	0	0	0	0	0	0	0	0	0	0	0	0.000000000	0	0.788798	-0.788798	0	0.828698	-1.5708	0	0.1	0.1	0.1	0.1	0.1	0.1	0.1	0	0	0	0	0	0	0	0.000000000
1504276733.618808031	-0.938796	-0.383495	-1.21184	1.1152	-0.204019	-3.14006	0.558369	0	0	0	0	0	0	0	0	0	0	0	0	0	0	0.000000000	0	0.788798	-0.788798	0	0.828698	-1.5708	0	0.1	0.1	0.1	0.1	0.1	0.1	0.1	0	0	0	0	0	0	0	0.000000000
1504276733.638842105	-0.938796	-0.383495	-1.21184	1.1152	-0.204019	-3.14159	0.558369	0	0	0	0	0	0	0	0	0	0	0	0	0	0	0.000000000	0	0.788798	-0.788798	0	0.828698	-1.5708	0	0.1	0.1	0.1	0.1	0.1	0.1	0.1	0	0	0	0	0	0	0	0.000000000
1504276733.658726930	-0.938796	-0.383495	-1.21184	1.1152	-0.204019	-3.14159	0.558369	0	0	0	0	0	0	0	0	0	0	0	0	0	0	0.000000000	0	0.788798	-0.788798	0	0.828698	-1.5708	0	0.1	0.1	0.1	0.1	0.1	0.1	0.1	0	0	0	0	0	0	0	0.000000000
1504276733.678714036	-0.938796	-0.383495	-1.21184	1.1152	-0.204019	-3.14006	0.558369	0	0	0	0	0	0	0	0	0	0	0	0	0	0	0.000000000	0	0.788798	-0.788798	0	0.828698	-1.5708	0	0.1	0.1	0.1	0.1	0.1	0.1	0.1	0	0	0	0	0	0	0	0.000000000
1504276733.698776006	-0.938796	-0.383495	-1.21184	1.1152	-0.204019	-3.14006	0.558369	0	0	0	0	0	0	0	0	0	0	0	0	0	0	0.000000000	0	0.788798	-0.788798	0	0.828698	-1.5708	0	0.1	0.1	0.1	0.1	0.1	0.1	0.1	0	0	0	0	0	0	0	0.000000000
1504276733.718852043	-0.938796	-0.383495	-1.21184	1.1152	-0.204019	-3.14006	0.558369	0	0	0	0	0	0	0	0	0	0	0	0	0	0	0.000000000	0	0.788798	-0.788798	0	0.828698	-1.5708	0	0.1	0.1	0.1	0.1	0.1	0.1	0.1	0	0	0	0	0	0	0	0.000000000
1504276733.738944053	-0.938796	-0.383495	-1.21184	1.1152	-0.204019	-3.14006	0.558369	0	0	0	0	0	0	0	0	0	0	0	0	0	0	0.000000000	0	0.788798	-0.788798	0	0.828698	-1.5708	0	0.1	0.1	0.1	0.1	0.1	0.1	0.1	0	0	0	0	0	0	0	0.000000000
1504276733.760179996	-0.938796	-0.383495	-1.21184	1.1152	-0.204019	-3.14006	0.558369	0	0	0	0	0	0	0	0	0	0	0	0	0	0	0.000000000	0	0.788798	-0.788798	0	0.828698	-1.5708	0	0.1	0.1	0.1	0.1	0.1	0.1	0.1	0	0	0	0	0	0	0	0.000000000
1504276733.781630039	-0.938796	-0.383495	-1.21184	1.1152	-0.204019	-3.14006	0.558369	0	0	0	0	0	0	0	0	0	0	0	0	0	0	0.000000000	0	0.788798	-0.788798	0	0.828698	-1.5708	0	0.1	0.1	0.1	0.1	0.1	0.1	0.1	0	0	0	0	0	0	0	0.000000000
1504276733.798923015	-0.938796	-0.383495	-1.21184	1.1152	-0.204019	-3.14006	0.558369	0	0	0	0	0	0	0	0	0	0	0	0	0	0	0.000000000	0	0.788798	-0.788798	0	0.828698	-1.5708	0	0.1	0.1	0.1	0.1	0.1	0.1	0.1	0	0	0	0	0	0	0	0.000000000
1504276733.818834066	-0.938796	-0.383495	-1.21184	1.1152	-0.204019	-3.14159	0.558369	0	0	0	0	0	0	0	0	0	0	0	0	0	0	0.000000000	0	0.788798	-0.788798	0	0.828698	-1.5708	0	0.1	0.1	0.1	0.1	0.1	0.1	0.1	0	0	0	0	0	0	0	0.000000000
1504276733.838767051	-0.938796	-0.383495	-1.21184	1.1152	-0.204019	-3.14006	0.558369	0	0	0	0	0	0	0	0	0	0	0	0	0	0	0.000000000	0	0.788798	-0.788798	0	0.828698	-1.5708	0	0.1	0.1	0.1	0.1	0.1	0.1	0.1	0	0	0	0	0	0	0	0.000000000
1504276733.858716964	-0.938796	-0.383495	-1.21184	1.1152	-0.204019	-3.14006	0.558369	0	0	0	0	0	0	0	0	0	0	0	0	0	0	0.000000000	0	0.788798	-0.788798	0	0.828698	-1.5708	0	0.1	0.1	0.1	0.1	0.1	0.1	0.1	0	0	0	0	0	0	0	0.000000000
1504276733.878647089	-0.938796	-0.383495	-1.21184	1.1152	-0.204019	-3.14006	0.558369	0	0	0	0	0	0	0	0	0	0	0	0	0	0	0.000000000	0	0.788798	-0.788798	0	0.828698	-1.5708	0	0.1	0.1	0.1	0.1	0.1	0.1	0.1	0	0	0	0	0	0	0	0.000000000
1504276733.898619890	-0.938796	-0.383495	-1.21184	1.1152	-0.204019	-3.14006	0.558369	0	0	0	0	0	0	0	0	0	0	0	0	0	0	0.000000000	0	0.788798	-0.788798	0	0.828698	-1.5708	0	0.1	0.1	0.1	0.1	0.1	0.1	0.1	0	0	0	0	0	0	0	0.000000000
1504276733.918879985	-0.938796	-0.383495	-1.21184	1.1152	-0.204019	-3.14006	0.558369	0	0	0	0	0	0	0	0	0	0	0	0	0	0	0.000000000	0	0.788798	-0.788798	0	0.828698	-1.5708	0	0.1	0.1	0.1	0.1	0.1	0.1	0.1	0	0	0	0	0	0	0	0.000000000
1504276733.938662052	-0.938796	-0.383495	-1.21184	1.1152	-0.204019	-3.14006	0.558369	0	0	0	0	0	0	0	0	0	0	0	0	0	0	0.000000000	0	0.788798	-0.788798	0	0.828698	-1.5708	0	0.1	0.1	0.1	0.1	0.1	0.1	0.1	0	0	0	0	0	0	0	0.000000000
1504276733.958787918	-0.938796	-0.383495	-1.21184	1.1152	-0.204019	-3.14159	0.558369	0	0	0	0	0	0	0	0	0	0	0	0	0	0	0.000000000	0	0.788798	-0.788798	0	0.828698	-1.5708	0	0.1	0.1	0.1	0.1	0.1	0.1	0.1	0	0	0	0	0	0	0	0.000000000
1504276733.978676080	-0.938796	-0.383495	-1.21184	1.1152	-0.204019	-3.14006	0.558369	0	0	0	0	0	0	0	0	0	0	0	0	0	0	0.000000000	0	0.788798	-0.788798	0	0.828698	-1.5708	0	0.1	0.1	0.1	0.1	0.1	0.1	0.1	0	0	0	0	0	0	0	0.000000000
1504276733.998852014	-0.938796	-0.383495	-1.21184	1.1152	-0.204019	-3.14159	0.558369	0	0	0	0	0	0	0	0	0	0	0	0	0	0	0.000000000	0	0.788798	-0.788798	0	0.828698	-1.5708	0	0.1	0.1	0.1	0.1	0.1	0.1	0.1	0	0	0	0	0	0	0	0.000000000
1504276734.019344091	-0.938796	-0.383495	-1.21184	1.1152	-0.204019	-3.14159	0.558369	0	0	0	0	0	0	0	0	0	0	0	0	0	0	0.000000000	0	0.788798	-0.788798	0	0.828698	-1.5708	0	0.1	0.1	0.1	0.1	0.1	0.1	0.1	0	0	0	0	0	0	0	0.000000000
1504276734.039096117	-0.938796	-0.383495	-1.21184	1.1152	-0.204019	-3.14006	0.558369	0	0	0	0	0	0	0	0	0	0	0	0	0	0	0.000000000	0	0.788798	-0.788798	0	0.828698	-1.5708	0	0.1	0.1	0.1	0.1	0.1	0.1	0.1	0	0	0	0	0	0	0	0.000000000
1504276734.058835983	-0.938796	-0.383495	-1.21184	1.1152	-0.204019	-3.14159	0.558369	0	0	0	0	0	0	0	0	0	0	0	0	0	0	0.000000000	0	0.788798	-0.788798	0	0.828698	-1.5708	0	0.1	0.1	0.1	0.1	0.1	0.1	0.1	0	0	0	0	0	0	0	0.000000000
1504276734.078849077	-0.938796	-0.383495	-1.21184	1.1152	-0.204019	-3.14006	0.558369	0	0	0	0	0	0	0	0	0	0	0	0	0	0	0.000000000	0	0.788798	-0.788798	0	0.828698	-1.5708	0	0.1	0.1	0.1	0.1	0.1	0.1	0.1	0	0	0	0	0	0	0	0.000000000
1504276734.098726987	-0.938796	-0.383495	-1.21184	1.1152	-0.204019	-3.14006	0.558369	0	0	0	0	0	0	0	0	0	0	0	0	0	0	0.000000000	0	0.788798	-0.788798	0	0.828698	-1.5708	0	0.1	0.1	0.1	0.1	0.1	0.1	0.1	0	0	0	0	0	0	0	0.000000000
1504276734.118750095	-0.938796	-0.383495	-1.21184	1.1152	-0.204019	-3.14006	0.558369	0	0	0	0	0	0	0	0	0	0	0	0	0	0	0.000000000	0	0.788798	-0.788798	0	0.828698	-1.5708	0	0.1	0.1	0.1	0.1	0.1	0.1	0.1	0	0	0	0	0	0	0	0.000000000
1504276734.138758897	-0.938796	-0.383495	-1.21184	1.1152	-0.204019	-3.14006	0.558369	0	0	0	0	0	0	0	0	0	0	0	0	0	0	0.000000000	0	0.788798	-0.788798	0	0.828698	-1.5708	0	0.1	0.1	0.1	0.1	0.1	0.1	0.1	0	0	0	0	0	0	0	0.000000000
1504276734.159200906	-0.938796	-0.383495	-1.21184	1.1152	-0.204019	-3.14006	0.558369	0	0	0	0	0	0	0	0	0	0	0	0	0	0	0.000000000	0	0.788798	-0.788798	0	0.828698	-1.5708	0	0.1	0.1	0.1	0.1	0.1	0.1	0.1	0	0	0	0	0	0	0	0.000000000
1504276734.178746938	-0.938796	-0.383495	-1.21184	1.1152	-0.202485	-3.14006	0.558369	0	0	0	0	0	0	0	0	0	0	0	0	0	0	0.000000000	0	0.788798	-0.788798	0	0.828698	-1.5708	0	0.1	0.1	0.1	0.1	0.1	0.1	0.1	0	0	0	0	0	0	0	0.000000000
1504276734.198678970	-0.938796	-0.383495	-1.21184	1.1152	-0.204019	-3.14006	0.558369	0	0	0	0	0	0	0	0	0	0	0	0	0	0	0.000000000	0	0.788798	-0.788798	0	0.828698	-1.5708	0	0.1	0.1	0.1	0.1	0.1	0.1	0.1	0	0	0	0	0	0	0	0.000000000
1504276734.218729019	-0.938796	-0.383495	-1.21184	1.1152	-0.204019	-3.14006	0.558369	0	0	0	0	0	0	0	0	0	0	0	0	0	0	0.000000000	0	0.788798	-0.788798	0	0.828698	-1.5708	0	0.1	0.1	0.1	0.1	0.1	0.1	0.1	0	0	0	0	0	0	0	0.000000000
1504276734.238753080	-0.938796	-0.383495	-1.21184	1.1152	-0.204019	-3.14006	0.558369	0	0	0	0	0	0	0	0	0	0	0	0	0	0	0.000000000	0	0.788798	-0.788798	0	0.828698	-1.5708	0	0.1	0.1	0.1	0.1	0.1	0.1	0.1	0	0	0	0	0	0	0	0.000000000
1504276734.258717060	-0.938796	-0.383495	-1.21184	1.1152	-0.204019	-3.14006	0.558369	0	0	0	0	0	0	0	0	0	0	0	0	0	0	0.000000000	0	0.788798	-0.788798	0	0.828698	-1.5708	0	0.1	0.1	0.1	0.1	0.1	0.1	0.1	0	0	0	0	0	0	0	0.000000000
1504276734.278688907	-0.938796	-0.383495	-1.21184	1.1152	-0.204019	-3.14006	0.558369	0	0	0	0	0	0	0	0	0	0	0	0	0	0	0.000000000	0	0.788798	-0.788798	0	0.828698	-1.5708	0	0.1	0.1	0.1	0.1	0.1	0.1	0.1	0	0	0	0	0	0	0	0.000000000
1504276734.298672914	-0.938796	-0.383495	-1.21184	1.1152	-0.204019	-3.14006	0.558369	0	0	0	0	0	0	0	0	0	0	0	0	0	0	0.000000000	0	0.788798	-0.788798	0	0.828698	-1.5708	0	0.1	0.1	0.1	0.1	0.1	0.1	0.1	0	0	0	0	0	0	0	0.000000000
1504276734.318670988	-0.938796	-0.383495	-1.21184	1.1152	-0.204019	-3.14006	0.558369	0	0	0	0	0	0	0	0	0	0	0	0	0	0	0.000000000	0	0.788798	-0.788798	0	0.828698	-1.5708	0	0.1	0.1	0.1	0.1	0.1	0.1	0.1	0	0	0	0	0	0	0	0.000000000
1504276734.338720083	-0.938796	-0.383495	-1.21031	1.1152	-0.204019	-3.14006	0.558369	0	0	0	0	0	0	0	0	0	0	0	0	0	0	0.000000000	0	0.788798	-0.788798	0	0.828698	-1.5708	0	0.1	0.1	0.1	0.1	0.1	0.1	0.1	0	0	0	0	0	0	0	0.000000000
1504276734.358771085	-0.938796	-0.383495	-1.21184	1.1152	-0.204019	-3.14006	0.558369	0	0	0	0	0	0	0	0	0	0	0	0	0	0	0.000000000	0	0.788798	-0.788798	0	0.828698	-1.5708	0	0.1	0.1	0.1	0.1	0.1	0.1	0.1	0	0	0	0	0	0	0	0.000000000
1504276734.378741979	-0.938796	-0.383495	-1.21184	1.1152	-0.204019	-3.14159	0.558369	0	0	0	0	0	0	0	0	0	0	0	0	0	0	0.000000000	0	0.788798	-0.788798	0	0.828698	-1.5708	0	0.1	0.1	0.1	0.1	0.1	0.1	0.1	0	0	0	0	0	0	0	0.000000000
1504276734.398708105	-0.938796	-0.383495	-1.21184	1.1152	-0.204019	-3.14159	0.558369	0	0	0	0	0	0	0	0	0	0	0	0	0	0	0.000000000	0	0.788798	-0.788798	0	0.828698	-1.5708	0	0.1	0.1	0.1	0.1	0.1	0.1	0.1	0	0	0	0	0	0	0	0.000000000
1504276734.418744087	-0.938796	-0.383495	-1.21184	1.1152	-0.204019	-3.14159	0.558369	0	0	0	0	0	0	0	0	0	0	0	0	0	0	0.000000000	0	0.788798	-0.788798	0	0.828698	-1.5708	0	0.1	0.1	0.1	0.1	0.1	0.1	0.1	0	0	0	0	0	0	0	0.000000000
1504276734.438746929	-0.938796	-0.383495	-1.21184	1.1152	-0.204019	-3.14159	0.558369	0	0	0	0	0	0	0	0	0	0	0	0	0	0	0.000000000	0	0.788798	-0.788798	0	0.828698	-1.5708	0	0.1	0.1	0.1	0.1	0.1	0.1	0.1	0	0	0	0	0	0	0	0.000000000
1504276734.458733081	-0.938796	-0.383495	-1.21184	1.1152	-0.204019	-3.14006	0.558369	0	0	0	0	0	0	0	0	0	0	0	0	0	0	0.000000000	0	0.788798	-0.788798	0	0.828698	-1.5708	0	0.1	0.1	0.1	0.1	0.1	0.1	0.1	0	0	0	0	0	0	0	0.000000000
1504276734.478688001	-0.938796	-0.383495	-1.21031	1.1152	-0.204019	-3.14006	0.558369	0	0	0	0	0	0	0	0	0	0	0	0	0	0	0.000000000	0	0.788798	-0.788798	0	0.828698	-1.5708	0	0.1	0.1	0.1	0.1	0.1	0.1	0.1	0	0	0	0	0	0	0	0.000000000
1504276734.498661041	-0.938796	-0.383495	-1.21184	1.1152	-0.204019	-3.14006	0.558369	0	0	0	0	0	0	0	0	0	0	0	0	0	0	0.000000000	0	0.788798	-0.788798	0	0.828698	-1.5708	0	0.1	0.1	0.1	0.1	0.1	0.1	0.1	0	0	0	0	0	0	0	0.000000000
1504276734.518748044	-0.938796	-0.383495	-1.21184	1.1152	-0.204019	-3.14006	0.558369	0	0	0	0	0	0	0	0	0	0	0	0	0	0	0.000000000	0	0.788798	-0.788798	0	0.828698	-1.5708	0	0.1	0.1	0.1	0.1	0.1	0.1	0.1	0	0	0	0	0	0	0	0.000000000
1504276734.538691997	-0.938796	-0.383495	-1.21184	1.1152	-0.204019	-3.14006	0.558369	0	0	0	0	0	0	0	0	0	0	0	0	0	0	0.000000000	0	0.788798	-0.788798	0	0.828698	-1.5708	0	0.1	0.1	0.1	0.1	0.1	0.1	0.1	0	0	0	0	0	0	0	0.000000000
1504276734.559336900	-0.938796	-0.383495	-1.21184	1.1152	-0.202485	-3.14159	0.558369	0	0	0	0	0	0	0	0	0	0	0	0	0	0	0.000000000	0	0.788798	-0.788798	0	0.828698	-1.5708	0	0.1	0.1	0.1	0.1	0.1	0.1	0.1	0	0	0	0	0	0	0	0.000000000
1504276734.581779003	-0.938796	-0.383495	-1.21184	1.1152	-0.204019	-3.14006	0.558369	0	0	0	0	0	0	0	0	0	0	0	0	0	0	0.000000000	0	0.788798	-0.788798	0	0.828698	-1.5708	0	0.1	0.1	0.1	0.1	0.1	0.1	0.1	0	0	0	0	0	0	0	0.000000000
1504276734.598875045	-0.938796	-0.383495	-1.21184	1.1152	-0.204019	-3.14006	0.558369	0	0	0	0	0	0	0	0	0	0	0	0	0	0	0.000000000	0	0.788798	-0.788798	0	0.828698	-1.5708	0	0.1	0.1	0.1	0.1	0.1	0.1	0.1	0	0	0	0	0	0	0	0.000000000
1504276734.618932962	-0.938796	-0.383495	-1.21184	1.1152	-0.204019	-3.14006	0.558369	0	0	0	0	0	0	0	0	0	0	0	0	0	0	0.000000000	0	0.788798	-0.788798	0	0.828698	-1.5708	0	0.1	0.1	0.1	0.1	0.1	0.1	0.1	0	0	0	0	0	0	0	0.000000000
1504276734.639210939	-0.938796	-0.383495	-1.21184	1.1152	-0.204019	-3.14006	0.558369	0	0	0	0	0	0	0	0	0	0	0	0	0	0	0.000000000	0	0.788798	-0.788798	0	0.828698	-1.5708	0	0.1	0.1	0.1	0.1	0.1	0.1	0.1	0	0	0	0	0	0	0	0.000000000
1504276734.660255908	-0.938796	-0.383495	-1.21184	1.1152	-0.204019	-3.14006	0.558369	0	0	0	0	0	0	0	0	0	0	0	0	0	0	0.000000000	0	0.788798	-0.788798	0	0.828698	-1.5708	0	0.1	0.1	0.1	0.1	0.1	0.1	0.1	0	0	0	0	0	0	0	0.000000000
1504276734.679054975	-0.938796	-0.383495	-1.21184	1.1152	-0.204019	-3.14006	0.558369	0	0	0	0	0	0	0	0	0	0	0	0	0	0	0.000000000	0	0.788798	-0.788798	0	0.828698	-1.5708	0	0.1	0.1	0.1	0.1	0.1	0.1	0.1	0	0	0	0	0	0	0	0.000000000
1504276734.698930978	-0.938796	-0.383495	-1.21184	1.1152	-0.202485	-3.14159	0.558369	0	0	0	0	0	0	0	0	0	0	0	0	0	0	0.000000000	0	0.788798	-0.788798	0	0.828698	-1.5708	0	0.1	0.1	0.1	0.1	0.1	0.1	0.1	0	0	0	0	0	0	0	0.000000000
1504276734.718806982	-0.938796	-0.383495	-1.21184	1.1152	-0.204019	-3.14006	0.558369	0	0	0	0	0	0	0	0	0	0	0	0	0	0	0.000000000	0	0.788798	-0.788798	0	0.828698	-1.5708	0	0.1	0.1	0.1	0.1	0.1	0.1	0.1	0	0	0	0	0	0	0	0.000000000
1504276734.738923072	-0.938796	-0.383495	-1.21184	1.1152	-0.204019	-3.14006	0.558369	0	0	0	0	0	0	0	0	0	0	0	0	0	0	0.000000000	0	0.788798	-0.788798	0	0.828698	-1.5708	0	0.1	0.1	0.1	0.1	0.1	0.1	0.1	0	0	0	0	0	0	0	0.000000000
1504276734.759088039	-0.938796	-0.383495	-1.21184	1.1152	-0.202485	-3.14159	0.558369	0	0	0	0	0	0	0	0	0	0	0	0	0	0	0.000000000	0	0.788798	-0.788798	0	0.828698	-1.5708	0	0.1	0.1	0.1	0.1	0.1	0.1	0.1	0	0	0	0	0	0	0	0.000000000
1504276734.778800010	-0.938796	-0.383495	-1.21184	1.1152	-0.204019	-3.14006	0.558369	0	0	0	0	0	0	0	0	0	0	0	0	0	0	0.000000000	0	0.788798	-0.788798	0	0.828698	-1.5708	0	0.1	0.1	0.1	0.1	0.1	0.1	0.1	0	0	0	0	0	0	0	0.000000000
1504276734.799721002	-0.938796	-0.383495	-1.21184	1.1152	-0.204019	-3.14006	0.558369	0	0	0	0	0	0	0	0	0	0	0	0	0	0	0.000000000	0	0.788798	-0.788798	0	0.828698	-1.5708	0	0.1	0.1	0.1	0.1	0.1	0.1	0.1	0	0	0	0	0	0	0	0.000000000
1504276734.818725109	-0.938796	-0.383495	-1.21184	1.1152	-0.204019	-3.14006	0.558369	0	0	0	0	0	0	0	0	0	0	0	0	0	0	0.000000000	0	0.788798	-0.788798	0	0.828698	-1.5708	0	0.1	0.1	0.1	0.1	0.1	0.1	0.1	0	0	0	0	0	0	0	0.000000000
1504276734.838809013	-0.938796	-0.383495	-1.21184	1.1152	-0.204019	-3.14006	0.558369	0	0	0	0	0	0	0	0	0	0	0	0	0	0	0.000000000	0	0.788798	-0.788798	0	0.828698	-1.5708	0	0.1	0.1	0.1	0.1	0.1	0.1	0.1	0	0	0	0	0	0	0	0.000000000
1504276734.858901977	-0.938796	-0.383495	-1.21184	1.1152	-0.204019	-3.14159	0.558369	0	0	0	0	0	0	0	0	0	0	0	0	0	0	0.000000000	0	0.788798	-0.788798	0	0.828698	-1.5708	0	0.1	0.1	0.1	0.1	0.1	0.1	0.1	0	0	0	0	0	0	0	0.000000000
1504276734.878876924	-0.938796	-0.383495	-1.21184	1.1152	-0.204019	-3.14006	0.558369	0	0	0	0	0	0	0	0	0	0	0	0	0	0	0.000000000	0	0.788798	-0.788798	0	0.828698	-1.5708	0	0.1	0.1	0.1	0.1	0.1	0.1	0.1	0	0	0	0	0	0	0	0.000000000
1504276734.898969888	-0.938796	-0.383495	-1.21184	1.1152	-0.204019	-3.14006	0.558369	0	0	0	0	0	0	0	0	0	0	0	0	0	0	0.000000000	0	0.788798	-0.788798	0	0.828698	-1.5708	0	0.1	0.1	0.1	0.1	0.1	0.1	0.1	0	0	0	0	0	0	0	0.000000000
1504276734.918889045	-0.938796	-0.383495	-1.21184	1.1152	-0.204019	-3.14006	0.558369	0	0	0	0	0	0	0	0	0	0	0	0	0	0	0.000000000	0	0.788798	-0.788798	0	0.828698	-1.5708	0	0.1	0.1	0.1	0.1	0.1	0.1	0.1	0	0	0	0	0	0	0	0.000000000
1504276734.940001010	-0.938796	-0.383495	-1.21184	1.1152	-0.204019	-3.14006	0.558369	0	0	0	0	0	0	0	0	0	0	0	0	0	0	0.000000000	0	0.788798	-0.788798	0	0.828698	-1.5708	0	0.1	0.1	0.1	0.1	0.1	0.1	0.1	0	0	0	0	0	0	0	0.000000000
1504276734.959132909	-0.938796	-0.383495	-1.21184	1.1152	-0.202485	-3.14006	0.558369	0	0	0	0	0	0	0	0	0	0	0	0	0	0	0.000000000	0	0.788798	-0.788798	0	0.828698	-1.5708	0	0.1	0.1	0.1	0.1	0.1	0.1	0.1	0	0	0	0	0	0	0	0.000000000
1504276734.979043006	-0.938796	-0.383495	-1.21184	1.1152	-0.204019	-3.14159	0.558369	0	0	0	0	0	0	0	0	0	0	0	0	0	0	0.000000000	0	0.788798	-0.788798	0	0.828698	-1.5708	0	0.1	0.1	0.1	0.1	0.1	0.1	0.1	0	0	0	0	0	0	0	0.000000000
1504276734.998899936	-0.938796	-0.383495	-1.21184	1.1152	-0.204019	-3.14006	0.558369	0	0	0	0	0	0	0	0	0	0	0	0	0	0	0.000000000	0	0.788798	-0.788798	0	0.828698	-1.5708	0	0.1	0.1	0.1	0.1	0.1	0.1	0.1	0	0	0	0	0	0	0	0.000000000
1504276735.020231962	-0.938796	-0.383495	-1.21184	1.1152	-0.204019	-3.14006	0.558369	0	0	0	0	0	0	0	0	0	0	0	0	0	0	0.000000000	0	0.788798	-0.788798	0	0.828698	-1.5708	0	0.1	0.1	0.1	0.1	0.1	0.1	0.1	0	0	0	0	0	0	0	0.000000000
1504276735.039594888	-0.938796	-0.383495	-1.21184	1.1152	-0.204019	-3.14159	0.558369	0	0	0	0	0	0	0	0	0	0	0	0	0	0	0.000000000	0	0.788798	-0.788798	0	0.828698	-1.5708	0	0.1	0.1	0.1	0.1	0.1	0.1	0.1	0	0	0	0	0	0	0	0.000000000
1504276735.060379981	-0.938796	-0.383495	-1.21184	1.1152	-0.204019	-3.14159	0.558369	0	0	0	0	0	0	0	0	0	0	0	0	0	0	0.000000000	0	0.788798	-0.788798	0	0.828698	-1.5708	0	0.1	0.1	0.1	0.1	0.1	0.1	0.1	0	0	0	0	0	0	0	0.000000000
1504276735.079416990	-0.938796	-0.383495	-1.21184	1.1152	-0.204019	-3.14159	0.558369	0	0	0	0	0	0	0	0	0	0	0	0	0	0	0.000000000	0	0.788798	-0.788798	0	0.828698	-1.5708	0	0.1	0.1	0.1	0.1	0.1	0.1	0.1	0	0	0	0	0	0	0	0.000000000
1504276735.098881006	-0.938796	-0.383495	-1.21184	1.1152	-0.204019	-3.14006	0.558369	0	0	0	0	0	0	0	0	0	0	0	0	0	0	0.000000000	0	0.788798	-0.788798	0	0.828698	-1.5708	0	0.1	0.1	0.1	0.1	0.1	0.1	0.1	0	0	0	0	0	0	0	0.000000000
1504276735.119013071	-0.938796	-0.383495	-1.21184	1.1152	-0.204019	-3.14159	0.558369	0	0	0	0	0	0	0	0	0	0	0	0	0	0	0.000000000	0	0.788798	-0.788798	0	0.828698	-1.5708	0	0.1	0.1	0.1	0.1	0.1	0.1	0.1	0	0	0	0	0	0	0	0.000000000
1504276735.139857053	-0.938796	-0.383495	-1.21184	1.1152	-0.204019	-3.14006	0.558369	0	0	0	0	0	0	0	0	0	0	0	0	0	0	0.000000000	0	0.788798	-0.788798	0	0.828698	-1.5708	0	0.1	0.1	0.1	0.1	0.1	0.1	0.1	0	0	0	0	0	0	0	0.000000000
1504276735.159728050	-0.938796	-0.383495	-1.21184	1.1152	-0.204019	-3.14006	0.558369	0	0	0	0	0	0	0	0	0	0	0	0	0	0	0.000000000	0	0.788798	-0.788798	0	0.828698	-1.5708	0	0.1	0.1	0.1	0.1	0.1	0.1	0.1	0	0	0	0	0	0	0	0.000000000
1504276735.179089069	-0.938796	-0.383495	-1.21184	1.1152	-0.204019	-3.14159	0.558369	0	0	0	0	0	0	0	0	0	0	0	0	0	0	0.000000000	0	0.788798	-0.788798	0	0.828698	-1.5708	0	0.1	0.1	0.1	0.1	0.1	0.1	0.1	0	0	0	0	0	0	0	0.000000000
1504276735.199717998	-0.938796	-0.383495	-1.21184	1.1152	-0.204019	-3.14159	0.558369	0	0	0	0	0	0	0	0	0	0	0	0	0	0	0.000000000	0	0.788798	-0.788798	0	0.828698	-1.5708	0	0.1	0.1	0.1	0.1	0.1	0.1	0.1	0	0	0	0	0	0	0	0.000000000
1504276735.219265937	-0.938796	-0.383495	-1.21184	1.1152	-0.204019	-3.14006	0.558369	0	0	0	0	0	0	0	0	0	0	0	0	0	0	0.000000000	0	0.788798	-0.788798	0	0.828698	-1.5708	0	0.1	0.1	0.1	0.1	0.1	0.1	0.1	0	0	0	0	0	0	0	0.000000000
1504276735.238790988	-0.938796	-0.383495	-1.21031	1.1152	-0.204019	-3.14159	0.558369	0	0	0	0	0	0	0	0	0	0	0	0	0	0	0.000000000	0	0.788798	-0.788798	0	0.828698	-1.5708	0	0.1	0.1	0.1	0.1	0.1	0.1	0.1	0	0	0	0	0	0	0	0.000000000
1504276735.259299993	-0.938796	-0.383495	-1.21184	1.1152	-0.204019	-3.14159	0.558369	0	0	0	0	0	0	0	0	0	0	0	0	0	0	0.000000000	0	0.788798	-0.788798	0	0.828698	-1.5708	0	0.1	0.1	0.1	0.1	0.1	0.1	0.1	0	0	0	0	0	0	0	0.000000000
1504276735.278775930	-0.938796	-0.383495	-1.21184	1.1152	-0.202485	-3.14006	0.558369	0	0	0	0	0	0	0	0	0	0	0	0	0	0	0.000000000	0	0.788798	-0.788798	0	0.828698	-1.5708	0	0.1	0.1	0.1	0.1	0.1	0.1	0.1	0	0	0	0	0	0	0	0.000000000
1504276735.298724889	-0.938796	-0.383495	-1.21184	1.1152	-0.204019	-3.14006	0.558369	0	0	0	0	0	0	0	0	0	0	0	0	0	0	0.000000000	0	0.788798	-0.788798	0	0.828698	-1.5708	0	0.1	0.1	0.1	0.1	0.1	0.1	0.1	0	0	0	0	0	0	0	0.000000000
1504276735.318737983	-0.938796	-0.383495	-1.21184	1.1152	-0.204019	-3.14006	0.558369	0	0	0	0	0	0	0	0	0	0	0	0	0	0	0.000000000	0	0.788798	-0.788798	0	0.828698	-1.5708	0	0.1	0.1	0.1	0.1	0.1	0.1	0.1	0	0	0	0	0	0	0	0.000000000
1504276735.338717937	-0.938796	-0.383495	-1.21184	1.1152	-0.204019	-3.14006	0.558369	0	0	0	0	0	0	0	0	0	0	0	0	0	0	0.000000000	0	0.788798	-0.788798	0	0.828698	-1.5708	0	0.1	0.1	0.1	0.1	0.1	0.1	0.1	0	0	0	0	0	0	0	0.000000000
1504276735.359064102	-0.938796	-0.383495	-1.21184	1.1152	-0.204019	-3.14159	0.558369	0	0	0	0	0	0	0	0	0	0	0	0	0	0	0.000000000	0	0.788798	-0.788798	0	0.828698	-1.5708	0	0.1	0.1	0.1	0.1	0.1	0.1	0.1	0	0	0	0	0	0	0	0.000000000
1504276735.378870964	-0.938796	-0.383495	-1.21184	1.1152	-0.204019	-3.14159	0.558369	0	0	0	0	0	0	0	0	0	0	0	0	0	0	0.000000000	0	0.788798	-0.788798	0	0.828698	-1.5708	0	0.1	0.1	0.1	0.1	0.1	0.1	0.1	0	0	0	0	0	0	0	0.000000000
1504276735.398699998	-0.938796	-0.383495	-1.21184	1.1152	-0.204019	-3.14006	0.558369	0	0	0	0	0	0	0	0	0	0	0	0	0	0	0.000000000	0	0.788798	-0.788798	0	0.828698	-1.5708	0	0.1	0.1	0.1	0.1	0.1	0.1	0.1	0	0	0	0	0	0	0	0.000000000
1504276735.419207096	-0.938796	-0.383495	-1.21184	1.1152	-0.204019	-3.14006	0.558369	0	0	0	0	0	0	0	0	0	0	0	0	0	0	0.000000000	0	0.788798	-0.788798	0	0.828698	-1.5708	0	0.1	0.1	0.1	0.1	0.1	0.1	0.1	0	0	0	0	0	0	0	0.000000000
1504276735.438766956	-0.938796	-0.383495	-1.21184	1.1152	-0.202485	-3.14006	0.558369	0	0	0	0	0	0	0	0	0	0	0	0	0	0	0.000000000	0	0.788798	-0.788798	0	0.828698	-1.5708	0	0.1	0.1	0.1	0.1	0.1	0.1	0.1	0	0	0	0	0	0	0	0.000000000
1504276735.458761930	-0.938796	-0.383495	-1.21184	1.1152	-0.204019	-3.14006	0.558369	0	0	0	0	0	0	0	0	0	0	0	0	0	0	0.000000000	0	0.788798	-0.788798	0	0.828698	-1.5708	0	0.1	0.1	0.1	0.1	0.1	0.1	0.1	0	0	0	0	0	0	0	0.000000000
1504276735.479140996	-0.938796	-0.383495	-1.21184	1.1152	-0.204019	-3.14159	0.558369	0	0	0	0	0	0	0	0	0	0	0	0	0	0	0.000000000	0	0.788798	-0.788798	0	0.828698	-1.5708	0	0.1	0.1	0.1	0.1	0.1	0.1	0.1	0	0	0	0	0	0	0	0.000000000
1504276735.498780965	-0.938796	-0.383495	-1.21184	1.1152	-0.204019	-3.14006	0.558369	0	0	0	0	0	0	0	0	0	0	0	0	0	0	0.000000000	0	0.788798	-0.788798	0	0.828698	-1.5708	0	0.1	0.1	0.1	0.1	0.1	0.1	0.1	0	0	0	0	0	0	0	0.000000000
1504276735.518819093	-0.938796	-0.383495	-1.21184	1.1152	-0.204019	-3.14006	0.558369	0	0	0	0	0	0	0	0	0	0	0	0	0	0	0.000000000	0	0.788798	-0.788798	0	0.828698	-1.5708	0	0.1	0.1	0.1	0.1	0.1	0.1	0.1	0	0	0	0	0	0	0	0.000000000
1504276735.538746118	-0.938796	-0.383495	-1.21184	1.1152	-0.204019	-3.14006	0.558369	0	0	0	0	0	0	0	0	0	0	0	0	0	0	0.000000000	0	0.788798	-0.788798	0	0.828698	-1.5708	0	0.1	0.1	0.1	0.1	0.1	0.1	0.1	0	0	0	0	0	0	0	0.000000000
1504276735.559351921	-0.938796	-0.383495	-1.21184	1.1152	-0.204019	-3.14159	0.558369	0	0	0	0	0	0	0	0	0	0	0	0	0	0	0.000000000	0	0.788798	-0.788798	0	0.828698	-1.5708	0	0.1	0.1	0.1	0.1	0.1	0.1	0.1	0	0	0	0	0	0	0	0.000000000
1504276735.579090118	-0.938796	-0.383495	-1.21184	1.1152	-0.204019	-3.14006	0.558369	0	0	0	0	0	0	0	0	0	0	0	0	0	0	0.000000000	0	0.788798	-0.788798	0	0.828698	-1.5708	0	0.1	0.1	0.1	0.1	0.1	0.1	0.1	0	0	0	0	0	0	0	0.000000000
1504276735.598716020	-0.938796	-0.383495	-1.21184	1.1152	-0.204019	-3.14159	0.558369	0	0	0	0	0	0	0	0	0	0	0	0	0	0	0.000000000	0	0.788798	-0.788798	0	0.828698	-1.5708	0	0.1	0.1	0.1	0.1	0.1	0.1	0.1	0	0	0	0	0	0	0	0.000000000
1504276735.618927001	-0.938796	-0.383495	-1.21184	1.1152	-0.204019	-3.14159	0.558369	0	0	0	0	0	0	0	0	0	0	0	0	0	0	0.000000000	0	0.788798	-0.788798	0	0.828698	-1.5708	0	0.1	0.1	0.1	0.1	0.1	0.1	0.1	0	0	0	0	0	0	0	0.000000000
1504276735.638799905	-0.938796	-0.383495	-1.21184	1.1152	-0.204019	-3.14006	0.558369	0	0	0	0	0	0	0	0	0	0	0	0	0	0	0.000000000	0	0.788798	-0.788798	0	0.828698	-1.5708	0	0.1	0.1	0.1	0.1	0.1	0.1	0.1	0	0	0	0	0	0	0	0.000000000
1504276735.658735990	-0.938796	-0.383495	-1.21184	1.1152	-0.204019	-3.14006	0.558369	0	0	0	0	0	0	0	0	0	0	0	0	0	0	0.000000000	0	0.788798	-0.788798	0	0.828698	-1.5708	0	0.1	0.1	0.1	0.1	0.1	0.1	0.1	0	0	0	0	0	0	0	0.000000000
1504276735.678692102	-0.938796	-0.383495	-1.21184	1.1152	-0.204019	-3.14006	0.558369	0	0	0	0	0	0	0	0	0	0	0	0	0	0	0.000000000	0	0.788798	-0.788798	0	0.828698	-1.5708	0	0.1	0.1	0.1	0.1	0.1	0.1	0.1	0	0	0	0	0	0	0	0.000000000
1504276735.698746919	-0.938796	-0.383495	-1.21184	1.1152	-0.202485	-3.14006	0.558369	0	0	0	0	0	0	0	0	0	0	0	0	0	0	0.000000000	0	0.788798	-0.788798	0	0.828698	-1.5708	0	0.1	0.1	0.1	0.1	0.1	0.1	0.1	0	0	0	0	0	0	0	0.000000000
1504276735.718767881	-0.938796	-0.383495	-1.21184	1.1152	-0.202485	-3.14006	0.558369	0	0	0	0	0	0	0	0	0	0	0	0	0	0	0.000000000	0	0.788798	-0.788798	0	0.828698	-1.5708	0	0.1	0.1	0.1	0.1	0.1	0.1	0.1	0	0	0	0	0	0	0	0.000000000
1504276735.738780975	-0.938796	-0.383495	-1.21184	1.1152	-0.204019	-3.14006	0.558369	0	0	0	0	0	0	0	0	0	0	0	0	0	0	0.000000000	0	0.788798	-0.788798	0	0.828698	-1.5708	0	0.1	0.1	0.1	0.1	0.1	0.1	0.1	0	0	0	0	0	0	0	0.000000000
1504276735.759457111	-0.938796	-0.383495	-1.21184	1.1152	-0.204019	-3.14006	0.558369	0	0	0	0	0	0	0	0	0	0	0	0	0	0	0.000000000	0	0.788798	-0.788798	0	0.828698	-1.5708	0	0.1	0.1	0.1	0.1	0.1	0.1	0.1	0	0	0	0	0	0	0	0.000000000
1504276735.778707981	-0.938796	-0.383495	-1.21031	1.1152	-0.204019	-3.14006	0.558369	0	0	0	0	0	0	0	0	0	0	0	0	0	0	0.000000000	0	0.788798	-0.788798	0	0.828698	-1.5708	0	0.1	0.1	0.1	0.1	0.1	0.1	0.1	0	0	0	0	0	0	0	0.000000000
1504276735.798738956	-0.938796	-0.383495	-1.21184	1.1152	-0.204019	-3.14006	0.558369	0	0	0	0	0	0	0	0	0	0	0	0	0	0	0.000000000	0	0.788798	-0.788798	0	0.828698	-1.5708	0	0.1	0.1	0.1	0.1	0.1	0.1	0.1	0	0	0	0	0	0	0	0.000000000
1504276735.818779945	-0.938796	-0.383495	-1.21184	1.1152	-0.204019	-3.14006	0.558369	0	0	0	0	0	0	0	0	0	0	0	0	0	0	0.000000000	0	0.788798	-0.788798	0	0.828698	-1.5708	0	0.1	0.1	0.1	0.1	0.1	0.1	0.1	0	0	0	0	0	0	0	0.000000000
1504276735.838869094	-0.938796	-0.383495	-1.21184	1.1152	-0.204019	-3.14006	0.558369	0	0	0	0	0	0	0	0	0	0	0	0	0	0	0.000000000	0	0.788798	-0.788798	0	0.828698	-1.5708	0	0.1	0.1	0.1	0.1	0.1	0.1	0.1	0	0	0	0	0	0	0	0.000000000
1504276735.858727931	-0.938796	-0.383495	-1.21184	1.1152	-0.204019	-3.14006	0.558369	0	0	0	0	0	0	0	0	0	0	0	0	0	0	0.000000000	0	0.788798	-0.788798	0	0.828698	-1.5708	0	0.1	0.1	0.1	0.1	0.1	0.1	0.1	0	0	0	0	0	0	0	0.000000000
1504276735.878722906	-0.938796	-0.383495	-1.21184	1.1152	-0.204019	-3.14006	0.558369	0	0	0	0	0	0	0	0	0	0	0	0	0	0	0.000000000	0	0.788798	-0.788798	0	0.828698	-1.5708	0	0.1	0.1	0.1	0.1	0.1	0.1	0.1	0	0	0	0	0	0	0	0.000000000
1504276735.898797988	-0.938796	-0.383495	-1.21184	1.1152	-0.204019	-3.14159	0.558369	0	0	0	0	0	0	0	0	0	0	0	0	0	0	0.000000000	0	0.788798	-0.788798	0	0.828698	-1.5708	0	0.1	0.1	0.1	0.1	0.1	0.1	0.1	0	0	0	0	0	0	0	0.000000000
1504276735.918800115	-0.938796	-0.383495	-1.21184	1.1152	-0.204019	-3.14159	0.558369	0	0	0	0	0	0	0	0	0	0	0	0	0	0	0.000000000	0	0.788798	-0.788798	0	0.828698	-1.5708	0	0.1	0.1	0.1	0.1	0.1	0.1	0.1	0	0	0	0	0	0	0	0.000000000
1504276735.938941955	-0.938796	-0.383495	-1.21184	1.1152	-0.204019	-3.14006	0.558369	0	0	0	0	0	0	0	0	0	0	0	0	0	0	0.000000000	0	0.788798	-0.788798	0	0.828698	-1.5708	0	0.1	0.1	0.1	0.1	0.1	0.1	0.1	0	0	0	0	0	0	0	0.000000000
1504276735.959264039	-0.938796	-0.383495	-1.21184	1.1152	-0.204019	-3.14006	0.558369	0	0	0	0	0	0	0	0	0	0	0	0	0	0	0.000000000	0	0.788798	-0.788798	0	0.828698	-1.5708	0	0.1	0.1	0.1	0.1	0.1	0.1	0.1	0	0	0	0	0	0	0	0.000000000
1504276735.978720903	-0.938796	-0.383495	-1.21184	1.1152	-0.204019	-3.14159	0.558369	0	0	0	0	0	0	0	0	0	0	0	0	0	0	0.000000000	0	0.788798	-0.788798	0	0.828698	-1.5708	0	0.1	0.1	0.1	0.1	0.1	0.1	0.1	0	0	0	0	0	0	0	0.000000000
1504276735.999589920	-0.938796	-0.383495	-1.21184	1.1152	-0.204019	-3.14159	0.558369	0	0	0	0	0	0	0	0	0	0	0	0	0	0	0.000000000	0	0.788798	-0.788798	0	0.828698	-1.5708	0	0.1	0.1	0.1	0.1	0.1	0.1	0.1	0	0	0	0	0	0	0	0.000000000
1504276736.018838882	-0.938796	-0.383495	-1.21184	1.1152	-0.204019	-3.14159	0.558369	0	0	0	0	0	0	0	0	0	0	0	0	0	0	0.000000000	0	0.788798	-0.788798	0	0.828698	-1.5708	0	0.1	0.1	0.1	0.1	0.1	0.1	0.1	0	0	0	0	0	0	0	0.000000000
1504276736.038806915	-0.938796	-0.383495	-1.21184	1.1152	-0.204019	-3.14006	0.558369	0	0	0	0	0	0	0	0	0	0	0	0	0	0	0.000000000	0	0.788798	-0.788798	0	0.828698	-1.5708	0	0.1	0.1	0.1	0.1	0.1	0.1	0.1	0	0	0	0	0	0	0	0.000000000
1504276736.058839082	-0.938796	-0.383495	-1.21184	1.1152	-0.204019	-3.14006	0.558369	0	0	0	0	0	0	0	0	0	0	0	0	0	0	0.000000000	0	0.788798	-0.788798	0	0.828698	-1.5708	0	0.1	0.1	0.1	0.1	0.1	0.1	0.1	0	0	0	0	0	0	0	0.000000000
1504276736.078700065	-0.938796	-0.383495	-1.21184	1.1152	-0.204019	-3.14006	0.558369	0	0	0	0	0	0	0	0	0	0	0	0	0	0	0.000000000	0	0.788798	-0.788798	0	0.828698	-1.5708	0	0.1	0.1	0.1	0.1	0.1	0.1	0.1	0	0	0	0	0	0	0	0.000000000
1504276736.098714113	-0.938796	-0.383495	-1.21184	1.1152	-0.204019	-3.14159	0.558369	0	0	0	0	0	0	0	0	0	0	0	0	0	0	0.000000000	0	0.788798	-0.788798	0	0.828698	-1.5708	0	0.1	0.1	0.1	0.1	0.1	0.1	0.1	0	0	0	0	0	0	0	0.000000000
1504276736.118725061	-0.938796	-0.383495	-1.21184	1.1152	-0.204019	-3.14159	0.558369	0	0	0	0	0	0	0	0	0	0	0	0	0	0	0.000000000	0	0.788798	-0.788798	0	0.828698	-1.5708	0	0.1	0.1	0.1	0.1	0.1	0.1	0.1	0	0	0	0	0	0	0	0.000000000
1504276736.138731956	-0.938796	-0.383495	-1.21184	1.1152	-0.202485	-3.14006	0.558369	0	0	0	0	0	0	0	0	0	0	0	0	0	0	0.000000000	0	0.788798	-0.788798	0	0.828698	-1.5708	0	0.1	0.1	0.1	0.1	0.1	0.1	0.1	0	0	0	0	0	0	0	0.000000000
1504276736.158799886	-0.938796	-0.383495	-1.21184	1.1152	-0.204019	-3.14006	0.558369	0	0	0	0	0	0	0	0	0	0	0	0	0	0	0.000000000	0	0.788798	-0.788798	0	0.828698	-1.5708	0	0.1	0.1	0.1	0.1	0.1	0.1	0.1	0	0	0	0	0	0	0	0.000000000
1504276736.178776979	-0.938796	-0.383495	-1.21184	1.1152	-0.204019	-3.14159	0.558369	0	0	0	0	0	0	0	0	0	0	0	0	0	0	0.000000000	0	0.788798	-0.788798	0	0.828698	-1.5708	0	0.1	0.1	0.1	0.1	0.1	0.1	0.1	0	0	0	0	0	0	0	0.000000000
1504276736.198709964	-0.938796	-0.383495	-1.21184	1.1152	-0.204019	-3.14159	0.558369	0	0	0	0	0	0	0	0	0	0	0	0	0	0	0.000000000	0	0.788798	-0.788798	0	0.828698	-1.5708	0	0.1	0.1	0.1	0.1	0.1	0.1	0.1	0	0	0	0	0	0	0	0.000000000
1504276736.218780994	-0.938796	-0.383495	-1.21184	1.1152	-0.204019	-3.14159	0.558369	0	0	0	0	0	0	0	0	0	0	0	0	0	0	0.000000000	0	0.788798	-0.788798	0	0.828698	-1.5708	0	0.1	0.1	0.1	0.1	0.1	0.1	0.1	0	0	0	0	0	0	0	0.000000000
1504276736.238795042	-0.938796	-0.383495	-1.21184	1.1152	-0.204019	-3.14159	0.558369	0	0	0	0	0	0	0	0	0	0	0	0	0	0	0.000000000	0	0.788798	-0.788798	0	0.828698	-1.5708	0	0.1	0.1	0.1	0.1	0.1	0.1	0.1	0	0	0	0	0	0	0	0.000000000
1504276736.260126113	-0.938796	-0.383495	-1.21184	1.1152	-0.204019	-3.14006	0.558369	0	0	0	0	0	0	0	0	0	0	0	0	0	0	0.000000000	0	0.788798	-0.788798	0	0.828698	-1.5708	0	0.1	0.1	0.1	0.1	0.1	0.1	0.1	0	0	0	0	0	0	0	0.000000000
1504276736.279323101	-0.938796	-0.383495	-1.21184	1.1152	-0.204019	-3.14006	0.558369	0	0	0	0	0	0	0	0	0	0	0	0	0	0	0.000000000	0	0.788798	-0.788798	0	0.828698	-1.5708	0	0.1	0.1	0.1	0.1	0.1	0.1	0.1	0	0	0	0	0	0	0	0.000000000
1504276736.298770904	-0.938796	-0.383495	-1.21184	1.1152	-0.202485	-3.14159	0.558369	0	0	0	0	0	0	0	0	0	0	0	0	0	0	0.000000000	0	0.788798	-0.788798	0	0.828698	-1.5708	0	0.1	0.1	0.1	0.1	0.1	0.1	0.1	0	0	0	0	0	0	0	0.000000000
1504276736.318788051	-0.938796	-0.383495	-1.21184	1.1152	-0.202485	-3.14159	0.558369	0	0	0	0	0	0	0	0	0	0	0	0	0	0	0.000000000	0	0.788798	-0.788798	0	0.828698	-1.5708	0	0.1	0.1	0.1	0.1	0.1	0.1	0.1	0	0	0	0	0	0	0	0.000000000
1504276736.338835000	-0.938796	-0.383495	-1.21184	1.1152	-0.204019	-3.14159	0.558369	0	0	0	0	0	0	0	0	0	0	0	0	0	0	0.000000000	0	0.788798	-0.788798	0	0.828698	-1.5708	0	0.1	0.1	0.1	0.1	0.1	0.1	0.1	0	0	0	0	0	0	0	0.000000000
1504276736.359344959	-0.938796	-0.383495	-1.21184	1.1152	-0.204019	-3.14159	0.558369	0	0	0	0	0	0	0	0	0	0	0	0	0	0	0.000000000	0	0.788798	-0.788798	0	0.828698	-1.5708	0	0.1	0.1	0.1	0.1	0.1	0.1	0.1	0	0	0	0	0	0	0	0.000000000
1504276736.378846883	-0.938796	-0.383495	-1.21184	1.1152	-0.204019	-3.14006	0.558369	0	0	0	0	0	0	0	0	0	0	0	0	0	0	0.000000000	0	0.788798	-0.788798	0	0.828698	-1.5708	0	0.1	0.1	0.1	0.1	0.1	0.1	0.1	0	0	0	0	0	0	0	0.000000000
1504276736.398943901	-0.938796	-0.383495	-1.21184	1.1152	-0.204019	-3.14006	0.558369	0	0	0	0	0	0	0	0	0	0	0	0	0	0	0.000000000	0	0.788798	-0.788798	0	0.828698	-1.5708	0	0.1	0.1	0.1	0.1	0.1	0.1	0.1	0	0	0	0	0	0	0	0.000000000
1504276736.418986082	-0.938796	-0.383495	-1.21184	1.1152	-0.204019	-3.14006	0.558369	0	0	0	0	0	0	0	0	0	0	0	0	0	0	0.000000000	0	0.788798	-0.788798	0	0.828698	-1.5708	0	0.1	0.1	0.1	0.1	0.1	0.1	0.1	0	0	0	0	0	0	0	0.000000000
1504276736.438992023	-0.938796	-0.383495	-1.21184	1.1152	-0.204019	-3.14159	0.558369	0	0	0	0	0	0	0	0	0	0	0	0	0	0	0.000000000	0	0.788798	-0.788798	0	0.828698	-1.5708	0	0.1	0.1	0.1	0.1	0.1	0.1	0.1	0	0	0	0	0	0	0	0.000000000
1504276736.458945035	-0.938796	-0.383495	-1.21184	1.1152	-0.204019	-3.14006	0.558369	0	0	0	0	0	0	0	0	0	0	0	0	0	0	0.000000000	0	0.788798	-0.788798	0	0.828698	-1.5708	0	0.1	0.1	0.1	0.1	0.1	0.1	0.1	0	0	0	0	0	0	0	0.000000000
1504276736.478873968	-0.938796	-0.383495	-1.21184	1.1152	-0.204019	-3.14159	0.558369	0	0	0	0	0	0	0	0	0	0	0	0	0	0	0.000000000	0	0.788798	-0.788798	0	0.828698	-1.5708	0	0.1	0.1	0.1	0.1	0.1	0.1	0.1	0	0	0	0	0	0	0	0.000000000
1504276736.499901056	-0.938796	-0.383495	-1.21184	1.1152	-0.204019	-3.14159	0.558369	0	0	0	0	0	0	0	0	0	0	0	0	0	0	0.000000000	0	0.788798	-0.788798	0	0.828698	-1.5708	0	0.1	0.1	0.1	0.1	0.1	0.1	0.1	0	0	0	0	0	0	0	0.000000000
1504276736.518903017	-0.938796	-0.383495	-1.21184	1.1152	-0.204019	-3.14006	0.558369	0	0	0	0	0	0	0	0	0	0	0	0	0	0	0.000000000	0	0.788798	-0.788798	0	0.828698	-1.5708	0	0.1	0.1	0.1	0.1	0.1	0.1	0.1	0	0	0	0	0	0	0	0.000000000
1504276736.539175987	-0.938796	-0.383495	-1.21184	1.1152	-0.204019	-3.14006	0.558369	0	0	0	0	0	0	0	0	0	0	0	0	0	0	0.000000000	0	0.788798	-0.788798	0	0.828698	-1.5708	0	0.1	0.1	0.1	0.1	0.1	0.1	0.1	0	0	0	0	0	0	0	0.000000000
1504276736.559295892	-0.938796	-0.383495	-1.21184	1.1152	-0.202485	-3.14006	0.558369	0	0	0	0	0	0	0	0	0	0	0	0	0	0	0.000000000	0	0.788798	-0.788798	0	0.828698	-1.5708	0	0.1	0.1	0.1	0.1	0.1	0.1	0.1	0	0	0	0	0	0	0	0.000000000
1504276736.578840017	-0.938796	-0.383495	-1.21184	1.1152	-0.204019	-3.14006	0.558369	0	0	0	0	0	0	0	0	0	0	0	0	0	0	0.000000000	0	0.788798	-0.788798	0	0.828698	-1.5708	0	0.1	0.1	0.1	0.1	0.1	0.1	0.1	0	0	0	0	0	0	0	0.000000000
1504276736.599102973	-0.938796	-0.383495	-1.21184	1.1152	-0.204019	-3.14006	0.558369	0	0	0	0	0	0	0	0	0	0	0	0	0	0	0.000000000	0	0.788798	-0.788798	0	0.828698	-1.5708	0	0.1	0.1	0.1	0.1	0.1	0.1	0.1	0	0	0	0	0	0	0	0.000000000
1504276736.619127988	-0.938796	-0.383495	-1.21184	1.1152	-0.204019	-3.14006	0.556835	0	0	0	0	0	0	0	0	0	0	0	0	0	0	0.000000000	0	0.788798	-0.788798	0	0.828698	-1.5708	0	0.1	0.1	0.1	0.1	0.1	0.1	0.1	0	0	0	0	0	0	0	0.000000000
1504276736.639152050	-0.938796	-0.383495	-1.21184	1.1152	-0.204019	-3.14159	0.558369	0	0	0	0	0	0	0	0	0	0	0	0	0	0	0.000000000	0	0.788798	-0.788798	0	0.828698	-1.5708	0	0.1	0.1	0.1	0.1	0.1	0.1	0.1	0	0	0	0	0	0	0	0.000000000
1504276736.658972978	-0.938796	-0.383495	-1.21184	1.1152	-0.204019	-3.14006	0.558369	0	0	0	0	0	0	0	0	0	0	0	0	0	0	0.000000000	0	0.788798	-0.788798	0	0.828698	-1.5708	0	0.1	0.1	0.1	0.1	0.1	0.1	0.1	0	0	0	0	0	0	0	0.000000000
1504276736.678755998	-0.938796	-0.383495	-1.21184	1.1152	-0.204019	-3.14006	0.558369	0	0	0	0	0	0	0	0	0	0	0	0	0	0	0.000000000	0	0.788798	-0.788798	0	0.828698	-1.5708	0	0.1	0.1	0.1	0.1	0.1	0.1	0.1	0	0	0	0	0	0	0	0.000000000
1504276736.698745965	-0.938796	-0.383495	-1.21184	1.1152	-0.202485	-3.14006	0.558369	0	0	0	0	0	0	0	0	0	0	0	0	0	0	0.000000000	0	0.788798	-0.788798	0	0.828698	-1.5708	0	0.1	0.1	0.1	0.1	0.1	0.1	0.1	0	0	0	0	0	0	0	0.000000000
1504276736.718693971	-0.938796	-0.383495	-1.21184	1.1152	-0.202485	-3.14006	0.558369	0	0	0	0	0	0	0	0	0	0	0	0	0	0	0.000000000	0	0.788798	-0.788798	0	0.828698	-1.5708	0	0.1	0.1	0.1	0.1	0.1	0.1	0.1	0	0	0	0	0	0	0	0.000000000
1504276736.738751888	-0.938796	-0.383495	-1.21184	1.1152	-0.204019	-3.14006	0.558369	0	0	0	0	0	0	0	0	0	0	0	0	0	0	0.000000000	0	0.788798	-0.788798	0	0.828698	-1.5708	0	0.1	0.1	0.1	0.1	0.1	0.1	0.1	0	0	0	0	0	0	0	0.000000000
1504276736.758954048	-0.938796	-0.383495	-1.21031	1.1152	-0.204019	-3.14006	0.558369	0	0	0	0	0	0	0	0	0	0	0	0	0	0	0.000000000	0	0.788798	-0.788798	0	0.828698	-1.5708	0	0.1	0.1	0.1	0.1	0.1	0.1	0.1	0	0	0	0	0	0	0	0.000000000
1504276736.778754949	-0.938796	-0.383495	-1.21184	1.1152	-0.204019	-3.14159	0.558369	0	0	0	0	0	0	0	0	0	0	0	0	0	0	0.000000000	0	0.788798	-0.788798	0	0.828698	-1.5708	0	0.1	0.1	0.1	0.1	0.1	0.1	0.1	0	0	0	0	0	0	0	0.000000000
1504276736.798732042	-0.938796	-0.383495	-1.21031	1.1152	-0.202485	-3.14006	0.558369	0	0	0	0	0	0	0	0	0	0	0	0	0	0	0.000000000	0	0.788798	-0.788798	0	0.828698	-1.5708	0	0.1	0.1	0.1	0.1	0.1	0.1	0.1	0	0	0	0	0	0	0	0.000000000
1504276736.818762063	-0.938796	-0.383495	-1.21031	1.1152	-0.202485	-3.14006	0.558369	0	0	0	0	0	0	0	0	0	0	0	0	0	0	0.000000000	0	0.788798	-0.788798	0	0.828698	-1.5708	0	0.1	0.1	0.1	0.1	0.1	0.1	0.1	0	0	0	0	0	0	0	0.000000000
1504276736.838835000	-0.938796	-0.383495	-1.21184	1.1152	-0.204019	-3.14006	0.558369	0	0	0	0	0	0	0	0	0	0	0	0	0	0	0.000000000	0	0.788798	-0.788798	0	0.828698	-1.5708	0	0.1	0.1	0.1	0.1	0.1	0.1	0.1	0	0	0	0	0	0	0	0.000000000
1504276736.860169887	-0.938796	-0.383495	-1.21184	1.1152	-0.204019	-3.14006	0.558369	0	0	0	0	0	0	0	0	0	0	0	0	0	0	0.000000000	0	0.788798	-0.788798	0	0.828698	-1.5708	0	0.1	0.1	0.1	0.1	0.1	0.1	0.1	0	0	0	0	0	0	0	0.000000000
1504276736.878823041	-0.938796	-0.383495	-1.21184	1.1152	-0.204019	-3.14006	0.558369	0	0	0	0	0	0	0	0	0	0	0	0	0	0	0.000000000	0	0.788798	-0.788798	0	0.828698	-1.5708	0	0.1	0.1	0.1	0.1	0.1	0.1	0.1	0	0	0	0	0	0	0	0.000000000
1504276736.898880958	-0.938796	-0.383495	-1.21184	1.1152	-0.204019	-3.14006	0.558369	0	0	0	0	0	0	0	0	0	0	0	0	0	0	0.000000000	0	0.788798	-0.788798	0	0.828698	-1.5708	0	0.1	0.1	0.1	0.1	0.1	0.1	0.1	0	0	0	0	0	0	0	0.000000000
1504276736.919512033	-0.938796	-0.383495	-1.21184	1.1152	-0.204019	-3.14006	0.558369	0	0	0	0	0	0	0	0	0	0	0	0	0	0	0.000000000	0	0.788798	-0.788798	0	0.828698	-1.5708	0	0.1	0.1	0.1	0.1	0.1	0.1	0.1	0	0	0	0	0	0	0	0.000000000
1504276736.939017057	-0.938796	-0.383495	-1.21184	1.1152	-0.202485	-3.14159	0.558369	0	0	0	0	0	0	0	0	0	0	0	0	0	0	0.000000000	0	0.788798	-0.788798	0	0.828698	-1.5708	0	0.1	0.1	0.1	0.1	0.1	0.1	0.1	0	0	0	0	0	0	0	0.000000000
1504276736.959531068	-0.938796	-0.383495	-1.21184	1.1152	-0.204019	-3.14006	0.558369	0	0	0	0	0	0	0	0	0	0	0	0	0	0	0.000000000	0	0.788798	-0.788798	0	0.828698	-1.5708	0	0.1	0.1	0.1	0.1	0.1	0.1	0.1	0	0	0	0	0	0	0	0.000000000
1504276736.978858947	-0.938796	-0.383495	-1.21184	1.1152	-0.204019	-3.14006	0.558369	0	0	0	0	0	0	0	0	0	0	0	0	0	0	0.000000000	0	0.788798	-0.788798	0	0.828698	-1.5708	0	0.1	0.1	0.1	0.1	0.1	0.1	0.1	0	0	0	0	0	0	0	0.000000000
1504276736.998828887	-0.938796	-0.383495	-1.21031	1.1152	-0.202485	-3.14006	0.558369	0	0	0	0	0	0	0	0	0	0	0	0	0	0	0.000000000	0	0.788798	-0.788798	0	0.828698	-1.5708	0	0.1	0.1	0.1	0.1	0.1	0.1	0.1	0	0	0	0	0	0	0	0.000000000
1504276737.018799066	-0.938796	-0.383495	-1.21031	1.1152	-0.202485	-3.14006	0.558369	0	0	0	0	0	0	0	0	0	0	0	0	0	0	0.000000000	0	0.788798	-0.788798	0	0.828698	-1.5708	0	0.1	0.1	0.1	0.1	0.1	0.1	0.1	0	0	0	0	0	0	0	0.000000000
1504276737.038791894	-0.938796	-0.383495	-1.21184	1.1152	-0.204019	-3.14006	0.558369	0	0	0	0	0	0	0	0	0	0	0	0	0	0	0.000000000	0	0.788798	-0.788798	0	0.828698	-1.5708	0	0.1	0.1	0.1	0.1	0.1	0.1	0.1	0	0	0	0	0	0	0	0.000000000
1504276737.059393882	-0.938796	-0.383495	-1.21184	1.1152	-0.204019	-3.14159	0.558369	0	0	0	0	0	0	0	0	0	0	0	0	0	0	0.000000000	0	0.788798	-0.788798	0	0.828698	-1.5708	0	0.1	0.1	0.1	0.1	0.1	0.1	0.1	0	0	0	0	0	0	0	0.000000000
1504276737.079066038	-0.938796	-0.383495	-1.21184	1.1152	-0.204019	-3.14159	0.558369	0	0	0	0	0	0	0	0	0	0	0	0	0	0	0.000000000	0	0.788798	-0.788798	0	0.828698	-1.5708	0	0.1	0.1	0.1	0.1	0.1	0.1	0.1	0	0	0	0	0	0	0	0.000000000
1504276737.098901987	-0.938796	-0.383495	-1.21184	1.1152	-0.204019	-3.14006	0.558369	0	0	0	0	0	0	0	0	0	0	0	0	0	0	0.000000000	0	0.788798	-0.788798	0	0.828698	-1.5708	0	0.1	0.1	0.1	0.1	0.1	0.1	0.1	0	0	0	0	0	0	0	0.000000000
1504276737.119471073	-0.938796	-0.383495	-1.21184	1.1152	-0.204019	-3.14006	0.558369	0	0	0	0	0	0	0	0	0	0	0	0	0	0	0.000000000	0	0.788798	-0.788798	0	0.828698	-1.5708	0	0.1	0.1	0.1	0.1	0.1	0.1	0.1	0	0	0	0	0	0	0	0.000000000
1504276737.138807058	-0.938796	-0.383495	-1.21184	1.1152	-0.204019	-3.14159	0.558369	0	0	0	0	0	0	0	0	0	0	0	0	0	0	0.000000000	0	0.788798	-0.788798	0	0.828698	-1.5708	0	0.1	0.1	0.1	0.1	0.1	0.1	0.1	0	0	0	0	0	0	0	0.000000000
1504276737.158921003	-0.938796	-0.383495	-1.21184	1.1152	-0.204019	-3.14159	0.558369	0	0	0	0	0	0	0	0	0	0	0	0	0	0	0.000000000	0	0.788798	-0.788798	0	0.828698	-1.5708	0	0.1	0.1	0.1	0.1	0.1	0.1	0.1	0	0	0	0	0	0	0	0.000000000
1504276737.178791046	-0.938796	-0.383495	-1.21184	1.1152	-0.204019	-3.14159	0.558369	0	0	0	0	0	0	0	0	0	0	0	0	0	0	0.000000000	0	0.788798	-0.788798	0	0.828698	-1.5708	0	0.1	0.1	0.1	0.1	0.1	0.1	0.1	0	0	0	0	0	0	0	0.000000000
1504276737.199564933	-0.938796	-0.383495	-1.21184	1.1152	-0.204019	-3.14006	0.558369	0	0	0	0	0	0	0	0	0	0	0	0	0	0	0.000000000	0	0.788798	-0.788798	0	0.828698	-1.5708	0	0.1	0.1	0.1	0.1	0.1	0.1	0.1	0	0	0	0	0	0	0	0.000000000
1504276737.218841075	-0.938796	-0.383495	-1.21184	1.1152	-0.204019	-3.14006	0.558369	0	0	0	0	0	0	0	0	0	0	0	0	0	0	0.000000000	0	0.788798	-0.788798	0	0.828698	-1.5708	0	0.1	0.1	0.1	0.1	0.1	0.1	0.1	0	0	0	0	0	0	0	0.000000000
1504276737.238848924	-0.938796	-0.383495	-1.21184	1.1152	-0.204019	-3.14006	0.558369	0	0	0	0	0	0	0	0	0	0	0	0	0	0	0.000000000	0	0.788798	-0.788798	0	0.828698	-1.5708	0	0.1	0.1	0.1	0.1	0.1	0.1	0.1	0	0	0	0	0	0	0	0.000000000
1504276737.258852005	-0.938796	-0.383495	-1.21184	1.1152	-0.204019	-3.14006	0.558369	0	0	0	0	0	0	0	0	0	0	0	0	0	0	0.000000000	0	0.788798	-0.788798	0	0.828698	-1.5708	0	0.1	0.1	0.1	0.1	0.1	0.1	0.1	0	0	0	0	0	0	0	0.000000000
1504276737.278779029	-0.938796	-0.383495	-1.21184	1.1152	-0.204019	-3.14006	0.558369	0	0	0	0	0	0	0	0	0	0	0	0	0	0	0.000000000	0	0.788798	-0.788798	0	0.828698	-1.5708	0	0.1	0.1	0.1	0.1	0.1	0.1	0.1	0	0	0	0	0	0	0	0.000000000
1504276737.298903942	-0.938796	-0.383495	-1.21184	1.1152	-0.204019	-3.14006	0.558369	0	0	0	0	0	0	0	0	0	0	0	0	0	0	0.000000000	0	0.788798	-0.788798	0	0.828698	-1.5708	0	0.1	0.1	0.1	0.1	0.1	0.1	0.1	0	0	0	0	0	0	0	0.000000000
1504276737.318836927	-0.938796	-0.383495	-1.21184	1.1152	-0.204019	-3.14159	0.558369	0	0	0	0	0	0	0	0	0	0	0	0	0	0	0.000000000	0	0.788798	-0.788798	0	0.828698	-1.5708	0	0.1	0.1	0.1	0.1	0.1	0.1	0.1	0	0	0	0	0	0	0	0.000000000
1504276737.339291095	-0.938796	-0.383495	-1.21184	1.1152	-0.204019	-3.14006	0.558369	0	0	0	0	0	0	0	0	0	0	0	0	0	0	0.000000000	0	0.788798	-0.788798	0	0.828698	-1.5708	0	0.1	0.1	0.1	0.1	0.1	0.1	0.1	0	0	0	0	0	0	0	0.000000000
1504276737.359448909	-0.938796	-0.383495	-1.21184	1.1152	-0.204019	-3.14006	0.558369	0	0	0	0	0	0	0	0	0	0	0	0	0	0	0.000000000	0	0.788798	-0.788798	0	0.828698	-1.5708	0	0.1	0.1	0.1	0.1	0.1	0.1	0.1	0	0	0	0	0	0	0	0.000000000
1504276737.378757953	-0.938796	-0.383495	-1.21184	1.1152	-0.204019	-3.14006	0.558369	0	0	0	0	0	0	0	0	0	0	0	0	0	0	0.000000000	0	0.788798	-0.788798	0	0.828698	-1.5708	0	0.1	0.1	0.1	0.1	0.1	0.1	0.1	0	0	0	0	0	0	0	0.000000000
1504276737.398797035	-0.938796	-0.383495	-1.21184	1.1152	-0.204019	-3.14006	0.558369	0	0	0	0	0	0	0	0	0	0	0	0	0	0	0.000000000	0	0.788798	-0.788798	0	0.828698	-1.5708	0	0.1	0.1	0.1	0.1	0.1	0.1	0.1	0	0	0	0	0	0	0	0.000000000
1504276737.418816089	-0.938796	-0.383495	-1.21184	1.1152	-0.204019	-3.14006	0.558369	0	0	0	0	0	0	0	0	0	0	0	0	0	0	0.000000000	0	0.788798	-0.788798	0	0.828698	-1.5708	0	0.1	0.1	0.1	0.1	0.1	0.1	0.1	0	0	0	0	0	0	0	0.000000000
1504276737.438836097	-0.938796	-0.383495	-1.21184	1.1152	-0.204019	-3.14159	0.558369	0	0	0	0	0	0	0	0	0	0	0	0	0	0	0.000000000	0	0.788798	-0.788798	0	0.828698	-1.5708	0	0.1	0.1	0.1	0.1	0.1	0.1	0.1	0	0	0	0	0	0	0	0.000000000
1504276737.458762884	-0.938796	-0.383495	-1.21184	1.1152	-0.204019	-3.14006	0.558369	0	0	0	0	0	0	0	0	0	0	0	0	0	0	0.000000000	0	0.788798	-0.788798	0	0.828698	-1.5708	0	0.1	0.1	0.1	0.1	0.1	0.1	0.1	0	0	0	0	0	0	0	0.000000000
1504276737.478984117	-0.938796	-0.383495	-1.21184	1.1152	-0.204019	-3.14006	0.558369	0	0	0	0	0	0	0	0	0	0	0	0	0	0	0.000000000	0	0.788798	-0.788798	0	0.828698	-1.5708	0	0.1	0.1	0.1	0.1	0.1	0.1	0.1	0	0	0	0	0	0	0	0.000000000
1504276737.499772071	-0.938796	-0.383495	-1.21184	1.1152	-0.204019	-3.14159	0.558369	0	0	0	0	0	0	0	0	0	0	0	0	0	0	0.000000000	0	0.788798	-0.788798	0	0.828698	-1.5708	0	0.1	0.1	0.1	0.1	0.1	0.1	0.1	0	0	0	0	0	0	0	0.000000000
1504276737.518831968	-0.938796	-0.383495	-1.21184	1.1152	-0.204019	-3.14159	0.558369	0	0	0	0	0	0	0	0	0	0	0	0	0	0	0.000000000	0	0.788798	-0.788798	0	0.828698	-1.5708	0	0.1	0.1	0.1	0.1	0.1	0.1	0.1	0	0	0	0	0	0	0	0.000000000
1504276737.539079904	-0.938796	-0.383495	-1.21184	1.1152	-0.202485	-3.14006	0.558369	0	0	0	0	0	0	0	0	0	0	0	0	0	0	0.000000000	0	0.788798	-0.788798	0	0.828698	-1.5708	0	0.1	0.1	0.1	0.1	0.1	0.1	0.1	0	0	0	0	0	0	0	0.000000000
1504276737.559223890	-0.938796	-0.383495	-1.21184	1.1152	-0.204019	-3.14006	0.558369	0	0	0	0	0	0	0	0	0	0	0	0	0	0	0.000000000	0	0.788798	-0.788798	0	0.828698	-1.5708	0	0.1	0.1	0.1	0.1	0.1	0.1	0.1	0	0	0	0	0	0	0	0.000000000
1504276737.578900098	-0.938796	-0.383495	-1.21184	1.1152	-0.204019	-3.14006	0.558369	0	0	0	0	0	0	0	0	0	0	0	0	0	0	0.000000000	0	0.788798	-0.788798	0	0.828698	-1.5708	0	0.1	0.1	0.1	0.1	0.1	0.1	0.1	0	0	0	0	0	0	0	0.000000000
1504276737.598882913	-0.938796	-0.383495	-1.21184	1.1152	-0.204019	-3.14159	0.558369	0	0	0	0	0	0	0	0	0	0	0	0	0	0	0.000000000	0	0.788798	-0.788798	0	0.828698	-1.5708	0	0.1	0.1	0.1	0.1	0.1	0.1	0.1	0	0	0	0	0	0	0	0.000000000
1504276737.619457006	-0.938796	-0.383495	-1.21184	1.1152	-0.204019	-3.14006	0.558369	0	0	0	0	0	0	0	0	0	0	0	0	0	0	0.000000000	0	0.788798	-0.788798	0	0.828698	-1.5708	0	0.1	0.1	0.1	0.1	0.1	0.1	0.1	0	0	0	0	0	0	0	0.000000000
1504276737.639039993	-0.938796	-0.383495	-1.21184	1.1152	-0.202485	-3.14006	0.558369	0	0	0	0	0	0	0	0	0	0	0	0	0	0	0.000000000	0	0.788798	-0.788798	0	0.828698	-1.5708	0	0.1	0.1	0.1	0.1	0.1	0.1	0.1	0	0	0	0	0	0	0	0.000000000
1504276737.661006927	-0.938796	-0.383495	-1.21184	1.1152	-0.204019	-3.14006	0.558369	0	0	0	0	0	0	0	0	0	0	0	0	0	0	0.000000000	0	0.788798	-0.788798	0	0.828698	-1.5708	0	0.1	0.1	0.1	0.1	0.1	0.1	0.1	0	0	0	0	0	0	0	0.000000000
1504276737.679188013	-0.938796	-0.383495	-1.21184	1.1152	-0.204019	-3.14006	0.558369	0	0	0	0	0	0	0	0	0	0	0	0	0	0	0.000000000	0	0.788798	-0.788798	0	0.828698	-1.5708	0	0.1	0.1	0.1	0.1	0.1	0.1	0.1	0	0	0	0	0	0	0	0.000000000
1504276737.699132919	-0.938796	-0.383495	-1.21184	1.1152	-0.204019	-3.14159	0.558369	0	0	0	0	0	0	0	0	0	0	0	0	0	0	0.000000000	0	0.788798	-0.788798	0	0.828698	-1.5708	0	0.1	0.1	0.1	0.1	0.1	0.1	0.1	0	0	0	0	0	0	0	0.000000000
1504276737.718910932	-0.938796	-0.383495	-1.21184	1.1152	-0.204019	-3.14159	0.558369	0	0	0	0	0	0	0	0	0	0	0	0	0	0	0.000000000	0	0.788798	-0.788798	0	0.828698	-1.5708	0	0.1	0.1	0.1	0.1	0.1	0.1	0.1	0	0	0	0	0	0	0	0.000000000
1504276737.738869905	-0.938796	-0.383495	-1.21184	1.1152	-0.204019	-3.14006	0.558369	0	0	0	0	0	0	0	0	0	0	0	0	0	0	0.000000000	0	0.788798	-0.788798	0	0.828698	-1.5708	0	0.1	0.1	0.1	0.1	0.1	0.1	0.1	0	0	0	0	0	0	0	0.000000000
1504276737.758840084	-0.938796	-0.383495	-1.21184	1.1152	-0.204019	-3.14159	0.558369	0	0	0	0	0	0	0	0	0	0	0	0	0	0	0.000000000	0	0.788798	-0.788798	0	0.828698	-1.5708	0	0.1	0.1	0.1	0.1	0.1	0.1	0.1	0	0	0	0	0	0	0	0.000000000
1504276737.779453992	-0.938796	-0.383495	-1.21184	1.1152	-0.204019	-3.14159	0.558369	0	0	0	0	0	0	0	0	0	0	0	0	0	0	0.000000000	0	0.788798	-0.788798	0	0.828698	-1.5708	0	0.1	0.1	0.1	0.1	0.1	0.1	0.1	0	0	0	0	0	0	0	0.000000000
1504276737.798716068	-0.938796	-0.383495	-1.21184	1.1152	-0.204019	-3.14006	0.558369	0	0	0	0	0	0	0	0	0	0	0	0	0	0	0.000000000	0	0.788798	-0.788798	0	0.828698	-1.5708	0	0.1	0.1	0.1	0.1	0.1	0.1	0.1	0	0	0	0	0	0	0	0.000000000
1504276737.818754911	-0.938796	-0.383495	-1.21184	1.1152	-0.204019	-3.14006	0.558369	0	0	0	0	0	0	0	0	0	0	0	0	0	0	0.000000000	0	0.788798	-0.788798	0	0.828698	-1.5708	0	0.1	0.1	0.1	0.1	0.1	0.1	0.1	0	0	0	0	0	0	0	0.000000000
1504276737.838908910	-0.938796	-0.383495	-1.21184	1.1152	-0.202485	-3.14006	0.558369	0	0	0	0	0	0	0	0	0	0	0	0	0	0	0.000000000	0	0.788798	-0.788798	0	0.828698	-1.5708	0	0.1	0.1	0.1	0.1	0.1	0.1	0.1	0	0	0	0	0	0	0	0.000000000
1504276737.858784914	-0.938796	-0.383495	-1.21184	1.1152	-0.204019	-3.14006	0.558369	0	0	0	0	0	0	0	0	0	0	0	0	0	0	0.000000000	0	0.788798	-0.788798	0	0.828698	-1.5708	0	0.1	0.1	0.1	0.1	0.1	0.1	0.1	0	0	0	0	0	0	0	0.000000000
1504276737.878755092	-0.938796	-0.383495	-1.21184	1.1152	-0.204019	-3.14006	0.558369	0	0	0	0	0	0	0	0	0	0	0	0	0	0	0.000000000	0	0.788798	-0.788798	0	0.828698	-1.5708	0	0.1	0.1	0.1	0.1	0.1	0.1	0.1	0	0	0	0	0	0	0	0.000000000
1504276737.898773908	-0.938796	-0.383495	-1.21184	1.1152	-0.204019	-3.14159	0.558369	0	0	0	0	0	0	0	0	0	0	0	0	0	0	0.000000000	0	0.788798	-0.788798	0	0.828698	-1.5708	0	0.1	0.1	0.1	0.1	0.1	0.1	0.1	0	0	0	0	0	0	0	0.000000000
1504276737.918692111	-0.938796	-0.383495	-1.21184	1.1152	-0.204019	-3.14159	0.558369	0	0	0	0	0	0	0	0	0	0	0	0	0	0	0.000000000	0	0.788798	-0.788798	0	0.828698	-1.5708	0	0.1	0.1	0.1	0.1	0.1	0.1	0.1	0	0	0	0	0	0	0	0.000000000
1504276737.939100027	-0.938796	-0.383495	-1.21184	1.1152	-0.204019	-3.14006	0.558369	0	0	0	0	0	0	0	0	0	0	0	0	0	0	0.000000000	0	0.788798	-0.788798	0	0.828698	-1.5708	0	0.1	0.1	0.1	0.1	0.1	0.1	0.1	0	0	0	0	0	0	0	0.000000000
1504276737.960035085	-0.938796	-0.383495	-1.21184	1.1152	-0.204019	-3.14006	0.558369	0	0	0	0	0	0	0	0	0	0	0	0	0	0	0.000000000	0	0.788798	-0.788798	0	0.828698	-1.5708	0	0.1	0.1	0.1	0.1	0.1	0.1	0.1	0	0	0	0	0	0	0	0.000000000
1504276737.978903055	-0.938796	-0.383495	-1.21184	1.1152	-0.204019	-3.14006	0.558369	0	0	0	0	0	0	0	0	0	0	0	0	0	0	0.000000000	0	0.788798	-0.788798	0	0.828698	-1.5708	0	0.1	0.1	0.1	0.1	0.1	0.1	0.1	0	0	0	0	0	0	0	0.000000000
1504276737.999073982	-0.938796	-0.383495	-1.21184	1.1152	-0.204019	-3.14159	0.558369	0	0	0	0	0	0	0	0	0	0	0	0	0	0	0.000000000	0	0.788798	-0.788798	0	0.828698	-1.5708	0	0.1	0.1	0.1	0.1	0.1	0.1	0.1	0	0	0	0	0	0	0	0.000000000
1504276738.020095109	-0.938796	-0.383495	-1.21184	1.1152	-0.204019	-3.14006	0.558369	0	0	0	0	0	0	0	0	0	0	0	0	0	0	0.000000000	0	0.788798	-0.788798	0	0.828698	-1.5708	0	0.1	0.1	0.1	0.1	0.1	0.1	0.1	0	0	0	0	0	0	0	0.000000000
1504276738.039218902	-0.938796	-0.383495	-1.21184	1.1152	-0.204019	-3.14159	0.558369	0	0	0	0	0	0	0	0	0	0	0	0	0	0	0.000000000	0	0.788798	-0.788798	0	0.828698	-1.5708	0	0.1	0.1	0.1	0.1	0.1	0.1	0.1	0	0	0	0	0	0	0	0.000000000
1504276738.058813095	-0.938796	-0.383495	-1.21184	1.1152	-0.204019	-3.14159	0.558369	0	0	0	0	0	0	0	0	0	0	0	0	0	0	0.000000000	0	0.788798	-0.788798	0	0.828698	-1.5708	0	0.1	0.1	0.1	0.1	0.1	0.1	0.1	0	0	0	0	0	0	0	0.000000000
1504276738.079138994	-0.938796	-0.383495	-1.21184	1.1152	-0.204019	-3.14159	0.558369	0	0	0	0	0	0	0	0	0	0	0	0	0	0	0.000000000	0	0.788798	-0.788798	0	0.828698	-1.5708	0	0.1	0.1	0.1	0.1	0.1	0.1	0.1	0	0	0	0	0	0	0	0.000000000
1504276738.099169969	-0.938796	-0.383495	-1.21184	1.1152	-0.204019	-3.14006	0.558369	0	0	0	0	0	0	0	0	0	0	0	0	0	0	0.000000000	0	0.788798	-0.788798	0	0.828698	-1.5708	0	0.1	0.1	0.1	0.1	0.1	0.1	0.1	0	0	0	0	0	0	0	0.000000000
1504276738.118840932	-0.938796	-0.383495	-1.21184	1.1152	-0.204019	-3.14006	0.558369	0	0	0	0	0	0	0	0	0	0	0	0	0	0	0.000000000	0	0.788798	-0.788798	0	0.828698	-1.5708	0	0.1	0.1	0.1	0.1	0.1	0.1	0.1	0	0	0	0	0	0	0	0.000000000
1504276738.138685941	-0.938796	-0.383495	-1.21184	1.1152	-0.204019	-3.14006	0.558369	0	0	0	0	0	0	0	0	0	0	0	0	0	0	0.000000000	0	0.788798	-0.788798	0	0.828698	-1.5708	0	0.1	0.1	0.1	0.1	0.1	0.1	0.1	0	0	0	0	0	0	0	0.000000000
1504276738.159118890	-0.938796	-0.383495	-1.21184	1.1152	-0.204019	-3.14159	0.558369	0	0	0	0	0	0	0	0	0	0	0	0	0	0	0.000000000	0	0.788798	-0.788798	0	0.828698	-1.5708	0	0.1	0.1	0.1	0.1	0.1	0.1	0.1	0	0	0	0	0	0	0	0.000000000
1504276738.178746938	-0.938796	-0.383495	-1.21184	1.1152	-0.204019	-3.14159	0.558369	0	0	0	0	0	0	0	0	0	0	0	0	0	0	0.000000000	0	0.788798	-0.788798	0	0.828698	-1.5708	0	0.1	0.1	0.1	0.1	0.1	0.1	0.1	0	0	0	0	0	0	0	0.000000000
1504276738.198744058	-0.938796	-0.383495	-1.21184	1.1152	-0.202485	-3.14159	0.558369	0	0	0	0	0	0	0	0	0	0	0	0	0	0	0.000000000	0	0.788798	-0.788798	0	0.828698	-1.5708	0	0.1	0.1	0.1	0.1	0.1	0.1	0.1	0	0	0	0	0	0	0	0.000000000
1504276738.218785047	-0.938796	-0.383495	-1.21184	1.1152	-0.202485	-3.14159	0.558369	0	0	0	0	0	0	0	0	0	0	0	0	0	0	0.000000000	0	0.788798	-0.788798	0	0.828698	-1.5708	0	0.1	0.1	0.1	0.1	0.1	0.1	0.1	0	0	0	0	0	0	0	0.000000000
1504276738.238811016	-0.938796	-0.383495	-1.21184	1.1152	-0.204019	-3.14006	0.558369	0	0	0	0	0	0	0	0	0	0	0	0	0	0	0.000000000	0	0.788798	-0.788798	0	0.828698	-1.5708	0	0.1	0.1	0.1	0.1	0.1	0.1	0.1	0	0	0	0	0	0	0	0.000000000
1504276738.259181022	-0.938796	-0.383495	-1.21184	1.1152	-0.204019	-3.14006	0.558369	0	0	0	0	0	0	0	0	0	0	0	0	0	0	0.000000000	0	0.788798	-0.788798	0	0.828698	-1.5708	0	0.1	0.1	0.1	0.1	0.1	0.1	0.1	0	0	0	0	0	0	0	0.000000000
1504276738.279449939	-0.938796	-0.383495	-1.21184	1.1152	-0.204019	-3.14006	0.558369	0	0	0	0	0	0	0	0	0	0	0	0	0	0	0.000000000	0	0.788798	-0.788798	0	0.828698	-1.5708	0	0.1	0.1	0.1	0.1	0.1	0.1	0.1	0	0	0	0	0	0	0	0.000000000
1504276738.298687934	-0.938796	-0.383495	-1.21184	1.1152	-0.204019	-3.14159	0.558369	0	0	0	0	0	0	0	0	0	0	0	0	0	0	0.000000000	0	0.788798	-0.788798	0	0.828698	-1.5708	0	0.1	0.1	0.1	0.1	0.1	0.1	0.1	0	0	0	0	0	0	0	0.000000000
1504276738.318938970	-0.938796	-0.383495	-1.21184	1.1152	-0.204019	-3.14159	0.558369	0	0	0	0	0	0	0	0	0	0	0	0	0	0	0.000000000	0	0.788798	-0.788798	0	0.828698	-1.5708	0	0.1	0.1	0.1	0.1	0.1	0.1	0.1	0	0	0	0	0	0	0	0.000000000
1504276738.338788032	-0.938796	-0.383495	-1.21184	1.1152	-0.204019	-3.14159	0.558369	0	0	0	0	0	0	0	0	0	0	0	0	0	0	0.000000000	0	0.788798	-0.788798	0	0.828698	-1.5708	0	0.1	0.1	0.1	0.1	0.1	0.1	0.1	0	0	0	0	0	0	0	0.000000000
1504276738.359095096	-0.938796	-0.383495	-1.21184	1.1152	-0.204019	-3.14159	0.558369	0	0	0	0	0	0	0	0	0	0	0	0	0	0	0.000000000	0	0.788798	-0.788798	0	0.828698	-1.5708	0	0.1	0.1	0.1	0.1	0.1	0.1	0.1	0	0	0	0	0	0	0	0.000000000
1504276738.378772020	-0.938796	-0.383495	-1.21184	1.1152	-0.204019	-3.14006	0.558369	0	0	0	0	0	0	0	0	0	0	0	0	0	0	0.000000000	0	0.788798	-0.788798	0	0.828698	-1.5708	0	0.1	0.1	0.1	0.1	0.1	0.1	0.1	0	0	0	0	0	0	0	0.000000000
1504276738.398685932	-0.938796	-0.383495	-1.21184	1.1152	-0.204019	-3.14006	0.558369	0	0	0	0	0	0	0	0	0	0	0	0	0	0	0.000000000	0	0.788798	-0.788798	0	0.828698	-1.5708	0	0.1	0.1	0.1	0.1	0.1	0.1	0.1	0	0	0	0	0	0	0	0.000000000
1504276738.418879032	-0.938796	-0.383495	-1.21184	1.1152	-0.204019	-3.14006	0.558369	0	0	0	0	0	0	0	0	0	0	0	0	0	0	0.000000000	0	0.788798	-0.788798	0	0.828698	-1.5708	0	0.1	0.1	0.1	0.1	0.1	0.1	0.1	0	0	0	0	0	0	0	0.000000000
1504276738.439009904	-0.938796	-0.383495	-1.21184	1.1152	-0.204019	-3.14006	0.558369	0	0	0	0	0	0	0	0	0	0	0	0	0	0	0.000000000	0	0.788798	-0.788798	0	0.828698	-1.5708	0	0.1	0.1	0.1	0.1	0.1	0.1	0.1	0	0	0	0	0	0	0	0.000000000
1504276738.462645053	-0.938796	-0.383495	-1.21184	1.1152	-0.204019	-3.14006	0.558369	0	0	0	0	0	0	0	0	0	0	0	0	0	0	0.000000000	0	0.788798	-0.788798	0	0.828698	-1.5708	0	0.1	0.1	0.1	0.1	0.1	0.1	0.1	0	0	0	0	0	0	0	0.000000000
1504276738.479017019	-0.938796	-0.383495	-1.21184	1.1152	-0.204019	-3.14006	0.558369	0	0	0	0	0	0	0	0	0	0	0	0	0	0	0.000000000	0	0.788798	-0.788798	0	0.828698	-1.5708	0	0.1	0.1	0.1	0.1	0.1	0.1	0.1	0	0	0	0	0	0	0	0.000000000
1504276738.498939037	-0.938796	-0.383495	-1.21184	1.1152	-0.204019	-3.14006	0.558369	0	0	0	0	0	0	0	0	0	0	0	0	0	0	0.000000000	0	0.788798	-0.788798	0	0.828698	-1.5708	0	0.1	0.1	0.1	0.1	0.1	0.1	0.1	0	0	0	0	0	0	0	0.000000000
1504276738.520523071	-0.938796	-0.383495	-1.21184	1.1152	-0.204019	-3.14006	0.558369	0	0	0	0	0	0	0	0	0	0	0	0	0	0	0.000000000	0	0.788798	-0.788798	0	0.828698	-1.5708	0	0.1	0.1	0.1	0.1	0.1	0.1	0.1	0	0	0	0	0	0	0	0.000000000
1504276738.539022922	-0.938796	-0.383495	-1.21184	1.1152	-0.204019	-3.14159	0.558369	0	0	0	0	0	0	0	0	0	0	0	0	0	0	0.000000000	0	0.788798	-0.788798	0	0.828698	-1.5708	0	0.1	0.1	0.1	0.1	0.1	0.1	0.1	0	0	0	0	0	0	0	0.000000000
1504276738.559032917	-0.938796	-0.383495	-1.21184	1.1152	-0.204019	-3.14159	0.558369	0	0	0	0	0	0	0	0	0	0	0	0	0	0	0.000000000	0	0.788798	-0.788798	0	0.828698	-1.5708	0	0.1	0.1	0.1	0.1	0.1	0.1	0.1	0	0	0	0	0	0	0	0.000000000
1504276738.579200983	-0.938796	-0.383495	-1.21184	1.1152	-0.204019	-3.14159	0.558369	0	0	0	0	0	0	0	0	0	0	0	0	0	0	0.000000000	0	0.788798	-0.788798	0	0.828698	-1.5708	0	0.1	0.1	0.1	0.1	0.1	0.1	0.1	0	0	0	0	0	0	0	0.000000000
1504276738.598997116	-0.938796	-0.383495	-1.21184	1.1152	-0.204019	-3.14159	0.558369	0	0	0	0	0	0	0	0	0	0	0	0	0	0	0.000000000	0	0.788798	-0.788798	0	0.828698	-1.5708	0	0.1	0.1	0.1	0.1	0.1	0.1	0.1	0	0	0	0	0	0	0	0.000000000
1504276738.618988037	-0.938796	-0.383495	-1.21184	1.1152	-0.204019	-3.14006	0.558369	0	0	0	0	0	0	0	0	0	0	0	0	0	0	0.000000000	0	0.788798	-0.788798	0	0.828698	-1.5708	0	0.1	0.1	0.1	0.1	0.1	0.1	0.1	0	0	0	0	0	0	0	0.000000000
1504276738.639002084	-0.938796	-0.383495	-1.21184	1.1152	-0.204019	-3.14159	0.558369	0	0	0	0	0	0	0	0	0	0	0	0	0	0	0.000000000	0	0.788798	-0.788798	0	0.828698	-1.5708	0	0.1	0.1	0.1	0.1	0.1	0.1	0.1	0	0	0	0	0	0	0	0.000000000
1504276738.660777091	-0.938796	-0.383495	-1.21184	1.1152	-0.204019	-3.14006	0.558369	0	0	0	0	0	0	0	0	0	0	0	0	0	0	0.000000000	0	0.788798	-0.788798	0	0.828698	-1.5708	0	0.1	0.1	0.1	0.1	0.1	0.1	0.1	0	0	0	0	0	0	0	0.000000000
1504276738.678881883	-0.938796	-0.383495	-1.21184	1.1152	-0.204019	-3.14006	0.558369	0	0	0	0	0	0	0	0	0	0	0	0	0	0	0.000000000	0	0.788798	-0.788798	0	0.828698	-1.5708	0	0.1	0.1	0.1	0.1	0.1	0.1	0.1	0	0	0	0	0	0	0	0.000000000
1504276738.699440002	-0.938796	-0.383495	-1.21184	1.1152	-0.204019	-3.14006	0.558369	0	0	0	0	0	0	0	0	0	0	0	0	0	0	0.000000000	0	0.788798	-0.788798	0	0.828698	-1.5708	0	0.1	0.1	0.1	0.1	0.1	0.1	0.1	0	0	0	0	0	0	0	0.000000000
1504276738.718872070	-0.938796	-0.383495	-1.21184	1.1152	-0.204019	-3.14006	0.558369	0	0	0	0	0	0	0	0	0	0	0	0	0	0	0.000000000	0	0.788798	-0.788798	0	0.828698	-1.5708	0	0.1	0.1	0.1	0.1	0.1	0.1	0.1	0	0	0	0	0	0	0	0.000000000
1504276738.739336967	-0.938796	-0.383495	-1.21184	1.1152	-0.204019	-3.14006	0.558369	0	0	0	0	0	0	0	0	0	0	0	0	0	0	0.000000000	0	0.788798	-0.788798	0	0.828698	-1.5708	0	0.1	0.1	0.1	0.1	0.1	0.1	0.1	0	0	0	0	0	0	0	0.000000000
1504276738.761149883	-0.938796	-0.383495	-1.21184	1.1152	-0.204019	-3.14006	0.558369	0	0	0	0	0	0	0	0	0	0	0	0	0	0	0.000000000	0	0.788798	-0.788798	0	0.828698	-1.5708	0	0.1	0.1	0.1	0.1	0.1	0.1	0.1	0	0	0	0	0	0	0	0.000000000
1504276738.778951883	-0.938796	-0.383495	-1.21184	1.1152	-0.204019	-3.14006	0.558369	0	0	0	0	0	0	0	0	0	0	0	0	0	0	0.000000000	0	0.788798	-0.788798	0	0.828698	-1.5708	0	0.1	0.1	0.1	0.1	0.1	0.1	0.1	0	0	0	0	0	0	0	0.000000000
1504276738.798731088	-0.938796	-0.383495	-1.21184	1.1152	-0.204019	-3.14159	0.558369	0	0	0	0	0	0	0	0	0	0	0	0	0	0	0.000000000	0	0.788798	-0.788798	0	0.828698	-1.5708	0	0.1	0.1	0.1	0.1	0.1	0.1	0.1	0	0	0	0	0	0	0	0.000000000
1504276738.818845987	-0.938796	-0.383495	-1.21184	1.1152	-0.204019	-3.14159	0.558369	0	0	0	0	0	0	0	0	0	0	0	0	0	0	0.000000000	0	0.788798	-0.788798	0	0.828698	-1.5708	0	0.1	0.1	0.1	0.1	0.1	0.1	0.1	0	0	0	0	0	0	0	0.000000000
1504276738.838818073	-0.938796	-0.383495	-1.21184	1.1152	-0.204019	-3.14006	0.558369	0	0	0	0	0	0	0	0	0	0	0	0	0	0	0.000000000	0	0.788798	-0.788798	0	0.828698	-1.5708	0	0.1	0.1	0.1	0.1	0.1	0.1	0.1	0	0	0	0	0	0	0	0.000000000
1504276738.858834028	-0.938796	-0.383495	-1.21184	1.1152	-0.204019	-3.14006	0.558369	0	0	0	0	0	0	0	0	0	0	0	0	0	0	0.000000000	0	0.788798	-0.788798	0	0.828698	-1.5708	0	0.1	0.1	0.1	0.1	0.1	0.1	0.1	0	0	0	0	0	0	0	0.000000000
1504276738.878984928	-0.938796	-0.383495	-1.21184	1.1152	-0.204019	-3.14159	0.558369	0	0	0	0	0	0	0	0	0	0	0	0	0	0	0.000000000	0	0.788798	-0.788798	0	0.828698	-1.5708	0	0.1	0.1	0.1	0.1	0.1	0.1	0.1	0	0	0	0	0	0	0	0.000000000
1504276738.898780107	-0.938796	-0.383495	-1.21184	1.1152	-0.204019	-3.14159	0.558369	0	0	0	0	0	0	0	0	0	0	0	0	0	0	0.000000000	0	0.788798	-0.788798	0	0.828698	-1.5708	0	0.1	0.1	0.1	0.1	0.1	0.1	0.1	0	0	0	0	0	0	0	0.000000000
1504276738.918761014	-0.938796	-0.383495	-1.21184	1.1152	-0.204019	-3.14159	0.558369	0	0	0	0	0	0	0	0	0	0	0	0	0	0	0.000000000	0	0.788798	-0.788798	0	0.828698	-1.5708	0	0.1	0.1	0.1	0.1	0.1	0.1	0.1	0	0	0	0	0	0	0	0.000000000
1504276738.938775062	-0.938796	-0.383495	-1.21184	1.1152	-0.202485	-3.14006	0.558369	0	0	0	0	0	0	0	0	0	0	0	0	0	0	0.000000000	0	0.788798	-0.788798	0	0.828698	-1.5708	0	0.1	0.1	0.1	0.1	0.1	0.1	0.1	0	0	0	0	0	0	0	0.000000000
1504276738.958812952	-0.938796	-0.383495	-1.21184	1.1152	-0.204019	-3.14006	0.558369	0	0	0	0	0	0	0	0	0	0	0	0	0	0	0.000000000	0	0.788798	-0.788798	0	0.828698	-1.5708	0	0.1	0.1	0.1	0.1	0.1	0.1	0.1	0	0	0	0	0	0	0	0.000000000
1504276738.978816986	-0.938796	-0.383495	-1.21184	1.1152	-0.204019	-3.14006	0.558369	0	0	0	0	0	0	0	0	0	0	0	0	0	0	0.000000000	0	0.788798	-0.788798	0	0.828698	-1.5708	0	0.1	0.1	0.1	0.1	0.1	0.1	0.1	0	0	0	0	0	0	0	0.000000000
1504276738.999057054	-0.938796	-0.383495	-1.21184	1.1152	-0.202485	-3.14006	0.558369	0	0	0	0	0	0	0	0	0	0	0	0	0	0	0.000000000	0	0.788798	-0.788798	0	0.828698	-1.5708	0	0.1	0.1	0.1	0.1	0.1	0.1	0.1	0	0	0	0	0	0	0	0.000000000
1504276739.018837928	-0.938796	-0.383495	-1.21184	1.1152	-0.202485	-3.14006	0.558369	0	0	0	0	0	0	0	0	0	0	0	0	0	0	0.000000000	0	0.788798	-0.788798	0	0.828698	-1.5708	0	0.1	0.1	0.1	0.1	0.1	0.1	0.1	0	0	0	0	0	0	0	0.000000000
1504276739.040051937	-0.938796	-0.383495	-1.21184	1.1152	-0.204019	-3.14006	0.556835	0	0	0	0	0	0	0	0	0	0	0	0	0	0	0.000000000	0	0.788798	-0.788798	0	0.828698	-1.5708	0	0.1	0.1	0.1	0.1	0.1	0.1	0.1	0	0	0	0	0	0	0	0.000000000
1504276739.058818101	-0.938796	-0.383495	-1.21184	1.1152	-0.204019	-3.14006	0.558369	0	0	0	0	0	0	0	0	0	0	0	0	0	0	0.000000000	0	0.788798	-0.788798	0	0.828698	-1.5708	0	0.1	0.1	0.1	0.1	0.1	0.1	0.1	0	0	0	0	0	0	0	0.000000000
1504276739.078874111	-0.938796	-0.383495	-1.21184	1.1152	-0.204019	-3.14006	0.558369	0	0	0	0	0	0	0	0	0	0	0	0	0	0	0.000000000	0	0.788798	-0.788798	0	0.828698	-1.5708	0	0.1	0.1	0.1	0.1	0.1	0.1	0.1	0	0	0	0	0	0	0	0.000000000
1504276739.098938941	-0.938796	-0.383495	-1.21184	1.1152	-0.204019	-3.14006	0.558369	0	0	0	0	0	0	0	0	0	0	0	0	0	0	0.000000000	0	0.788798	-0.788798	0	0.828698	-1.5708	0	0.1	0.1	0.1	0.1	0.1	0.1	0.1	0	0	0	0	0	0	0	0.000000000
1504276739.118869066	-0.938796	-0.383495	-1.21184	1.1152	-0.202485	-3.14006	0.558369	0	0	0	0	0	0	0	0	0	0	0	0	0	0	0.000000000	0	0.788798	-0.788798	0	0.828698	-1.5708	0	0.1	0.1	0.1	0.1	0.1	0.1	0.1	0	0	0	0	0	0	0	0.000000000
1504276739.138814926	-0.938796	-0.383495	-1.21184	1.1152	-0.204019	-3.14159	0.558369	0	0	0	0	0	0	0	0	0	0	0	0	0	0	0.000000000	0	0.788798	-0.788798	0	0.828698	-1.5708	0	0.1	0.1	0.1	0.1	0.1	0.1	0.1	0	0	0	0	0	0	0	0.000000000
1504276739.159769058	-0.938796	-0.383495	-1.21184	1.1152	-0.204019	-3.14006	0.558369	0	0	0	0	0	0	0	0	0	0	0	0	0	0	0.000000000	0	0.788798	-0.788798	0	0.828698	-1.5708	0	0.1	0.1	0.1	0.1	0.1	0.1	0.1	0	0	0	0	0	0	0	0.000000000
1504276739.181862115	-0.938796	-0.383495	-1.21184	1.1152	-0.204019	-3.14006	0.558369	0	0	0	0	0	0	0	0	0	0	0	0	0	0	0.000000000	0	0.788798	-0.788798	0	0.828698	-1.5708	0	0.1	0.1	0.1	0.1	0.1	0.1	0.1	0	0	0	0	0	0	0	0.000000000
1504276739.199052095	-0.938796	-0.383495	-1.21184	1.1152	-0.204019	-3.14159	0.558369	0	0	0	0	0	0	0	0	0	0	0	0	0	0	0.000000000	0	0.788798	-0.788798	0	0.828698	-1.5708	0	0.1	0.1	0.1	0.1	0.1	0.1	0.1	0	0	0	0	0	0	0	0.000000000
1504276739.218806982	-0.938796	-0.383495	-1.21184	1.1152	-0.204019	-3.14006	0.558369	0	0	0	0	0	0	0	0	0	0	0	0	0	0	0.000000000	0	0.788798	-0.788798	0	0.828698	-1.5708	0	0.1	0.1	0.1	0.1	0.1	0.1	0.1	0	0	0	0	0	0	0	0.000000000
1504276739.238662004	-0.938796	-0.383495	-1.21184	1.1152	-0.204019	-3.14159	0.558369	0	0	0	0	0	0	0	0	0	0	0	0	0	0	0.000000000	0	0.788798	-0.788798	0	0.828698	-1.5708	0	0.1	0.1	0.1	0.1	0.1	0.1	0.1	0	0	0	0	0	0	0	0.000000000
1504276739.258676052	-0.938796	-0.383495	-1.21184	1.1152	-0.204019	-3.14006	0.558369	0	0	0	0	0	0	0	0	0	0	0	0	0	0	0.000000000	0	0.788798	-0.788798	0	0.828698	-1.5708	0	0.1	0.1	0.1	0.1	0.1	0.1	0.1	0	0	0	0	0	0	0	0.000000000
1504276739.278647899	-0.938796	-0.383495	-1.21184	1.1152	-0.204019	-3.14159	0.558369	0	0	0	0	0	0	0	0	0	0	0	0	0	0	0.000000000	0	0.788798	-0.788798	0	0.828698	-1.5708	0	0.1	0.1	0.1	0.1	0.1	0.1	0.1	0	0	0	0	0	0	0	0.000000000
1504276739.298659086	-0.938796	-0.383495	-1.21184	1.1152	-0.204019	-3.14159	0.558369	0	0	0	0	0	0	0	0	0	0	0	0	0	0	0.000000000	0	0.788798	-0.788798	0	0.828698	-1.5708	0	0.1	0.1	0.1	0.1	0.1	0.1	0.1	0	0	0	0	0	0	0	0.000000000
1504276739.318697929	-0.938796	-0.383495	-1.21184	1.1152	-0.202485	-3.14006	0.558369	0	0	0	0	0	0	0	0	0	0	0	0	0	0	0.000000000	0	0.788798	-0.788798	0	0.828698	-1.5708	0	0.1	0.1	0.1	0.1	0.1	0.1	0.1	0	0	0	0	0	0	0	0.000000000
1504276739.338618993	-0.938796	-0.383495	-1.21184	1.1152	-0.202485	-3.14006	0.558369	0	0	0	0	0	0	0	0	0	0	0	0	0	0	0.000000000	0	0.788798	-0.788798	0	0.828698	-1.5708	0	0.1	0.1	0.1	0.1	0.1	0.1	0.1	0	0	0	0	0	0	0	0.000000000
1504276739.358653068	-0.938796	-0.383495	-1.21184	1.1152	-0.204019	-3.14159	0.558369	0	0	0	0	0	0	0	0	0	0	0	0	0	0	0.000000000	0	0.788798	-0.788798	0	0.828698	-1.5708	0	0.1	0.1	0.1	0.1	0.1	0.1	0.1	0	0	0	0	0	0	0	0.000000000
1504276739.378642082	-0.938796	-0.383495	-1.21184	1.1152	-0.202485	-3.14006	0.558369	0	0	0	0	0	0	0	0	0	0	0	0	0	0	0.000000000	0	0.788798	-0.788798	0	0.828698	-1.5708	0	0.1	0.1	0.1	0.1	0.1	0.1	0.1	0	0	0	0	0	0	0	0.000000000
1504276739.398693084	-0.938796	-0.383495	-1.21184	1.1152	-0.204019	-3.14159	0.558369	0	0	0	0	0	0	0	0	0	0	0	0	0	0	0.000000000	0	0.788798	-0.788798	0	0.828698	-1.5708	0	0.1	0.1	0.1	0.1	0.1	0.1	0.1	0	0	0	0	0	0	0	0.000000000
1504276739.418617963	-0.938796	-0.383495	-1.21184	1.1152	-0.204019	-3.14159	0.558369	0	0	0	0	0	0	0	0	0	0	0	0	0	0	0.000000000	0	0.788798	-0.788798	0	0.828698	-1.5708	0	0.1	0.1	0.1	0.1	0.1	0.1	0.1	0	0	0	0	0	0	0	0.000000000
1504276739.438669919	-0.938796	-0.383495	-1.21184	1.1152	-0.204019	-3.14159	0.558369	0	0	0	0	0	0	0	0	0	0	0	0	0	0	0.000000000	0	0.788798	-0.788798	0	0.828698	-1.5708	0	0.1	0.1	0.1	0.1	0.1	0.1	0.1	0	0	0	0	0	0	0	0.000000000
1504276739.458688974	-0.938796	-0.383495	-1.21184	1.1152	-0.204019	-3.14006	0.558369	0	0	0	0	0	0	0	0	0	0	0	0	0	0	0.000000000	0	0.788798	-0.788798	0	0.828698	-1.5708	0	0.1	0.1	0.1	0.1	0.1	0.1	0.1	0	0	0	0	0	0	0	0.000000000
1504276739.478656053	-0.938796	-0.383495	-1.21184	1.1152	-0.204019	-3.14006	0.558369	0	0	0	0	0	0	0	0	0	0	0	0	0	0	0.000000000	0	0.788798	-0.788798	0	0.828698	-1.5708	0	0.1	0.1	0.1	0.1	0.1	0.1	0.1	0	0	0	0	0	0	0	0.000000000
1504276739.498620033	-0.938796	-0.383495	-1.21184	1.1152	-0.204019	-3.14006	0.558369	0	0	0	0	0	0	0	0	0	0	0	0	0	0	0.000000000	0	0.788798	-0.788798	0	0.828698	-1.5708	0	0.1	0.1	0.1	0.1	0.1	0.1	0.1	0	0	0	0	0	0	0	0.000000000
1504276739.518619060	-0.938796	-0.383495	-1.21184	1.1152	-0.204019	-3.14006	0.558369	0	0	0	0	0	0	0	0	0	0	0	0	0	0	0.000000000	0	0.788798	-0.788798	0	0.828698	-1.5708	0	0.1	0.1	0.1	0.1	0.1	0.1	0.1	0	0	0	0	0	0	0	0.000000000
1504276739.538646936	-0.938796	-0.383495	-1.21184	1.1152	-0.204019	-3.14006	0.558369	0	0	0	0	0	0	0	0	0	0	0	0	0	0	0.000000000	0	0.788798	-0.788798	0	0.828698	-1.5708	0	0.1	0.1	0.1	0.1	0.1	0.1	0.1	0	0	0	0	0	0	0	0.000000000
1504276739.558785915	-0.938796	-0.383495	-1.21184	1.1152	-0.204019	-3.14159	0.558369	0	0	0	0	0	0	0	0	0	0	0	0	0	0	0.000000000	0	0.788798	-0.788798	0	0.828698	-1.5708	0	0.1	0.1	0.1	0.1	0.1	0.1	0.1	0	0	0	0	0	0	0	0.000000000
1504276739.578717947	-0.938796	-0.383495	-1.21184	1.1152	-0.204019	-3.14159	0.558369	0	0	0	0	0	0	0	0	0	0	0	0	0	0	0.000000000	0	0.788798	-0.788798	0	0.828698	-1.5708	0	0.1	0.1	0.1	0.1	0.1	0.1	0.1	0	0	0	0	0	0	0	0.000000000
1504276739.598695993	-0.938796	-0.383495	-1.21184	1.1152	-0.204019	-3.14159	0.558369	0	0	0	0	0	0	0	0	0	0	0	0	0	0	0.000000000	0	0.788798	-0.788798	0	0.828698	-1.5708	0	0.1	0.1	0.1	0.1	0.1	0.1	0.1	0	0	0	0	0	0	0	0.000000000
1504276739.618616104	-0.938796	-0.383495	-1.21184	1.1152	-0.204019	-3.14159	0.558369	0	0	0	0	0	0	0	0	0	0	0	0	0	0	0.000000000	0	0.788798	-0.788798	0	0.828698	-1.5708	0	0.1	0.1	0.1	0.1	0.1	0.1	0.1	0	0	0	0	0	0	0	0.000000000
1504276739.638644933	-0.938796	-0.383495	-1.21184	1.1152	-0.204019	-3.14006	0.558369	0	0	0	0	0	0	0	0	0	0	0	0	0	0	0.000000000	0	0.788798	-0.788798	0	0.828698	-1.5708	0	0.1	0.1	0.1	0.1	0.1	0.1	0.1	0	0	0	0	0	0	0	0.000000000
1504276739.658725023	-0.938796	-0.383495	-1.21184	1.1152	-0.204019	-3.14006	0.558369	0	0	0	0	0	0	0	0	0	0	0	0	0	0	0.000000000	0	0.788798	-0.788798	0	0.828698	-1.5708	0	0.1	0.1	0.1	0.1	0.1	0.1	0.1	0	0	0	0	0	0	0	0.000000000
1504276739.678611993	-0.938796	-0.383495	-1.21184	1.1152	-0.202485	-3.14159	0.558369	0	0	0	0	0	0	0	0	0	0	0	0	0	0	0.000000000	0	0.788798	-0.788798	0	0.828698	-1.5708	0	0.1	0.1	0.1	0.1	0.1	0.1	0.1	0	0	0	0	0	0	0	0.000000000
1504276739.698673009	-0.938796	-0.383495	-1.21184	1.1152	-0.204019	-3.14006	0.558369	0	0	0	0	0	0	0	0	0	0	0	0	0	0	0.000000000	0	0.788798	-0.788798	0	0.828698	-1.5708	0	0.1	0.1	0.1	0.1	0.1	0.1	0.1	0	0	0	0	0	0	0	0.000000000
1504276739.718691110	-0.938796	-0.383495	-1.21184	1.1152	-0.204019	-3.14006	0.558369	0	0	0	0	0	0	0	0	0	0	0	0	0	0	0.000000000	0	0.788798	-0.788798	0	0.828698	-1.5708	0	0.1	0.1	0.1	0.1	0.1	0.1	0.1	0	0	0	0	0	0	0	0.000000000
1504276739.738754034	-0.938796	-0.383495	-1.21184	1.1152	-0.204019	-3.14006	0.558369	0	0	0	0	0	0	0	0	0	0	0	0	0	0	0.000000000	0	0.788798	-0.788798	0	0.828698	-1.5708	0	0.1	0.1	0.1	0.1	0.1	0.1	0.1	0	0	0	0	0	0	0	0.000000000
1504276739.759181976	-0.938796	-0.383495	-1.21184	1.1152	-0.204019	-3.14159	0.558369	0	0	0	0	0	0	0	0	0	0	0	0	0	0	0.000000000	0	0.788798	-0.788798	0	0.828698	-1.5708	0	0.1	0.1	0.1	0.1	0.1	0.1	0.1	0	0	0	0	0	0	0	0.000000000
1504276739.778723001	-0.938796	-0.383495	-1.21184	1.1152	-0.204019	-3.14006	0.558369	0	0	0	0	0	0	0	0	0	0	0	0	0	0	0.000000000	0	0.788798	-0.788798	0	0.828698	-1.5708	0	0.1	0.1	0.1	0.1	0.1	0.1	0.1	0	0	0	0	0	0	0	0.000000000
1504276739.798830986	-0.938796	-0.383495	-1.21184	1.1152	-0.204019	-3.14006	0.558369	0	0	0	0	0	0	0	0	0	0	0	0	0	0	0.000000000	0	0.788798	-0.788798	0	0.828698	-1.5708	0	0.1	0.1	0.1	0.1	0.1	0.1	0.1	0	0	0	0	0	0	0	0.000000000
1504276739.818727970	-0.938796	-0.383495	-1.21184	1.1152	-0.204019	-3.14006	0.558369	0	0	0	0	0	0	0	0	0	0	0	0	0	0	0.000000000	0	0.788798	-0.788798	0	0.828698	-1.5708	0	0.1	0.1	0.1	0.1	0.1	0.1	0.1	0	0	0	0	0	0	0	0.000000000
1504276739.838728904	-0.938796	-0.383495	-1.21184	1.1152	-0.202485	-3.14159	0.556835	0	0	0	0	0	0	0	0	0	0	0	0	0	0	0.000000000	0	0.788798	-0.788798	0	0.828698	-1.5708	0	0.1	0.1	0.1	0.1	0.1	0.1	0.1	0	0	0	0	0	0	0	0.000000000
1504276739.858813047	-0.938796	-0.383495	-1.21184	1.1152	-0.204019	-3.14159	0.558369	0	0	0	0	0	0	0	0	0	0	0	0	0	0	0.000000000	0	0.788798	-0.788798	0	0.828698	-1.5708	0	0.1	0.1	0.1	0.1	0.1	0.1	0.1	0	0	0	0	0	0	0	0.000000000
1504276739.878891944	-0.938796	-0.383495	-1.21184	1.1152	-0.204019	-3.14006	0.558369	0	0	0	0	0	0	0	0	0	0	0	0	0	0	0.000000000	0	0.788798	-0.788798	0	0.828698	-1.5708	0	0.1	0.1	0.1	0.1	0.1	0.1	0.1	0	0	0	0	0	0	0	0.000000000
1504276739.898911952	-0.938796	-0.383495	-1.21184	1.1152	-0.204019	-3.14006	0.558369	0	0	0	0	0	0	0	0	0	0	0	0	0	0	0.000000000	0	0.788798	-0.788798	0	0.828698	-1.5708	0	0.1	0.1	0.1	0.1	0.1	0.1	0.1	0	0	0	0	0	0	0	0.000000000
1504276739.918997049	-0.938796	-0.383495	-1.21184	1.1152	-0.204019	-3.14006	0.558369	0	0	0	0	0	0	0	0	0	0	0	0	0	0	0.000000000	0	0.788798	-0.788798	0	0.828698	-1.5708	0	0.1	0.1	0.1	0.1	0.1	0.1	0.1	0	0	0	0	0	0	0	0.000000000
1504276739.942451000	-0.938796	-0.383495	-1.21184	1.1152	-0.204019	-3.14006	0.558369	0	0	0	0	0	0	0	0	0	0	0	0	0	0	0.000000000	0	0.788798	-0.788798	0	0.828698	-1.5708	0	0.1	0.1	0.1	0.1	0.1	0.1	0.1	0	0	0	0	0	0	0	0.000000000
1504276739.958879947	-0.938796	-0.383495	-1.21184	1.1152	-0.204019	-3.14006	0.558369	0	0	0	0	0	0	0	0	0	0	0	0	0	0	0.000000000	0	0.788798	-0.788798	0	0.828698	-1.5708	0	0.1	0.1	0.1	0.1	0.1	0.1	0.1	0	0	0	0	0	0	0	0.000000000
1504276739.978746891	-0.938796	-0.383495	-1.21184	1.1152	-0.204019	-3.14159	0.558369	0	0	0	0	0	0	0	0	0	0	0	0	0	0	0.000000000	0	0.788798	-0.788798	0	0.828698	-1.5708	0	0.1	0.1	0.1	0.1	0.1	0.1	0.1	0	0	0	0	0	0	0	0.000000000
1504276739.998699903	-0.938796	-0.383495	-1.21184	1.1152	-0.204019	-3.14006	0.558369	0	0	0	0	0	0	0	0	0	0	0	0	0	0	0.000000000	0	0.788798	-0.788798	0	0.828698	-1.5708	0	0.1	0.1	0.1	0.1	0.1	0.1	0.1	0	0	0	0	0	0	0	0.000000000
1504276740.018672943	-0.938796	-0.383495	-1.21184	1.1152	-0.204019	-3.14006	0.558369	0	0	0	0	0	0	0	0	0	0	0	0	0	0	0.000000000	0	0.788798	-0.788798	0	0.828698	-1.5708	0	0.1	0.1	0.1	0.1	0.1	0.1	0.1	0	0	0	0	0	0	0	0.000000000
1504276740.038681983	-0.938796	-0.383495	-1.21184	1.1152	-0.204019	-3.14006	0.558369	0	0	0	0	0	0	0	0	0	0	0	0	0	0	0.000000000	0	0.788798	-0.788798	0	0.828698	-1.5708	0	0.1	0.1	0.1	0.1	0.1	0.1	0.1	0	0	0	0	0	0	0	0.000000000
1504276740.058689117	-0.938796	-0.383495	-1.21184	1.1152	-0.204019	-3.14006	0.558369	0	0	0	0	0	0	0	0	0	0	0	0	0	0	0.000000000	0	0.788798	-0.788798	0	0.828698	-1.5708	0	0.1	0.1	0.1	0.1	0.1	0.1	0.1	0	0	0	0	0	0	0	0.000000000
1504276740.078670978	-0.938796	-0.383495	-1.21184	1.1152	-0.204019	-3.14159	0.558369	0	0	0	0	0	0	0	0	0	0	0	0	0	0	0.000000000	0	0.788798	-0.788798	0	0.828698	-1.5708	0	0.1	0.1	0.1	0.1	0.1	0.1	0.1	0	0	0	0	0	0	0	0.000000000
1504276740.098679065	-0.938796	-0.383495	-1.21184	1.1152	-0.204019	-3.14159	0.558369	0	0	0	0	0	0	0	0	0	0	0	0	0	0	0.000000000	0	0.788798	-0.788798	0	0.828698	-1.5708	0	0.1	0.1	0.1	0.1	0.1	0.1	0.1	0	0	0	0	0	0	0	0.000000000
1504276740.118689060	-0.938796	-0.383495	-1.21184	1.1152	-0.204019	-3.14159	0.558369	0	0	0	0	0	0	0	0	0	0	0	0	0	0	0.000000000	0	0.788798	-0.788798	0	0.828698	-1.5708	0	0.1	0.1	0.1	0.1	0.1	0.1	0.1	0	0	0	0	0	0	0	0.000000000
1504276740.139034986	-0.938796	-0.383495	-1.21184	1.1152	-0.204019	-3.14006	0.558369	0	0	0	0	0	0	0	0	0	0	0	0	0	0	0.000000000	0	0.788798	-0.788798	0	0.828698	-1.5708	0	0.1	0.1	0.1	0.1	0.1	0.1	0.1	0	0	0	0	0	0	0	0.000000000
1504276740.159018993	-0.938796	-0.383495	-1.21184	1.1152	-0.204019	-3.14006	0.558369	0	0	0	0	0	0	0	0	0	0	0	0	0	0	0.000000000	0	0.788798	-0.788798	0	0.828698	-1.5708	0	0.1	0.1	0.1	0.1	0.1	0.1	0.1	0	0	0	0	0	0	0	0.000000000
1504276740.178664922	-0.938796	-0.383495	-1.21184	1.1152	-0.204019	-3.14006	0.558369	0	0	0	0	0	0	0	0	0	0	0	0	0	0	0.000000000	0	0.788798	-0.788798	0	0.828698	-1.5708	0	0.1	0.1	0.1	0.1	0.1	0.1	0.1	0	0	0	0	0	0	0	0.000000000
1504276740.198676109	-0.938796	-0.383495	-1.21184	1.1152	-0.204019	-3.14159	0.558369	0	0	0	0	0	0	0	0	0	0	0	0	0	0	0.000000000	0	0.788798	-0.788798	0	0.828698	-1.5708	0	0.1	0.1	0.1	0.1	0.1	0.1	0.1	0	0	0	0	0	0	0	0.000000000
1504276740.218666076	-0.938796	-0.383495	-1.21184	1.1152	-0.204019	-3.14159	0.558369	0	0	0	0	0	0	0	0	0	0	0	0	0	0	0.000000000	0	0.788798	-0.788798	0	0.828698	-1.5708	0	0.1	0.1	0.1	0.1	0.1	0.1	0.1	0	0	0	0	0	0	0	0.000000000
1504276740.238650083	-0.938796	-0.383495	-1.21184	1.1152	-0.202485	-3.14159	0.558369	0	0	0	0	0	0	0	0	0	0	0	0	0	0	0.000000000	0	0.788798	-0.788798	0	0.828698	-1.5708	0	0.1	0.1	0.1	0.1	0.1	0.1	0.1	0	0	0	0	0	0	0	0.000000000
1504276740.258691072	-0.938796	-0.383495	-1.21184	1.1152	-0.204019	-3.14006	0.558369	0	0	0	0	0	0	0	0	0	0	0	0	0	0	0.000000000	0	0.788798	-0.788798	0	0.828698	-1.5708	0	0.1	0.1	0.1	0.1	0.1	0.1	0.1	0	0	0	0	0	0	0	0.000000000
1504276740.278681993	-0.938796	-0.383495	-1.21184	1.1152	-0.204019	-3.14006	0.558369	0	0	0	0	0	0	0	0	0	0	0	0	0	0	0.000000000	0	0.788798	-0.788798	0	0.828698	-1.5708	0	0.1	0.1	0.1	0.1	0.1	0.1	0.1	0	0	0	0	0	0	0	0.000000000
1504276740.298660993	-0.938796	-0.383495	-1.21184	1.1152	-0.202485	-3.14006	0.558369	0	0	0	0	0	0	0	0	0	0	0	0	0	0	0.000000000	0	0.788798	-0.788798	0	0.828698	-1.5708	0	0.1	0.1	0.1	0.1	0.1	0.1	0.1	0	0	0	0	0	0	0	0.000000000
1504276740.318928956	-0.938796	-0.383495	-1.21184	1.1152	-0.202485	-3.14006	0.558369	0	0	0	0	0	0	0	0	0	0	0	0	0	0	0.000000000	0	0.788798	-0.788798	0	0.828698	-1.5708	0	0.1	0.1	0.1	0.1	0.1	0.1	0.1	0	0	0	0	0	0	0	0.000000000
1504276740.338682889	-0.938796	-0.383495	-1.21184	1.1152	-0.202485	-3.14006	0.558369	0	0	0	0	0	0	0	0	0	0	0	0	0	0	0.000000000	0	0.788798	-0.788798	0	0.828698	-1.5708	0	0.1	0.1	0.1	0.1	0.1	0.1	0.1	0	0	0	0	0	0	0	0.000000000
1504276740.358767986	-0.938796	-0.381961	-1.21184	1.11367	-0.200951	-3.14006	0.558369	0	0	0	0	0	0	0	0	0	0	0	0	0	0	0.000000000	0	0.788798	-0.788798	0	0.828698	-1.5708	0	0.1	0.1	0.1	0.1	0.1	0.1	0.1	0	0	0	0	0	0	0	0.000000000
1504276740.378757953	-0.938796	-0.380427	-1.21184	1.1152	-0.200951	-3.14159	0.558369	0	0	0	0	0	0	0	0	0	0	0	0	0	0	0.000000000	0	0.788798	-0.788798	0	0.828698	-1.5708	0	0.1	0.1	0.1	0.1	0.1	0.1	0.1	0	0	0	0	0	0	0	0.000000000
1504276740.398644924	-0.938796	-0.380427	-1.21184	1.11367	-0.199418	-3.14159	0.558369	0	0	0	0	0	0	0	0	0	0	0	0	0	0	0.000000000	0	0.788798	-0.788798	0	0.828698	-1.5708	0	0.1	0.1	0.1	0.1	0.1	0.1	0.1	0	0	0	0	0	0	0	0.000000000
1504276740.418771028	-0.938796	-0.380427	-1.21184	1.11367	-0.199418	-3.14159	0.558369	0	0	0	0	0	0	0	0	0	0	0	0	0	0	0.000000000	0	0.788798	-0.788798	0	0.828698	-1.5708	0	0.1	0.1	0.1	0.1	0.1	0.1	0.1	0	0	0	0	0	0	0	0.000000000
1504276740.438683986	-0.938796	-0.378893	-1.21184	1.11367	-0.199418	-3.14159	0.558369	0	0	0	0	0	0	0	0	0	0	0	0	0	0	0.000000000	0	0.788798	-0.788798	0	0.828698	-1.5708	0	0.1	0.1	0.1	0.1	0.1	0.1	0.1	0	0	0	0	0	0	0	0.000000000
1504276740.458913087	-0.938796	-0.377359	-1.21184	1.11367	-0.199418	-3.14159	0.558369	0	0	0	0	0	0	0	0	0	0	0	0	0	0	0.000000000	0	0.788798	-0.788798	0	0.828698	-1.5708	0	0.1	0.1	0.1	0.1	0.1	0.1	0.1	0	0	0	0	0	0	0	0.000000000
1504276740.478836059	-0.938796	-0.377359	-1.21184	1.11367	-0.199418	-3.14159	0.558369	0	0	0	0	0	0	0	0	0	0	0	0	0	0	0.000000000	0	0.788798	-0.788798	0	0.828698	-1.5708	0	0.1	0.1	0.1	0.1	0.1	0.1	0.1	0	0	0	0	0	0	0	0.000000000
1504276740.499063014	-0.938796	-0.375825	-1.21184	1.11367	-0.199418	-3.14006	0.558369	0	0	0	0	0	0	0	0	0	0	0	0	0	0	0.000000000	0	0.788798	-0.788798	0	0.828698	-1.5708	0	0.1	0.1	0.1	0.1	0.1	0.1	0.1	0	0	0	0	0	0	0	0.000000000
1504276740.518748044	-0.938796	-0.375825	-1.21184	1.11367	-0.199418	-3.14006	0.558369	0	0	0	0	0	0	0	0	0	0	0	0	0	0	0.000000000	0	0.788798	-0.788798	0	0.828698	-1.5708	0	0.1	0.1	0.1	0.1	0.1	0.1	0.1	0	0	0	0	0	0	0	0.000000000
1504276740.539079904	-0.938796	-0.375825	-1.21184	1.11367	-0.197884	-3.14006	0.558369	0	0	0	0	0	0	0	0	0	0	0	0	0	0	0.000000000	0	0.788798	-0.788798	0	0.828698	-1.5708	0	0.1	0.1	0.1	0.1	0.1	0.1	0.1	0	0	0	0	0	0	0	0.000000000
1504276740.559336900	-0.938796	-0.375825	-1.21184	1.11367	-0.197884	-3.14006	0.558369	0	0	0	0	0	0	0	0	0	0	0	0	0	0	0.000000000	0	0.788798	-0.788798	0	0.828698	-1.5708	0	0.1	0.1	0.1	0.1	0.1	0.1	0.1	0	0	0	0	0	0	0	0.000000000
1504276740.579933881	-0.938796	-0.372757	-1.21184	1.11367	-0.194816	-3.14159	0.558369	0	0	0	0	0	0	0	0	0	0	0	0	0	0	0.000000000	0	0.788798	-0.788798	0	0.828698	-1.5708	0	0.1	0.1	0.1	0.1	0.1	0.1	0.1	0	0	0	0	0	0	0	0.000000000
1504276740.599081993	-0.938796	-0.369689	-1.21184	1.1152	-0.191748	-3.14006	0.558369	0	0.0955044	0	0	0.0955044	0	0	0	0	0	0	0	0	0	0.000000000	0	0.788798	-0.788798	0	0.828698	-1.5708	0	0.1	0.1	0.1	0.1	0.1	0.1	0.1	0	0	0	0	0	0	0	0.000000000
1504276740.618681907	-0.938796	-0.368155	-1.21184	1.11367	-0.190214	-3.14006	0.558369	0	0.0955044	0	0	0.0955044	0	0	0	0	0	0	0	0	0	0.000000000	0	0.788798	-0.788798	0	0.828698	-1.5708	0	0.1	0.1	0.1	0.1	0.1	0.1	0.1	0	0	0	0	0	0	0	0.000000000
1504276740.638685941	-0.938796	-0.368155	-1.21184	1.1152	-0.18868	-3.14006	0.558369	0	0	0	0	0.0955044	0	0	0	0	0	0	0	0	0	0.000000000	0	0.788798	-0.788798	0	0.828698	-1.5708	0	0.1	0.1	0.1	0.1	0.1	0.1	0.1	0	0	0	0	0	0	0	0.000000000
1504276740.658955097	-0.938796	-0.368155	-1.21184	1.1152	-0.187146	-3.14006	0.558369	0	0	0	0	0	0	0	0	0	0	0	0	0	0	0.000000000	0	0.788798	-0.788798	0	0.828698	-1.5708	0	0.1	0.1	0.1	0.1	0.1	0.1	0.1	0	0	0	0	0	0	0	0.000000000
1504276740.678683042	-0.937262	-0.368155	-1.21184	1.11367	-0.182544	-3.14159	0.558369	0	0	0	0	0.143257	0	0	0	0	0	0	0	0	0	0.000000000	0	0.788798	-0.788798	0	0.828698	-1.5708	0	0.1	0.1	0.1	0.1	0.1	0.1	0.1	0	0	0	0	0	0	0	0.000000000
1504276740.698712110	-0.935728	-0.366621	-1.21184	1.11367	-0.18101	-3.14159	0.558369	0.0955044	0	0	0	0.0955044	0	0	0	0	0	0	0	0	0	0.000000000	0	0.788798	-0.788798	0	0.828698	-1.5708	0	0.1	0.1	0.1	0.1	0.1	0.1	0.1	0	0	0	0	0	0	0	0.000000000
1504276740.718676090	-0.935728	-0.366621	-1.21184	1.11367	-0.18101	-3.14159	0.558369	0.0955044	0	0	0	0.0955044	0	0	0	0	0	0	0	0	0	0.000000000	0	0.788798	-0.788798	0	0.828698	-1.5708	0	0.1	0.1	0.1	0.1	0.1	0.1	0.1	0	0	0	0	0	0	0	0.000000000
1504276740.738768100	-0.93266	-0.365087	-1.21184	1.11367	-0.177942	-3.14159	0.558369	0.0955044	0	0	0	0.0955044	0	0	0	0	0	0	0	0	0	0.000000000	0	0.788798	-0.788798	0	0.828698	-1.5708	0	0.1	0.1	0.1	0.1	0.1	0.1	0.1	0	0	0	0	0	0	0	0.000000000
1504276740.759470939	-0.931126	-0.360485	-1.21491	1.11214	-0.174874	-3.14159	0.558369	0	0.143257	0.107442	0	0.143257	0	0	0	0	0	0	0	0	0	0.000000000	0	0.788798	-0.788798	0	0.828698	-1.5708	0	0.1	0.1	0.1	0.1	0.1	0.1	0.1	0	0	0	0	0	0	0	0.000000000
1504276740.778812885	-0.929592	-0.357418	-1.21645	1.10907	-0.174874	-3.14159	0.558369	0	0.143257	0	0.107442	0	0	0	0	0	0	0	0	0	0	0.000000000	0	0.788798	-0.788798	0	0.828698	-1.5708	0	0.1	0.1	0.1	0.1	0.1	0.1	0.1	0	0	0	0	0	0	0	0.000000000
1504276740.799027919	-0.928058	-0.355884	-1.21645	1.106	-0.17334	-3.14006	0.558369	0	0.0955044	0	0.155195	0	0	0	0	0	0	0	0	0	0	0.000000000	0	0.788798	-0.788798	0	0.828698	-1.5708	0	0.1	0.1	0.1	0.1	0.1	0.1	0.1	0	0	0	0	0	0	0	0.000000000
1504276740.818707942	-0.928058	-0.355884	-1.21645	1.106	-0.17334	-3.14006	0.558369	0	0.0955044	0	0.155195	0	0	0	0	0	0	0	0	0	0	0.000000000	0	0.788798	-0.788798	0	0.828698	-1.5708	0	0.1	0.1	0.1	0.1	0.1	0.1	0.1	0	0	0	0	0	0	0	0.000000000
1504276740.838690996	-0.928058	-0.355884	-1.21798	1.10447	-0.171806	-3.14006	0.558369	0	0	0	0.107442	0.0955044	0	0	0	0	0	0	0	0	0	0.000000000	0	0.788798	-0.788798	0	0.828698	-1.5708	0	0.1	0.1	0.1	0.1	0.1	0.1	0.1	0	0	0	0	0	0	0	0.000000000
1504276740.858742952	-0.92499	-0.35435	-1.21798	1.09986	-0.168738	-3.14159	0.558369	0.0955044	0	0	0.155195	0	0	0	0	0	0	0	0	0	0	0.000000000	0	0.788798	-0.788798	0	0.828698	-1.5708	0	0.1	0.1	0.1	0.1	0.1	0.1	0.1	0	0	0	0	0	0	0	0.000000000
1504276740.878814935	-0.921922	-0.35435	-1.21798	1.09833	-0.164136	-3.14159	0.558369	0.0955044	0	0	0.107442	0.143257	0	0	0	0	0	0	0	0	0	0.000000000	0	0.788798	-0.788798	0	0.828698	-1.5708	0	0.1	0.1	0.1	0.1	0.1	0.1	0.1	0	0	0	0	0	0	0	0.000000000
1504276740.898729085	-0.920388	-0.352816	-1.21798	1.09526	-0.161068	-3.14159	0.558369	0.0955044	0	0	0.107442	0.143257	0	0	0	0	0	0	0	0	0	0.000000000	0	0.788798	-0.788798	0	0.828698	-1.5708	0	0.1	0.1	0.1	0.1	0.1	0.1	0.1	0	0	0	0	0	0	0	0.000000000
1504276740.919071912	-0.920388	-0.352816	-1.21798	1.09526	-0.161068	-3.14159	0.558369	0.0955044	0	0	0.107442	0.143257	0	0	0	0	0	0	0	0	0	0.000000000	0	0.788798	-0.788798	0	0.828698	-1.5708	0	0.1	0.1	0.1	0.1	0.1	0.1	0.1	0	0	0	0	0	0	0	0.000000000
1504276740.938894033	-0.920388	-0.352816	-1.21798	1.09219	-0.159534	-3.14159	0.558369	0	0	0	0.107442	0.0955044	0	0	0	0	0	0	0	0	0	0.000000000	0	0.788798	-0.788798	0	0.828698	-1.5708	0	0.1	0.1	0.1	0.1	0.1	0.1	0.1	0	0	0	0	0	0	0	0.000000000
1504276740.959086894	-0.918854	-0.351282	-1.21798	1.09066	-0.154932	-3.14159	0.556835	0	0	0	0.107442	0.143257	0	0	0	0	0	0	0	0	0	0.000000000	0	0.788798	-0.788798	0	0.828698	-1.5708	0	0.1	0.1	0.1	0.1	0.1	0.1	0.1	0	0	0	0	0	0	0	0.000000000
1504276740.978965044	-0.917321	-0.348214	-1.21951	1.08913	-0.153398	-3.14159	0.556835	0	0.0955044	0	0	0	0	0	0	0	0	0	0	0	0	0.000000000	0	0.788798	-0.788798	0	0.828698	-1.5708	0	0.1	0.1	0.1	0.1	0.1	0.1	0.1	0	0	0	0	0	0	0	0.000000000
1504276740.998728036	-0.914253	-0.345146	-1.21951	1.08606	-0.15033	-3.14159	0.556835	0.0955044	0.0955044	0	0.107442	0.0955044	0	0	0	0	0	0	0	0	0	0.000000000	0	0.788798	-0.788798	0	0.828698	-1.5708	0	0.1	0.1	0.1	0.1	0.1	0.1	0.1	0	0	0	0	0	0	0	0.000000000
1504276741.018711090	-0.914253	-0.345146	-1.21951	1.08606	-0.15033	-3.14159	0.556835	0.0955044	0.0955044	0	0.107442	0.0955044	0	0	0	0	0	0	0	0	0	0.000000000	0	0.788798	-0.788798	0	0.828698	-1.5708	0	0.1	0.1	0.1	0.1	0.1	0.1	0.1	0	0	0	0	0	0	0	0.000000000
1504276741.038793087	-0.909651	-0.345146	-1.21951	1.08452	-0.147262	-3.14159	0.555301	0.143257	0	0	0.107442	0.0955044	0	0	0	0	0	0	0	0	0	0.000000000	0	0.788798	-0.788798	0	0.828698	-1.5708	0	0.1	0.1	0.1	0.1	0.1	0.1	0.1	0	0	0	0	0	0	0	0.000000000
1504276741.058696985	-0.906583	-0.345146	-1.21951	1.08146	-0.14266	-3.14159	0.553767	0.143257	0	0	0.107442	0.143257	0	0	0	0	0	0	0	0	0	0.000000000	0	0.788798	-0.788798	0	0.828698	-1.5708	0	0.1	0.1	0.1	0.1	0.1	0.1	0.1	0	0	0	0	0	0	0	0.000000000
1504276741.078722000	-0.903515	-0.345146	-1.21951	1.07532	-0.139592	-3.14159	0.550699	0.0955044	0	0	0.202947	0.0955044	0	0.107442	0	0	0	0	0	0	0	0.000000000	0	0.788798	-0.788798	0	0.828698	-1.5708	0	0.1	0.1	0.1	0.1	0.1	0.1	0.1	0	0	0	0	0	0	0	0.000000000
1504276741.099108934	-0.900447	-0.345146	-1.21951	1.07225	-0.138058	-3.14159	0.547631	0.143257	0	0	0.155195	0.0955044	0	0.155195	0	0	0	0	0	0	0	0.000000000	0	0.788798	-0.788798	0	0.828698	-1.5708	0	0.1	0.1	0.1	0.1	0.1	0.1	0.1	0	0	0	0	0	0	0	0.000000000
1504276741.119491100	-0.900447	-0.345146	-1.21951	1.07225	-0.138058	-3.14159	0.547631	0.143257	0	0	0.155195	0.0955044	0	0.155195	0	0	0	0	0	0	0	0.000000000	0	0.788798	-0.788798	0	0.828698	-1.5708	0	0.1	0.1	0.1	0.1	0.1	0.1	0.1	0	0	0	0	0	0	0	0.000000000
1504276741.139004945	-0.897379	-0.342078	-1.22105	1.06612	-0.138058	-3.14159	0.546097	0.143257	0.0955044	0	0.202947	0	0	0.107442	0	0	0	0	0	0	0	0.000000000	0	0.788798	-0.788798	0	0.828698	-1.5708	0	0.1	0.1	0.1	0.1	0.1	0.1	0.1	0	0	0	0	0	0	0	0.000000000
1504276741.160284042	-0.897379	-0.342078	-1.22105	1.06612	-0.138058	-3.14159	0.546097	0.143257	0.0955044	0	0.202947	0	0	0.107442	0	0	0	0	0	0	0	0.000000000	0	0.788798	-0.788798	0	0.828698	-1.5708	0	0.1	0.1	0.1	0.1	0.1	0.1	0.1	0	0	0	0	0	0	0	0.000000000
1504276741.179058074	-0.892777	-0.334408	-1.22565	1.06151	-0.13499	-3.14006	0.538427	0.143257	0.191009	0.155195	0.202947	0	0	0.202947	0	0	0	0	0	0	0	0.000000000	0	0.788798	-0.788798	0	0.828698	-1.5708	0	0.1	0.1	0.1	0.1	0.1	0.1	0.1	0	0	0	0	0	0	0	0.000000000
1504276741.198817968	-0.888175	-0.325204	-1.23792	1.05384	-0.12732	-3.14159	0.535359	0.0955044	0.238761	0.298451	0.202947	0.191009	0	0.155195	0	0	0	0	0	0	0	0.000000000	0	0.788798	-0.788798	0	0.828698	-1.5708	0	0.1	0.1	0.1	0.1	0.1	0.1	0.1	0	0	0	0	0	0	0	0.000000000
1504276741.219378948	-0.886641	-0.319068	-1.24713	1.05384	-0.125786	-3.14159	0.532291	0	0.238761	0.346204	0	0.0955044	0	0.155195	0	0	0	0	0	0	0	0.000000000	0	0.788798	-0.788798	0	0.828698	-1.5708	0	0.1	0.1	0.1	0.1	0.1	0.1	0.1	0	0	0	0	0	0	0	0.000000000
1504276741.240128993	-0.886641	-0.319068	-1.24713	1.05384	-0.125786	-3.14159	0.532291	0	0.238761	0.346204	0	0.0955044	0	0.155195	0	0	0	0	0	0	0	0.000000000	0	0.788798	-0.788798	0	0.828698	-1.5708	0	0.1	0.1	0.1	0.1	0.1	0.1	0.1	0	0	0	0	0	0	0	0.000000000
1504276741.258833885	-0.885107	-0.312932	-1.25326	1.05231	-0.122718	-3.14159	0.527689	0	0.191009	0.346204	0	0.143257	0	0.155195	0	0	0	0	0	0	0	0.000000000	0	0.788798	-0.788798	0	0.828698	-1.5708	0	0.1	0.1	0.1	0.1	0.1	0.1	0.1	0	0	0	0	0	0	0	0.000000000
1504276741.278712034	-0.878971	-0.30833	-1.2594	1.04771	-0.119651	-3.14159	0.524621	0.191009	0.0955044	0.202947	0.155195	0.0955044	0	0.107442	0	0	0	0	0	0	0	0.000000000	0	0.788798	-0.788798	0	0.828698	-1.5708	0	0.1	0.1	0.1	0.1	0.1	0.1	0.1	0	0	0	0	0	0	0	0.000000000
1504276741.298743009	-0.872835	-0.30833	-1.26093	1.04004	-0.118117	-3.14159	0.523087	0.238761	0	0	0.250699	0	0	0	0	0	0	0	0	0	0	0.000000000	0	0.788798	-0.788798	0	0.828698	-1.5708	0	0.1	0.1	0.1	0.1	0.1	0.1	0.1	0	0	0	0	0	0	0	0.000000000
1504276741.318700075	-0.871301	-0.30833	-1.26093	1.03544	-0.119651	-3.14159	0.523087	0.143257	0	0	0.298451	0	0	0	0	0	0	0	0	0	0	0.000000000	0	0.788798	-0.788798	0	0.828698	-1.5708	0	0.1	0.1	0.1	0.1	0.1	0.1	0.1	0	0	0	0	0	0	0	0.000000000
1504276741.338689088	-0.866699	-0.30833	-1.2594	1.0293	-0.118117	-3.14159	0.521553	0.191009	0	0	0.298451	0	0	0	0	0	0	0	0	0	0	0.000000000	0	0.788798	-0.788798	0	0.828698	-1.5708	0	0.1	0.1	0.1	0.1	0.1	0.1	0.1	0	0	0	0	0	0	0	0.000000000
1504276741.358658075	-0.863631	-0.30833	-1.2594	1.0201	-0.116583	-3.14159	0.520019	0.0955044	0	0	0.346204	0	0	0	0	0	0	0	0	0	0	0.000000000	0	0.788798	-0.788798	0	0.828698	-1.5708	0	0.1	0.1	0.1	0.1	0.1	0.1	0.1	0	0	0	0	0	0	0	0.000000000
1504276741.378720045	-0.857495	-0.306796	-1.2594	1.01703	-0.110447	-3.14159	0.518486	0.191009	0	0	0.155195	0.238761	0	0	0	0	0	0	0	0	0	0.000000000	0	0.788798	-0.788798	0	0.828698	-1.5708	0	0.1	0.1	0.1	0.1	0.1	0.1	0.1	0	0	0	0	0	0	0	0.000000000
1504276741.398679971	-0.852893	-0.305262	-1.26093	1.0155	-0.105845	-3.14006	0.516952	0.191009	0.0955044	0	0	0.238761	0	0.107442	0	0	0	0	0	0	0	0.000000000	0	0.788798	-0.788798	0	0.828698	-1.5708	0	0.1	0.1	0.1	0.1	0.1	0.1	0.1	0	0	0	0	0	0	0	0.000000000
1504276741.418657064	-0.852893	-0.305262	-1.26093	1.0155	-0.105845	-3.14006	0.516952	0.191009	0.0955044	0	0	0.238761	0	0.107442	0	0	0	0	0	0	0	0.000000000	0	0.788798	-0.788798	0	0.828698	-1.5708	0	0.1	0.1	0.1	0.1	0.1	0.1	0.1	0	0	0	0	0	0	0	0.000000000
1504276741.438764095	-0.846757	-0.303728	-1.26247	1.01243	-0.104311	-3.14159	0.513884	0.191009	0	0	0.107442	0.0955044	0	0.107442	0	0	0	0	0	0	0	0.000000000	0	0.788798	-0.788798	0	0.828698	-1.5708	0	0.1	0.1	0.1	0.1	0.1	0.1	0.1	0	0	0	0	0	0	0	0.000000000
1504276741.458715915	-0.842155	-0.30066	-1.264	1.00629	-0.102777	-3.14159	0.51235	0.191009	0.0955044	0.107442	0.250699	0	0	0.107442	0	0	0	0	0	0	0	0.000000000	0	0.788798	-0.788798	0	0.828698	-1.5708	0	0.1	0.1	0.1	0.1	0.1	0.1	0.1	0	0	0	0	0	0	0	0.000000000
1504276741.478681087	-0.83602	-0.299126	-1.26707	0.998621	-0.102777	-3.14159	0.507748	0.238761	0	0.155195	0.298451	0	0	0.155195	0	0	0	0	0	0	0	0.000000000	0	0.788798	-0.788798	0	0.828698	-1.5708	0	0.1	0.1	0.1	0.1	0.1	0.1	0.1	0	0	0	0	0	0	0	0.000000000
1504276741.498661994	-0.831418	-0.296058	-1.27167	0.989418	-0.102777	-3.14159	0.50468	0.191009	0.0955044	0.202947	0.346204	0	0	0.155195	0	0	0	0	0	0	0	0.000000000	0	0.788798	-0.788798	0	0.828698	-1.5708	0	0.1	0.1	0.1	0.1	0.1	0.1	0.1	0	0	0	0	0	0	0	0.000000000
1504276741.518692016	-0.831418	-0.296058	-1.27167	0.989418	-0.102777	-3.14159	0.50468	0.191009	0.0955044	0.202947	0.346204	0	0	0.155195	0	0	0	0	0	0	0	0.000000000	0	0.788798	-0.788798	0	0.828698	-1.5708	0	0.1	0.1	0.1	0.1	0.1	0.1	0.1	0	0	0	0	0	0	0	0.000000000
1504276741.538763999	-0.823748	-0.289922	-1.27781	0.981748	-0.0997088	-3.14159	0.500078	0.238761	0.191009	0.202947	0.346204	0.0955044	0	0.155195	0	0	0	0	0	0	0	0.000000000	0	0.788798	-0.788798	0	0.828698	-1.5708	0	0.1	0.1	0.1	0.1	0.1	0.1	0.1	0	0	0	0	0	0	0	0.000000000
1504276741.558914899	-0.817612	-0.283786	-1.28241	0.975612	-0.0951068	-3.14159	0.493942	0.191009	0.191009	0.250699	0.250699	0.191009	0	0.202947	0	0	0	0	0	0	0	0.000000000	0	0.788798	-0.788798	0	0.828698	-1.5708	0	0.1	0.1	0.1	0.1	0.1	0.1	0.1	0	0	0	0	0	0	0	0.000000000
1504276741.578732967	-0.814544	-0.280718	-1.29008	0.974078	-0.0889709	-3.14159	0.492408	0.143257	0.143257	0.250699	0	0.191009	0	0.155195	0	0	0	0	0	0	0	0.000000000	0	0.788798	-0.788798	0	0.828698	-1.5708	0	0.1	0.1	0.1	0.1	0.1	0.1	0.1	0	0	0	0	0	0	0	0.000000000
1504276741.598676919	-0.809942	-0.277651	-1.29315	0.967942	-0.0859029	-3.14159	0.48934	0.143257	0.143257	0.155195	0.250699	0.143257	0	0.107442	0	0	0	0	0	0	0	0.000000000	0	0.788798	-0.788798	0	0.828698	-1.5708	0	0.1	0.1	0.1	0.1	0.1	0.1	0.1	0	0	0	0	0	0	0	0.000000000
1504276741.618752002	-0.809942	-0.277651	-1.29315	0.967942	-0.0859029	-3.14159	0.48934	0.143257	0.143257	0.155195	0.250699	0.143257	0	0.107442	0	0	0	0	0	0	0	0.000000000	0	0.788798	-0.788798	0	0.828698	-1.5708	0	0.1	0.1	0.1	0.1	0.1	0.1	0.1	0	0	0	0	0	0	0	0.000000000
1504276741.638704061	-0.80534	-0.277651	-1.29468	0.958738	-0.082835	-3.14159	0.486272	0.143257	0	0.107442	0.346204	0	0	0.107442	0	0	0	0	0	0	0	0.000000000	0	0.788798	-0.788798	0	0.828698	-1.5708	0	0.1	0.1	0.1	0.1	0.1	0.1	0.1	0	0	0	0	0	0	0	0.000000000
1504276741.658802986	-0.79767	-0.276117	-1.29468	0.949534	-0.081301	-3.14159	0.484738	0.286513	0	0	0.346204	0	0	0.107442	0	0	0	0	0	0	0	0.000000000	0	0.788798	-0.788798	0	0.828698	-1.5708	0	0.1	0.1	0.1	0.1	0.1	0.1	0.1	0	0	0	0	0	0	0	0.000000000
1504276741.678751945	-0.79	-0.274583	-1.29468	0.943398	-0.076699	-3.14159	0.480136	0.286513	0	0	0.250699	0.143257	0	0.155195	0	0	0	0	0	0	0	0.000000000	0	0.788798	-0.788798	0	0.828698	-1.5708	0	0.1	0.1	0.1	0.1	0.1	0.1	0.1	0	0	0	0	0	0	0	0.000000000
1504276741.698971986	-0.785398	-0.274583	-1.29621	0.938796	-0.076699	-3.14159	0.480136	0.191009	0	0	0.155195	0.143257	0	0.155195	0	0	0	0	0	0	0	0.000000000	0	0.788798	-0.788798	0	0.828698	-1.5708	0	0.1	0.1	0.1	0.1	0.1	0.1	0.1	0	0	0	0	0	0	0	0.000000000
1504276741.718831062	-0.785398	-0.274583	-1.29621	0.938796	-0.0736311	-3.14159	0.478602	0.191009	0	0	0.155195	0.0955044	0	0.107442	0	0	0	0	0	0	0	0.000000000	0	0.788798	-0.788798	0	0.828698	-1.5708	0	0.1	0.1	0.1	0.1	0.1	0.1	0.1	0	0	0	0	0	0	0	0.000000000
1504276741.738859891	-0.779262	-0.274583	-1.29621	0.93266	-0.0736311	-3.14159	0.475534	0.191009	0	0	0.202947	0	0	0.107442	0	0	0	0	0	0	0	0.000000000	0	0.788798	-0.788798	0	0.828698	-1.5708	0	0.1	0.1	0.1	0.1	0.1	0.1	0.1	0	0	0	0	0	0	0	0.000000000
1504276741.759426116	-0.776194	-0.273049	-1.29775	0.921922	-0.0720971	-3.14159	0.472466	0.0955044	0	0	0.346204	0	0	0.155195	0	0	0	0	0	0	0	0.000000000	0	0.788798	-0.788798	0	0.828698	-1.5708	0	0.1	0.1	0.1	0.1	0.1	0.1	0.1	0	0	0	0	0	0	0	0.000000000
1504276741.778702020	-0.76699	-0.273049	-1.29775	0.911185	-0.0705631	-3.14159	0.467864	0.286513	0	0	0.393956	0.0955044	0	0.155195	0	0	0	0	0	0	0	0.000000000	0	0.788798	-0.788798	0	0.828698	-1.5708	0	0.1	0.1	0.1	0.1	0.1	0.1	0.1	0	0	0	0	0	0	0	0.000000000
1504276741.798758029	-0.757787	-0.269981	-1.29928	0.903515	-0.0644272	-3.14159	0.463262	0.334265	0.0955044	0	0.298451	0.238761	0	0.202947	0	0	0	0	0	0	0	0.000000000	0	0.788798	-0.788798	0	0.828698	-1.5708	0	0.1	0.1	0.1	0.1	0.1	0.1	0.1	0	0	0	0	0	0	0	0.000000000
1504276741.818762063	-0.757787	-0.269981	-1.29928	0.903515	-0.0644272	-3.14159	0.463262	0.334265	0.0955044	0	0.298451	0.238761	0	0.202947	0	0	0	0	0	0	0	0.000000000	0	0.788798	-0.788798	0	0.828698	-1.5708	0	0.1	0.1	0.1	0.1	0.1	0.1	0.1	0	0	0	0	0	0	0	0.000000000
1504276741.838812112	-0.753185	-0.263845	-1.30388	0.894311	-0.0628932	-3.14159	0.45866	0.191009	0.191009	0.155195	0.346204	0.0955044	0	0.155195	0	0	0	0	0	0	0	0.000000000	0	0.788798	-0.788798	0	0.828698	-1.5708	0	0.1	0.1	0.1	0.1	0.1	0.1	0.1	0	0	0	0	0	0	0	0.000000000
1504276741.859538078	-0.748583	-0.256175	-1.31309	0.883573	-0.0598253	-3.14159	0.454058	0.191009	0.238761	0.298451	0.393956	0.0955044	0	0.155195	0	0	0	0	0	0	0	0.000000000	0	0.788798	-0.788798	0	0.828698	-1.5708	0	0.1	0.1	0.1	0.1	0.1	0.1	0.1	0	0	0	0	0	0	0	0.000000000
1504276741.878752946	-0.739379	-0.245437	-1.32536	0.874369	-0.0567573	-3.14159	0.447922	0.286513	0.334265	0.393956	0.441708	0.0955044	0	0.202947	0	0	0	0	0	0	0	0.000000000	0	0.788798	-0.788798	0	0.828698	-1.5708	0	0.1	0.1	0.1	0.1	0.1	0.1	0.1	0	0	0	0	0	0	0	0.000000000
1504276741.898751974	-0.731709	-0.240835	-1.33303	0.866699	-0.0552233	-3.14159	0.444854	0.334265	0.286513	0.346204	0.346204	0	0	0.155195	0	0	0	0	0	0	0	0.000000000	0	0.788798	-0.788798	0	0.828698	-1.5708	0	0.1	0.1	0.1	0.1	0.1	0.1	0.1	0	0	0	0	0	0	0	0.000000000
1504276741.918786048	-0.731709	-0.240835	-1.33303	0.866699	-0.0552233	-3.14159	0.444854	0.334265	0.286513	0.346204	0.346204	0	0	0.155195	0	0	0	0	0	0	0	0.000000000	0	0.788798	-0.788798	0	0.828698	-1.5708	0	0.1	0.1	0.1	0.1	0.1	0.1	0.1	0	0	0	0	0	0	0	0.000000000
1504276741.938695907	-0.722505	-0.236233	-1.33763	0.859029	-0.0536893	-3.14159	0.438719	0.334265	0.143257	0.202947	0.250699	0	0	0.202947	0	0	0	0	0	0	0	0.000000000	0	0.788798	-0.788798	0	0.828698	-1.5708	0	0.1	0.1	0.1	0.1	0.1	0.1	0.1	0	0	0	0	0	0	0	0.000000000
1504276741.960006952	-0.716369	-0.234699	-1.33917	0.849825	-0.0521553	-3.14159	0.435651	0.238761	0	0	0.346204	0	0	0.155195	0	0	0	0	0	0	0	0.000000000	0	0.788798	-0.788798	0	0.828698	-1.5708	0	0.1	0.1	0.1	0.1	0.1	0.1	0.1	0	0	0	0	0	0	0	0.000000000
1504276741.978967905	-0.708699	-0.233165	-1.33917	0.843689	-0.0460194	-3.14159	0.429515	0.286513	0	0	0.250699	0.191009	0	0.202947	0	0	0	0	0	0	0	0.000000000	0	0.788798	-0.788798	0	0.828698	-1.5708	0	0.1	0.1	0.1	0.1	0.1	0.1	0.1	0	0	0	0	0	0	0	0.000000000
1504276741.998847007	-0.701029	-0.234699	-1.33917	0.834486	-0.0429515	-3.14159	0.426447	0.286513	0	0	0.298451	0.143257	0	0.155195	0	0	0	0	0	0	0	0.000000000	0	0.788798	-0.788798	0	0.828698	-1.5708	0	0.1	0.1	0.1	0.1	0.1	0.1	0.1	0	0	0	0	0	0	0	0.000000000
1504276742.018800020	-0.701029	-0.234699	-1.33917	0.834486	-0.0429515	-3.14159	0.426447	0.286513	0	0	0.298451	0.143257	0	0.155195	0	0	0	0	0	0	0	0.000000000	0	0.788798	-0.788798	0	0.828698	-1.5708	0	0.1	0.1	0.1	0.1	0.1	0.1	0.1	0	0	0	0	0	0	0	0.000000000
1504276742.038894891	-0.694893	-0.233165	-1.33917	0.825282	-0.0383495	-3.14159	0.421845	0.238761	0	0	0.346204	0.143257	0	0.155195	0	0	0	0	0	0	0	0.000000000	0	0.788798	-0.788798	0	0.828698	-1.5708	0	0.1	0.1	0.1	0.1	0.1	0.1	0.1	0	0	0	0	0	0	0	0.000000000
1504276742.058706998	-0.684155	-0.231631	-1.3407	0.814544	-0.0383495	-3.14159	0.418777	0.286513	0	0	0.346204	0	0	0.155195	0	0	0	0	0	0	0	0.000000000	0	0.788798	-0.788798	0	0.828698	-1.5708	0	0.1	0.1	0.1	0.1	0.1	0.1	0.1	0	0	0	0	0	0	0	0.000000000
1504276742.078697919	-0.676486	-0.228563	-1.34377	0.803806	-0.0368155	-3.14313	0.415709	0.334265	0.0955044	0.107442	0.393956	0	0	0.107442	0	0	0	0	0	0	0	0.000000000	0	0.788798	-0.788798	0	0.828698	-1.5708	0	0.1	0.1	0.1	0.1	0.1	0.1	0.1	0	0	0	0	0	0	0	0.000000000
1504276742.098654985	-0.668816	-0.222427	-1.34837	0.794602	-0.0352816	-3.14159	0.411107	0.286513	0.191009	0.202947	0.346204	0.0955044	0	0.155195	0	0	0	0	0	0	0	0.000000000	0	0.788798	-0.788798	0	0.828698	-1.5708	0	0.1	0.1	0.1	0.1	0.1	0.1	0.1	0	0	0	0	0	0	0	0.000000000
1504276742.118745088	-0.668816	-0.222427	-1.34837	0.794602	-0.0352816	-3.14159	0.411107	0.286513	0.191009	0.202947	0.346204	0.0955044	0	0.155195	0	0	0	0	0	0	0	0.000000000	0	0.788798	-0.788798	0	0.828698	-1.5708	0	0.1	0.1	0.1	0.1	0.1	0.1	0.1	0	0	0	0	0	0	0	0.000000000
1504276742.138901948	-0.661146	-0.214757	-1.35604	0.786932	-0.0322136	-3.14313	0.404971	0.286513	0.238761	0.298451	0.298451	0.143257	0	0.202947	0	0	0	0	0	0	0	0.000000000	0	0.788798	-0.788798	0	0.828698	-1.5708	0	0.1	0.1	0.1	0.1	0.1	0.1	0.1	0	0	0	0	0	0	0	0.000000000
1504276742.158751964	-0.65501	-0.207087	-1.36524	0.777728	-0.0291456	-3.14159	0.400369	0.238761	0.286513	0.346204	0.346204	0.143257	0	0.202947	0	0	0	0	0	0	0	0.000000000	0	0.788798	-0.788798	0	0.828698	-1.5708	0	0.1	0.1	0.1	0.1	0.1	0.1	0.1	0	0	0	0	0	0	0	0.000000000
1504276742.178713083	-0.644272	-0.200951	-1.37291	0.76699	-0.0291456	-3.14159	0.392699	0.334265	0.238761	0.298451	0.393956	0	0	0.250699	0	0	0	0	0	0	0	0.000000000	0	0.788798	-0.788798	0	0.828698	-1.5708	0	0.1	0.1	0.1	0.1	0.1	0.1	0.1	0	0	0	0	0	0	0	0.000000000
1504276742.198743104	-0.635068	-0.19635	-1.37751	0.756253	-0.0276117	-3.14159	0.386563	0.334265	0.143257	0.202947	0.441708	0	0	0.250699	0	0	0	0	0	0	0	0.000000000	0	0.788798	-0.788798	0	0.828698	-1.5708	0	0.1	0.1	0.1	0.1	0.1	0.1	0.1	0	0	0	0	0	0	0	0.000000000
1504276742.219372987	-0.635068	-0.19635	-1.37751	0.756253	-0.0276117	-3.14159	0.386563	0.334265	0.143257	0.202947	0.441708	0	0	0.250699	0	0	0	0	0	0	0	0.000000000	0	0.788798	-0.788798	0	0.828698	-1.5708	0	0.1	0.1	0.1	0.1	0.1	0.1	0.1	0	0	0	0	0	0	0	0.000000000
