DingWan/Reconbot3Ddemo/02_MATLAB_Code/sensors_data/6Mode_Redundant_0905_encoders_data.txt
time_stamp	actual_pos_joint_4	actual_pos_joint_5	actual_pos_joint_3	actual_pos_joint_1	actual_pos_joint_2	actual_pos_joint_6	actual_pos_joint_7	actual_vel_joint_4	actual_vel_joint_5	actual_vel_joint_3	actual_vel_joint_1	actual_vel_joint_2	actual_vel_joint_6	actual_vel_joint_7	actual_acc_joint_4	actual_acc_joint_5	actual_acc_joint_3	actual_acc_joint_1	actual_acc_joint_2	actual_acc_joint_6	actual_acc_joint_7	actual_time_from_start	desired_pos_joint_4	desired_pos_joint_5	desired_pos_joint_3	desired_pos_joint_1	desired_pos_joint_2	desired_pos_joint_6	desired_pos_joint_7	desired_vel_joint_4	desired_vel_joint_5	desired_vel_joint_3	desired_vel_joint_1	desired_vel_joint_2	desired_vel_joint_6	desired_vel_joint_7	desired_acc_joint_4	desired_acc_joint_5	desired_acc_joint_3	desired_acc_joint_1	desired_acc_joint_2	desired_acc_joint_6	desired_acc_joint_7	desired_time_from_start
1504623346.171497106	0.00153398	0.716369	-0.814544	0.00613592	0.819146	-1.61068	0.0153398	0	0	0	0	0	0	0	0	0	0	0	0	0	0	0.000000000	0	0.788798	-0.788798	0	0.828698	-1.5708	0	0.1	0.1	0.1	0.1	0.1	0.1	0.1	0	0	0	0	0	0	0	0.000000000
1504623346.191107988	0.00153398	0.716369	-0.814544	0.00613592	0.819146	-1.61068	0.0153398	0	0	0	0	0	0	0	0	0	0	0	0	0	0	0.000000000	0	0.788798	-0.788798	0	0.828698	-1.5708	0	0.1	0.1	0.1	0.1	0.1	0.1	0.1	0	0	0	0	0	0	0	0.000000000
1504623346.211019039	0.00306796	0.716369	-0.814544	0.00613592	0.819146	-1.61068	0.0153398	0	0	0	0	0	0	0	0	0	0	0	0	0	0	0.000000000	0	0.788798	-0.788798	0	0.828698	-1.5708	0	0.1	0.1	0.1	0.1	0.1	0.1	0.1	0	0	0	0	0	0	0	0.000000000
1504623346.231019020	0.00306796	0.716369	-0.814544	0.00613592	0.819146	-1.61068	0.0153398	0	0	0	0	0	0	0	0	0	0	0	0	0	0	0.000000000	0	0.788798	-0.788798	0	0.828698	-1.5708	0	0.1	0.1	0.1	0.1	0.1	0.1	0.1	0	0	0	0	0	0	0	0.000000000
1504623346.251036882	0.00306796	0.716369	-0.814544	0.00613592	0.819146	-1.61068	0.0153398	0	0	0	0	0	0	0	0	0	0	0	0	0	0	0.000000000	0	0.788798	-0.788798	0	0.828698	-1.5708	0	0.1	0.1	0.1	0.1	0.1	0.1	0.1	0	0	0	0	0	0	0	0.000000000
1504623346.271004915	0.00306796	0.714835	-0.814544	0.00460194	0.819146	-1.61068	0.0138058	0	0	0	0	0	0	0	0	0	0	0	0	0	0	0.000000000	0	0.788798	-0.788798	0	0.828698	-1.5708	0	0.1	0.1	0.1	0.1	0.1	0.1	0.1	0	0	0	0	0	0	0	0.000000000
1504623346.290985107	0.00306796	0.716369	-0.814544	0.00613592	0.819146	-1.61068	0.0153398	0	0	0	0	0	0	0	0	0	0	0	0	0	0	0.000000000	0	0.788798	-0.788798	0	0.828698	-1.5708	0	0.1	0.1	0.1	0.1	0.1	0.1	0.1	0	0	0	0	0	0	0	0.000000000
1504623346.311017036	0.00306796	0.716369	-0.814544	0.00613592	0.819146	-1.61068	0.0153398	0	0	0	0	0	0	0	0	0	0	0	0	0	0	0.000000000	0	0.788798	-0.788798	0	0.828698	-1.5708	0	0.1	0.1	0.1	0.1	0.1	0.1	0.1	0	0	0	0	0	0	0	0.000000000
1504623346.331073045	0.00153398	0.716369	-0.814544	0.00613592	0.819146	-1.61221	0.0138058	0	0	0	0	0	0	0	0	0	0	0	0	0	0	0.000000000	0	0.788798	-0.788798	0	0.828698	-1.5708	0	0.1	0.1	0.1	0.1	0.1	0.1	0.1	0	0	0	0	0	0	0	0.000000000
1504623346.351306915	0.00153398	0.716369	-0.814544	0.00613592	0.819146	-1.61068	0.0153398	0	0	0	0	0	0	0	0	0	0	0	0	0	0	0.000000000	0	0.788798	-0.788798	0	0.828698	-1.5708	0	0.1	0.1	0.1	0.1	0.1	0.1	0.1	0	0	0	0	0	0	0	0.000000000
1504623346.371567964	0.00153398	0.716369	-0.814544	0.00613592	0.819146	-1.61068	0.0153398	0	0	0	0	0	0	0	0	0	0	0	0	0	0	0.000000000	0	0.788798	-0.788798	0	0.828698	-1.5708	0	0.1	0.1	0.1	0.1	0.1	0.1	0.1	0	0	0	0	0	0	0	0.000000000
1504623346.391218900	0.00153398	0.716369	-0.814544	0.00613592	0.819146	-1.61068	0.0153398	0	0	0	0	0	0	0	0	0	0	0	0	0	0	0.000000000	0	0.788798	-0.788798	0	0.828698	-1.5708	0	0.1	0.1	0.1	0.1	0.1	0.1	0.1	0	0	0	0	0	0	0	0.000000000
1504623346.411231994	0.00306796	0.716369	-0.814544	0.00613592	0.819146	-1.61068	0.0153398	0	0	0	0	0	0	0	0	0	0	0	0	0	0	0.000000000	0	0.788798	-0.788798	0	0.828698	-1.5708	0	0.1	0.1	0.1	0.1	0.1	0.1	0.1	0	0	0	0	0	0	0	0.000000000
1504623346.431308031	0.00306796	0.716369	-0.814544	0.00613592	0.819146	-1.61068	0.0153398	0	0	0	0	0	0	0	0	0	0	0	0	0	0	0.000000000	0	0.788798	-0.788798	0	0.828698	-1.5708	0	0.1	0.1	0.1	0.1	0.1	0.1	0.1	0	0	0	0	0	0	0	0.000000000
1504623346.451179981	0.00306796	0.716369	-0.814544	0.00613592	0.819146	-1.61068	0.0138058	0	0	0	0	0	0	0	0	0	0	0	0	0	0	0.000000000	0	0.788798	-0.788798	0	0.828698	-1.5708	0	0.1	0.1	0.1	0.1	0.1	0.1	0.1	0	0	0	0	0	0	0	0.000000000
1504623346.471236944	0.00306796	0.716369	-0.814544	0.00613592	0.819146	-1.61068	0.0138058	0	0	0	0	0	0	0	0	0	0	0	0	0	0	0.000000000	0	0.788798	-0.788798	0	0.828698	-1.5708	0	0.1	0.1	0.1	0.1	0.1	0.1	0.1	0	0	0	0	0	0	0	0.000000000
1504623346.491385936	0.00153398	0.714835	-0.814544	0.00613592	0.819146	-1.61221	0.0153398	0	0	0	0	0	0	0	0	0	0	0	0	0	0	0.000000000	0	0.788798	-0.788798	0	0.828698	-1.5708	0	0.1	0.1	0.1	0.1	0.1	0.1	0.1	0	0	0	0	0	0	0	0.000000000
1504623346.511215925	0.00306796	0.716369	-0.814544	0.00613592	0.819146	-1.61221	0.0153398	0	0	0	0	0	0	0	0	0	0	0	0	0	0	0.000000000	0	0.788798	-0.788798	0	0.828698	-1.5708	0	0.1	0.1	0.1	0.1	0.1	0.1	0.1	0	0	0	0	0	0	0	0.000000000
1504623346.531723022	0.00153398	0.716369	-0.814544	0.00613592	0.819146	-1.61221	0.0153398	0	0	0	0	0	0	0	0	0	0	0	0	0	0	0.000000000	0	0.788798	-0.788798	0	0.828698	-1.5708	0	0.1	0.1	0.1	0.1	0.1	0.1	0.1	0	0	0	0	0	0	0	0.000000000
1504623346.551444053	0.00306796	0.716369	-0.814544	0.00613592	0.819146	-1.61068	0.0153398	0	0	0	0	0	0	0	0	0	0	0	0	0	0	0.000000000	0	0.788798	-0.788798	0	0.828698	-1.5708	0	0.1	0.1	0.1	0.1	0.1	0.1	0.1	0	0	0	0	0	0	0	0.000000000
1504623346.571386098	0.00306796	0.714835	-0.814544	0.00613592	0.819146	-1.61221	0.0153398	0	0	0	0	0	0	0	0	0	0	0	0	0	0	0.000000000	0	0.788798	-0.788798	0	0.828698	-1.5708	0	0.1	0.1	0.1	0.1	0.1	0.1	0.1	0	0	0	0	0	0	0	0.000000000
1504623346.591295003	0.00306796	0.714835	-0.814544	0.00613592	0.819146	-1.61221	0.0153398	0	0	0	0	0	0	0	0	0	0	0	0	0	0	0.000000000	0	0.788798	-0.788798	0	0.828698	-1.5708	0	0.1	0.1	0.1	0.1	0.1	0.1	0.1	0	0	0	0	0	0	0	0.000000000
1504623346.611181020	0.00306796	0.714835	-0.814544	0.00613592	0.819146	-1.61221	0.0153398	0	0	0	0	0	0	0	0	0	0	0	0	0	0	0.000000000	0	0.788798	-0.788798	0	0.828698	-1.5708	0	0.1	0.1	0.1	0.1	0.1	0.1	0.1	0	0	0	0	0	0	0	0.000000000
1504623346.631305932	0.00306796	0.716369	-0.814544	0.00613592	0.817612	-1.61221	0.0153398	0	0	0	0	0	0	0	0	0	0	0	0	0	0	0.000000000	0	0.788798	-0.788798	0	0.828698	-1.5708	0	0.1	0.1	0.1	0.1	0.1	0.1	0.1	0	0	0	0	0	0	0	0.000000000
1504623346.651618003	0.00153398	0.716369	-0.814544	0.00613592	0.819146	-1.61221	0.0153398	0	0	0	0	0	0	0	0	0	0	0	0	0	0	0.000000000	0	0.788798	-0.788798	0	0.828698	-1.5708	0	0.1	0.1	0.1	0.1	0.1	0.1	0.1	0	0	0	0	0	0	0	0.000000000
1504623346.672874927	0.00153398	0.716369	-0.814544	0.00613592	0.819146	-1.61068	0.0153398	0	0	0	0	0	0	0	0	0	0	0	0	0	0	0.000000000	0	0.788798	-0.788798	0	0.828698	-1.5708	0	0.1	0.1	0.1	0.1	0.1	0.1	0.1	0	0	0	0	0	0	0	0.000000000
1504623346.691652059	0.00306796	0.716369	-0.814544	0.00613592	0.819146	-1.61068	0.0153398	0	0	0	0	0	0	0	0	0	0	0	0	0	0	0.000000000	0	0.788798	-0.788798	0	0.828698	-1.5708	0	0.1	0.1	0.1	0.1	0.1	0.1	0.1	0	0	0	0	0	0	0	0.000000000
1504623346.711296081	0.00306796	0.716369	-0.814544	0.00613592	0.819146	-1.61068	0.0153398	0	0	0	0	0	0	0	0	0	0	0	0	0	0	0.000000000	0	0.788798	-0.788798	0	0.828698	-1.5708	0	0.1	0.1	0.1	0.1	0.1	0.1	0.1	0	0	0	0	0	0	0	0.000000000
1504623346.731074094	0.00306796	0.714835	-0.814544	0.00460194	0.819146	-1.61068	0.0153398	0	0	0	0	0	0	0	0	0	0	0	0	0	0	0.000000000	0	0.788798	-0.788798	0	0.828698	-1.5708	0	0.1	0.1	0.1	0.1	0.1	0.1	0.1	0	0	0	0	0	0	0	0.000000000
1504623346.751173973	0.00306796	0.716369	-0.814544	0.00613592	0.819146	-1.61068	0.0153398	0	0	0	0	0	0	0	0	0	0	0	0	0	0	0.000000000	0	0.788798	-0.788798	0	0.828698	-1.5708	0	0.1	0.1	0.1	0.1	0.1	0.1	0.1	0	0	0	0	0	0	0	0.000000000
1504623346.771066904	0.00306796	0.716369	-0.814544	0.00613592	0.819146	-1.61221	0.0153398	0	0	0	0	0	0	0	0	0	0	0	0	0	0	0.000000000	0	0.788798	-0.788798	0	0.828698	-1.5708	0	0.1	0.1	0.1	0.1	0.1	0.1	0.1	0	0	0	0	0	0	0	0.000000000
1504623346.791085004	0.00306796	0.714835	-0.814544	0.00613592	0.819146	-1.61068	0.0153398	0	0	0	0	0	0	0	0	0	0	0	0	0	0	0.000000000	0	0.788798	-0.788798	0	0.828698	-1.5708	0	0.1	0.1	0.1	0.1	0.1	0.1	0.1	0	0	0	0	0	0	0	0.000000000
1504623346.811049938	0.00306796	0.714835	-0.814544	0.00613592	0.819146	-1.61068	0.0153398	0	0	0	0	0	0	0	0	0	0	0	0	0	0	0.000000000	0	0.788798	-0.788798	0	0.828698	-1.5708	0	0.1	0.1	0.1	0.1	0.1	0.1	0.1	0	0	0	0	0	0	0	0.000000000
1504623346.831196069	0.00306796	0.716369	-0.814544	0.00613592	0.819146	-1.61221	0.0153398	0	0	0	0	0	0	0	0	0	0	0	0	0	0	0.000000000	0	0.788798	-0.788798	0	0.828698	-1.5708	0	0.1	0.1	0.1	0.1	0.1	0.1	0.1	0	0	0	0	0	0	0	0.000000000
1504623346.851238965	0.00306796	0.716369	-0.814544	0.00613592	0.817612	-1.61068	0.0138058	0	0	0	0	0	0	0	0	0	0	0	0	0	0	0.000000000	0	0.788798	-0.788798	0	0.828698	-1.5708	0	0.1	0.1	0.1	0.1	0.1	0.1	0.1	0	0	0	0	0	0	0	0.000000000
1504623346.872860908	0.00306796	0.716369	-0.814544	0.00613592	0.817612	-1.61068	0.0138058	0	0	0	0	0	0	0	0	0	0	0	0	0	0	0.000000000	0	0.788798	-0.788798	0	0.828698	-1.5708	0	0.1	0.1	0.1	0.1	0.1	0.1	0.1	0	0	0	0	0	0	0	0.000000000
1504623346.891910076	0.00306796	0.716369	-0.814544	0.00613592	0.819146	-1.61068	0.0153398	0	0	0	0	0	0	0	0	0	0	0	0	0	0	0.000000000	0	0.788798	-0.788798	0	0.828698	-1.5708	0	0.1	0.1	0.1	0.1	0.1	0.1	0.1	0	0	0	0	0	0	0	0.000000000
1504623346.911432027	0.00153398	0.716369	-0.814544	0.00613592	0.819146	-1.61068	0.0153398	0	0	0	0	0	0	0	0	0	0	0	0	0	0	0.000000000	0	0.788798	-0.788798	0	0.828698	-1.5708	0	0.1	0.1	0.1	0.1	0.1	0.1	0.1	0	0	0	0	0	0	0	0.000000000
1504623346.931210041	0.00306796	0.716369	-0.814544	0.00613592	0.819146	-1.61068	0.0153398	0	0	0	0	0	0	0	0	0	0	0	0	0	0	0.000000000	0	0.788798	-0.788798	0	0.828698	-1.5708	0	0.1	0.1	0.1	0.1	0.1	0.1	0.1	0	0	0	0	0	0	0	0.000000000
1504623346.951354026	0.00153398	0.716369	-0.814544	0.00613592	0.819146	-1.61068	0.0153398	0	0	0	0	0	0	0	0	0	0	0	0	0	0	0.000000000	0	0.788798	-0.788798	0	0.828698	-1.5708	0	0.1	0.1	0.1	0.1	0.1	0.1	0.1	0	0	0	0	0	0	0	0.000000000
1504623346.971189975	0.00306796	0.716369	-0.814544	0.00613592	0.819146	-1.61068	0.0153398	0	0	0	0	0	0	0	0	0	0	0	0	0	0	0.000000000	0	0.788798	-0.788798	0	0.828698	-1.5708	0	0.1	0.1	0.1	0.1	0.1	0.1	0.1	0	0	0	0	0	0	0	0.000000000
1504623346.991241931	0.00306796	0.716369	-0.814544	0.00613592	0.819146	-1.61068	0.0153398	0	0	0	0	0	0	0	0	0	0	0	0	0	0	0.000000000	0	0.788798	-0.788798	0	0.828698	-1.5708	0	0.1	0.1	0.1	0.1	0.1	0.1	0.1	0	0	0	0	0	0	0	0.000000000
1504623347.011169910	0.00306796	0.716369	-0.814544	0.00613592	0.819146	-1.61068	0.0153398	0	0	0	0	0	0	0	0	0	0	0	0	0	0	0.000000000	0	0.788798	-0.788798	0	0.828698	-1.5708	0	0.1	0.1	0.1	0.1	0.1	0.1	0.1	0	0	0	0	0	0	0	0.000000000
1504623347.031194925	0.00153398	0.716369	-0.814544	0.00613592	0.819146	-1.61068	0.0153398	0	0	0	0	0	0	0	0	0	0	0	0	0	0	0.000000000	0	0.788798	-0.788798	0	0.828698	-1.5708	0	0.1	0.1	0.1	0.1	0.1	0.1	0.1	0	0	0	0	0	0	0	0.000000000
1504623347.057564020	0.00153398	0.716369	-0.814544	0.00613592	0.819146	-1.61068	0.0153398	0	0	0	0	0	0	0	0	0	0	0	0	0	0	0.000000000	0	0.788798	-0.788798	0	0.828698	-1.5708	0	0.1	0.1	0.1	0.1	0.1	0.1	0.1	0	0	0	0	0	0	0	0.000000000
1504623347.071599006	0.00306796	0.716369	-0.814544	0.00613592	0.819146	-1.61068	0.0153398	0	0	0	0	0	0	0	0	0	0	0	0	0	0	0.000000000	0	0.788798	-0.788798	0	0.828698	-1.5708	0	0.1	0.1	0.1	0.1	0.1	0.1	0.1	0	0	0	0	0	0	0	0.000000000
1504623347.091202974	0.00306796	0.716369	-0.814544	0.00613592	0.819146	-1.61221	0.0153398	0	0	0	0	0	0	0	0	0	0	0	0	0	0	0.000000000	0	0.788798	-0.788798	0	0.828698	-1.5708	0	0.1	0.1	0.1	0.1	0.1	0.1	0.1	0	0	0	0	0	0	0	0.000000000
1504623347.111196041	0.00306796	0.716369	-0.814544	0.00613592	0.819146	-1.61068	0.0138058	0	0	0	0	0	0	0	0	0	0	0	0	0	0	0.000000000	0	0.788798	-0.788798	0	0.828698	-1.5708	0	0.1	0.1	0.1	0.1	0.1	0.1	0.1	0	0	0	0	0	0	0	0.000000000
1504623347.131042003	0.00306796	0.716369	-0.814544	0.00613592	0.819146	-1.61068	0.0153398	0	0	0	0	0	0	0	0	0	0	0	0	0	0	0.000000000	0	0.788798	-0.788798	0	0.828698	-1.5708	0	0.1	0.1	0.1	0.1	0.1	0.1	0.1	0	0	0	0	0	0	0	0.000000000
1504623347.151159048	0.00153398	0.714835	-0.814544	0.00613592	0.819146	-1.61068	0.0153398	0	0	0	0	0	0	0	0	0	0	0	0	0	0	0.000000000	0	0.788798	-0.788798	0	0.828698	-1.5708	0	0.1	0.1	0.1	0.1	0.1	0.1	0.1	0	0	0	0	0	0	0	0.000000000
1504623347.171009063	0.00306796	0.716369	-0.814544	0.00613592	0.819146	-1.61068	0.0153398	0	0	0	0	0	0	0	0	0	0	0	0	0	0	0.000000000	0	0.788798	-0.788798	0	0.828698	-1.5708	0	0.1	0.1	0.1	0.1	0.1	0.1	0.1	0	0	0	0	0	0	0	0.000000000
1504623347.191565990	0.00306796	0.716369	-0.814544	0.00613592	0.819146	-1.61068	0.0153398	0	0	0	0	0	0	0	0	0	0	0	0	0	0	0.000000000	0	0.788798	-0.788798	0	0.828698	-1.5708	0	0.1	0.1	0.1	0.1	0.1	0.1	0.1	0	0	0	0	0	0	0	0.000000000
1504623347.211556911	0.00153398	0.716369	-0.814544	0.00613592	0.819146	-1.61068	0.0153398	0	0	0	0	0	0	0	0	0	0	0	0	0	0	0.000000000	0	0.788798	-0.788798	0	0.828698	-1.5708	0	0.1	0.1	0.1	0.1	0.1	0.1	0.1	0	0	0	0	0	0	0	0.000000000
1504623347.231230974	0.00306796	0.716369	-0.814544	0.00613592	0.819146	-1.61068	0.0153398	0	0	0	0	0	0	0	0	0	0	0	0	0	0	0.000000000	0	0.788798	-0.788798	0	0.828698	-1.5708	0	0.1	0.1	0.1	0.1	0.1	0.1	0.1	0	0	0	0	0	0	0	0.000000000
1504623347.251218080	0.00306796	0.716369	-0.814544	0.00613592	0.819146	-1.61068	0.0153398	0	0	0	0	0	0	0	0	0	0	0	0	0	0	0.000000000	0	0.788798	-0.788798	0	0.828698	-1.5708	0	0.1	0.1	0.1	0.1	0.1	0.1	0.1	0	0	0	0	0	0	0	0.000000000
1504623347.271410942	0.00306796	0.716369	-0.814544	0.00613592	0.819146	-1.61068	0.0153398	0	0	0	0	0	0	0	0	0	0	0	0	0	0	0.000000000	0	0.788798	-0.788798	0	0.828698	-1.5708	0	0.1	0.1	0.1	0.1	0.1	0.1	0.1	0	0	0	0	0	0	0	0.000000000
1504623347.291944980	0.00306796	0.716369	-0.814544	0.00613592	0.819146	-1.61068	0.0153398	0	0	0	0	0	0	0	0	0	0	0	0	0	0	0.000000000	0	0.788798	-0.788798	0	0.828698	-1.5708	0	0.1	0.1	0.1	0.1	0.1	0.1	0.1	0	0	0	0	0	0	0	0.000000000
1504623347.312298059	0.00306796	0.716369	-0.814544	0.00613592	0.819146	-1.61221	0.0153398	0	0	0	0	0	0	0	0	0	0	0	0	0	0	0.000000000	0	0.788798	-0.788798	0	0.828698	-1.5708	0	0.1	0.1	0.1	0.1	0.1	0.1	0.1	0	0	0	0	0	0	0	0.000000000
1504623347.332667112	0.00306796	0.716369	-0.814544	0.00613592	0.819146	-1.61068	0.0153398	0	0	0	0	0	0	0	0	0	0	0	0	0	0	0.000000000	0	0.788798	-0.788798	0	0.828698	-1.5708	0	0.1	0.1	0.1	0.1	0.1	0.1	0.1	0	0	0	0	0	0	0	0.000000000
1504623347.351440906	0.00306796	0.716369	-0.814544	0.00613592	0.819146	-1.61068	0.0153398	0	0	0	0	0	0	0	0	0	0	0	0	0	0	0.000000000	0	0.788798	-0.788798	0	0.828698	-1.5708	0	0.1	0.1	0.1	0.1	0.1	0.1	0.1	0	0	0	0	0	0	0	0.000000000
1504623347.372322082	0.00306796	0.716369	-0.814544	0.00613592	0.819146	-1.61068	0.0153398	0	0	0	0	0	0	0	0	0	0	0	0	0	0	0.000000000	0	0.788798	-0.788798	0	0.828698	-1.5708	0	0.1	0.1	0.1	0.1	0.1	0.1	0.1	0	0	0	0	0	0	0	0.000000000
1504623347.391644001	0.00306796	0.714835	-0.814544	0.00613592	0.819146	-1.61068	0.0153398	0	0	0	0	0	0	0	0	0	0	0	0	0	0	0.000000000	0	0.788798	-0.788798	0	0.828698	-1.5708	0	0.1	0.1	0.1	0.1	0.1	0.1	0.1	0	0	0	0	0	0	0	0.000000000
1504623347.411324024	0.00306796	0.716369	-0.814544	0.00613592	0.819146	-1.61221	0.0153398	0	0	0	0	0	0	0	0	0	0	0	0	0	0	0.000000000	0	0.788798	-0.788798	0	0.828698	-1.5708	0	0.1	0.1	0.1	0.1	0.1	0.1	0.1	0	0	0	0	0	0	0	0.000000000
1504623347.431222915	0.00306796	0.716369	-0.814544	0.00613592	0.819146	-1.61068	0.0153398	0	0	0	0	0	0	0	0	0	0	0	0	0	0	0.000000000	0	0.788798	-0.788798	0	0.828698	-1.5708	0	0.1	0.1	0.1	0.1	0.1	0.1	0.1	0	0	0	0	0	0	0	0.000000000
1504623347.451374053	0.00306796	0.716369	-0.814544	0.00613592	0.819146	-1.61221	0.0153398	0	0	0	0	0	0	0	0	0	0	0	0	0	0	0.000000000	0	0.788798	-0.788798	0	0.828698	-1.5708	0	0.1	0.1	0.1	0.1	0.1	0.1	0.1	0	0	0	0	0	0	0	0.000000000
1504623347.475676059	0.00306796	0.716369	-0.814544	0.00613592	0.819146	-1.61221	0.0153398	0	0	0	0	0	0	0	0	0	0	0	0	0	0	0.000000000	0	0.788798	-0.788798	0	0.828698	-1.5708	0	0.1	0.1	0.1	0.1	0.1	0.1	0.1	0	0	0	0	0	0	0	0.000000000
1504623347.491370916	0.00306796	0.716369	-0.814544	0.00613592	0.819146	-1.61221	0.0153398	0	0	0	0	0	0	0	0	0	0	0	0	0	0	0.000000000	0	0.788798	-0.788798	0	0.828698	-1.5708	0	0.1	0.1	0.1	0.1	0.1	0.1	0.1	0	0	0	0	0	0	0	0.000000000
1504623347.511590003	0.00306796	0.716369	-0.814544	0.00613592	0.819146	-1.61221	0.0153398	0	0	0	0	0	0	0	0	0	0	0	0	0	0	0.000000000	0	0.788798	-0.788798	0	0.828698	-1.5708	0	0.1	0.1	0.1	0.1	0.1	0.1	0.1	0	0	0	0	0	0	0	0.000000000
1504623347.531172037	0.00153398	0.716369	-0.814544	0.00613592	0.819146	-1.61068	0.0138058	0	0	0	0	0	0	0	0	0	0	0	0	0	0	0.000000000	0	0.788798	-0.788798	0	0.828698	-1.5708	0	0.1	0.1	0.1	0.1	0.1	0.1	0.1	0	0	0	0	0	0	0	0.000000000
1504623347.551362037	0.00306796	0.716369	-0.814544	0.00613592	0.819146	-1.61068	0.0153398	0	0	0	0	0	0	0	0	0	0	0	0	0	0	0.000000000	0	0.788798	-0.788798	0	0.828698	-1.5708	0	0.1	0.1	0.1	0.1	0.1	0.1	0.1	0	0	0	0	0	0	0	0.000000000
1504623347.571295976	0.00306796	0.716369	-0.814544	0.00613592	0.819146	-1.61068	0.0153398	0	0	0	0	0	0	0	0	0	0	0	0	0	0	0.000000000	0	0.788798	-0.788798	0	0.828698	-1.5708	0	0.1	0.1	0.1	0.1	0.1	0.1	0.1	0	0	0	0	0	0	0	0.000000000
1504623347.592423915	0.00306796	0.716369	-0.814544	0.00613592	0.819146	-1.61068	0.0153398	0	0	0	0	0	0	0	0	0	0	0	0	0	0	0.000000000	0	0.788798	-0.788798	0	0.828698	-1.5708	0	0.1	0.1	0.1	0.1	0.1	0.1	0.1	0	0	0	0	0	0	0	0.000000000
1504623347.611299991	0.00306796	0.716369	-0.814544	0.00613592	0.819146	-1.61068	0.0153398	0	0	0	0	0	0	0	0	0	0	0	0	0	0	0.000000000	0	0.788798	-0.788798	0	0.828698	-1.5708	0	0.1	0.1	0.1	0.1	0.1	0.1	0.1	0	0	0	0	0	0	0	0.000000000
1504623347.631505966	0.00306796	0.714835	-0.814544	0.00460194	0.819146	-1.61221	0.0153398	0	0	0	0	0	0	0	0	0	0	0	0	0	0	0.000000000	0	0.788798	-0.788798	0	0.828698	-1.5708	0	0.1	0.1	0.1	0.1	0.1	0.1	0.1	0	0	0	0	0	0	0	0.000000000
1504623347.651207923	0.00306796	0.716369	-0.814544	0.00613592	0.819146	-1.61221	0.0153398	0	0	0	0	0	0	0	0	0	0	0	0	0	0	0.000000000	0	0.788798	-0.788798	0	0.828698	-1.5708	0	0.1	0.1	0.1	0.1	0.1	0.1	0.1	0	0	0	0	0	0	0	0.000000000
1504623347.671427011	0.00306796	0.716369	-0.814544	0.00613592	0.819146	-1.61221	0.0153398	0	0	0	0	0	0	0	0	0	0	0	0	0	0	0.000000000	0	0.788798	-0.788798	0	0.828698	-1.5708	0	0.1	0.1	0.1	0.1	0.1	0.1	0.1	0	0	0	0	0	0	0	0.000000000
1504623347.691338062	0.00153398	0.716369	-0.814544	0.00613592	0.819146	-1.61068	0.0153398	0	0	0	0	0	0	0	0	0	0	0	0	0	0	0.000000000	0	0.788798	-0.788798	0	0.828698	-1.5708	0	0.1	0.1	0.1	0.1	0.1	0.1	0.1	0	0	0	0	0	0	0	0.000000000
1504623347.711433887	0.00306796	0.714835	-0.814544	0.00460194	0.819146	-1.61068	0.0153398	0	0	0	0	0	0	0	0	0	0	0	0	0	0	0.000000000	0	0.788798	-0.788798	0	0.828698	-1.5708	0	0.1	0.1	0.1	0.1	0.1	0.1	0.1	0	0	0	0	0	0	0	0.000000000
1504623347.731230974	0.00306796	0.716369	-0.814544	0.00613592	0.819146	-1.61221	0.0153398	0	0	0	0	0	0	0	0	0	0	0	0	0	0	0.000000000	0	0.788798	-0.788798	0	0.828698	-1.5708	0	0.1	0.1	0.1	0.1	0.1	0.1	0.1	0	0	0	0	0	0	0	0.000000000
1504623347.751312017	0.00306796	0.714835	-0.814544	0.00613592	0.819146	-1.61068	0.0153398	0	0	0	0	0	0	0	0	0	0	0	0	0	0	0.000000000	0	0.788798	-0.788798	0	0.828698	-1.5708	0	0.1	0.1	0.1	0.1	0.1	0.1	0.1	0	0	0	0	0	0	0	0.000000000
1504623347.773401975	0.00306796	0.716369	-0.814544	0.00613592	0.819146	-1.61068	0.0153398	0	0	0	0	0	0	0	0	0	0	0	0	0	0	0.000000000	0	0.788798	-0.788798	0	0.828698	-1.5708	0	0.1	0.1	0.1	0.1	0.1	0.1	0.1	0	0	0	0	0	0	0	0.000000000
1504623347.792809963	0.00306796	0.716369	-0.814544	0.00613592	0.819146	-1.61068	0.0153398	0	0	0	0	0	0	0	0	0	0	0	0	0	0	0.000000000	0	0.788798	-0.788798	0	0.828698	-1.5708	0	0.1	0.1	0.1	0.1	0.1	0.1	0.1	0	0	0	0	0	0	0	0.000000000
1504623347.811189889	0.00153398	0.714835	-0.814544	0.00613592	0.819146	-1.61221	0.0153398	0	0	0	0	0	0	0	0	0	0	0	0	0	0	0.000000000	0	0.788798	-0.788798	0	0.828698	-1.5708	0	0.1	0.1	0.1	0.1	0.1	0.1	0.1	0	0	0	0	0	0	0	0.000000000
1504623347.831228017	0.00306796	0.716369	-0.81301	0.00613592	0.819146	-1.61221	0.0153398	0	0	0	0	0	0	0	0	0	0	0	0	0	0	0.000000000	0	0.788798	-0.788798	0	0.828698	-1.5708	0	0.1	0.1	0.1	0.1	0.1	0.1	0.1	0	0	0	0	0	0	0	0.000000000
1504623347.853625059	0.00306796	0.716369	-0.814544	0.00613592	0.819146	-1.61068	0.0153398	0	0	0	0	0	0	0	0	0	0	0	0	0	0	0.000000000	0	0.788798	-0.788798	0	0.828698	-1.5708	0	0.1	0.1	0.1	0.1	0.1	0.1	0.1	0	0	0	0	0	0	0	0.000000000
1504623347.875953912	0.00306796	0.716369	-0.814544	0.00613592	0.819146	-1.61221	0.0153398	0	0	0	0	0	0	0	0	0	0	0	0	0	0	0.000000000	0	0.788798	-0.788798	0	0.828698	-1.5708	0	0.1	0.1	0.1	0.1	0.1	0.1	0.1	0	0	0	0	0	0	0	0.000000000
1504623347.891200065	0.00306796	0.716369	-0.814544	0.00613592	0.819146	-1.61221	0.0153398	0	0	0	0	0	0	0	0	0	0	0	0	0	0	0.000000000	0	0.788798	-0.788798	0	0.828698	-1.5708	0	0.1	0.1	0.1	0.1	0.1	0.1	0.1	0	0	0	0	0	0	0	0.000000000
1504623347.911422014	0.00306796	0.716369	-0.814544	0.00613592	0.819146	-1.61221	0.0138058	0	0	0	0	0	0	0	0	0	0	0	0	0	0	0.000000000	0	0.788798	-0.788798	0	0.828698	-1.5708	0	0.1	0.1	0.1	0.1	0.1	0.1	0.1	0	0	0	0	0	0	0	0.000000000
1504623347.931346893	0.00306796	0.716369	-0.814544	0.00613592	0.819146	-1.61068	0.0153398	0	0	0	0	0	0	0	0	0	0	0	0	0	0	0.000000000	0	0.788798	-0.788798	0	0.828698	-1.5708	0	0.1	0.1	0.1	0.1	0.1	0.1	0.1	0	0	0	0	0	0	0	0.000000000
1504623347.952071905	0.00306796	0.716369	-0.814544	0.00613592	0.819146	-1.61068	0.0153398	0	0	0	0	0	0	0	0	0	0	0	0	0	0	0.000000000	0	0.788798	-0.788798	0	0.828698	-1.5708	0	0.1	0.1	0.1	0.1	0.1	0.1	0.1	0	0	0	0	0	0	0	0.000000000
1504623347.971482038	0.00153398	0.716369	-0.814544	0.00613592	0.819146	-1.61221	0.0153398	0	0	0	0	0	0	0	0	0	0	0	0	0	0	0.000000000	0	0.788798	-0.788798	0	0.828698	-1.5708	0	0.1	0.1	0.1	0.1	0.1	0.1	0.1	0	0	0	0	0	0	0	0.000000000
1504623347.996330976	0.00306796	0.716369	-0.814544	0.00613592	0.819146	-1.61221	0.0153398	0	0	0	0	0	0	0	0	0	0	0	0	0	0	0.000000000	0	0.788798	-0.788798	0	0.828698	-1.5708	0	0.1	0.1	0.1	0.1	0.1	0.1	0.1	0	0	0	0	0	0	0	0.000000000
1504623348.011670112	0.00306796	0.716369	-0.814544	0.00613592	0.819146	-1.61221	0.0153398	0	0	0	0	0	0	0	0	0	0	0	0	0	0	0.000000000	0	0.788798	-0.788798	0	0.828698	-1.5708	0	0.1	0.1	0.1	0.1	0.1	0.1	0.1	0	0	0	0	0	0	0	0.000000000
1504623348.031446933	0.00306796	0.716369	-0.814544	0.00613592	0.819146	-1.61068	0.0153398	0	0	0	0	0	0	0	0	0	0	0	0	0	0	0.000000000	0	0.788798	-0.788798	0	0.828698	-1.5708	0	0.1	0.1	0.1	0.1	0.1	0.1	0.1	0	0	0	0	0	0	0	0.000000000
1504623348.051316022	0.00306796	0.716369	-0.814544	0.00613592	0.819146	-1.61221	0.0153398	0	0	0	0	0	0	0	0	0	0	0	0	0	0	0.000000000	0	0.788798	-0.788798	0	0.828698	-1.5708	0	0.1	0.1	0.1	0.1	0.1	0.1	0.1	0	0	0	0	0	0	0	0.000000000
1504623348.071136951	0.00153398	0.714835	-0.814544	0.00613592	0.819146	-1.61068	0.0153398	0	0	0	0	0	0	0	0	0	0	0	0	0	0	0.000000000	0	0.788798	-0.788798	0	0.828698	-1.5708	0	0.1	0.1	0.1	0.1	0.1	0.1	0.1	0	0	0	0	0	0	0	0.000000000
1504623348.091217041	0.00153398	0.714835	-0.814544	0.00613592	0.819146	-1.61068	0.0153398	0	0	0	0	0	0	0	0	0	0	0	0	0	0	0.000000000	0	0.788798	-0.788798	0	0.828698	-1.5708	0	0.1	0.1	0.1	0.1	0.1	0.1	0.1	0	0	0	0	0	0	0	0.000000000
1504623348.111320972	0.00306796	0.716369	-0.814544	0.00460194	0.819146	-1.61068	0.0153398	0	0	0	0	0	0	0	0	0	0	0	0	0	0	0.000000000	0	0.788798	-0.788798	0	0.828698	-1.5708	0	0.1	0.1	0.1	0.1	0.1	0.1	0.1	0	0	0	0	0	0	0	0.000000000
1504623348.131488084	0.00306796	0.714835	-0.814544	0.00613592	0.819146	-1.61068	0.0153398	0	0	0	0	0	0	0	0	0	0	0	0	0	0	0.000000000	0	0.788798	-0.788798	0	0.828698	-1.5708	0	0.1	0.1	0.1	0.1	0.1	0.1	0.1	0	0	0	0	0	0	0	0.000000000
1504623348.151297092	0.00306796	0.716369	-0.814544	0.00613592	0.819146	-1.61068	0.0153398	0	0	0	0	0	0	0	0	0	0	0	0	0	0	0.000000000	0	0.788798	-0.788798	0	0.828698	-1.5708	0	0.1	0.1	0.1	0.1	0.1	0.1	0.1	0	0	0	0	0	0	0	0.000000000
1504623348.171354055	0.00306796	0.716369	-0.814544	0.00613592	0.819146	-1.61068	0.0153398	0	0	0	0	0	0	0	0	0	0	0	0	0	0	0.000000000	0	0.788798	-0.788798	0	0.828698	-1.5708	0	0.1	0.1	0.1	0.1	0.1	0.1	0.1	0	0	0	0	0	0	0	0.000000000
1504623348.191214084	0.00306796	0.716369	-0.814544	0.00613592	0.819146	-1.61068	0.0153398	0	0	0	0	0	0	0	0	0	0	0	0	0	0	0.000000000	0	0.788798	-0.788798	0	0.828698	-1.5708	0	0.1	0.1	0.1	0.1	0.1	0.1	0.1	0	0	0	0	0	0	0	0.000000000
1504623348.211209058	0.00306796	0.716369	-0.814544	0.00613592	0.819146	-1.61221	0.0153398	0	0	0	0	0	0	0	0	0	0	0	0	0	0	0.000000000	0	0.788798	-0.788798	0	0.828698	-1.5708	0	0.1	0.1	0.1	0.1	0.1	0.1	0.1	0	0	0	0	0	0	0	0.000000000
1504623348.232923030	0.00306796	0.716369	-0.814544	0.00613592	0.819146	-1.61068	0.0153398	0	0	0	0	0	0	0	0	0	0	0	0	0	0	0.000000000	0	0.788798	-0.788798	0	0.828698	-1.5708	0	0.1	0.1	0.1	0.1	0.1	0.1	0.1	0	0	0	0	0	0	0	0.000000000
1504623348.251704931	0.00306796	0.714835	-0.814544	0.00613592	0.819146	-1.61221	0.0153398	0	0	0	0	0	0	0	0	0	0	0	0	0	0	0.000000000	0	0.788798	-0.788798	0	0.828698	-1.5708	0	0.1	0.1	0.1	0.1	0.1	0.1	0.1	0	0	0	0	0	0	0	0.000000000
1504623348.271464109	0.00306796	0.716369	-0.814544	0.00460194	0.819146	-1.61068	0.0153398	0	0	0	0	0	0	0	0	0	0	0	0	0	0	0.000000000	0	0.788798	-0.788798	0	0.828698	-1.5708	0	0.1	0.1	0.1	0.1	0.1	0.1	0.1	0	0	0	0	0	0	0	0.000000000
1504623348.291594028	0.00306796	0.716369	-0.814544	0.00460194	0.819146	-1.61068	0.0153398	0	0	0	0	0	0	0	0	0	0	0	0	0	0	0.000000000	0	0.788798	-0.788798	0	0.828698	-1.5708	0	0.1	0.1	0.1	0.1	0.1	0.1	0.1	0	0	0	0	0	0	0	0.000000000
1504623348.311430931	0.00306796	0.716369	-0.814544	0.00613592	0.819146	-1.61068	0.0153398	0	0	0	0	0	0	0	0	0	0	0	0	0	0	0.000000000	0	0.788798	-0.788798	0	0.828698	-1.5708	0	0.1	0.1	0.1	0.1	0.1	0.1	0.1	0	0	0	0	0	0	0	0.000000000
1504623348.331413984	0.00306796	0.716369	-0.814544	0.00613592	0.819146	-1.61221	0.0153398	0	0	0	0	0	0	0	0	0	0	0	0	0	0	0.000000000	0	0.788798	-0.788798	0	0.828698	-1.5708	0	0.1	0.1	0.1	0.1	0.1	0.1	0.1	0	0	0	0	0	0	0	0.000000000
1504623348.351172924	0.00306796	0.716369	-0.814544	0.00613592	0.819146	-1.61068	0.0153398	0	0	0	0	0	0	0	0	0	0	0	0	0	0	0.000000000	0	0.788798	-0.788798	0	0.828698	-1.5708	0	0.1	0.1	0.1	0.1	0.1	0.1	0.1	0	0	0	0	0	0	0	0.000000000
1504623348.371186971	0.00306796	0.716369	-0.814544	0.00613592	0.819146	-1.61068	0.0153398	0	0	0	0	0	0	0	0	0	0	0	0	0	0	0.000000000	0	0.788798	-0.788798	0	0.828698	-1.5708	0	0.1	0.1	0.1	0.1	0.1	0.1	0.1	0	0	0	0	0	0	0	0.000000000
1504623348.391236066	0.00306796	0.714835	-0.814544	0.00613592	0.819146	-1.61068	0.0153398	0	0	0	0	0	0	0	0	0	0	0	0	0	0	0.000000000	0	0.788798	-0.788798	0	0.828698	-1.5708	0	0.1	0.1	0.1	0.1	0.1	0.1	0.1	0	0	0	0	0	0	0	0.000000000
1504623348.411814928	0.00306796	0.716369	-0.814544	0.00613592	0.819146	-1.61068	0.0153398	0	0	0	0	0	0	0	0	0	0	0	0	0	0	0.000000000	0	0.788798	-0.788798	0	0.828698	-1.5708	0	0.1	0.1	0.1	0.1	0.1	0.1	0.1	0	0	0	0	0	0	0	0.000000000
1504623348.431229114	0.00306796	0.716369	-0.814544	0.00613592	0.819146	-1.61068	0.0153398	0	0	0	0	0	0	0	0	0	0	0	0	0	0	0.000000000	0	0.788798	-0.788798	0	0.828698	-1.5708	0	0.1	0.1	0.1	0.1	0.1	0.1	0.1	0	0	0	0	0	0	0	0.000000000
1504623348.451303958	0.00306796	0.716369	-0.814544	0.00613592	0.819146	-1.61221	0.0153398	0	0	0	0	0	0	0	0	0	0	0	0	0	0	0.000000000	0	0.788798	-0.788798	0	0.828698	-1.5708	0	0.1	0.1	0.1	0.1	0.1	0.1	0.1	0	0	0	0	0	0	0	0.000000000
1504623348.471188068	0.00306796	0.716369	-0.814544	0.00613592	0.819146	-1.61221	0.0153398	0	0	0	0	0	0	0	0	0	0	0	0	0	0	0.000000000	0	0.788798	-0.788798	0	0.828698	-1.5708	0	0.1	0.1	0.1	0.1	0.1	0.1	0.1	0	0	0	0	0	0	0	0.000000000
1504623348.491678953	0.00306796	0.716369	-0.814544	0.00613592	0.819146	-1.61221	0.0153398	0	0	0	0	0	0	0	0	0	0	0	0	0	0	0.000000000	0	0.788798	-0.788798	0	0.828698	-1.5708	0	0.1	0.1	0.1	0.1	0.1	0.1	0.1	0	0	0	0	0	0	0	0.000000000
1504623348.513746023	0.00306796	0.716369	-0.814544	0.00613592	0.819146	-1.61068	0.0153398	0	0	0	0	0	0	0	0	0	0	0	0	0	0	0.000000000	0	0.788798	-0.788798	0	0.828698	-1.5708	0	0.1	0.1	0.1	0.1	0.1	0.1	0.1	0	0	0	0	0	0	0	0.000000000
1504623348.532772064	0.00306796	0.716369	-0.814544	0.00460194	0.819146	-1.61221	0.0138058	0	0	0	0	0	0	0	0	0	0	0	0	0	0	0.000000000	0	0.788798	-0.788798	0	0.828698	-1.5708	0	0.1	0.1	0.1	0.1	0.1	0.1	0.1	0	0	0	0	0	0	0	0.000000000
1504623348.551178932	0.00306796	0.716369	-0.814544	0.00460194	0.819146	-1.61068	0.0153398	0	0	0	0	0	0	0	0	0	0	0	0	0	0	0.000000000	0	0.788798	-0.788798	0	0.828698	-1.5708	0	0.1	0.1	0.1	0.1	0.1	0.1	0.1	0	0	0	0	0	0	0	0.000000000
1504623348.571196079	0.00306796	0.716369	-0.814544	0.00613592	0.819146	-1.61221	0.0153398	0	0	0	0	0	0	0	0	0	0	0	0	0	0	0.000000000	0	0.788798	-0.788798	0	0.828698	-1.5708	0	0.1	0.1	0.1	0.1	0.1	0.1	0.1	0	0	0	0	0	0	0	0.000000000
1504623348.593192100	0.00306796	0.716369	-0.814544	0.00613592	0.819146	-1.61221	0.0153398	0	0	0	0	0	0	0	0	0	0	0	0	0	0	0.000000000	0	0.788798	-0.788798	0	0.828698	-1.5708	0	0.1	0.1	0.1	0.1	0.1	0.1	0.1	0	0	0	0	0	0	0	0.000000000
1504623348.611197948	0.00153398	0.716369	-0.814544	0.00613592	0.819146	-1.61068	0.0153398	0	0	0	0	0	0	0	0	0	0	0	0	0	0	0.000000000	0	0.788798	-0.788798	0	0.828698	-1.5708	0	0.1	0.1	0.1	0.1	0.1	0.1	0.1	0	0	0	0	0	0	0	0.000000000
1504623348.635358095	0.00306796	0.714835	-0.814544	0.00613592	0.819146	-1.61068	0.0153398	0	0	0	0	0	0	0	0	0	0	0	0	0	0	0.000000000	0	0.788798	-0.788798	0	0.828698	-1.5708	0	0.1	0.1	0.1	0.1	0.1	0.1	0.1	0	0	0	0	0	0	0	0.000000000
1504623348.651123046	0.00306796	0.716369	-0.814544	0.00613592	0.819146	-1.61068	0.0153398	0	0	0	0	0	0	0	0	0	0	0	0	0	0	0.000000000	0	0.788798	-0.788798	0	0.828698	-1.5708	0	0.1	0.1	0.1	0.1	0.1	0.1	0.1	0	0	0	0	0	0	0	0.000000000
1504623348.671039104	0.00306796	0.716369	-0.814544	0.00613592	0.819146	-1.61068	0.0153398	0	0	0	0	0	0	0	0	0	0	0	0	0	0	0.000000000	0	0.788798	-0.788798	0	0.828698	-1.5708	0	0.1	0.1	0.1	0.1	0.1	0.1	0.1	0	0	0	0	0	0	0	0.000000000
1504623348.690977096	0.00306796	0.716369	-0.814544	0.00613592	0.819146	-1.61068	0.0153398	0	0	0	0	0	0	0	0	0	0	0	0	0	0	0.000000000	0	0.788798	-0.788798	0	0.828698	-1.5708	0	0.1	0.1	0.1	0.1	0.1	0.1	0.1	0	0	0	0	0	0	0	0.000000000
1504623348.710984945	0.00306796	0.716369	-0.814544	0.00613592	0.819146	-1.61068	0.0153398	0	0	0	0	0	0	0	0	0	0	0	0	0	0	0.000000000	0	0.788798	-0.788798	0	0.828698	-1.5708	0	0.1	0.1	0.1	0.1	0.1	0.1	0.1	0	0	0	0	0	0	0	0.000000000
1504623348.731010913	0.00306796	0.716369	-0.814544	0.00613592	0.819146	-1.61068	0.0138058	0	0	0	0	0	0	0	0	0	0	0	0	0	0	0.000000000	0	0.788798	-0.788798	0	0.828698	-1.5708	0	0.1	0.1	0.1	0.1	0.1	0.1	0.1	0	0	0	0	0	0	0	0.000000000
1504623348.750972032	0.00306796	0.716369	-0.814544	0.00613592	0.819146	-1.61068	0.0153398	0	0	0	0	0	0	0	0	0	0	0	0	0	0	0.000000000	0	0.788798	-0.788798	0	0.828698	-1.5708	0	0.1	0.1	0.1	0.1	0.1	0.1	0.1	0	0	0	0	0	0	0	0.000000000
1504623348.770981073	0.00306796	0.716369	-0.814544	0.00460194	0.819146	-1.61068	0.0153398	0	0	0	0	0	0	0	0	0	0	0	0	0	0	0.000000000	0	0.788798	-0.788798	0	0.828698	-1.5708	0	0.1	0.1	0.1	0.1	0.1	0.1	0.1	0	0	0	0	0	0	0	0.000000000
1504623348.791017055	0.00306796	0.714835	-0.814544	0.00460194	0.819146	-1.61068	0.0153398	0	0	0	0	0	0	0	0	0	0	0	0	0	0	0.000000000	0	0.788798	-0.788798	0	0.828698	-1.5708	0	0.1	0.1	0.1	0.1	0.1	0.1	0.1	0	0	0	0	0	0	0	0.000000000
1504623348.811024904	0.00306796	0.714835	-0.814544	0.00460194	0.819146	-1.61068	0.0153398	0	0	0	0	0	0	0	0	0	0	0	0	0	0	0.000000000	0	0.788798	-0.788798	0	0.828698	-1.5708	0	0.1	0.1	0.1	0.1	0.1	0.1	0.1	0	0	0	0	0	0	0	0.000000000
1504623348.830984115	0.00306796	0.716369	-0.814544	0.00613592	0.819146	-1.61221	0.0153398	0	0	0	0	0	0	0	0	0	0	0	0	0	0	0.000000000	0	0.788798	-0.788798	0	0.828698	-1.5708	0	0.1	0.1	0.1	0.1	0.1	0.1	0.1	0	0	0	0	0	0	0	0.000000000
1504623348.851012945	0.00153398	0.716369	-0.814544	0.00613592	0.819146	-1.61068	0.0153398	0	0	0	0	0	0	0	0	0	0	0	0	0	0	0.000000000	0	0.788798	-0.788798	0	0.828698	-1.5708	0	0.1	0.1	0.1	0.1	0.1	0.1	0.1	0	0	0	0	0	0	0	0.000000000
1504623348.871014118	0.00153398	0.716369	-0.814544	0.00613592	0.819146	-1.61221	0.0153398	0	0	0	0	0	0	0	0	0	0	0	0	0	0	0.000000000	0	0.788798	-0.788798	0	0.828698	-1.5708	0	0.1	0.1	0.1	0.1	0.1	0.1	0.1	0	0	0	0	0	0	0	0.000000000
1504623348.891016006	0.00153398	0.714835	-0.814544	0.00613592	0.819146	-1.61068	0.0153398	0	0	0	0	0	0	0	0	0	0	0	0	0	0	0.000000000	0	0.788798	-0.788798	0	0.828698	-1.5708	0	0.1	0.1	0.1	0.1	0.1	0.1	0.1	0	0	0	0	0	0	0	0.000000000
1504623348.910978078	0.00153398	0.714835	-0.814544	0.00613592	0.819146	-1.61068	0.0153398	0	0	0	0	0	0	0	0	0	0	0	0	0	0	0.000000000	0	0.788798	-0.788798	0	0.828698	-1.5708	0	0.1	0.1	0.1	0.1	0.1	0.1	0.1	0	0	0	0	0	0	0	0.000000000
1504623348.931102037	0.00306796	0.716369	-0.814544	0.00613592	0.819146	-1.61068	0.0153398	0	0	0	0	0	0	0	0	0	0	0	0	0	0	0.000000000	0	0.788798	-0.788798	0	0.828698	-1.5708	0	0.1	0.1	0.1	0.1	0.1	0.1	0.1	0	0	0	0	0	0	0	0.000000000
1504623348.951013088	0.00306796	0.716369	-0.814544	0.00613592	0.819146	-1.61068	0.0153398	0	0	0	0	0	0	0	0	0	0	0	0	0	0	0.000000000	0	0.788798	-0.788798	0	0.828698	-1.5708	0	0.1	0.1	0.1	0.1	0.1	0.1	0.1	0	0	0	0	0	0	0	0.000000000
1504623348.971041917	0.00306796	0.716369	-0.814544	0.00613592	0.819146	-1.61068	0.0153398	0	0	0	0	0	0	0	0	0	0	0	0	0	0	0.000000000	0	0.788798	-0.788798	0	0.828698	-1.5708	0	0.1	0.1	0.1	0.1	0.1	0.1	0.1	0	0	0	0	0	0	0	0.000000000
1504623348.991154909	0.00306796	0.716369	-0.814544	0.00613592	0.819146	-1.61221	0.0153398	0	0	0	0	0	0	0	0	0	0	0	0	0	0	0.000000000	0	0.788798	-0.788798	0	0.828698	-1.5708	0	0.1	0.1	0.1	0.1	0.1	0.1	0.1	0	0	0	0	0	0	0	0.000000000
1504623349.010961055	0.00306796	0.716369	-0.814544	0.00613592	0.819146	-1.61221	0.0153398	0	0	0	0	0	0	0	0	0	0	0	0	0	0	0.000000000	0	0.788798	-0.788798	0	0.828698	-1.5708	0	0.1	0.1	0.1	0.1	0.1	0.1	0.1	0	0	0	0	0	0	0	0.000000000
1504623349.031131982	0.00306796	0.716369	-0.814544	0.00613592	0.819146	-1.61068	0.0153398	0	0	0	0	0	0	0	0	0	0	0	0	0	0	0.000000000	0	0.788798	-0.788798	0	0.828698	-1.5708	0	0.1	0.1	0.1	0.1	0.1	0.1	0.1	0	0	0	0	0	0	0	0.000000000
1504623349.051171064	0.00306796	0.716369	-0.814544	0.00613592	0.819146	-1.61221	0.0153398	0	0	0	0	0	0	0	0	0	0	0	0	0	0	0.000000000	0	0.788798	-0.788798	0	0.828698	-1.5708	0	0.1	0.1	0.1	0.1	0.1	0.1	0.1	0	0	0	0	0	0	0	0.000000000
1504623349.071346998	0.00153398	0.716369	-0.814544	0.00613592	0.819146	-1.61068	0.0138058	0	0	0	0	0	0	0	0	0	0	0	0	0	0	0.000000000	0	0.788798	-0.788798	0	0.828698	-1.5708	0	0.1	0.1	0.1	0.1	0.1	0.1	0.1	0	0	0	0	0	0	0	0.000000000
1504623349.091826915	0.00153398	0.716369	-0.814544	0.00613592	0.819146	-1.61068	0.0138058	0	0	0	0	0	0	0	0	0	0	0	0	0	0	0.000000000	0	0.788798	-0.788798	0	0.828698	-1.5708	0	0.1	0.1	0.1	0.1	0.1	0.1	0.1	0	0	0	0	0	0	0	0.000000000
1504623349.111243009	0.00306796	0.716369	-0.814544	0.00460194	0.819146	-1.61221	0.0153398	0	0	0	0	0	0	0	0	0	0	0	0	0	0	0.000000000	0	0.788798	-0.788798	0	0.828698	-1.5708	0	0.1	0.1	0.1	0.1	0.1	0.1	0.1	0	0	0	0	0	0	0	0.000000000
1504623349.131414890	0.00306796	0.714835	-0.814544	0.00613592	0.819146	-1.61068	0.0153398	0	0	0	0	0	0	0	0	0	0	0	0	0	0	0.000000000	0	0.788798	-0.788798	0	0.828698	-1.5708	0	0.1	0.1	0.1	0.1	0.1	0.1	0.1	0	0	0	0	0	0	0	0.000000000
1504623349.151237964	0.00306796	0.716369	-0.814544	0.00613592	0.819146	-1.61068	0.0153398	0	0	0	0	0	0	0	0	0	0	0	0	0	0	0.000000000	0	0.788798	-0.788798	0	0.828698	-1.5708	0	0.1	0.1	0.1	0.1	0.1	0.1	0.1	0	0	0	0	0	0	0	0.000000000
1504623349.174441099	0.00306796	0.716369	-0.814544	0.00613592	0.819146	-1.61068	0.0153398	0	0	0	0	0	0	0	0	0	0	0	0	0	0	0.000000000	0	0.788798	-0.788798	0	0.828698	-1.5708	0	0.1	0.1	0.1	0.1	0.1	0.1	0.1	0	0	0	0	0	0	0	0.000000000
1504623349.194782972	0.00306796	0.716369	-0.814544	0.00613592	0.819146	-1.61068	0.0153398	0	0	0	0	0	0	0	0	0	0	0	0	0	0	0.000000000	0	0.788798	-0.788798	0	0.828698	-1.5708	0	0.1	0.1	0.1	0.1	0.1	0.1	0.1	0	0	0	0	0	0	0	0.000000000
1504623349.219878911	0.00306796	0.716369	-0.814544	0.00613592	0.819146	-1.61068	0.0138058	0	0	0	0	0	0	0	0	0	0	0	0	0	0	0.000000000	0	0.788798	-0.788798	0	0.828698	-1.5708	0	0.1	0.1	0.1	0.1	0.1	0.1	0.1	0	0	0	0	0	0	0	0.000000000
1504623349.231141090	0.00153398	0.716369	-0.814544	0.00613592	0.819146	-1.61068	0.0153398	0	0	0	0	0	0	0	0	0	0	0	0	0	0	0.000000000	0	0.788798	-0.788798	0	0.828698	-1.5708	0	0.1	0.1	0.1	0.1	0.1	0.1	0.1	0	0	0	0	0	0	0	0.000000000
1504623349.251214027	0.00306796	0.716369	-0.814544	0.00613592	0.819146	-1.61221	0.0153398	0	0	0	0	0	0	0	0	0	0	0	0	0	0	0.000000000	0	0.788798	-0.788798	0	0.828698	-1.5708	0	0.1	0.1	0.1	0.1	0.1	0.1	0.1	0	0	0	0	0	0	0	0.000000000
1504623349.271130084	0.00306796	0.716369	-0.814544	0.00613592	0.819146	-1.61068	0.0153398	0	0	0	0	0	0	0	0	0	0	0	0	0	0	0.000000000	0	0.788798	-0.788798	0	0.828698	-1.5708	0	0.1	0.1	0.1	0.1	0.1	0.1	0.1	0	0	0	0	0	0	0	0.000000000
1504623349.291043996	0.00153398	0.714835	-0.814544	0.00613592	0.819146	-1.61068	0.0153398	0	0	0	0	0	0	0	0	0	0	0	0	0	0	0.000000000	0	0.788798	-0.788798	0	0.828698	-1.5708	0	0.1	0.1	0.1	0.1	0.1	0.1	0.1	0	0	0	0	0	0	0	0.000000000
1504623349.311065912	0.00153398	0.714835	-0.814544	0.00613592	0.819146	-1.61068	0.0153398	0	0	0	0	0	0	0	0	0	0	0	0	0	0	0.000000000	0	0.788798	-0.788798	0	0.828698	-1.5708	0	0.1	0.1	0.1	0.1	0.1	0.1	0.1	0	0	0	0	0	0	0	0.000000000
1504623349.331119060	0.00153398	0.716369	-0.814544	0.00613592	0.819146	-1.61068	0.0153398	0	0	0	0	0	0	0	0	0	0	0	0	0	0	0.000000000	0	0.788798	-0.788798	0	0.828698	-1.5708	0	0.1	0.1	0.1	0.1	0.1	0.1	0.1	0	0	0	0	0	0	0	0.000000000
1504623349.351064920	0.00306796	0.716369	-0.814544	0.00613592	0.819146	-1.61068	0.0153398	0	0	0	0	0	0	0	0	0	0	0	0	0	0	0.000000000	0	0.788798	-0.788798	0	0.828698	-1.5708	0	0.1	0.1	0.1	0.1	0.1	0.1	0.1	0	0	0	0	0	0	0	0.000000000
1504623349.371125936	0.00306796	0.716369	-0.814544	0.00613592	0.819146	-1.61068	0.0153398	0	0	0	0	0	0	0	0	0	0	0	0	0	0	0.000000000	0	0.788798	-0.788798	0	0.828698	-1.5708	0	0.1	0.1	0.1	0.1	0.1	0.1	0.1	0	0	0	0	0	0	0	0.000000000
1504623349.391103029	0.00306796	0.716369	-0.814544	0.00460194	0.819146	-1.61068	0.0153398	0	0	0	0	0	0	0	0	0	0	0	0	0	0	0.000000000	0	0.788798	-0.788798	0	0.828698	-1.5708	0	0.1	0.1	0.1	0.1	0.1	0.1	0.1	0	0	0	0	0	0	0	0.000000000
1504623349.411163091	0.00306796	0.716369	-0.814544	0.00460194	0.819146	-1.61068	0.0153398	0	0	0	0	0	0	0	0	0	0	0	0	0	0	0.000000000	0	0.788798	-0.788798	0	0.828698	-1.5708	0	0.1	0.1	0.1	0.1	0.1	0.1	0.1	0	0	0	0	0	0	0	0.000000000
1504623349.431153059	0.00306796	0.714835	-0.814544	0.00613592	0.819146	-1.61221	0.0153398	0	0	0	0	0	0	0	0	0	0	0	0	0	0	0.000000000	0	0.788798	-0.788798	0	0.828698	-1.5708	0	0.1	0.1	0.1	0.1	0.1	0.1	0.1	0	0	0	0	0	0	0	0.000000000
1504623349.451153039	0.00153398	0.716369	-0.814544	0.00613592	0.819146	-1.61068	0.0153398	0	0	0	0	0	0	0	0	0	0	0	0	0	0	0.000000000	0	0.788798	-0.788798	0	0.828698	-1.5708	0	0.1	0.1	0.1	0.1	0.1	0.1	0.1	0	0	0	0	0	0	0	0.000000000
1504623349.471295118	0.00306796	0.716369	-0.814544	0.00613592	0.819146	-1.61221	0.0153398	0	0	0	0	0	0	0	0	0	0	0	0	0	0	0.000000000	0	0.788798	-0.788798	0	0.828698	-1.5708	0	0.1	0.1	0.1	0.1	0.1	0.1	0.1	0	0	0	0	0	0	0	0.000000000
1504623349.491082906	0.00306796	0.716369	-0.814544	0.00613592	0.819146	-1.61221	0.0153398	0	0	0	0	0	0	0	0	0	0	0	0	0	0	0.000000000	0	0.788798	-0.788798	0	0.828698	-1.5708	0	0.1	0.1	0.1	0.1	0.1	0.1	0.1	0	0	0	0	0	0	0	0.000000000
1504623349.511107921	0.00306796	0.714835	-0.814544	0.00613592	0.819146	-1.61221	0.0153398	0	0	0	0	0	0	0	0	0	0	0	0	0	0	0.000000000	0	0.788798	-0.788798	0	0.828698	-1.5708	0	0.1	0.1	0.1	0.1	0.1	0.1	0.1	0	0	0	0	0	0	0	0.000000000
1504623349.531142950	0.00306796	0.716369	-0.814544	0.00613592	0.819146	-1.61068	0.0153398	0	0	0	0	0	0	0	0	0	0	0	0	0	0	0.000000000	0	0.788798	-0.788798	0	0.828698	-1.5708	0	0.1	0.1	0.1	0.1	0.1	0.1	0.1	0	0	0	0	0	0	0	0.000000000
1504623349.551089048	0.00306796	0.716369	-0.814544	0.00613592	0.819146	-1.61221	0.0138058	0	0	0	0	0	0	0	0	0	0	0	0	0	0	0.000000000	0	0.788798	-0.788798	0	0.828698	-1.5708	0	0.1	0.1	0.1	0.1	0.1	0.1	0.1	0	0	0	0	0	0	0	0.000000000
1504623349.571130037	0.00306796	0.714835	-0.81301	0.00613592	0.819146	-1.61068	0.0153398	0	0	0	0	0	0	0	0	0	0	0	0	0	0	0.000000000	0	0.788798	-0.788798	0	0.828698	-1.5708	0	0.1	0.1	0.1	0.1	0.1	0.1	0.1	0	0	0	0	0	0	0	0.000000000
1504623349.591275930	0.00306796	0.716369	-0.814544	0.00613592	0.819146	-1.61068	0.0153398	0	0	0	0	0	0	0	0	0	0	0	0	0	0	0.000000000	0	0.788798	-0.788798	0	0.828698	-1.5708	0	0.1	0.1	0.1	0.1	0.1	0.1	0.1	0	0	0	0	0	0	0	0.000000000
1504623349.611098051	0.00306796	0.716369	-0.814544	0.00613592	0.819146	-1.61068	0.0153398	0	0	0	0	0	0	0	0	0	0	0	0	0	0	0.000000000	0	0.788798	-0.788798	0	0.828698	-1.5708	0	0.1	0.1	0.1	0.1	0.1	0.1	0.1	0	0	0	0	0	0	0	0.000000000
1504623349.631318092	0.00306796	0.714835	-0.814544	0.00613592	0.819146	-1.61068	0.0138058	0	0	0	0	0	0	0	0	0	0	0	0	0	0	0.000000000	0	0.788798	-0.788798	0	0.828698	-1.5708	0	0.1	0.1	0.1	0.1	0.1	0.1	0.1	0	0	0	0	0	0	0	0.000000000
1504623349.651401042	0.00306796	0.716369	-0.814544	0.00613592	0.819146	-1.61221	0.0138058	0	0	0	0	0	0	0	0	0	0	0	0	0	0	0.000000000	0	0.788798	-0.788798	0	0.828698	-1.5708	0	0.1	0.1	0.1	0.1	0.1	0.1	0.1	0	0	0	0	0	0	0	0.000000000
1504623349.671097040	0.00306796	0.716369	-0.814544	0.00613592	0.819146	-1.61068	0.0153398	0	0	0	0	0	0	0	0	0	0	0	0	0	0	0.000000000	0	0.788798	-0.788798	0	0.828698	-1.5708	0	0.1	0.1	0.1	0.1	0.1	0.1	0.1	0	0	0	0	0	0	0	0.000000000
1504623349.691163063	0.00306796	0.714835	-0.81301	0.00613592	0.819146	-1.61068	0.0153398	0	0	0	0	0	0	0	0	0	0	0	0	0	0	0.000000000	0	0.788798	-0.788798	0	0.828698	-1.5708	0	0.1	0.1	0.1	0.1	0.1	0.1	0.1	0	0	0	0	0	0	0	0.000000000
1504623349.711088895	0.00306796	0.714835	-0.81301	0.00613592	0.819146	-1.61068	0.0153398	0	0	0	0	0	0	0	0	0	0	0	0	0	0	0.000000000	0	0.788798	-0.788798	0	0.828698	-1.5708	0	0.1	0.1	0.1	0.1	0.1	0.1	0.1	0	0	0	0	0	0	0	0.000000000
1504623349.731105089	0.00306796	0.716369	-0.814544	0.00613592	0.819146	-1.61068	0.0153398	0	0	0	0	0	0	0	0	0	0	0	0	0	0	0.000000000	0	0.788798	-0.788798	0	0.828698	-1.5708	0	0.1	0.1	0.1	0.1	0.1	0.1	0.1	0	0	0	0	0	0	0	0.000000000
1504623349.751130104	0.00153398	0.716369	-0.814544	0.00613592	0.819146	-1.61068	0.0153398	0	0	0	0	0	0	0	0	0	0	0	0	0	0	0.000000000	0	0.788798	-0.788798	0	0.828698	-1.5708	0	0.1	0.1	0.1	0.1	0.1	0.1	0.1	0	0	0	0	0	0	0	0.000000000
1504623349.771126031	0.00306796	0.716369	-0.814544	0.00613592	0.819146	-1.61221	0.0153398	0	0	0	0	0	0	0	0	0	0	0	0	0	0	0.000000000	0	0.788798	-0.788798	0	0.828698	-1.5708	0	0.1	0.1	0.1	0.1	0.1	0.1	0.1	0	0	0	0	0	0	0	0.000000000
1504623349.792207002	0.00306796	0.716369	-0.814544	0.00613592	0.819146	-1.61221	0.0153398	0	0	0	0	0	0	0	0	0	0	0	0	0	0	0.000000000	0	0.788798	-0.788798	0	0.828698	-1.5708	0	0.1	0.1	0.1	0.1	0.1	0.1	0.1	0	0	0	0	0	0	0	0.000000000
1504623349.811137914	0.00306796	0.716369	-0.814544	0.00613592	0.819146	-1.61221	0.0153398	0	0	0	0	0	0	0	0	0	0	0	0	0	0	0.000000000	0	0.788798	-0.788798	0	0.828698	-1.5708	0	0.1	0.1	0.1	0.1	0.1	0.1	0.1	0	0	0	0	0	0	0	0.000000000
1504623349.831136941	0.00306796	0.716369	-0.814544	0.00613592	0.819146	-1.61068	0.0153398	0	0	0	0	0	0	0	0	0	0	0	0	0	0	0.000000000	0	0.788798	-0.788798	0	0.828698	-1.5708	0	0.1	0.1	0.1	0.1	0.1	0.1	0.1	0	0	0	0	0	0	0	0.000000000
1504623349.851123094	0.00153398	0.716369	-0.81301	0.00613592	0.819146	-1.61221	0.0153398	0	0	0	0	0	0	0	0	0	0	0	0	0	0	0.000000000	0	0.788798	-0.788798	0	0.828698	-1.5708	0	0.1	0.1	0.1	0.1	0.1	0.1	0.1	0	0	0	0	0	0	0	0.000000000
1504623349.871099948	0.00306796	0.716369	-0.814544	0.00613592	0.817612	-1.61068	0.0153398	0	0	0	0	0	0	0	0	0	0	0	0	0	0	0.000000000	0	0.788798	-0.788798	0	0.828698	-1.5708	0	0.1	0.1	0.1	0.1	0.1	0.1	0.1	0	0	0	0	0	0	0	0.000000000
1504623349.891078948	0.00306796	0.716369	-0.814544	0.00613592	0.817612	-1.61068	0.0153398	0	0	0	0	0	0	0	0	0	0	0	0	0	0	0.000000000	0	0.788798	-0.788798	0	0.828698	-1.5708	0	0.1	0.1	0.1	0.1	0.1	0.1	0.1	0	0	0	0	0	0	0	0.000000000
1504623349.911305904	0.00306796	0.716369	-0.814544	0.00613592	0.817612	-1.61068	0.0153398	0	0	0	0	0	0	0	0	0	0	0	0	0	0	0.000000000	0	0.788798	-0.788798	0	0.828698	-1.5708	0	0.1	0.1	0.1	0.1	0.1	0.1	0.1	0	0	0	0	0	0	0	0.000000000
1504623349.931324958	0.00306796	0.716369	-0.814544	0.00613592	0.817612	-1.61068	0.0153398	0	0	0	0	0	0	0	0	0	0	0	0	0	0	0.000000000	0	0.788798	-0.788798	0	0.828698	-1.5708	0	0.1	0.1	0.1	0.1	0.1	0.1	0.1	0	0	0	0	0	0	0	0.000000000
1504623349.953186035	0.00306796	0.716369	-0.814544	0.00613592	0.819146	-1.61221	0.0153398	0	0	0	0	0	0	0	0	0	0	0	0	0	0	0.000000000	0	0.788798	-0.788798	0	0.828698	-1.5708	0	0.1	0.1	0.1	0.1	0.1	0.1	0.1	0	0	0	0	0	0	0	0.000000000
1504623349.971327066	0.00306796	0.716369	-0.814544	0.00613592	0.819146	-1.61221	0.0153398	0	0	0	0	0	0	0	0	0	0	0	0	0	0	0.000000000	0	0.788798	-0.788798	0	0.828698	-1.5708	0	0.1	0.1	0.1	0.1	0.1	0.1	0.1	0	0	0	0	0	0	0	0.000000000
1504623349.990986108	0.00306796	0.716369	-0.814544	0.00613592	0.819146	-1.61068	0.0153398	0	0	0	0	0	0	0	0	0	0	0	0	0	0	0.000000000	-0.0004666	0.788798	-0.788798	-0.00178552	0.828698	-1.5708	0	0.1	0.1	0.1	0.1	0.1	0.1	0.1	0	0	0	0	0	0	0	0.000000000
1504623350.010988950	0.00153398	0.716369	-0.814544	0.00613592	0.819146	-1.61068	0.0153398	0	0	0	0	0	0	0	0	0	0	0	0	0	0	0.000000000	-0.000897179	0.788798	-0.788798	-0.00343319	0.828698	-1.5708	0	0.1	0.1	0.1	0.1	0.1	0.1	0.1	0	0	0	0	0	0	0	0.000000000
1504623350.030997991	0.00306796	0.716369	-0.814544	0.00613592	0.819146	-1.61068	0.0153398	0	0	0	0	0	0	0	0	0	0	0	0	0	0	0.000000000	-0.000897179	0.788798	-0.788798	-0.00343319	0.828698	-1.5708	0	0.1	0.1	0.1	0.1	0.1	0.1	0.1	0	0	0	0	0	0	0	0.000000000
1504623350.051013946	0.00153398	0.716369	-0.814544	0.00613592	0.819146	-1.61221	0.0153398	0	0	0	0	0	0	0	0	0	0	0	0	0	0	0.000000000	-0.00152608	0.788798	-0.788798	-0.00583978	0.828698	-1.5708	0	0.1	0.1	0.1	0.1	0.1	0.1	0.1	0	0	0	0	0	0	0	0.000000000
1504623350.071101903	0.00153398	0.716369	-0.814544	0.00613592	0.819146	-1.61221	0.0153398	0	0	0	0	0	0	0	0	0	0	0	0	0	0	0.000000000	-0.00238518	0.788798	-0.788798	-0.00912727	0.828698	-1.5708	0	0.1	0.1	0.1	0.108487	0.1	0.1	0.1	0	0	0	0	0	0	0	0.000000000
1504623350.091403007	0.00153398	0.716369	-0.814544	0.00460194	0.819146	-1.61221	0.0153398	0	0	0	0	0	0	0	0	0	0	0	0	0	0	0.000000000	-0.00238518	0.788798	-0.788798	-0.00912727	0.828698	-1.5708	0	0.1	0.1	0.1	0.108487	0.1	0.1	0.1	0	0	0	0	0	0	0	0.000000000
1504623350.112752914	0.00306796	0.714835	-0.814544	0.00306796	0.819146	-1.61221	0.0153398	0	0	0	0	0	0	0	0	0	0	0	0	0	0	0.000000000	-0.00350389	0.788798	-0.788798	-0.0134082	0.828698	-1.5708	0	0.1	0.1	0.1	0.14127	0.1	0.1	0.1	0	0	0	0	0	0	0	0.000000000
1504623350.131325006	0.00306796	0.716369	-0.814544	0.00153398	0.819146	-1.61068	0.0153398	0	0	0	0.107442	0	0	0	0	0	0	0	0	0	0	0.000000000	-0.00490918	0.788798	-0.788798	-0.0187858	0.828698	-1.5708	0	0.1	0.1	0.1	0.17746	0.1	0.1	0.1	0	0	0	0	0	0	0	0.000000000
1504623350.151403903	0.00306796	0.716369	-0.814544	0.00153398	0.819146	-1.61068	0.0153398	0	0	0	0.107442	0	0	0	0	0	0	0	0	0	0	0.000000000	-0.00490918	0.788798	-0.788798	-0.0187858	0.828698	-1.5708	0	0.1	0.1	0.1	0.17746	0.1	0.1	0.1	0	0	0	0	0	0	0	0.000000000
1504623350.171452045	0.00306796	0.716369	-0.814544	-0.00306796	0.819146	-1.61221	0.0153398	0	0	0	0.155195	0	0	0	0	0	0	0	0	0	0	0.000000000	-0.00662568	0.788798	-0.788798	-0.0253542	0.828698	-1.5708	0	0.1	0.1	0.1	0.216759	0.1	0.1	0.1	0	0	0	0	0	0	0	0.000000000
1504623350.192426919	0.00306796	0.716369	-0.814544	-0.0076699	0.819146	-1.61068	0.0153398	0	0	0	0.202947	0	0	0	0	0	0	0	0	0	0	0.000000000	-0.0086757	0.788798	-0.788798	-0.0331989	0.828698	-1.5708	0	0.1	0.1	0.1	0.258876	0.1	0.1	0.1	0	0	0	0	0	0	0	0.000000000
1504623350.211194992	0.00306796	0.716369	-0.814544	-0.0122718	0.819146	-1.61068	0.0153398	0	0	0	0.155195	0	0	0	0	0	0	0	0	0	0	0.000000000	-0.0086757	0.788798	-0.788798	-0.0331989	0.828698	-1.5708	0	0.1	0.1	0.1	0.258876	0.1	0.1	0.1	0	0	0	0	0	0	0	0.000000000
1504623350.231216907	0.00153398	0.716369	-0.814544	-0.0199418	0.819146	-1.61068	0.0138058	0	0	0	0.298451	0	0	0	0	0	0	0	0	0	0	0.000000000	-0.0110793	0.788798	-0.788798	-0.0423967	0.828698	-1.5708	0	0.1	0.1	0.1	0.303525	0.1	0.1	0.1	0	0	0	0	0	0	0	0.000000000
1504623350.252392053	0.00153398	0.716369	-0.814544	-0.0199418	0.819146	-1.61068	0.0138058	0	0	0	0.298451	0	0	0	0	0	0	0	0	0	0	0.000000000	-0.0138543	0.788798	-0.788798	-0.0530158	0.828698	-1.5708	0	0.1	0.1	0.1	0.350432	0.1	0.1	0.1	0	0	0	0	0	0	0	0.000000000
1504623350.271435022	-0.00306796	0.716369	-0.814544	-0.0260777	0.819146	-1.61221	0.0153398	0.107442	0	0	0.250699	0	0	0	0	0	0	0	0	0	0	0.000000000	-0.0138543	0.788798	-0.788798	-0.0530158	0.828698	-1.5708	0	0.1	0.1	0.1	0.350432	0.1	0.1	0.1	0	0	0	0	0	0	0	0.000000000
1504623350.292210102	-0.0076699	0.716369	-0.814544	-0.0337476	0.819146	-1.61221	0.0153398	0.155195	0	0	0.298451	0	0	0	0	0	0	0	0	0	0	0.000000000	-0.0170166	0.788798	-0.788798	-0.0651166	0.828698	-1.5708	0	0.104354	0.1	0.1	0.399325	0.1	0.1	0.1	0	0	0	0	0	0	0	0.000000000
1504623350.312155008	-0.0076699	0.716369	-0.814544	-0.0337476	0.819146	-1.61221	0.0153398	0.155195	0	0	0.298451	0	0	0	0	0	0	0	0	0	0	0.000000000	-0.0205796	0.788798	-0.788798	-0.0787512	0.828698	-1.5708	0	0.117581	0.1	0.1	0.449943	0.1	0.1	0.1	0	0	0	0	0	0	0	0.000000000
1504623350.331151008	-0.0107379	0.716369	-0.814544	-0.0429515	0.819146	-1.61221	0.0138058	0.107442	0	0	0.298451	0	0	0	0	0	0	0	0	0	0	0.000000000	-0.0205796	0.788798	-0.788798	-0.0787512	0.828698	-1.5708	0	0.117581	0.1	0.1	0.449943	0.1	0.1	0.1	0	0	0	0	0	0	0	0.000000000
1504623350.351412057	-0.0122718	0.716369	-0.814544	-0.0521553	0.819146	-1.61221	0.0153398	0	0	0	0.346204	0	0	0	0	0	0	0	0	0	0	0.000000000	-0.0245552	0.788798	-0.788798	-0.0939642	0.828698	-1.5708	0	0.131193	0.1	0.1	0.502029	0.1	0.1	0.1	0	0	0	0	0	0	0	0.000000000
1504623350.371388912	-0.0122718	0.716369	-0.814544	-0.0598253	0.819146	-1.61068	0.0153398	0	0	0	0.346204	0	0	0	0	0	0	0	0	0	0	0.000000000	-0.0245552	0.788798	-0.788798	-0.0939642	0.828698	-1.5708	0	0.131193	0.1	0.1	0.502029	0.1	0.1	0.1	0	0	0	0	0	0	0	0.000000000
1504623350.394526958	-0.0138058	0.716369	-0.814544	-0.0705631	0.817612	-1.61068	0.0153398	0	0	0	0.393956	0	0	0	0	0	0	0	0	0	0	0.000000000	-0.0289528	0.788798	-0.788798	-0.110793	0.828698	-1.5708	0	0.145123	0.1	0.1	0.555337	0.1	0.1	0.1	0	0	0	0	0	0	0	0.000000000
1504623350.411389112	-0.0138058	0.716369	-0.814544	-0.0705631	0.817612	-1.61068	0.0153398	0	0	0	0.393956	0	0	0	0	0	0	0	0	0	0	0.000000000	-0.0337804	0.788798	-0.788798	-0.129266	0.828698	-1.5708	0	0.15931	0.1	0.1	0.609624	0.1	0.1	0.1	0	0	0	0	0	0	0	0.000000000
1504623350.432625055	-0.0184078	0.714835	-0.814544	-0.082835	0.819146	-1.61068	0.0153398	0.155195	0	0	0.48946	0	0	0	0	0	0	0	0	0	0	0.000000000	-0.0390438	0.788798	-0.788798	-0.149407	0.828698	-1.5708	0	0.173692	0.1	0.1	0.664658	0.1	0.1	0.1	0	0	0	0	0	0	0	0.000000000
1504623350.451486110	-0.0230097	0.716369	-0.814544	-0.0966408	0.819146	-1.61068	0.0153398	0.202947	0	0	0.48946	0	0	0	0	0	0	0	0	0	0	0.000000000	-0.0390438	0.788798	-0.788798	-0.149407	0.828698	-1.5708	0	0.173692	0.1	0.1	0.664658	0.1	0.1	0.1	0	0	0	0	0	0	0	0.000000000
1504623350.471213102	-0.0291456	0.716369	-0.814544	-0.111981	0.819146	-1.61068	0.0153398	0.155195	0	0	0.537212	0	0	0	0	0	0	0	0	0	0	0.000000000	-0.0447471	0.788798	-0.788798	-0.171232	0.828698	-1.5708	0	0.188209	0.1	0.1	0.720211	0.1	0.1	0.1	0	0	0	0	0	0	0	0.000000000
1504623350.493689060	-0.0337476	0.716369	-0.814544	-0.130388	0.819146	-1.61068	0.0153398	0.202947	0	0	0.632717	0	0	0	0	0	0	0	0	0	0	0.000000000	-0.0508927	0.788798	-0.788798	-0.194749	0.828698	-1.5708	0	0.202805	0.1	0.1	0.776065	0.1	0.1	0.1	0	0	0	0	0	0	0	0.000000000
1504623350.512826919	-0.0383495	0.716369	-0.814544	-0.130388	0.819146	-1.61068	0.0153398	0.202947	0	0	0.632717	0	0	0	0	0	0	0	0	0	0	0.000000000	-0.0508927	0.788798	-0.788798	-0.194749	0.828698	-1.5708	0	0.202805	0.1	0.1	0.776065	0.1	0.1	0.1	0	0	0	0	0	0	0	0.000000000
1504623350.531408071	-0.0383495	0.716369	-0.814544	-0.148796	0.819146	-1.61068	0.0153398	0.202947	0	0	0.584965	0	0	0	0	0	0	0	0	0	0	0.000000000	-0.0574813	0.788798	-0.788798	-0.219961	0.828698	-1.5708	0	0.217424	0.1	0.1	0.832006	0.1	0.1	0.1	0	0	0	0	0	0	0	0.000000000
1504623350.552488088	-0.0414175	0.716369	-0.814544	-0.164136	0.819146	-1.61068	0.0153398	0.155195	0	0	0.632717	0	0	0	0	0	0	0	0	0	0	0.000000000	-0.064512	0.788798	-0.788798	-0.246865	0.828698	-1.5708	0	0.232012	0.1	0.1	0.887832	0.1	0.1	0.1	0	0	0	0	0	0	0	0.000000000
1504623350.571374893	-0.0460194	0.716369	-0.814544	-0.18101	0.819146	-1.61221	0.0153398	0.155195	0	0	0.728221	0	0	0	0	0	0	0	0	0	0	0.000000000	-0.064512	0.788798	-0.788798	-0.246865	0.828698	-1.5708	0	0.232012	0.1	0.1	0.887832	0.1	0.1	0.1	0	0	0	0	0	0	0	0.000000000
1504623350.593518018	-0.0460194	0.716369	-0.814544	-0.18101	0.819146	-1.61221	0.0153398	0.155195	0	0	0.728221	0	0	0	0	0	0	0	0	0	0	0.000000000	-0.0719822	0.788798	-0.788798	-0.275451	0.828698	-1.5708	0	0.246518	0.1	0.1	0.94334	0.1	0.1	0.1	0	0	0	0	0	0	0	0.000000000
1504623350.611839056	-0.0521553	0.716369	-0.814544	-0.204019	0.819146	-1.61068	0.0153398	0.202947	0	0	0.823726	0	0	0	0	0	0	0	0	0	0	0.000000000	-0.0719822	0.788798	-0.788798	-0.275451	0.828698	-1.5708	0	0.246518	0.1	0.1	0.94334	0.1	0.1	0.1	0	0	0	0	0	0	0	0.000000000
1504623350.631299018	-0.0582913	0.716369	-0.814544	-0.230097	0.819146	-1.61221	0.0153398	0.202947	0	0	0.775973	0	0	0	0	0	0	0	0	0	0	0.000000000	-0.0798881	0.788798	-0.788798	-0.305704	0.828698	-1.5708	0	0.260893	0.1	0.1	0.998347	0.1	0.1	0.1	0	0	0	0	0	0	0	0.000000000
1504623350.651175975	-0.0644272	0.714835	-0.814544	-0.251573	0.819146	-1.61068	0.0153398	0.250699	0	0	0.775973	0	0	0	0	0	0	0	0	0	0	0.000000000	-0.088224	0.788798	-0.788798	-0.337603	0.828698	-1.5708	0	0.275086	0.1	0.1	1.05266	0.1	0.1	0.1	0	0	0	0	0	0	0	0.000000000
1504623350.674354076	-0.0720971	0.716369	-0.814544	-0.273049	0.819146	-1.61221	0.0138058	0.250699	0	0	0.871478	0	0	0	0	0	0	0	0	0	0	0.000000000	-0.088224	0.788798	-0.788798	-0.337603	0.828698	-1.5708	0	0.275086	0.1	0.1	1.05266	0.1	0.1	0.1	0	0	0	0	0	0	0	0.000000000
1504623350.692322969	-0.0720971	0.716369	-0.814544	-0.273049	0.819146	-1.61221	0.0138058	0.250699	0	0	0.871478	0	0	0	0	0	0	0	0	0	0	0.000000000	-0.0969833	0.788798	-0.788798	-0.371122	0.828698	-1.5708	0	0.289055	0.1	0.1	1.10611	0.1	0.1	0.1	0	0	0	0	0	0	0	0.000000000
1504623350.711102962	-0.079767	0.716369	-0.814544	-0.297592	0.819146	-1.61221	0.0153398	0.250699	0	0	0.91923	0	0	0	0	0	0	0	0	0	0	0.000000000	-0.106158	0.788798	-0.788798	-0.406229	0.828698	-1.5708	0	0.302752	0.1	0.1	1.15853	0.1	0.1	0.1	0	0	0	0	0	0	0	0.000000000
1504623350.732172012	-0.0859029	0.716369	-0.814544	-0.325204	0.819146	-1.61068	0.0138058	0.250699	0	0	0.91923	0	0	0	0	0	0	0	0	0	0	0.000000000	-0.106158	0.788798	-0.788798	-0.406229	0.828698	-1.5708	0	0.302752	0.1	0.1	1.15853	0.1	0.1	0.1	0	0	0	0	0	0	0	0.000000000
1504623350.751363039	-0.0905049	0.716369	-0.814544	-0.352816	0.819146	-1.61221	0.0153398	0.202947	0	0	1.01473	0	0	0	0	0	0	0	0	0	0	0.000000000	-0.115738	0.788798	-0.788798	-0.442888	0.828698	-1.5708	0	0.316139	0.1	0.1	1.20975	0.1	0.1	0.1	0	0	0	0	0	0	0	0.000000000
1504623350.772488117	-0.0966408	0.716369	-0.814544	-0.378893	0.819146	-1.61068	0.0153398	0.202947	0	0	1.06249	0	0	0	0	0	0	0	0	0	0	0.000000000	-0.125712	0.788798	-0.788798	-0.481058	0.828698	-1.5708	0	0.32917	0.1	0.1	1.25962	0.1	0.1	0.1	0	0	0	0	0	0	0	0.000000000
1504623350.791299104	-0.104311	0.716369	-0.814544	-0.411107	0.819146	-1.61221	0.0153398	0.250699	0	0	1.01473	0	0	0	0	0	0	0	0	0	0	0.000000000	-0.125712	0.788798	-0.788798	-0.481058	0.828698	-1.5708	0	0.32917	0.1	0.1	1.25962	0.1	0.1	0.1	0	0	0	0	0	0	0	0.000000000
1504623350.821429014	-0.111981	0.717903	-0.814544	-0.441786	0.819146	-1.61221	0.0153398	0.298451	0	0	1.15799	0	0	0	0	0	0	0	0	0	0	0.000000000	-0.13607	0.788798	-0.788798	-0.520694	0.828698	-1.5708	0	0.341813	0.1	0.1	1.308	0.1	0.1	0.1	0	0	0	0	0	0	0	0.000000000
1504623350.831137895	-0.111981	0.717903	-0.814544	-0.441786	0.819146	-1.61221	0.0153398	0.298451	0	0	1.15799	0	0	0	0	0	0	0	0	0	0	0.000000000	-0.146798	0.788798	-0.788798	-0.561747	0.828698	-1.5708	0	0.354025	0.1	0.1	1.35473	0.1	0.1	0.1	0	0	0	0	0	0	0	0.000000000
1504623350.854276895	-0.122718	0.717903	-0.814544	-0.472466	0.819146	-1.61068	0.0153398	0.346204	0	0	1.20574	0	0	0	0	0	0	0	0	0	0	0.000000000	-0.146798	0.788798	-0.788798	-0.561747	0.828698	-1.5708	0	0.354025	0.1	0.1	1.35473	0.1	0.1	0.1	0	0	0	0	0	0	0	0.000000000
1504623350.873244047	-0.122718	0.717903	-0.814544	-0.472466	0.819146	-1.61068	0.0153398	0.346204	0	0	1.20574	0	0	0	0	0	0	0	0	0	0	0.000000000	-0.157882	0.788798	-0.788798	-0.604162	0.828698	-1.5708	0	0.365776	0.1	0.1	1.3997	0.1	0.1	0.1	0	0	0	0	0	0	0	0.000000000
1504623350.891064882	-0.133456	0.717903	-0.814544	-0.50468	0.819146	-1.61221	0.0153398	0.346204	0	0	1.2535	0	0	0	0	0	0	0	0	0	0	0.000000000	-0.169308	0.788798	-0.788798	-0.647882	0.828698	-1.5708	0	0.37703	0.1	0.1	1.44277	0.1	0.1	0.1	0	0	0	0	0	0	0	0.000000000
1504623350.912503957	-0.147262	0.717903	-0.814544	-0.50468	0.819146	-1.61221	0.0153398	0.393956	0	0	1.2535	0	0	0	0	0	0	0	0	0	0	0.000000000	-0.169308	0.788798	-0.788798	-0.647882	0.828698	-1.5708	0	0.37703	0.1	0.1	1.44277	0.1	0.1	0.1	0	0	0	0	0	0	0	0.000000000
1504623350.931130886	-0.147262	0.717903	-0.814544	-0.553767	0.819146	-1.61221	0.0153398	0.393956	0	0	1.2535	0	0	0	0	0	0	0	0	0	0	0.000000000	-0.181058	0.788798	-0.788798	-0.692846	0.828698	-1.5708	0	0.387759	0.1	0.1	1.48382	0.1	0.1	0.1	0	0	0	0	0	0	0	0.000000000
1504623350.951141119	-0.156466	0.717903	-0.814544	-0.596719	0.819146	-1.61221	0.0138058	0.346204	0	0	1.20574	0	0	0	0	0	0	0	0	0	0	0.000000000	-0.193116	0.788798	-0.788798	-0.73899	0.828698	-1.5708	0	0.397929	0.1	0.1	1.52274	0.1	0.1	0.1	0	0	0	0	0	0	0	0.000000000
1504623350.971666097	-0.164136	0.719437	-0.814544	-0.630466	0.819146	-1.61221	0.0138058	0.298451	0	0	1.349	0	0	0	0	0	0	0	0	0	0	0.000000000	-0.193116	0.788798	-0.788798	-0.73899	0.828698	-1.5708	0	0.397929	0.1	0.1	1.52274	0.1	0.1	0.1	0	0	0	0	0	0	0	0.000000000
1504623350.993148088	-0.168738	0.720971	-0.814544	-0.66268	0.819146	-1.61068	0.0153398	0.250699	0	0	1.349	0	0	0	0	0	0	0	0	0	0	0.000000000	-0.205465	0.788798	-0.788798	-0.786246	0.828698	-1.5708	0	0.407519	0.1	0.1	1.55944	0.1	0.1	0.1	0	0	0	0	0	0	0	0.000000000
1504623351.012171030	-0.179476	0.725573	-0.814544	-0.701029	0.819146	-1.61221	0.0138058	0.346204	0.143257	0	1.349	0	0	0	0	0	0	0	0	0	0	0.000000000	-0.218087	0.788798	-0.788798	-0.834543	0.828698	-1.5708	0	0.4165	0.1	0.1	1.5938	0.1	0.1	0.1	0	0	0	0	0	0	0	0.000000000
1504623351.032624959	-0.179476	0.725573	-0.814544	-0.701029	0.819146	-1.61221	0.0138058	0.346204	0.143257	0	1.349	0	0	0	0	0	0	0	0	0	0	0.000000000	-0.218087	0.788798	-0.788798	-0.834543	0.828698	-1.5708	0	0.4165	0.1	0.1	1.5938	0.1	0.1	0.1	0	0	0	0	0	0	0	0.000000000
1504623351.051400899	-0.193282	0.728641	-0.814544	-0.736311	0.819146	-1.61068	0.0153398	0.441708	0.0955044	0	1.39675	0	0	0	0	0	0	0	0	0	0	0.000000000	-0.230961	0.788798	-0.788798	-0.883808	0.828698	-1.5708	0	0.424849	0.1	0.1	1.62575	0.1	0.1	0.1	0	0	0	0	0	0	0	0.000000000
1504623351.071346998	-0.200951	0.728641	-0.814544	-0.776194	0.819146	-1.61221	0.0153398	0.346204	0	0	1.30125	0	0	0	0	0	0	0	0	0	0	0.000000000	-0.244068	0.788798	-0.788798	-0.933965	0.828698	-1.5708	0	0.432542	0.1	0.1	1.65519	0.1	0.1	0.1	0	0	0	0	0	0	0	0.000000000
1504623351.091093063	-0.217825	0.728641	-0.814544	-0.83602	0.819146	-1.61221	0.0153398	0.441708	0	0	1.49226	0	0	0	0	0	0	0	0	0	0	0.000000000	-0.244068	0.788798	-0.788798	-0.933965	0.828698	-1.5708	0	0.432542	0.1	0.1	1.65519	0.1	0.1	0.1	0	0	0	0	0	0	0	0.000000000
1504623351.111074924	-0.225495	0.728641	-0.814544	-0.862097	0.819146	-1.61221	0.0153398	0.48946	0	0	1.58776	0	0	0	0	0	0	0	0	0	0	0.000000000	-0.257388	0.788798	-0.788798	-0.984937	0.828698	-1.5708	0	0.439564	0.1	0.1	1.68206	0.1	0.1	0.1	0	0	0	0	0	0	0	0.000000000
1504623351.131195068	-0.236233	0.728641	-0.814544	-0.906583	0.819146	-1.61221	0.0153398	0.393956	0	0	1.63551	0	0	0	0	0	0	0	0	0	0	0.000000000	-0.2709	0.788798	-0.788798	-1.03664	0.828698	-1.5708	0	0.445896	0.1	0.1	1.70629	0.1	0.1	0.1	0	0	0	0	0	0	0	0.000000000
1504623351.152798891	-0.236233	0.728641	-0.814544	-0.906583	0.819146	-1.61221	0.0153398	0.393956	0	0	1.63551	0	0	0	0	0	0	0	0	0	0	0.000000000	-0.2709	0.788798	-0.788798	-1.03664	0.828698	-1.5708	0	0.445896	0.1	0.1	1.70629	0.1	0.1	0.1	0	0	0	0	0	0	0	0.000000000
1504623351.172622919	-0.251573	0.730175	-0.814544	-0.951068	0.82068	-1.61221	0.0138058	0.393956	0	0	1.63551	0	0	0	0	0	0	0	0	0	0	0.000000000	-0.284583	0.788798	-0.788798	-1.089	0.828698	-1.5708	0	0.451518	0.1	0.1	1.72781	0.1	0.1	0.1	0	0	0	0	0	0	0	0.000000000
1504623351.192811965	-0.263845	0.731709	-0.814544	-0.951068	0.82068	-1.61221	0.0138058	0.441708	0	0	1.63551	0	0	0	0	0	0	0	0	0	0	0.000000000	-0.298414	0.788798	-0.788798	-1.14193	0.828698	-1.5708	0	0.456418	0.1	0.1	1.74656	0.1	0.1	0.1	0	0	0	0	0	0	0	0.000000000
1504623351.211177110	-0.263845	0.731709	-0.814544	-0.995554	0.819146	-1.61068	0.0153398	0.441708	0	0	1.54001	0	0	0	0	0	0	0	0	0	0	0.000000000	-0.298414	0.788798	-0.788798	-1.14193	0.828698	-1.5708	0	0.456418	0.1	0.1	1.74656	0.1	0.1	0.1	0	0	0	0	0	0	0	0.000000000
1504623351.231159925	-0.274583	0.731709	-0.814544	-1.04924	0.82068	-1.61221	0.0153398	0.393956	0	0	1.54001	0	0	0	0	0	0	0	0	0	0	0.000000000	-0.312371	0.788798	-0.788798	-1.19534	0.828698	-1.5708	0	0.460589	0.1	0.1	1.76251	0.1	0.1	0.1	0	0	0	0	0	0	0	0.000000000
1504623351.251125097	-0.28532	0.733243	-0.814544	-1.08913	0.82068	-1.61221	0.0153398	0.393956	0	0	1.58776	0	0	0	0	0	0	0	0	0	0	0.000000000	-0.326432	0.788798	-0.788798	-1.24914	0.828698	-1.5708	0	0.464014	0.1	0.1	1.77562	0.1	0.1	0.1	0	0	0	0	0	0	0	0.000000000
1504623351.271461009	-0.28532	0.733243	-0.814544	-1.08913	0.82068	-1.61221	0.0153398	0.393956	0	0	1.58776	0	0	0	0	0	0	0	0	0	0	0.000000000	-0.326432	0.788798	-0.788798	-1.24914	0.828698	-1.5708	0	0.464014	0.1	0.1	1.77562	0.1	0.1	0.1	0	0	0	0	0	0	0	0.000000000
1504623351.293138980	-0.311398	0.737845	-0.814544	-1.16736	0.819146	-1.61068	0.0153398	0.441708	0.0955044	0	1.4445	0	0	0	0	0	0	0	0	0	0	0.000000000	-0.340574	0.788798	-0.788798	-1.30326	0.828698	-1.5708	0	0.466686	0.1	0.1	1.78585	0.1	0.1	0.1	0	0	0	0	0	0	0	0.000000000
1504623351.311525106	-0.311398	0.737845	-0.814544	-1.16736	0.819146	-1.61068	0.0153398	0.441708	0.0955044	0	1.4445	0	0	0	0	0	0	0	0	0	0	0.000000000	-0.354774	0.788798	-0.788798	-1.3576	0.828698	-1.5708	0	0.468598	0.1	0.1	1.79316	0.1	0.1	0.1	0	0	0	0	0	0	0	0.000000000
1504623351.331353902	-0.322136	0.739379	-0.814544	-1.21338	0.819146	-1.61221	0.0153398	0.441708	0.0955044	0	1.58776	0	0	0	0	0	0	0	0	0	0	0.000000000	-0.354774	0.788798	-0.788798	-1.3576	0.828698	-1.5708	0	0.468598	0.1	0.1	1.79316	0.1	0.1	0.1	0	0	0	0	0	0	0	0.000000000
1504623351.353313922	-0.334408	0.740913	-0.814544	-1.2686	0.82068	-1.61221	0.0153398	0.441708	0	0	1.63551	0	0	0	0	0	0	0	0	0	0	0.000000000	-0.369009	0.788798	-0.788798	-1.41207	0.828698	-1.5708	0	0.46975	0.1	0.1	1.79757	0.1	0.1	0.1	0	0	0	0	0	0	0	0.000000000
1504623351.371942996	-0.349748	0.740913	-0.814544	-1.30695	0.82068	-1.61221	0.0153398	0.48946	0	0	1.68327	0	0	0	0	0	0	0	0	0	0	0.000000000	-0.383255	0.788798	-0.788798	-1.46659	0.828698	-1.5708	0	0.470133	0.1	0.1	1.79904	0.1	0.1	0.1	0	0	0	0	0	0	0	0.000000000
1504623351.392306089	-0.349748	0.740913	-0.814544	-1.30695	0.82068	-1.61221	0.0138058	0.48946	0	0	1.68327	0	0	0	0	0	0	0	0	0	0	0.000000000	-0.383255	0.788798	-0.788798	-1.46659	0.828698	-1.5708	0	0.470133	0.1	0.1	1.79904	0.1	0.1	0.1	0	0	0	0	0	0	0	0.000000000
1504623351.411392927	-0.358952	0.740913	-0.814544	-1.35757	0.82068	-1.61221	0.0138058	0.393956	0	0	1.4445	0	0	0	0	0	0	0	0	0	0	0.000000000	-0.39749	0.788798	-0.788798	-1.52106	0.828698	-1.5708	0	0.46975	0.1	0.1	1.79757	0.1	0.1	0.1	0	0	0	0	0	0	0	0.000000000
1504623351.431550025	-0.369689	0.742447	-0.814544	-1.39746	0.82068	-1.61068	0.0153398	0.346204	0	0	1.349	0	0	0	0	0	0	0	0	0	0	0.000000000	-0.39749	0.788798	-0.788798	-1.52106	0.828698	-1.5708	0	0.46975	0.1	0.1	1.79757	0.1	0.1	0.1	0	0	0	0	0	0	0	0.000000000
1504623351.456281900	-0.378893	0.742447	-0.814544	-1.44194	0.82068	-1.61221	0.0153398	0.298451	0	0	1.73102	0	0	0	0	0	0	0	0	0	0	0.000000000	-0.41169	0.788798	-0.788798	-1.5754	0.828698	-1.5708	0	0.468598	0.1	0.1	1.79316	0.1	0.1	0.1	0	0	0	0	0	0	0	0.000000000
1504623351.471164941	-0.378893	0.742447	-0.814544	-1.44194	0.82068	-1.61221	0.0153398	0.298451	0	0	1.73102	0	0	0	0	0	0	0	0	0	0	0.000000000	-0.425832	0.788798	-0.788798	-1.62951	0.828698	-1.5708	0	0.466686	0.1	0.1	1.78585	0.1	0.1	0.1	0	0	0	0	0	0	0	0.000000000
1504623351.491164922	-0.394233	0.745515	-0.816078	-1.4941	0.82068	-1.61068	0.0153398	0.48946	0	0	1.82652	0	0	0	0	0	0	0	0	0	0	0.000000000	-0.425832	0.788798	-0.788798	-1.62951	0.828698	-1.5708	0	0.466686	0.1	0.1	1.78585	0.1	0.1	0.1	0	0	0	0	0	0	0	0.000000000
1504623351.511188030	-0.408039	0.747049	-0.814544	-1.54625	0.819146	-1.61221	0.0138058	0.537212	0	0	1.73102	0	0	0	0	0	0	0	0	0	0	0.000000000	-0.439893	0.788798	-0.788798	-1.68332	0.828698	-1.5708	0	0.464014	0.1	0.1	1.77562	0.1	0.1	0.1	0	0	0	0	0	0	0	0.000000000
1504623351.531243085	-0.417243	0.750117	-0.816078	-1.5892	0.819146	-1.61068	0.0138058	0.441708	0.0955044	0	1.82652	0	0	0	0	0	0	0	0	0	0	0.000000000	-0.45385	0.788798	-0.788798	-1.73673	0.828698	-1.5708	0	0.460589	0.1	0.1	1.76252	0.1	0.1	0.1	0	0	0	0	0	0	0	0.000000000
1504623351.553153038	-0.427981	0.751651	-0.816078	-1.62755	0.819146	-1.61068	0.0138058	0.393956	0	0	1.68327	0	0	0	0	0	0	0	0	0	0	0.000000000	-0.467681	0.788798	-0.788798	-1.78965	0.828698	-1.5708	0	0.456418	0.1	0.1	1.74656	0.1	0.1	0.1	0	0	0	0	0	0	0	0.000000000
1504623351.571233987	-0.427981	0.751651	-0.816078	-1.62755	0.819146	-1.61068	0.0138058	0.393956	0	0	1.68327	0	0	0	0	0	0	0	0	0	0	0.000000000	-0.467681	0.788798	-0.788798	-1.78965	0.828698	-1.5708	0	0.456418	0.1	0.1	1.74656	0.1	0.1	0.1	0	0	0	0	0	0	0	0.000000000
1504623351.591901063	-0.44332	0.753185	-0.816078	-1.68891	0.819146	-1.61221	0.0153398	0.393956	0	0	1.54001	0	0	0	0	0	0	0	0	0	0	0.000000000	-0.481363	0.788798	-0.788798	-1.84201	0.828698	-1.5708	0	0.451518	0.1	0.1	1.7278	0.1	0.1	0.1	0	0	0	0	0	0	0	0.000000000
1504623351.611181974	-0.454058	0.753185	-0.816078	-1.73033	0.819146	-1.61068	0.0153398	0.393956	0	0	1.58776	0	0	0	0	0	0	0	0	0	0	0.000000000	-0.481363	0.788798	-0.788798	-1.84201	0.828698	-1.5708	0	0.451518	0.1	0.1	1.7278	0.1	0.1	0.1	0	0	0	0	0	0	0	0.000000000
1504623351.631107091	-0.454058	0.753185	-0.816078	-1.73033	0.819146	-1.61068	0.0153398	0.393956	0	0	1.58776	0	0	0	0	0	0	0	0	0	0	0.000000000	-0.494875	0.788798	-0.788798	-1.89372	0.828698	-1.5708	0	0.445895	0.1	0.1	1.70629	0.1	0.1	0.1	0	0	0	0	0	0	0	0.000000000
1504623351.651072025	-0.464796	0.753185	-0.816078	-1.77635	0.819146	-1.61068	0.0138058	0.441708	0	0	1.63551	0	0	0	0	0	0	0	0	0	0	0.000000000	-0.508195	0.788798	-0.788798	-1.94469	0.828698	-1.5708	0	0.439566	0.1	0.1	1.68207	0.1	0.1	0.1	0	0	0	0	0	0	0	0.000000000
1504623351.671500921	-0.480136	0.756253	-0.816078	-1.81317	0.819146	-1.61068	0.0138058	0.48946	0.0955044	0	1.54001	0	0	0	0	0	0	0	0	0	0	0.000000000	-0.508195	0.788798	-0.788798	-1.94469	0.828698	-1.5708	0	0.439566	0.1	0.1	1.68207	0.1	0.1	0.1	0	0	0	0	0	0	0	0.000000000
1504623351.691198110	-0.48934	0.75932	-0.816078	-1.86072	0.819146	-1.61068	0.0138058	0.346204	0.143257	0	1.58776	0	0	0	0	0	0	0	0	0	0	0.000000000	-0.521303	0.788798	-0.788798	-1.99485	0.828698	-1.5708	0	0.432542	0.1	0.1	1.65519	0.1	0.1	0.1	0	0	0	0	0	0	0	0.000000000
1504623351.711144924	-0.49701	0.75932	-0.816078	-1.89907	0.817612	-1.61068	0.0153398	0.346204	0	0	1.49226	0	0	0	0	0	0	0	0	0	0	0.000000000	-0.534177	0.788798	-0.788798	-2.04411	0.828698	-1.5708	0	0.424849	0.1	0.1	1.62575	0.1	0.1	0.1	0	0	0	0	0	0	0	0.000000000
1504623351.731419086	-0.50468	0.760854	-0.816078	-1.93895	0.819146	-1.61068	0.0153398	0.346204	0	0	1.54001	0	0	0	0	0	0	0	0	0	0	0.000000000	-0.534177	0.788798	-0.788798	-2.04411	0.828698	-1.5708	0	0.424849	0.1	0.1	1.62575	0.1	0.1	0.1	0	0	0	0	0	0	0	0.000000000
1504623351.751097917	-0.515418	0.762388	-0.816078	-1.97423	0.817612	-1.61068	0.0138058	0.393956	0	0	1.49226	0	0	0	0	0	0	0	0	0	0	0.000000000	-0.546798	0.788798	-0.788798	-2.09241	0.828698	-1.5708	0	0.416499	0.1	0.1	1.5938	0.1	0.1	0.1	0	0	0	0	0	0	0	0.000000000
1504623351.771055936	-0.523087	0.762388	-0.816078	-2.00338	0.817612	-1.61068	0.0153398	0.441708	0	0	1.54001	0	0	0	0	0	0	0	0	0	0	0.000000000	-0.559147	0.788798	-0.788798	-2.13966	0.828698	-1.5708	0	0.40752	0.1	0.1	1.55944	0.1	0.1	0.1	0	0	0	0	0	0	0	0.000000000
1504623351.791129112	-0.535359	0.762388	-0.816078	-2.04173	0.817612	-1.60915	0.0153398	0.441708	0	0	1.54001	0	0	0	0	0	0	0	0	0	0	0.000000000	-0.559147	0.788798	-0.788798	-2.13966	0.828698	-1.5708	0	0.40752	0.1	0.1	1.55944	0.1	0.1	0.1	0	0	0	0	0	0	0	0.000000000
1504623351.811083078	-0.546097	0.762388	-0.816078	-2.08008	0.816078	-1.60915	0.0138058	0.441708	0	0	1.4445	0	0	0	0	0	0	0	0	0	0	0.000000000	-0.571206	0.788798	-0.788798	-2.18581	0.828698	-1.5708	0	0.397929	0.1	0.1	1.52274	0.1	0.1	0.1	0	0	0	0	0	0	0	0.000000000
1504623351.831085920	-0.555301	0.762388	-0.816078	-2.11996	0.816078	-1.60915	0.0153398	0.393956	0	0	1.4445	0	0	0	0	0	0	0	0	0	0	0.000000000	-0.582956	0.788798	-0.788798	-2.23077	0.828698	-1.5708	0	0.387758	0.1	0.1	1.48382	0.1	0.1	0.1	0	0	0	0	0	0	0	0.000000000
1504623351.851023912	-0.555301	0.762388	-0.816078	-2.11996	0.816078	-1.60915	0.0153398	0.393956	0	0	1.4445	0	0	0	0	0	0	0	0	0	0	0.000000000	-0.582956	0.788798	-0.788798	-2.23077	0.828698	-1.5708	0	0.387758	0.1	0.1	1.48382	0.1	0.1	0.1	0	0	0	0	0	0	0	0.000000000
1504623351.871112108	-0.564505	0.762388	-0.816078	-2.15831	0.816078	-1.60761	0.0153398	0.346204	0	0	1.39675	0	0	0	0	0	0	0	0	0	0	0.000000000	-0.594381	0.788798	-0.788798	-2.27449	0.828698	-1.5708	0	0.377032	0.1	0.1	1.44277	0.1	0.1	0.1	0	0	0	0	0	0	0	0.000000000
1504623351.891598939	-0.572175	0.763922	-0.816078	-2.19819	0.816078	-1.60608	0.0153398	0.298451	0	0	1.39675	0	0	0	0	0	0	0	0	0	0	0.000000000	-0.605465	0.788798	-0.788798	-2.31691	0.828698	-1.5708	0	0.365775	0.1	0.1	1.39969	0.1	0.1	0.1	0	0	0	0	0	0	0	0.000000000
1504623351.911077022	-0.582913	0.763922	-0.816078	-2.23501	0.814544	-1.60608	0.0153398	0.393956	0	0	1.349	0	0	0	0	0	0	0	0	0	0	0.000000000	-0.605465	0.788798	-0.788798	-2.31691	0.828698	-1.5708	0	0.365775	0.1	0.1	1.39969	0.1	0.1	0.1	0	0	0	0	0	0	0	0.000000000
1504623351.931088924	-0.592117	0.763922	-0.817612	-2.27029	0.814544	-1.60608	0.0138058	0.393956	0	0	1.30125	0	0	0	0	0	0	0	0	0	0	0.000000000	-0.616193	0.788798	-0.788798	-2.35796	0.828698	-1.5708	0	0.354026	0.1	0.1	1.35474	0.1	0.1	0.1	0	0	0	0	0	0	0	0.000000000
1504623351.951349973	-0.592117	0.763922	-0.817612	-2.27029	0.814544	-1.60608	0.0138058	0.393956	0	0	1.30125	0	0	0	0	0	0	0	0	0	0	0.000000000	-0.626551	0.788798	-0.788798	-2.3976	0.828698	-1.5708	0	0.341812	0.1	0.1	1.308	0.1	0.1	0.1	0	0	0	0	0	0	0	0.000000000
1504623351.971035003	-0.602854	0.765456	-0.816078	-2.30711	0.814544	-1.60608	0.0153398	0.393956	0	0	1.349	0	0	0	0	0	0	0	0	0	0	0.000000000	-0.626551	0.788798	-0.788798	-2.3976	0.828698	-1.5708	0	0.341812	0.1	0.1	1.308	0.1	0.1	0.1	0	0	0	0	0	0	0	0.000000000
1504623351.992006063	-0.613592	0.763922	-0.817612	-2.34085	0.814544	-1.60454	0.0153398	0.393956	0	0	1.2535	0	0	0	0	0	0	0	0	0	0	0.000000000	-0.636526	0.788798	-0.788798	-2.43577	0.828698	-1.5708	0	0.329172	0.1	0.1	1.25962	0.1	0.1	0.1	0	0	0	0	0	0	0	0.000000000
1504623352.011110067	-0.619728	0.763922	-0.816078	-2.37307	0.81301	-1.60301	0.0153398	0.250699	0	0	1.20574	0	0.0955044	0	0	0	0	0	0	0	0	0.000000000	-0.646106	0.788798	-0.788798	-2.47243	0.828698	-1.5708	0	0.316136	0.1	0.1	1.20975	0.1	0.1	0.1	0	0	0	0	0	0	0	0.000000000
1504623352.031838893	-0.619728	0.763922	-0.816078	-2.37307	0.81301	-1.60301	0.0153398	0.250699	0	0	1.20574	0	0.0955044	0	0	0	0	0	0	0	0	0.000000000	-0.646106	0.788798	-0.788798	-2.47243	0.828698	-1.5708	0	0.316136	0.1	0.1	1.20975	0.1	0.1	0.1	0	0	0	0	0	0	0	0.000000000
1504623352.051651954	-0.627398	0.765456	-0.816078	-2.40682	0.814544	-1.60301	0.0153398	0.250699	0	0	1.20574	0	0	0	0	0	0	0	0	0	0	0.000000000	-0.65528	0.788798	-0.788798	-2.50753	0.828698	-1.5708	0	0.302752	0.1	0.1	1.15853	0.1	0.1	0.1	0	0	0	0	0	0	0	0.000000000
1504623352.072139024	-0.638136	0.765456	-0.816078	-2.4421	0.81301	-1.60301	0.0153398	0.346204	0	0	1.11024	0	0	0	0	0	0	0	0	0	0	0.000000000	-0.66404	0.788798	-0.788798	-2.54105	0.828698	-1.5708	0	0.289056	0.1	0.1	1.10611	0.1	0.1	0.1	0	0	0	0	0	0	0	0.000000000
1504623352.091489076	-0.638136	0.765456	-0.816078	-2.4421	0.81301	-1.60301	0.0153398	0.346204	0	0	1.11024	0	0	0	0	0	0	0	0	0	0	0.000000000	-0.66404	0.788798	-0.788798	-2.54105	0.828698	-1.5708	0	0.289056	0.1	0.1	1.10611	0.1	0.1	0.1	0	0	0	0	0	0	0	0.000000000
1504623352.111453056	-0.64734	0.765456	-0.816078	-2.47124	0.81301	-1.60301	0.0138058	0.298451	0	0	1.15799	0	0	0	0	0	0	0	0	0	0	0.000000000	-0.672376	0.788798	-0.788798	-2.57295	0.828698	-1.5708	0	0.275087	0.1	0.1	1.05267	0.1	0.1	0.1	0	0	0	0	0	0	0	0.000000000
1504623352.131103992	-0.65501	0.765456	-0.816078	-2.50959	0.811476	-1.60148	0.0153398	0.202947	0	0	0.871478	0	0	0	0	0	0	0	0	0	0	0.000000000	-0.680281	0.788798	-0.788798	-2.6032	0.828698	-1.5708	0	0.260893	0.1	0.1	0.998348	0.1	0.1	0.1	0	0	0	0	0	0	0	0.000000000
1504623352.152014017	-0.661146	0.765456	-0.816078	-2.53414	0.811476	-1.60148	0.0153398	0.250699	0	0	0.871478	0	0	0	0	0	0	0	0	0	0	0.000000000	-0.680281	0.788798	-0.788798	-2.6032	0.828698	-1.5708	0	0.260893	0.1	0.1	0.998348	0.1	0.1	0.1	0	0	0	0	0	0	0	0.000000000
1504623352.171331882	-0.661146	0.765456	-0.816078	-2.53414	0.811476	-1.59994	0.0153398	0.250699	0	0	0.871478	0	0.0955044	0	0	0	0	0	0	0	0	0.000000000	-0.687752	0.788798	-0.788798	-2.63179	0.828698	-1.5708	0	0.246518	0.1	0.1	0.943344	0.1	0.1	0.1	0	0	0	0	0	0	0	0.000000000
1504623352.192914962	-0.67035	0.765456	-0.816078	-2.56788	0.811476	-1.59994	0.0153398	0.298451	0	0	1.06249	0	0	0	0	0	0	0	0	0	0	0.000000000	-0.694782	0.788798	-0.788798	-2.63179	0.828698	-1.5708	0	0.232012	0.1	0.1	0.943344	0.1	0.1	0.1	0	0	0	0	0	0	0	0.000000000
1504623352.213805913	-0.67035	0.765456	-0.816078	-2.56788	0.811476	-1.59994	0.0153398	0.298451	0	0	1.06249	0	0	0	0	0	0	0	0	0	0	0.000000000	-0.694782	0.788798	-0.788798	-2.65869	0.828698	-1.5708	0	0.232012	0.1	0.1	0.887828	0.1	0.1	0.1	0	0	0	0	0	0	0	0.000000000
1504623352.234752893	-0.679553	0.765456	-0.816078	-2.59396	0.81301	-1.59841	0.0153398	0.250699	0	0	1.01473	0	0	0	0	0	0	0	0	0	0	0.000000000	-0.701371	0.788798	-0.788798	-2.68391	0.828698	-1.5708	0	0.217425	0.1	0.1	0.832006	0.1	0.1	0.1	0	0	0	0	0	0	0	0.000000000
1504623352.252155065	-0.685689	0.765456	-0.816078	-2.62464	0.811476	-1.59841	0.0153398	0.202947	0	0	0.775973	0	0	0	0	0	0	0	0	0	0	0.000000000	-0.707517	0.788798	-0.788798	-2.70742	0.828698	-1.5708	0	0.202803	0.1	0.1	0.77606	0.1	0.1	0.1	0	0	0	0	0	0	0	0.000000000
1504623352.272639989	-0.690291	0.765456	-0.816078	-2.63998	0.811476	-1.59841	0.0153398	0.155195	0	0	0.728221	0	0	0	0	0	0	0	0	0	0	0.000000000	-0.707517	0.788798	-0.788798	-2.70742	0.828698	-1.5708	0	0.202803	0.1	0.1	0.77606	0.1	0.1	0.1	0	0	0	0	0	0	0	0.000000000
1504623352.291606903	-0.696427	0.765456	-0.816078	-2.66452	0.811476	-1.59841	0.0138058	0.202947	0	0	0.871478	0	0	0	0	0	0	0	0	0	0	0.000000000	-0.71322	0.788798	-0.788798	-2.72925	0.828698	-1.5708	0	0.188208	0.1	0.1	0.720212	0.1	0.1	0.1	0	0	0	0	0	0	0	0.000000000
1504623352.315026044	-0.704097	0.765456	-0.816078	-2.68753	0.81301	-1.59841	0.0153398	0.298451	0	0	0.775973	0	0	0	0	0	0	0	0	0	0	0.000000000	-0.718483	0.788798	-0.788798	-2.74939	0.828698	-1.5708	0	0.173692	0.1	0.1	0.664658	0.1	0.1	0.1	0	0	0	0	0	0	0	0.000000000
1504623352.331305027	-0.704097	0.765456	-0.816078	-2.68753	0.81301	-1.59841	0.0153398	0.298451	0	0	0.775973	0	0	0	0	0	0	0	0	0	0	0.000000000	-0.718483	0.788798	-0.788798	-2.74939	0.828698	-1.5708	0	0.173692	0.1	0.1	0.664658	0.1	0.1	0.1	0	0	0	0	0	0	0	0.000000000
1504623352.351372003	-0.708699	0.765456	-0.816078	-2.70441	0.811476	-1.59841	0.0138058	0.202947	0	0	0.728221	0	0	0	0	0	0	0	0	0	0	0.000000000	-0.723311	0.788798	-0.788798	-2.76786	0.828698	-1.5708	0	0.15931	0.1	0.1	0.609622	0.1	0.1	0.1	0	0	0	0	0	0	0	0.000000000
1504623352.374501943	-0.708699	0.765456	-0.816078	-2.70441	0.811476	-1.59841	0.0138058	0.202947	0	0	0.728221	0	0	0	0	0	0	0	0	0	0	0.000000000	-0.727708	0.788798	-0.788798	-2.78469	0.828698	-1.5708	0	0.145124	0.1	0.1	0.555342	0.1	0.1	0.1	0	0	0	0	0	0	0	0.000000000
1504623352.392730951	-0.711767	0.765456	-0.816078	-2.72588	0.811476	-1.59841	0.0153398	0	0	0	0.632717	0	0	0	0	0	0	0	0	0	0	0.000000000	-0.727708	0.788798	-0.788798	-2.78469	0.828698	-1.5708	0	0.145124	0.1	0.1	0.555342	0.1	0.1	0.1	0	0	0	0	0	0	0	0.000000000
1504623352.411164999	-0.716369	0.765456	-0.816078	-2.74583	0.811476	-1.59841	0.0138058	0.155195	0	0	0.537212	0	0	0	0	0	0	0	0	0	0	0.000000000	-0.731684	0.788798	-0.788798	-2.7999	0.828698	-1.5708	0	0.131192	0.1	0.1	0.50203	0.1	0.1	0.1	0	0	0	0	0	0	0	0.000000000
1504623352.431159019	-0.720971	0.765456	-0.816078	-2.76423	0.811476	-1.59841	0.0153398	0.202947	0	0	0.584965	0	0	0	0	0	0	0	0	0	0	0.000000000	-0.731684	0.788798	-0.788798	-2.7999	0.828698	-1.5708	0	0.131192	0.1	0.1	0.50203	0.1	0.1	0.1	0	0	0	0	0	0	0	0.000000000
1504623352.452253103	-0.727107	0.765456	-0.816078	-2.77651	0.811476	-1.59841	0.0153398	0.202947	0	0	0.537212	0	0	0	0	0	0	0	0	0	0	0.000000000	-0.735247	0.788798	-0.788798	-2.81354	0.828698	-1.5708	0	0.117583	0.1	0.1	0.449937	0.1	0.1	0.1	0	0	0	0	0	0	0	0.000000000
1504623352.471230983	-0.727107	0.765456	-0.816078	-2.77651	0.811476	-1.59841	0.0153398	0.202947	0	0	0.537212	0	0	0	0	0	0	0	0	0	0	0.000000000	-0.738409	0.788798	-0.788798	-2.82564	0.828698	-1.5708	0	0.104353	0.1	0.1	0.399331	0.1	0.1	0.1	0	0	0	0	0	0	0	0.000000000
1504623352.491192102	-0.731709	0.765456	-0.816078	-2.78878	0.811476	-1.59841	0.0153398	0.202947	0	0	0.441708	0	0	0	0	0	0	0	0	0	0	0.000000000	-0.738409	0.788798	-0.788798	-2.82564	0.828698	-1.5708	0	0.104353	0.1	0.1	0.399331	0.1	0.1	0.1	0	0	0	0	0	0	0	0.000000000
1504623352.512183904	-0.731709	0.765456	-0.816078	-2.80105	0.811476	-1.59841	0.0153398	0	0	0	0.441708	0	0	0	0	0	0	0	0	0	0	0.000000000	-0.741184	0.788798	-0.788798	-2.83626	0.828698	-1.5708	0	0.1	0.1	0.1	0.35043	0.1	0.1	0.1	0	0	0	0	0	0	0	0.000000000
1504623352.533121109	-0.731709	0.765456	-0.816078	-2.81332	0.811476	-1.59841	0.0138058	0	0	0	0.441708	0	0	0	0	0	0	0	0	0	0	0.000000000	-0.743588	0.788798	-0.788798	-2.84546	0.828698	-1.5708	0	0.1	0.1	0.1	0.303525	0.1	0.1	0.1	0	0	0	0	0	0	0	0.000000000
1504623352.551223039	-0.734777	0.765456	-0.816078	-2.82252	0.811476	-1.59841	0.0153398	0.107442	0	0	0.393956	0	0	0	0	0	0	0	0	0	0	0.000000000	-0.743588	0.788798	-0.788798	-2.84546	0.828698	-1.5708	0	0.1	0.1	0.1	0.303525	0.1	0.1	0.1	0	0	0	0	0	0	0	0.000000000
1504623352.571213960	-0.737845	0.765456	-0.816078	-2.83019	0.811476	-1.59841	0.0153398	0.155195	0	0	0.346204	0	0	0	0	0	0	0	0	0	0	0.000000000	-0.745638	0.788798	-0.788798	-2.8533	0.828698	-1.5708	0	0.1	0.1	0.1	0.258875	0.1	0.1	0.1	0	0	0	0	0	0	0	0.000000000
1504623352.592036962	-0.737845	0.765456	-0.816078	-2.83019	0.811476	-1.59841	0.0153398	0.155195	0	0	0.346204	0	0	0	0	0	0	0	0	0	0	0.000000000	-0.747354	0.788798	-0.788798	-2.85987	0.828698	-1.5708	0	0.1	0.1	0.1	0.216758	0.1	0.1	0.1	0	0	0	0	0	0	0	0.000000000
1504623352.611238002	-0.740913	0.765456	-0.816078	-2.83633	0.811476	-1.59841	0.0153398	0.155195	0	0	0.298451	0	0	0	0	0	0	0	0	0	0	0.000000000	-0.747354	0.788798	-0.788798	-2.85987	0.828698	-1.5708	0	0.1	0.1	0.1	0.216758	0.1	0.1	0.1	0	0	0	0	0	0	0	0.000000000
1504623352.631778955	-0.742447	0.765456	-0.816078	-2.844	0.811476	-1.59841	0.0153398	0.107442	0	0	0.250699	0	0	0	0	0	0	0	0	0	0	0.000000000	-0.74876	0.788798	-0.788798	-2.86525	0.828698	-1.5708	0	0.1	0.1	0.1	0.177459	0.1	0.1	0.1	0	0	0	0	0	0	0	0.000000000
1504623352.653122901	-0.742447	0.765456	-0.816078	-2.85014	0.811476	-1.59841	0.0153398	0	0	0	0.202947	0	0	0	0	0	0	0	0	0	0	0.000000000	-0.749878	0.788798	-0.788798	-2.86953	0.828698	-1.5708	0	0.1	0.1	0.1	0.141275	0.1	0.1	0.1	0	0	0	0	0	0	0	0.000000000
1504623352.671349048	-0.743981	0.765456	-0.816078	-2.85627	0.811476	-1.59841	0.0153398	0	0	0	0.202947	0	0	0	0	0	0	0	0	0	0	0.000000000	-0.749878	0.788798	-0.788798	-2.86953	0.828698	-1.5708	0	0.1	0.1	0.1	0.141275	0.1	0.1	0.1	0	0	0	0	0	0	0	0.000000000
1504623352.691469907	-0.743981	0.765456	-0.816078	-2.85934	0.811476	-1.59841	0.0153398	0	0	0	0.155195	0	0	0	0	0	0	0	0	0	0	0.000000000	-0.750738	0.788798	-0.788798	-2.87281	0.828698	-1.5708	0	0.1	0.1	0.1	0.108482	0.1	0.1	0.1	0	0	0	0	0	0	0	0.000000000
1504623352.711503028	-0.743981	0.765456	-0.816078	-2.86241	0.811476	-1.59841	0.0153398	0	0	0	0.155195	0	0	0	0	0	0	0	0	0	0	0.000000000	-0.751366	0.788798	-0.788798	-2.87522	0.828698	-1.5708	0	0.1	0.1	0.1	0.1	0.1	0.1	0.1	0	0	0	0	0	0	0	0.000000000
1504623352.731618881	-0.743981	0.765456	-0.816078	-2.86241	0.811476	-1.59841	0.0153398	0	0	0	0.155195	0	0	0	0	0	0	0	0	0	0	0.000000000	-0.751366	0.788798	-0.788798	-2.87522	0.828698	-1.5708	0	0.1	0.1	0.1	0.1	0.1	0.1	0.1	0	0	0	0	0	0	0	0.000000000
1504623352.751355886	-0.743981	0.765456	-0.816078	-2.86394	0.811476	-1.59841	0.0153398	0	0	0	0.107442	0	0	0	0	0	0	0	0	0	0	0.000000000	-0.751797	0.788798	-0.788798	-2.87687	0.828698	-1.5708	0	0.1	0.1	0.1	0.1	0.1	0.1	0.1	0	0	0	0	0	0	0	0.000000000
1504623352.773597002	-0.743981	0.765456	-0.816078	-2.86854	0.811476	-1.59841	0.0153398	0	0	0	0.107442	0	0	0	0	0	0	0	0	0	0	0.000000000	-0.752064	0.788798	-0.788798	-2.87789	0.828698	-1.5708	0	0.1	0.1	0.1	0.1	0.1	0.1	0.1	0	0	0	0	0	0	0	0.000000000
1504623352.796241044	-0.745515	0.765456	-0.816078	-2.87008	0.811476	-1.59841	0.0153398	0	0	0	0	0	0	0	0	0	0	0	0	0	0	0.000000000	-0.752203	0.788798	-0.788798	-2.87842	0.828698	-1.5708	0	0.1	0.1	0.1	0.1	0.1	0.1	0.1	0	0	0	0	0	0	0	0.000000000
1504623352.811239004	-0.745515	0.765456	-0.816078	-2.87008	0.811476	-1.59841	0.0153398	0	0	0	0	0	0	0	0	0	0	0	0	0	0	0.000000000	-0.752203	0.788798	-0.788798	-2.87842	0.828698	-1.5708	0	0.1	0.1	0.1	0.1	0.1	0.1	0.1	0	0	0	0	0	0	0	0.000000000
1504623352.831162929	-0.748583	0.765456	-0.816078	-2.87161	0.811476	-1.59841	0.0153398	0.107442	0	0	0	0	0	0	0	0	0	0	0	0	0	0.000000000	-0.752256	0.788798	-0.788798	-2.87863	0.828698	-1.5708	0	0.1	0.1	0.1	0.1	0.1	0.1	0.1	0	0	0	0	0	0	0	0.000000000
1504623352.851851940	-0.748583	0.765456	-0.817612	-2.87315	0.811476	-1.59841	0.0153398	0	0	0	0	0	0	0	0	0	0	0	0	0	0	0.000000000	-0.752256	0.788798	-0.788798	-2.87863	0.828698	-1.5708	0	0.1	0.1	0.1	0.1	0.1	0.1	0.1	0	0	0	0	0	0	0	0.000000000
1504623352.871227979	-0.748583	0.765456	-0.816078	-2.87315	0.811476	-1.59841	0.0153398	0	0	0	0	0	0	0	0	0	0	0	0	0	0	0.000000000	-0.752264	0.788798	-0.788798	-2.87865	0.828698	-1.5708	0	0.1	0.1	0.1	0.1	0.1	0.1	0.1	0	0	0	0	0	0	0	0.000000000
1504623352.891098976	-0.748583	0.765456	-0.816078	-2.87315	0.811476	-1.59841	0.0153398	0	0	0	0	0	0	0	0	0	0	0	0	0	0	0.000000000	-0.752264	0.788804	-0.788812	-2.87865	0.828702	-1.5708	0	0.1	0.1	0.1	0.1	0.1	0.1	0.1	0	0	0	0	0	0	0	0.000000000
1504623352.911176919	-0.748583	0.765456	-0.816078	-2.87315	0.811476	-1.59841	0.0153398	0	0	0	0	0	0	0	0	0	0	0	0	0	0	0.000000000	-0.752264	0.788804	-0.788812	-2.87865	0.828702	-1.5708	0	0.1	0.1	0.1	0.1	0.1	0.1	0.1	0	0	0	0	0	0	0	0.000000000
1504623352.931184053	-0.748583	0.765456	-0.816078	-2.87315	0.811476	-1.59841	0.0153398	0	0	0	0	0	0	0	0	0	0	0	0	0	0	0.000000000	-0.752255	0.788847	-0.788907	-2.87865	0.828727	-1.57086	0	0.1	0.1	0.1	0.1	0.1	0.1	0.1	0	0	0	0	0	0	0	0.000000000
1504623352.951616048	-0.748583	0.765456	-0.816078	-2.87468	0.811476	-1.59841	0.0153398	0	0	0	0	0	0	0	0	0	0	0	0	0	0	0.000000000	-0.752233	0.788959	-0.78916	-2.87864	0.828795	-1.571	0	0.1	0.1	0.1	0.1	0.1	0.1	0.1	0	0	0	0	0	0	0	0.000000000
1504623352.973773956	-0.748583	0.765456	-0.816078	-2.87468	0.811476	-1.59841	0.0138058	0	0	0	0	0	0	0	0	0	0	0	0	0	0	0.000000000	-0.752233	0.788959	-0.78916	-2.87864	0.828795	-1.571	0	0.1	0.1	0.1	0.1	0.1	0.1	0.1	0	0	0	0	0	0	0	0.000000000
1504623352.992804050	-0.748583	0.765456	-0.816078	-2.87468	0.811476	-1.59841	0.0153398	0	0	0	0	0	0	0	0	0	0	0	0	0	0	0.000000000	-0.752192	0.789174	-0.789642	-2.87862	0.828925	-1.57126	0	0.1	0.1	0.1	0.1	0.1	0.1	0.1	0	0	0	0	0	0	0	0.000000000
1504623353.011133909	-0.748583	0.765456	-0.816078	-2.87468	0.811476	-1.59841	0.0153398	0	0	0	0	0	0	0	0	0	0	0	0	0	0	0.000000000	-0.752124	0.789522	-0.790421	-2.87858	0.829135	-1.5717	0	0.1	0.1	0.1	0.1	0.1	0.1	0.1	0	0	0	0	0	0	0	0.000000000
1504623353.031182050	-0.748583	0.765456	-0.816078	-2.87468	0.811476	-1.59841	0.0153398	0	0	0	0	0	0	0	0	0	0	0	0	0	0	0.000000000	-0.752124	0.789522	-0.790421	-2.87858	0.829135	-1.5717	0	0.1	0.1	0.1	0.1	0.1	0.1	0.1	0	0	0	0	0	0	0	0.000000000
1504623353.051126956	-0.747049	0.765456	-0.816078	-2.87468	0.811476	-1.59687	0.0138058	0	0	0	0	0	0	0	0	0	0	0	0	0	0	0.000000000	-0.752025	0.790032	-0.791559	-2.87854	0.829443	-1.57233	0	0.1	0.1	0.1	0.1	0.1	0.1	0.1	0	0	0	0	0	0	0	0.000000000
1504623353.072139024	-0.748583	0.765456	-0.816078	-2.87468	0.811476	-1.59841	0.0138058	0	0	0	0	0	0	0	0	0	0	0	0	0	0	0.000000000	-0.75189	0.79073	-0.793113	-2.87847	0.829863	-1.57318	0	0.1	0.1	0.1	0.1	0.1	0.1	0.1	0	0	0	0	0	0	0	0.000000000
1504623353.091345071	-0.748583	0.765456	-0.816078	-2.87468	0.811476	-1.59841	0.0153398	0	0	0	0	0	0	0	0	0	0	0	0	0	0	0.000000000	-0.75189	0.79073	-0.793113	-2.87847	0.829863	-1.57318	0	0.1	0.1	0.1	0.1	0.1	0.1	0.1	0	0	0	0	0	0	0	0.000000000
1504623353.111598968	-0.748583	0.765456	-0.816078	-2.87468	0.811476	-1.59841	0.0153398	0	0	0	0	0	0	0	0	0	0	0	0	0	0	0.000000000	-0.751715	0.791643	-0.795137	-2.87838	0.830413	-1.5743	0	0.1	0.1	0.1	0.1	0.1	0.1	0.1	0	0	0	0	0	0	0	0.000000000
1504623353.131762981	-0.748583	0.765456	-0.816078	-2.87468	0.811476	-1.59841	0.0153398	0	0	0	0	0	0	0	0	0	0	0	0	0	0	0.000000000	-0.751494	0.792797	-0.797678	-2.87827	0.831107	-1.5757	0	0.1	0.1	0.1	0.1	0.1	0.1	0.1	0	0	0	0	0	0	0	0.000000000
1504623353.151370048	-0.748583	0.765456	-0.816078	-2.87468	0.811476	-1.59841	0.0153398	0	0	0	0	0	0	0	0	0	0	0	0	0	0	0.000000000	-0.751494	0.792797	-0.797678	-2.87827	0.831107	-1.5757	0	0.1	0.1	0.1	0.1	0.1	0.1	0.1	0	0	0	0	0	0	0	0.000000000
1504623353.171109914	-0.748583	0.765456	-0.816078	-2.87468	0.811476	-1.59687	0.0153398	0	0	0	0	0	0	0	0	0	0	0	0	0	0	0.000000000	-0.751224	0.794216	-0.800782	-2.87814	0.831958	-1.57739	0	0.1	0.1	0.102421	0.1	0.1	0.1	0.1	0	0	0	0	0	0	0	0.000000000
1504623353.191184043	-0.748583	0.76699	-0.816078	-2.87468	0.811476	-1.59841	0.0153398	0	0	0	0	0	0	0	0	0	0	0	0	0	0	0.000000000	-0.750901	0.795925	-0.804488	-2.87798	0.832981	-1.57941	0	0.1	0.1	0.122293	0.1	0.1	0.1	0.1	0	0	0	0	0	0	0	0.000000000
1504623353.211415052	-0.748583	0.76699	-0.816078	-2.87468	0.811476	-1.59841	0.0153398	0	0	0	0	0	0	0	0	0	0	0	0	0	0	0.000000000	-0.750901	0.795925	-0.804488	-2.87798	0.832981	-1.57941	0	0.1	0.1	0.122293	0.1	0.1	0.1	0.1	0	0	0	0	0	0	0	0.000000000
1504623353.233417034	-0.748583	0.768524	-0.817612	-2.87468	0.811476	-1.59841	0.0138058	0	0	0	0	0	0	0	0	0	0	0	0	0	0	0.000000000	-0.750522	0.797949	-0.808832	-2.87779	0.834189	-1.58177	0	0.1	0.1	0.143342	0.1	0.1	0.1	0.1	0	0	0	0	0	0	0	0.000000000
1504623353.251522064	-0.748583	0.768524	-0.817612	-2.87468	0.811476	-1.59841	0.0153398	0	0	0	0	0	0	0	0	0	0	0	0	0	0	0.000000000	-0.750085	0.800313	-0.813845	-2.87758	0.835596	-1.58447	0	0.1	0.1	0.165433	0.1	0.1	0.1	0.1	0	0	0	0	0	0	0	0.000000000
1504623353.271106004	-0.747049	0.770058	-0.817612	-2.87468	0.811476	-1.59841	0.0153398	0	0	0	0	0	0	0	0	0	0	0	0	0	0	0.000000000	-0.750085	0.800313	-0.813845	-2.87758	0.835596	-1.58447	0	0.1	0.1	0.165433	0.1	0.1	0.1	0.1	0	0	0	0	0	0	0	0.000000000
1504623353.291148900	-0.747049	0.770058	-0.82068	-2.87468	0.811476	-1.59841	0.0138058	0	0	0.107442	0	0	0	0	0	0	0	0	0	0	0	0.000000000	-0.749585	0.803041	-0.819555	-2.87734	0.837213	-1.58753	0	0.1	0.1	0.188436	0.1	0.1	0.100862	0.1	0	0	0	0	0	0	0	0.000000000
1504623353.312211036	-0.748583	0.770058	-0.822214	-2.87468	0.81301	-1.59841	0.0153398	0	0	0.107442	0	0	0	0	0	0	0	0	0	0	0	0.000000000	-0.749022	0.806158	-0.825986	-2.87706	0.839054	-1.59094	0	0.1	0.102886	0.212213	0.1	0.1	0.112707	0.1	0	0	0	0	0	0	0	0.000000000
1504623353.331209897	-0.748583	0.770058	-0.822214	-2.87468	0.81301	-1.59841	0.0153398	0	0	0.107442	0	0	0	0	0	0	0	0	0	0	0	0.000000000	-0.749022	0.806158	-0.825986	-2.87706	0.839054	-1.59094	0	0.1	0.102886	0.212213	0.1	0.1	0.112707	0.1	0	0	0	0	0	0	0	0.000000000
1504623353.351846933	-0.748583	0.771592	-0.825282	-2.87468	0.811476	-1.59841	0.0153398	0	0	0.107442	0	0	0	0	0	0	0	0	0	0	0	0.000000000	-0.748393	0.809692	-0.833156	-2.87677	0.841133	-1.59472	0	0.1	0.116623	0.236637	0.1	0.1	0.124583	0.1	0	0	0	0	0	0	0	0.000000000
1504623353.371196031	-0.748583	0.771592	-0.831418	-2.87468	0.811476	-1.59841	0.0153398	0	0	0.202947	0	0	0	0	0	0	0	0	0	0	0	0.000000000	-0.748393	0.809692	-0.833156	-2.87677	0.841133	-1.59472	0	0.1	0.116623	0.236637	0.1	0.1	0.124583	0.1	0	0	0	0	0	0	0	0.000000000
1504623353.391448020	-0.748583	0.773126	-0.837554	-2.87468	0.81301	-1.60148	0.0138058	0	0	0.202947	0	0	0	0	0	0	0	0	0	0	0	0.000000000	-0.747695	0.813669	-0.841083	-2.87644	0.84346	-1.59885	0	0.1	0.131241	0.261578	0.1	0.1	0.136381	0.1	0	0	0	0	0	0	0	0.000000000
1504623353.411364078	-0.748583	0.773126	-0.837554	-2.87468	0.81301	-1.60148	0.0138058	0	0	0.202947	0	0	0	0	0	0	0	0	0	0	0	0.000000000	-0.746928	0.818117	-0.849777	-2.87608	0.846049	-1.60334	0	0.1	0.146772	0.286908	0.1	0.1	0.147998	0.1	0	0	0	0	0	0	0	0.000000000
1504623353.431193113	-0.748583	0.77466	-0.843689	-2.87468	0.811476	-1.60454	0.0138058	0	0	0.250699	0	0	0.155195	0	0	0	0	0	0	0	0	0.000000000	-0.746928	0.818117	-0.849777	-2.87608	0.846049	-1.60334	0	0.1	0.146772	0.286908	0.1	0.1	0.147998	0.1	0	0	0	0	0	0	0	0.000000000
1504623353.451169013	-0.748583	0.776194	-0.851359	-2.87468	0.81301	-1.60915	0.0153398	0	0.0955044	0.250699	0	0	0.107442	0	0	0	0	0	0	0	0	0.000000000	-0.74609	0.823063	-0.859247	-2.8757	0.848912	-1.60816	0	0.1	0.163234	0.312504	0.1	0.1	0.159327	0.1	0	0	0	0	0	0	0	0.000000000
1504623353.471163034	-0.748583	0.779262	-0.859029	-2.87468	0.81301	-1.61375	0.0153398	0	0.0955044	0.298451	0	0	0.202947	0	0	0	0	0	0	0	0	0.000000000	-0.74518	0.828538	-0.869496	-2.87528	0.852061	-1.61332	0	0.1	0.180653	0.338234	0.1	0.10393	0.170275	0.1	0	0	0	0	0	0	0	0.000000000
1504623353.491036891	-0.747049	0.78233	-0.866699	-2.87468	0.81301	-1.61835	0.0153398	0	0.143257	0.298451	0	0	0.155195	0	0	0	0	0	0	0	0	0.000000000	-0.74518	0.828538	-0.869496	-2.87528	0.852061	-1.61332	0	0.1	0.180653	0.338234	0.1	0.10393	0.170275	0.1	0	0	0	0	0	0	0	0.000000000
1504623353.511110067	-0.747049	0.783864	-0.871301	-2.87468	0.81301	-1.62142	0.0138058	0	0.0955044	0.298451	0	0	0.155195	0	0	0	0	0	0	0	0	0.000000000	-0.744198	0.834569	-0.880526	-2.87485	0.855509	-1.6188	0	0.1	0.199042	0.363978	0.1	0.113766	0.18075	0.1	0	0	0	0	0	0	0	0.000000000
1504623353.531038999	-0.747049	0.785398	-0.877437	-2.87468	0.81301	-1.62602	0.0153398	0	0.0955044	0.298451	0	0	0.202947	0	0	0	0	0	0	0	0	0.000000000	-0.743142	0.841188	-0.892333	-2.87438	0.859266	-1.62458	0	0.1	0.218421	0.389611	0.1	0.123989	0.190665	0.1	0	0	0	0	0	0	0	0.000000000
1504623353.551059007	-0.747049	0.788466	-0.886641	-2.87468	0.81301	-1.62602	0.0153398	0	0.143257	0.346204	0	0	0.202947	0	0	0	0	0	0	0	0	0.000000000	-0.743142	0.841188	-0.892333	-2.87438	0.859266	-1.62458	0	0.1	0.218421	0.389611	0.1	0.123989	0.190665	0.1	0	0	0	0	0	0	0	0.000000000
1504623353.571120023	-0.747049	0.788466	-0.886641	-2.87468	0.814544	-1.63062	0.0153398	0	0.143257	0.346204	0	0	0.155195	0	0	0	0	0	0	0	0	0.000000000	-0.742012	0.848424	-0.904908	-2.8739	0.863344	-1.63064	0	0.1	0.238788	0.415004	0.1	0.134575	0.199941	0.1	0	0	0	0	0	0	0	0.000000000
1504623353.591036081	-0.747049	0.793068	-0.895845	-2.87468	0.817612	-1.63369	0.0153398	0	0.191009	0.346204	0	0.0955044	0.155195	0	0	0	0	0	0	0	0	0.000000000	-0.740808	0.856308	-0.918243	-2.87339	0.867754	-1.63696	0	0.1	0.260153	0.440028	0.1	0.145511	0.208517	0.1	0	0	0	0	0	0	0	0.000000000
1504623353.611102104	-0.747049	0.800738	-0.906583	-2.87468	0.82068	-1.63983	0.0138058	0	0.238761	0.393956	0	0.0955044	0.202947	0	0	0	0	0	0	0	0	0.000000000	-0.740808	0.856308	-0.918243	-2.87339	0.867754	-1.63696	0	0.1	0.260153	0.440028	0.1	0.145511	0.208517	0.1	0	0	0	0	0	0	0	0.000000000
1504623353.631010055	-0.748583	0.808408	-0.917321	-2.87468	0.825282	-1.64596	0.0153398	0	0.286513	0.393956	0	0.143257	0.250699	0	0	0	0	0	0	0	0	0.000000000	-0.739531	0.864868	-0.93232	-2.87287	0.872504	-1.64351	0	0.1	0.282498	0.464557	0.1	0.156776	0.216318	0.1	0	0	0	0	0	0	0	0.000000000
1504623353.651041984	-0.748583	0.808408	-0.917321	-2.87468	0.825282	-1.64596	0.0153398	0	0.286513	0.393956	0	0.143257	0.250699	0	0	0	0	0	0	0	0	0.000000000	-0.73818	0.874135	-0.947122	-2.87232	0.877606	-1.65028	0	0.1	0.305808	0.48846	0.1	0.16834	0.223297	0.1	0	0	0	0	0	0	0	0.000000000
1504623353.671144008	-0.747049	0.817612	-0.928058	-2.87468	0.829884	-1.65056	0.0153398	0	0.334265	0.393956	0	0.143257	0.202947	0	0	0	0	0	0	0	0	0.000000000	-0.73818	0.874135	-0.947122	-2.87232	0.877606	-1.65028	0	0.1	0.305808	0.48846	0.1	0.16834	0.223297	0.1	0	0	0	0	0	0	0	0.000000000
1504623353.691078901	-0.745515	0.826816	-0.94033	-2.87315	0.83602	-1.6567	0.0153398	0	0.334265	0.441708	0	0.191009	0.202947	0	0	0	0	0	0	0	0	0.000000000	-0.736756	0.884137	-0.962625	-2.87177	0.883065	-1.65723	0	0.1	0.330053	0.511605	0.1	0.180171	0.229414	0.1	0	0	0	0	0	0	0	0.000000000
1504623353.711039066	-0.745515	0.837554	-0.952602	-2.87468	0.840621	-1.65977	0.0153398	0	0.382018	0.441708	0	0.191009	0.202947	0	0	0	0	0	0	0	0	0.000000000	-0.735261	0.8949	-0.978803	-2.8712	0.888891	-1.66434	0	0.1	0.355181	0.533861	0.1	0.192238	0.234626	0.1	0	0	0	0	0	0	0	0.000000000
1504623353.731054067	-0.743981	0.846757	-0.96334	-2.87468	0.846757	-1.6659	0.0138058	0	0.334265	0.441708	0	0.191009	0.202947	0	0	0	0	0	0	0	0	0.000000000	-0.735261	0.8949	-0.978803	-2.8712	0.888891	-1.66434	0	0.1	0.355181	0.533861	0.1	0.192238	0.234626	0.1	0	0	0	0	0	0	0	0.000000000
1504623353.751105070	-0.743981	0.846757	-0.96334	-2.87468	0.846757	-1.6659	0.0138058	0	0.334265	0.441708	0	0.191009	0.202947	0	0	0	0	0	0	0	0	0.000000000	-0.733693	0.906449	-0.995623	-2.87062	0.895088	-1.67158	0	0.1	0.38114	0.555082	0.1	0.204497	0.238908	0.1	0	0	0	0	0	0	0	0.000000000
1504623353.771075010	-0.743981	0.855961	-0.97868	-2.87468	0.851359	-1.67204	0.0153398	0	0.334265	0.48946	0	0.191009	0.250699	0	0	0	0	0	0	0	0	0.000000000	-0.732056	0.918809	-1.01305	-2.87004	0.90166	-1.67892	0	0.1	0.407864	0.575151	0.1	0.216904	0.242254	0.1	0	0	0	0	0	0	0	0.000000000
1504623353.791094064	-0.740913	0.865165	-0.990952	-2.87468	0.857495	-1.67971	0.0153398	0.0955044	0.334265	0.537212	0	0.191009	0.298451	0	0	0	0	0	0	0	0	0.000000000	-0.732056	0.918809	-1.01305	-2.87004	0.90166	-1.67892	0	0.1	0.407864	0.575151	0.1	0.216904	0.242254	0.1	0	0	0	0	0	0	0	0.000000000
1504623353.811218976	-0.739379	0.874369	-1.00476	-2.87468	0.860563	-1.68584	0.0153398	0.0955044	0.334265	0.48946	0	0.191009	0.250699	0	0	0	0	0	0	0	0	0.000000000	-0.73035	0.931999	-1.03105	-2.86945	0.908612	-1.68633	0	0.1	0.435256	0.593914	0.1	0.229414	0.244646	0.1	0	0	0	0	0	0	0	0.000000000
1504623353.831382989	-0.737845	0.883573	-1.0201	-2.87468	0.865165	-1.69198	0.0138058	0	0.334265	0.584965	0	0.191009	0.250699	0	0	0	0	0	0	0	0	0.000000000	-0.728578	0.946035	-1.04957	-2.86886	0.915945	-1.69379	0	0.1	0.463216	0.611235	0.1	0.241967	0.246078	0.1	0	0	0	0	0	0	0	0.000000000
1504623353.852478027	-0.736311	0.895845	-1.03544	-2.87468	0.872835	-1.69658	0.0138058	0.0955044	0.382018	0.584965	0	0.238761	0.202947	0	0	0	0	0	0	0	0	0.000000000	-0.728578	0.946035	-1.04957	-2.86886	0.915945	-1.69379	0	0.1	0.463216	0.611235	0.1	0.241967	0.246078	0.1	0	0	0	0	0	0	0	0.000000000
1504623353.871181964	-0.736311	0.895845	-1.03544	-2.87468	0.872835	-1.69658	0.0138058	0.0955044	0.382018	0.584965	0	0.238761	0.202947	0	0	0	0	0	0	0	0	0.000000000	-0.726739	0.960933	-1.06857	-2.86827	0.923657	-1.70126	0	0.1	0.491635	0.626983	0.1	0.254512	0.246581	0.1	0	0	0	0	0	0	0	0.000000000
1504623353.891176939	-0.734777	0.909651	-1.05078	-2.87468	0.880505	-1.70272	0.0153398	0	0.477522	0.584965	0	0.286513	0.202947	0	0	0	0	0	0	0	0	0.000000000	-0.724838	0.976702	-1.088	-2.8677	0.931748	-1.70872	0	0.1	0.52037	0.641019	0.1	0.266989	0.246149	0.1	0	0	0	0	0	0	0	0.000000000
1504623353.911096096	-0.733243	0.923456	-1.06918	-2.87468	0.886641	-1.71039	0.0153398	0	0.525274	0.632717	0	0.238761	0.298451	0	0	0	0	0	0	0	0	0.000000000	-0.724838	0.976702	-1.088	-2.8677	0.931748	-1.70872	0	0.1	0.52037	0.641019	0.1	0.266989	0.246149	0.1	0	0	0	0	0	0	0	0.000000000
1504623353.931025981	-0.731709	0.938796	-1.08299	-2.87468	0.894311	-1.71806	0.0153398	0	0.525274	0.584965	0	0.238761	0.346204	0	0	0	0	0	0	0	0	0.000000000	-0.722875	0.993347	-1.10779	-2.86712	0.940212	-1.71614	0	0.1	0.549288	0.653214	0.1	0.279335	0.244819	0.1	0	0	0	0	0	0	0	0.000000000
1504623353.951392889	-0.731709	0.938796	-1.08299	-2.87468	0.894311	-1.71806	0.0153398	0	0.525274	0.584965	0	0.238761	0.346204	0	0	0	0	0	0	0	0	0.000000000	-0.720853	1.01087	-1.12789	-2.86657	0.949045	-1.72349	0	0.1	0.578224	0.663446	0.1	0.291487	0.242624	0.1	0	0	0	0	0	0	0	0.000000000
1504623353.971072912	-0.728641	0.951068	-1.09833	-2.87315	0.901981	-1.72419	0.0153398	0.0955044	0.477522	0.584965	0	0.286513	0.250699	0	0	0	0	0	0	0	0	0.000000000	-0.720853	1.01087	-1.12789	-2.86657	0.949045	-1.72349	0	0.1	0.578224	0.663446	0.1	0.291487	0.242624	0.1	0	0	0	0	0	0	0	0.000000000
1504623353.991107940	-0.727107	0.967942	-1.11367	-2.87315	0.909651	-1.73033	0.0153398	0.0955044	0.573026	0.584965	0	0.286513	0.202947	0	0	0	0	0	0	0	0	0.000000000	-0.718775	1.02926	-1.14825	-2.86602	0.958239	-1.73075	0	0.1	0.607018	0.671593	0.1	0.303379	0.239599	0.1	0	0	0	0	0	0	0	0.000000000
1504623354.011092901	-0.725573	0.981748	-1.12901	-2.87315	0.917321	-1.7334	0.0153398	0	0.525274	0.584965	0	0.286513	0.155195	0	0	0	0	0	0	0	0	0.000000000	-0.716643	1.04852	-1.16878	-2.8655	0.967782	-1.7379	0	0.1	0.635488	0.677553	0.1	0.314947	0.235787	0.1	0	0	0	0	0	0	0	0.000000000
1504623354.031114101	-0.724039	0.997088	-1.14588	-2.87315	0.92499	-1.73953	0.0153398	0	0.525274	0.632717	0	0.286513	0.202947	0	0	0	0	0	0	0	0	0.000000000	-0.716643	1.04852	-1.16878	-2.8655	0.967782	-1.7379	0	0.1	0.635488	0.677553	0.1	0.314947	0.235787	0.1	0	0	0	0	0	0	0	0.000000000
1504623354.051111936	-0.724039	0.997088	-1.14588	-2.87315	0.92499	-1.73953	0.0153398	0	0.525274	0.632717	0	0.286513	0.202947	0	0	0	0	0	0	0	0	0.000000000	-0.714461	1.06863	-1.18942	-2.865	0.977665	-1.74491	0	0.1	0.663454	0.681231	0.1	0.326127	0.231239	0.1	0	0	0	0	0	0	0	0.000000000
1504623354.071346044	-0.722505	1.0155	-1.16276	-2.87161	0.93266	-1.7472	0.0153398	0	0.620779	0.632717	0	0.286513	0.250699	0	0	0	0	0	0	0	0	0.000000000	-0.712231	1.08956	-1.2101	-2.86452	0.987873	-1.75176	0	0.1	0.690732	0.682553	0.1	0.336849	0.226007	0.1	0	0	0	0	0	0	0	0.000000000
1504623354.091090917	-0.719437	1.03084	-1.18117	-2.87161	0.94033	-1.75334	0.0153398	0.0955044	0.573026	0.632717	0	0.286513	0.202947	0	0	0	0	0	0	0	0	0.000000000	-0.712231	1.08956	-1.2101	-2.86452	0.987873	-1.75176	0	0.1	0.690732	0.682553	0.1	0.336849	0.226007	0.1	0	0	0	0	0	0	0	0.000000000
1504623354.111072063	-0.717903	1.04771	-1.19804	-2.87161	0.948	-1.75948	0.0153398	0.0955044	0.620779	0.632717	0	0.286513	0.250699	0	0	0	0	0	0	0	0	0.000000000	-0.709956	1.11129	-1.23076	-2.86408	0.99839	-1.75843	0	0.1	0.71714	0.681459	0.1	0.347057	0.220157	0.1	0	0	0	0	0	0	0	0.000000000
1504623354.131076097	-0.716369	1.06305	-1.21491	-2.87008	0.957204	-1.76561	0.0153398	0	0.620779	0.632717	0	0.334265	0.250699	0	0	0	0	0	0	0	0	0.000000000	-0.70764	1.13379	-1.2513	-2.86366	1.0092	-1.7649	0	0.1	0.742482	0.677889	0.1	0.356684	0.213734	0.1	0	0	0	0	0	0	0	0.000000000
1504623354.151128053	-0.716369	1.06305	-1.21491	-2.87008	0.957204	-1.76561	0.0153398	0	0.620779	0.632717	0	0.334265	0.250699	0	0	0	0	0	0	0	0	0.000000000	-0.70764	1.13379	-1.2513	-2.86366	1.0092	-1.7649	0	0.1	0.742482	0.677889	0.1	0.356684	0.213734	0.1	0	0	0	0	0	0	0	0.000000000
1504623354.171056985	-0.713301	1.08452	-1.23332	-2.87008	0.966408	-1.77021	0.0153398	0.0955044	0.716283	0.680469	0	0.334265	0.155195	0	0	0	0	0	0	0	0	0.000000000	-0.705287	1.15702	-1.27166	-2.86328	1.02028	-1.77117	0	0.1	0.766617	0.671873	0.1	0.365681	0.206821	0.1	0	0	0	0	0	0	0	0.000000000
1504623354.192928075	-0.711767	1.10907	-1.25326	-2.87008	0.977146	-1.77788	0.0138058	0	0.716283	0.632717	0	0.382018	0.250699	0	0	0	0	0	0	0	0	0.000000000	-0.702899	1.18094	-1.29176	-2.86293	1.03161	-1.77722	0	0.1	0.789351	0.663379	0.1	0.373993	0.199461	0.1	0	0	0	0	0	0	0	0.000000000
1504623354.218235015	-0.710233	1.13208	-1.27014	-2.87008	0.987884	-1.78402	0.0153398	0	0.764035	0.584965	0	0.334265	0.250699	0	0	0	0	0	0	0	0	0.000000000	-0.702899	1.18094	-1.29176	-2.86293	1.03161	-1.77722	0	0.1	0.789351	0.663379	0.1	0.373993	0.199461	0.1	0	0	0	0	0	0	0	0.000000000
1504623354.231511116	-0.710233	1.13208	-1.27014	-2.87008	0.987884	-1.78402	0.0153398	0	0.764035	0.584965	0	0.334265	0.250699	0	0	0	0	0	0	0	0	0.000000000	-0.700481	1.2055	-1.31153	-2.86262	1.04318	-1.78303	0	0.1	0.810539	0.652451	0.1	0.381562	0.191735	0.1	0	0	0	0	0	0	0	0.000000000
