DingWan/Reconbot3Ddemo/02_MATLAB_Code/sensors_data/encoders_data.txt
time_stamp	actual_pos_joint_4	actual_pos_joint_5	actual_pos_joint_3	actual_pos_joint_1	actual_pos_joint_2	actual_pos_joint_6	actual_pos_joint_7	actual_vel_joint_4	actual_vel_joint_5	actual_vel_joint_3	actual_vel_joint_1	actual_vel_joint_2	actual_vel_joint_6	actual_vel_joint_7	actual_acc_joint_4	actual_acc_joint_5	actual_acc_joint_3	actual_acc_joint_1	actual_acc_joint_2	actual_acc_joint_6	actual_acc_joint_7	actual_time_from_start	desired_pos_joint_4	desired_pos_joint_5	desired_pos_joint_3	desired_pos_joint_1	desired_pos_joint_2	desired_pos_joint_6	desired_pos_joint_7	desired_vel_joint_4	desired_vel_joint_5	desired_vel_joint_3	desired_vel_joint_1	desired_vel_joint_2	desired_vel_joint_6	desired_vel_joint_7	desired_acc_joint_4	desired_acc_joint_5	desired_acc_joint_3	desired_acc_joint_1	desired_acc_joint_2	desired_acc_joint_6	desired_acc_joint_7	desired_time_from_start
1504704712.980763912	-0.374291	-0.449456	-1.12901	0.29299	-0.28532	-3.14466	0.076699	0	0	0	0	0	0	0	0	0	0	0	0	0	0	0.000000000	0	0	0	0	0	0	0	0	0	0	0	0	0	0	0	0	0	0	0	0	0	0.000000000
1504704713.000792980	-0.374291	-0.449456	-1.12901	0.29299	-0.286854	-3.14313	0.076699	0	0	0	0	0	0	0	0	0	0	0	0	0	0	0.000000000	0	0	0	0	0	0	0	0	0	0	0	0	0	0	0	0	0	0	0	0	0	0.000000000
1504704713.021903038	-0.374291	-0.449456	-1.12901	0.29299	-0.286854	-3.14313	0.076699	0	0	0	0	0	0	0	0	0	0	0	0	0	0	0.000000000	0	0	0	0	0	0	0	0	0	0	0	0	0	0	0	0	0	0	0	0	0	0.000000000
1504704713.040852069	-0.374291	-0.449456	-1.12901	0.29299	-0.286854	-3.14466	0.076699	0	0	0	0	0	0	0	0	0	0	0	0	0	0	0.000000000	0	0	0	0	0	0	0	0	0	0	0	0	0	0	0	0	0	0	0	0	0	0.000000000
1504704713.061249971	-0.374291	-0.449456	-1.12901	0.29299	-0.286854	-3.14313	0.076699	0	0	0	0	0	0	0	0	0	0	0	0	0	0	0.000000000	0	0	0	0	0	0	0	0	0	0	0	0	0	0	0	0	0	0	0	0	0	0.000000000
1504704713.080981016	-0.374291	-0.449456	-1.12901	0.29299	-0.286854	-3.14466	0.076699	0	0	0	0	0	0	0	0	0	0	0	0	0	0	0.000000000	0	0	0	0	0	0	0	0	0	0	0	0	0	0	0	0	0	0	0	0	0	0.000000000
1504704713.100843906	-0.374291	-0.449456	-1.12901	0.29299	-0.28532	-3.14466	0.076699	0	0	0	0	0	0	0	0	0	0	0	0	0	0	0.000000000	0	0	0	0	0	0	0	0	0	0	0	0	0	0	0	0	0	0	0	0	0	0.000000000
1504704713.120938062	-0.374291	-0.449456	-1.12901	0.29299	-0.28532	-3.14466	0.076699	0	0	0	0	0	0	0	0	0	0	0	0	0	0	0.000000000	0	0	0	0	0	0	0	0	0	0	0	0	0	0	0	0	0	0	0	0	0	0.000000000
1504704713.141046047	-0.374291	-0.449456	-1.12901	0.29299	-0.286854	-3.14313	0.076699	0	0	0	0	0	0	0	0	0	0	0	0	0	0	0.000000000	0	0	0	0	0	0	0	0	0	0	0	0	0	0	0	0	0	0	0	0	0	0.000000000
1504704713.161005020	-0.374291	-0.449456	-1.12901	0.29299	-0.286854	-3.14466	0.076699	0	0	0	0	0	0	0	0	0	0	0	0	0	0	0.000000000	0	0	0	0	0	0	0	0	0	0	0	0	0	0	0	0	0	0	0	0	0	0.000000000
1504704713.181236028	-0.374291	-0.449456	-1.12901	0.29299	-0.286854	-3.14466	0.076699	0	0	0	0	0	0	0	0	0	0	0	0	0	0	0.000000000	0	0	0	0	0	0	0	0	0	0	0	0	0	0	0	0	0	0	0	0	0	0.000000000
1504704713.200810909	-0.374291	-0.449456	-1.12901	0.29299	-0.286854	-3.14313	0.076699	0	0	0	0	0	0	0	0	0	0	0	0	0	0	0.000000000	0	0	0	0	0	0	0	0	0	0	0	0	0	0	0	0	0	0	0	0	0	0.000000000
1504704713.220900058	-0.374291	-0.449456	-1.12901	0.29299	-0.286854	-3.14313	0.076699	0	0	0	0	0	0	0	0	0	0	0	0	0	0	0.000000000	0	0	0	0	0	0	0	0	0	0	0	0	0	0	0	0	0	0	0	0	0	0.000000000
1504704713.241070032	-0.374291	-0.449456	-1.12901	0.29299	-0.286854	-3.14466	0.076699	0	0	0	0	0	0	0	0	0	0	0	0	0	0	0.000000000	0	0	0	0	0	0	0	0	0	0	0	0	0	0	0	0	0	0	0	0	0	0.000000000
1504704713.260921001	-0.374291	-0.449456	-1.12901	0.29299	-0.286854	-3.14466	0.076699	0	0	0	0	0	0	0	0	0	0	0	0	0	0	0.000000000	0	0	0	0	0	0	0	0	0	0	0	0	0	0	0	0	0	0	0	0	0	0.000000000
1504704713.280750036	-0.374291	-0.449456	-1.12901	0.29299	-0.286854	-3.14313	0.076699	0	0	0	0	0	0	0	0	0	0	0	0	0	0	0.000000000	0	0	0	0	0	0	0	0	0	0	0	0	0	0	0	0	0	0	0	0	0	0.000000000
1504704713.300822973	-0.374291	-0.449456	-1.12901	0.29299	-0.286854	-3.14466	0.076699	0	0	0	0	0	0	0	0	0	0	0	0	0	0	0.000000000	0	0	0	0	0	0	0	0	0	0	0	0	0	0	0	0	0	0	0	0	0	0.000000000
1504704713.320959091	-0.374291	-0.449456	-1.12901	0.29299	-0.286854	-3.14466	0.076699	0	0	0	0	0	0	0	0	0	0	0	0	0	0	0.000000000	0	0	0	0	0	0	0	0	0	0	0	0	0	0	0	0	0	0	0	0	0	0.000000000
1504704713.341341972	-0.374291	-0.449456	-1.12901	0.29299	-0.286854	-3.14466	0.076699	0	0	0	0	0	0	0	0	0	0	0	0	0	0	0.000000000	0	0	0	0	0	0	0	0	0	0	0	0	0	0	0	0	0	0	0	0	0	0.000000000
1504704713.360981941	-0.374291	-0.449456	-1.12901	0.29299	-0.286854	-3.14313	0.076699	0	0	0	0	0	0	0	0	0	0	0	0	0	0	0.000000000	0	0	0	0	0	0	0	0	0	0	0	0	0	0	0	0	0	0	0	0	0	0.000000000
1504704713.380764961	-0.374291	-0.449456	-1.12901	0.29299	-0.286854	-3.14466	0.076699	0	0	0	0	0	0	0	0	0	0	0	0	0	0	0.000000000	0	0	0	0	0	0	0	0	0	0	0	0	0	0	0	0	0	0	0	0	0	0.000000000
1504704713.400779008	-0.374291	-0.449456	-1.12901	0.29299	-0.28532	-3.14466	0.076699	0	0	0	0	0	0	0	0	0	0	0	0	0	0	0.000000000	0	0	0	0	0	0	0	0	0	0	0	0	0	0	0	0	0	0	0	0	0	0.000000000
1504704713.420968055	-0.374291	-0.449456	-1.12901	0.29299	-0.28532	-3.14466	0.076699	0	0	0	0	0	0	0	0	0	0	0	0	0	0	0.000000000	0	0	0	0	0	0	0	0	0	0	0	0	0	0	0	0	0	0	0	0	0	0.000000000
1504704713.440908908	-0.374291	-0.449456	-1.12901	0.29299	-0.286854	-3.14466	0.076699	0	0	0	0	0	0	0	0	0	0	0	0	0	0	0.000000000	0	0	0	0	0	0	0	0	0	0	0	0	0	0	0	0	0	0	0	0	0	0.000000000
1504704713.460911989	-0.374291	-0.449456	-1.12901	0.29299	-0.286854	-3.14466	0.076699	0	0	0	0	0	0	0	0	0	0	0	0	0	0	0.000000000	0	0	0	0	0	0	0	0	0	0	0	0	0	0	0	0	0	0	0	0	0	0.000000000
1504704713.480897903	-0.374291	-0.449456	-1.12901	0.29299	-0.286854	-3.14466	0.076699	0	0	0	0	0	0	0	0	0	0	0	0	0	0	0.000000000	0	0	0	0	0	0	0	0	0	0	0	0	0	0	0	0	0	0	0	0	0	0.000000000
1504704713.500854969	-0.374291	-0.449456	-1.12748	0.29299	-0.286854	-3.14466	0.076699	0	0	0	0	0	0	0	0	0	0	0	0	0	0	0.000000000	0	0	0	0	0	0	0	0	0	0	0	0	0	0	0	0	0	0	0	0	0	0.000000000
1504704713.520904064	-0.374291	-0.449456	-1.12748	0.29299	-0.286854	-3.14466	0.076699	0	0	0	0	0	0	0	0	0	0	0	0	0	0	0.000000000	0	0	0	0	0	0	0	0	0	0	0	0	0	0	0	0	0	0	0	0	0	0.000000000
1504704713.541141033	-0.374291	-0.449456	-1.12901	0.29299	-0.28532	-3.14466	0.076699	0	0	0	0	0	0	0	0	0	0	0	0	0	0	0.000000000	0	0	0	0	0	0	0	0	0	0	0	0	0	0	0	0	0	0	0	0	0	0.000000000
1504704713.560792922	-0.374291	-0.449456	-1.12901	0.29299	-0.286854	-3.14466	0.076699	0	0	0	0	0	0	0	0	0	0	0	0	0	0	0.000000000	0	0	0	0	0	0	0	0	0	0	0	0	0	0	0	0	0	0	0	0	0	0.000000000
1504704713.580900907	-0.374291	-0.449456	-1.12901	0.29299	-0.286854	-3.14466	0.076699	0	0	0	0	0	0	0	0	0	0	0	0	0	0	0.000000000	0	0	0	0	0	0	0	0	0	0	0	0	0	0	0	0	0	0	0	0	0	0.000000000
1504704713.600765943	-0.374291	-0.449456	-1.12901	0.29299	-0.286854	-3.14466	0.076699	0	0	0	0	0	0	0	0	0	0	0	0	0	0	0.000000000	0	0	0	0	0	0	0	0	0	0	0	0	0	0	0	0	0	0	0	0	0	0.000000000
1504704713.620892047	-0.374291	-0.449456	-1.12901	0.29299	-0.286854	-3.14466	0.076699	0	0	0	0	0	0	0	0	0	0	0	0	0	0	0.000000000	0	0	0	0	0	0	0	0	0	0	0	0	0	0	0	0	0	0	0	0	0	0.000000000
1504704713.641094923	-0.374291	-0.449456	-1.12901	0.29299	-0.286854	-3.14466	0.076699	0	0	0	0	0	0	0	0	0	0	0	0	0	0	0.000000000	0	0	0	0	0	0	0	0	0	0	0	0	0	0	0	0	0	0	0	0	0	0.000000000
1504704713.660904884	-0.374291	-0.449456	-1.12901	0.29299	-0.286854	-3.14313	0.076699	0	0	0	0	0	0	0	0	0	0	0	0	0	0	0.000000000	0	0	0	0	0	0	0	0	0	0	0	0	0	0	0	0	0	0	0	0	0	0.000000000
1504704713.680903911	-0.374291	-0.449456	-1.12901	0.29299	-0.286854	-3.14466	0.076699	0	0	0	0	0	0	0	0	0	0	0	0	0	0	0.000000000	0	0	0	0	0	0	0	0	0	0	0	0	0	0	0	0	0	0	0	0	0	0.000000000
1504704713.700817108	-0.374291	-0.449456	-1.12901	0.29299	-0.28532	-3.14466	0.076699	0	0	0	0	0	0	0	0	0	0	0	0	0	0	0.000000000	0	0	0	0	0	0	0	0	0	0	0	0	0	0	0	0	0	0	0	0	0	0.000000000
1504704713.720963001	-0.374291	-0.449456	-1.12901	0.29299	-0.28532	-3.14466	0.076699	0	0	0	0	0	0	0	0	0	0	0	0	0	0	0.000000000	0	0	0	0	0	0	0	0	0	0	0	0	0	0	0	0	0	0	0	0	0	0.000000000
1504704713.740920066	-0.374291	-0.449456	-1.12901	0.29299	-0.286854	-3.14313	0.076699	0	0	0	0	0	0	0	0	0	0	0	0	0	0	0.000000000	0	0	0	0	0	0	0	0	0	0	0	0	0	0	0	0	0	0	0	0	0	0.000000000
1504704713.761351108	-0.374291	-0.449456	-1.12901	0.29299	-0.286854	-3.14466	0.076699	0	0	0	0	0	0	0	0	0	0	0	0	0	0	0.000000000	0	0	0	0	0	0	0	0	0	0	0	0	0	0	0	0	0	0	0	0	0	0.000000000
1504704713.780863046	-0.374291	-0.449456	-1.12901	0.29299	-0.28532	-3.14466	0.076699	0	0	0	0	0	0	0	0	0	0	0	0	0	0	0.000000000	0	0	0	0	0	0	0	0	0	0	0	0	0	0	0	0	0	0	0	0	0	0.000000000
1504704713.800816059	-0.374291	-0.449456	-1.12901	0.29299	-0.286854	-3.14466	0.076699	0	0	0	0	0	0	0	0	0	0	0	0	0	0	0.000000000	0	0	0	0	0	0	0	0	0	0	0	0	0	0	0	0	0	0	0	0	0	0.000000000
1504704713.821496009	-0.374291	-0.449456	-1.12901	0.29299	-0.286854	-3.14466	0.076699	0	0	0	0	0	0	0	0	0	0	0	0	0	0	0.000000000	0	0	0	0	0	0	0	0	0	0	0	0	0	0	0	0	0	0	0	0	0	0.000000000
1504704713.840823888	-0.374291	-0.449456	-1.12901	0.29299	-0.286854	-3.14466	0.076699	0	0	0	0	0	0	0	0	0	0	0	0	0	0	0.000000000	0	0	0	0	0	0	0	0	0	0	0	0	0	0	0	0	0	0	0	0	0	0.000000000
1504704713.860965967	-0.374291	-0.449456	-1.12901	0.29299	-0.286854	-3.14466	0.078233	0	0	0	0	0	0	0	0	0	0	0	0	0	0	0.000000000	0	0	0	0	0	0	0	0	0	0	0	0	0	0	0	0	0	0	0	0	0	0.000000000
1504704713.880907058	-0.374291	-0.449456	-1.12901	0.29299	-0.28532	-3.14466	0.076699	0	0	0	0	0	0	0	0	0	0	0	0	0	0	0.000000000	0	0	0	0	0	0	0	0	0	0	0	0	0	0	0	0	0	0	0	0	0	0.000000000
1504704713.900962114	-0.374291	-0.449456	-1.12901	0.29299	-0.28532	-3.14466	0.076699	0	0	0	0	0	0	0	0	0	0	0	0	0	0	0.000000000	0	0	0	0	0	0	0	0	0	0	0	0	0	0	0	0	0	0	0	0	0	0.000000000
1504704713.920933008	-0.374291	-0.449456	-1.12901	0.29299	-0.28532	-3.14466	0.076699	0	0	0	0	0	0	0	0	0	0	0	0	0	0	0.000000000	0	0	0	0	0	0	0	0	0	0	0	0	0	0	0	0	0	0	0	0	0	0.000000000
1504704713.941286087	-0.374291	-0.449456	-1.12901	0.29299	-0.286854	-3.14466	0.076699	0	0	0	0	0	0	0	0	0	0	0	0	0	0	0.000000000	0	0	0	0	0	0	0	0	0	0	0	0	0	0	0	0	0	0	0	0	0	0.000000000
1504704713.960849046	-0.374291	-0.449456	-1.12901	0.29299	-0.286854	-3.14466	0.076699	0	0	0	0	0	0	0	0	0	0	0	0	0	0	0.000000000	0	0	0	0	0	0	0	0	0	0	0	0	0	0	0	0	0	0	0	0	0	0.000000000
1504704713.980870008	-0.374291	-0.449456	-1.12901	0.29299	-0.28532	-3.14466	0.076699	0	0	0	0	0	0	0	0	0	0	0	0	0	0	0.000000000	0	0	0	0	0	0	0	0	0	0	0	0	0	0	0	0	0	0	0	0	0	0.000000000
1504704714.000935077	-0.374291	-0.449456	-1.12901	0.29299	-0.286854	-3.14466	0.076699	0	0	0	0	0	0	0	0	0	0	0	0	0	0	0.000000000	0	0	0	0	0	0	0	0	0	0	0	0	0	0	0	0	0	0	0	0	0	0.000000000
1504704714.021400928	-0.374291	-0.449456	-1.12901	0.29299	-0.286854	-3.14466	0.076699	0	0	0	0	0	0	0	0	0	0	0	0	0	0	0.000000000	0	0	0	0	0	0	0	0	0	0	0	0	0	0	0	0	0	0	0	0	0	0.000000000
1504704714.040914058	-0.374291	-0.449456	-1.12901	0.29299	-0.286854	-3.14466	0.076699	0	0	0	0	0	0	0	0	0	0	0	0	0	0	0.000000000	0	0	0	0	0	0	0	0	0	0	0	0	0	0	0	0	0	0	0	0	0	0.000000000
1504704714.060945034	-0.374291	-0.449456	-1.12901	0.29299	-0.28532	-3.14466	0.078233	0	0	0	0	0	0	0	0	0	0	0	0	0	0	0.000000000	0	0	0	0	0	0	0	0	0	0	0	0	0	0	0	0	0	0	0	0	0	0.000000000
1504704714.080908060	-0.374291	-0.449456	-1.12901	0.29299	-0.28532	-3.14466	0.076699	0	0	0	0	0	0	0	0	0	0	0	0	0	0	0.000000000	0	0	0	0	0	0	0	0	0	0	0	0	0	0	0	0	0	0	0	0	0	0.000000000
1504704714.100837945	-0.374291	-0.449456	-1.12901	0.29299	-0.286854	-3.14313	0.076699	0	0	0	0	0	0	0	0	0	0	0	0	0	0	0.000000000	0	0	0	0	0	0	0	0	0	0	0	0	0	0	0	0	0	0	0	0	0	0.000000000
1504704714.120922088	-0.374291	-0.449456	-1.12901	0.29299	-0.286854	-3.14313	0.076699	0	0	0	0	0	0	0	0	0	0	0	0	0	0	0.000000000	0	0	0	0	0	0	0	0	0	0	0	0	0	0	0	0	0	0	0	0	0	0.000000000
1504704714.141247034	-0.374291	-0.449456	-1.12748	0.29299	-0.286854	-3.14466	0.076699	0	0	0	0	0	0	0	0	0	0	0	0	0	0	0.000000000	0	0	0	0	0	0	0	0	0	0	0	0	0	0	0	0	0	0	0	0	0	0.000000000
1504704714.160881042	-0.374291	-0.449456	-1.12901	0.29299	-0.286854	-3.14466	0.076699	0	0	0	0	0	0	0	0	0	0	0	0	0	0	0.000000000	0	0	0	0	0	0	0	0	0	0	0	0	0	0	0	0	0	0	0	0	0	0.000000000
1504704714.180917024	-0.374291	-0.449456	-1.12901	0.29299	-0.286854	-3.14466	0.076699	0	0	0	0	0	0	0	0	0	0	0	0	0	0	0.000000000	0	0	0	0	0	0	0	0	0	0	0	0	0	0	0	0	0	0	0	0	0	0.000000000
1504704714.200834989	-0.374291	-0.449456	-1.12901	0.29299	-0.286854	-3.14466	0.076699	0	0	0	0	0	0	0	0	0	0	0	0	0	0	0.000000000	0	0	0	0	0	0	0	0	0	0	0	0	0	0	0	0	0	0	0	0	0	0.000000000
1504704714.220860958	-0.374291	-0.449456	-1.12901	0.29299	-0.286854	-3.14466	0.076699	0	0	0	0	0	0	0	0	0	0	0	0	0	0	0.000000000	0	0	0	0	0	0	0	0	0	0	0	0	0	0	0	0	0	0	0	0	0	0.000000000
1504704714.240917921	-0.374291	-0.449456	-1.12901	0.29299	-0.28532	-3.14466	0.076699	0	0	0	0	0	0	0	0	0	0	0	0	0	0	0.000000000	0	0	0	0	0	0	0	0	0	0	0	0	0	0	0	0	0	0	0	0	0	0.000000000
1504704714.260898113	-0.374291	-0.449456	-1.12901	0.29299	-0.28532	-3.14466	0.076699	0	0	0	0	0	0	0	0	0	0	0	0	0	0	0.000000000	0	0	0	0	0	0	0	0	0	0	0	0	0	0	0	0	0	0	0	0	0	0.000000000
1504704714.280929088	-0.374291	-0.449456	-1.12901	0.29299	-0.286854	-3.14466	0.076699	0	0	0	0	0	0	0	0	0	0	0	0	0	0	0.000000000	0	0	0	0	0	0	0	0	0	0	0	0	0	0	0	0	0	0	0	0	0	0.000000000
1504704714.300806999	-0.374291	-0.449456	-1.12901	0.29299	-0.286854	-3.14466	0.076699	0	0	0	0	0	0	0	0	0	0	0	0	0	0	0.000000000	0	0	0	0	0	0	0	0	0	0	0	0	0	0	0	0	0	0	0	0	0	0.000000000
1504704714.320800065	-0.374291	-0.449456	-1.12901	0.29299	-0.286854	-3.14466	0.076699	0	0	0	0	0	0	0	0	0	0	0	0	0	0	0.000000000	0	0	0	0	0	0	0	0	0	0	0	0	0	0	0	0	0	0	0	0	0	0.000000000
1504704714.341077089	-0.374291	-0.449456	-1.12901	0.29299	-0.286854	-3.14466	0.076699	0	0	0	0	0	0	0	0	0	0	0	0	0	0	0.000000000	0	0	0	0	0	0	0	0	0	0	0	0	0	0	0	0	0	0	0	0	0	0.000000000
1504704714.360930919	-0.374291	-0.449456	-1.12901	0.29299	-0.286854	-3.14466	0.076699	0	0	0	0	0	0	0	0	0	0	0	0	0	0	0.000000000	0	0	0	0	0	0	0	0	0	0	0	0	0	0	0	0	0	0	0	0	0	0.000000000
1504704714.380948066	-0.374291	-0.449456	-1.12901	0.29299	-0.28532	-3.14313	0.076699	0	0	0	0	0	0	0	0	0	0	0	0	0	0	0.000000000	0	0	0	0	0	0	0	0	0	0	0	0	0	0	0	0	0	0	0	0	0	0.000000000
1504704714.400782108	-0.374291	-0.449456	-1.12901	0.29299	-0.286854	-3.14466	0.076699	0	0	0	0	0	0	0	0	0	0	0	0	0	0	0.000000000	0	0	0	0	0	0	0	0	0	0	0	0	0	0	0	0	0	0	0	0	0	0.000000000
1504704714.420938014	-0.374291	-0.449456	-1.12901	0.29299	-0.286854	-3.14466	0.076699	0	0	0	0	0	0	0	0	0	0	0	0	0	0	0.000000000	0	0	0	0	0	0	0	0	0	0	0	0	0	0	0	0	0	0	0	0	0	0.000000000
1504704714.441148996	-0.374291	-0.449456	-1.12901	0.29299	-0.286854	-3.14466	0.076699	0	0	0	0	0	0	0	0	0	0	0	0	0	0	0.000000000	0	0	0	0	0	0	0	0	0	0	0	0	0	0	0	0	0	0	0	0	0	0.000000000
1504704714.460799932	-0.374291	-0.449456	-1.12901	0.29299	-0.286854	-3.14466	0.076699	0	0	0	0	0	0	0	0	0	0	0	0	0	0	0.000000000	0	0	0	0	0	0	0	0	0	0	0	0	0	0	0	0	0	0	0	0	0	0.000000000
1504704714.480789899	-0.374291	-0.449456	-1.12901	0.29299	-0.28532	-3.14313	0.076699	0	0	0	0	0	0	0	0	0	0	0	0	0	0	0.000000000	0	0	0	0	0	0	0	0	0	0	0	0	0	0	0	0	0	0	0	0	0	0.000000000
1504704714.500807046	-0.374291	-0.449456	-1.12901	0.29299	-0.286854	-3.14466	0.076699	0	0	0	0	0	0	0	0	0	0	0	0	0	0	0.000000000	0	0	0	0	0	0	0	0	0	0	0	0	0	0	0	0	0	0	0	0	0	0.000000000
1504704714.520940065	-0.374291	-0.449456	-1.12901	0.29299	-0.286854	-3.14466	0.076699	0	0	0	0	0	0	0	0	0	0	0	0	0	0	0.000000000	0	0	0	0	0	0	0	0	0	0	0	0	0	0	0	0	0	0	0	0	0	0.000000000
1504704714.540832996	-0.374291	-0.449456	-1.12901	0.29299	-0.286854	-3.14466	0.076699	0	0	0	0	0	0	0	0	0	0	0	0	0	0	0.000000000	0	0	0	0	0	0	0	0	0	0	0	0	0	0	0	0	0	0	0	0	0	0.000000000
1504704714.560797929	-0.374291	-0.449456	-1.12901	0.29299	-0.286854	-3.14466	0.076699	0	0	0	0	0	0	0	0	0	0	0	0	0	0	0.000000000	0	0	0	0	0	0	0	0	0	0	0	0	0	0	0	0	0	0	0	0	0	0.000000000
1504704714.580743074	-0.374291	-0.449456	-1.12901	0.29299	-0.286854	-3.14466	0.076699	0	0	0	0	0	0	0	0	0	0	0	0	0	0	0.000000000	0	0	0	0	0	0	0	0	0	0	0	0	0	0	0	0	0	0	0	0	0	0.000000000
1504704714.600778102	-0.374291	-0.449456	-1.12901	0.29299	-0.286854	-3.14313	0.076699	0	0	0	0	0	0	0	0	0	0	0	0	0	0	0.000000000	0	0	0	0	0	0	0	0	0	0	0	0	0	0	0	0	0	0	0	0	0	0.000000000
1504704714.621973991	-0.374291	-0.449456	-1.12901	0.29299	-0.28532	-3.14466	0.076699	0	0	0	0	0	0	0	0	0	0	0	0	0	0	0.000000000	0	0	0	0	0	0	0	0	0	0	0	0	0	0	0	0	0	0	0	0	0	0.000000000
1504704714.640701055	-0.374291	-0.449456	-1.12901	0.29299	-0.28532	-3.14466	0.076699	0	0	0	0	0	0	0	0	0	0	0	0	0	0	0.000000000	0	0	0	0	0	0	0	0	0	0	0	0	0	0	0	0	0	0	0	0	0	0.000000000
1504704714.660697937	-0.374291	-0.449456	-1.12901	0.29299	-0.286854	-3.14466	0.076699	0	0	0	0	0	0	0	0	0	0	0	0	0	0	0.000000000	0	0	0	0	0	0	0	0	0	0	0	0	0	0	0	0	0	0	0	0	0	0.000000000
1504704714.681349992	-0.374291	-0.449456	-1.12901	0.29299	-0.286854	-3.14466	0.076699	0	0	0	0	0	0	0	0	0	0	0	0	0	0	0.000000000	0	0	0	0	0	0	0	0	0	0	0	0	0	0	0	0	0	0	0	0	0	0.000000000
1504704714.700838088	-0.374291	-0.449456	-1.12901	0.29299	-0.28532	-3.14466	0.076699	0	0	0	0	0	0	0	0	0	0	0	0	0	0	0.000000000	0	0	0	0	0	0	0	0	0	0	0	0	0	0	0	0	0	0	0	0	0	0.000000000
1504704714.721224069	-0.374291	-0.449456	-1.12901	0.29299	-0.286854	-3.14466	0.076699	0	0	0	0	0	0	0	0	0	0	0	0	0	0	0.000000000	0	0	0	0	0	0	0	0	0	0	0	0	0	0	0	0	0	0	0	0	0	0.000000000
1504704714.740777969	-0.374291	-0.449456	-1.12901	0.29299	-0.286854	-3.14466	0.076699	0	0	0	0	0	0	0	0	0	0	0	0	0	0	0.000000000	0	0	0	0	0	0	0	0	0	0	0	0	0	0	0	0	0	0	0	0	0	0.000000000
1504704714.760783910	-0.374291	-0.449456	-1.12748	0.29299	-0.286854	-3.14466	0.076699	0	0	0	0	0	0	0	0	0	0	0	0	0	0	0.000000000	0	0	0	0	0	0	0	0	0	0	0	0	0	0	0	0	0	0	0	0	0	0.000000000
1504704714.780757904	-0.374291	-0.449456	-1.12901	0.29299	-0.286854	-3.14313	0.076699	0	0	0	0	0	0	0	0	0	0	0	0	0	0	0.000000000	0	0	0	0	0	0	0	0	0	0	0	0	0	0	0	0	0	0	0	0	0	0.000000000
1504704714.800817012	-0.374291	-0.449456	-1.12901	0.29299	-0.28532	-3.14466	0.076699	0	0	0	0	0	0	0	0	0	0	0	0	0	0	0.000000000	0	0	0	0	0	0	0	0	0	0	0	0	0	0	0	0	0	0	0	0	0	0.000000000
1504704714.821090936	-0.374291	-0.449456	-1.12901	0.29299	-0.28532	-3.14466	0.076699	0	0	0	0	0	0	0	0	0	0	0	0	0	0	0.000000000	0	0	0	0	0	0	0	0	0	0	0	0	0	0	0	0	0	0	0	0	0	0.000000000
1504704714.840795993	-0.374291	-0.449456	-1.12901	0.29299	-0.286854	-3.14466	0.076699	0	0	0	0	0	0	0	0	0	0	0	0	0	0	0.000000000	0	0	0	0	0	0	0	0	0	0	0	0	0	0	0	0	0	0	0	0	0	0.000000000
1504704714.860827922	-0.374291	-0.449456	-1.12901	0.29299	-0.286854	-3.14466	0.076699	0	0	0	0	0	0	0	0	0	0	0	0	0	0	0.000000000	0	0	0	0	0	0	0	0	0	0	0	0	0	0	0	0	0	0	0	0	0	0.000000000
1504704714.881079912	-0.374291	-0.449456	-1.12901	0.29299	-0.286854	-3.14466	0.076699	0	0	0	0	0	0	0	0	0	0	0	0	0	0	0.000000000	0	0	0	0	0	0	0	0	0	0	0	0	0	0	0	0	0	0	0	0	0	0.000000000
1504704714.900789976	-0.374291	-0.449456	-1.12901	0.29299	-0.286854	-3.14466	0.076699	0	0	0	0	0	0	0	0	0	0	0	0	0	0	0.000000000	0	0	0	0	0	0	0	0	0	0	0	0	0	0	0	0	0	0	0	0	0	0.000000000
1504704714.920892000	-0.374291	-0.449456	-1.12901	0.29299	-0.286854	-3.14466	0.076699	0	0	0	0	0	0	0	0	0	0	0	0	0	0	0.000000000	0	0	0	0	0	0	0	0	0	0	0	0	0	0	0	0	0	0	0	0	0	0.000000000
1504704714.940896034	-0.374291	-0.449456	-1.12901	0.29299	-0.28532	-3.14466	0.076699	0	0	0	0	0	0	0	0	0	0	0	0	0	0	0.000000000	0	0	0	0	0	0	0	0	0	0	0	0	0	0	0	0	0	0	0	0	0	0.000000000
1504704714.961178064	-0.374291	-0.449456	-1.12901	0.29299	-0.286854	-3.14466	0.076699	0	0	0	0	0	0	0	0	0	0	0	0	0	0	0.000000000	0	0	0	0	0	0	0	0	0	0	0	0	0	0	0	0	0	0	0	0	0	0.000000000
1504704714.980968952	-0.374291	-0.449456	-1.12901	0.29299	-0.28532	-3.14466	0.076699	0	0	0	0	0	0	0	0	0	0	0	0	0	0	0.000000000	0	0	0	0	0	0	0	0	0	0	0	0	0	0	0	0	0	0	0	0	0	0.000000000
1504704715.000827074	-0.374291	-0.449456	-1.12901	0.29299	-0.286854	-3.14466	0.076699	0	0	0	0	0	0	0	0	0	0	0	0	0	0	0.000000000	0	0	0	0	0	0	0	0	0	0	0	0	0	0	0	0	0	0	0	0	0	0.000000000
1504704715.020788908	-0.374291	-0.449456	-1.12901	0.29299	-0.286854	-3.14466	0.076699	0	0	0	0	0	0	0	0	0	0	0	0	0	0	0.000000000	0	0	0	0	0	0	0	0	0	0	0	0	0	0	0	0	0	0	0	0	0	0.000000000
1504704715.040915966	-0.374291	-0.449456	-1.12901	0.29299	-0.28532	-3.14466	0.076699	0	0	0	0	0	0	0	0	0	0	0	0	0	0	0.000000000	0	0	0	0	0	0	0	0	0	0	0	0	0	0	0	0	0	0	0	0	0	0.000000000
1504704715.060797929	-0.374291	-0.449456	-1.12901	0.29299	-0.286854	-3.14466	0.076699	0	0	0	0	0	0	0	0	0	0	0	0	0	0	0.000000000	0	0	0	0	0	0	0	0	0	0	0	0	0	0	0	0	0	0	0	0	0	0.000000000
1504704715.080902099	-0.374291	-0.449456	-1.12901	0.29299	-0.286854	-3.14466	0.076699	0	0	0	0	0	0	0	0	0	0	0	0	0	0	0.000000000	0	0	0	0	0	0	0	0	0	0	0	0	0	0	0	0	0	0	0	0	0	0.000000000
1504704715.101442098	-0.374291	-0.449456	-1.12901	0.29299	-0.286854	-3.14466	0.076699	0	0	0	0	0	0	0	0	0	0	0	0	0	0	0.000000000	0	0	0	0	0	0	0	0	0	0	0	0	0	0	0	0	0	0	0	0	0	0.000000000
1504704715.120985984	-0.374291	-0.449456	-1.12901	0.29299	-0.28532	-3.14466	0.076699	0	0	0	0	0	0	0	0	0	0	0	0	0	0	0.000000000	0	0	0	0	0	0	0	0	0	0	0	0	0	0	0	0	0	0	0	0	0	0.000000000
1504704715.140834093	-0.374291	-0.449456	-1.12901	0.29299	-0.286854	-3.14466	0.076699	0	0	0	0	0	0	0	0	0	0	0	0	0	0	0.000000000	0	0	0	0	0	0	0	0	0	0	0	0	0	0	0	0	0	0	0	0	0	0.000000000
1504704715.160939931	-0.374291	-0.449456	-1.12901	0.29299	-0.28532	-3.14466	0.076699	0	0	0	0	0	0	0	0	0	0	0	0	0	0	0.000000000	0	0	0	0	0	0	0	0	0	0	0	0	0	0	0	0	0	0	0	0	0	0.000000000
1504704715.180830001	-0.374291	-0.449456	-1.12901	0.29299	-0.286854	-3.14313	0.076699	0	0	0	0	0	0	0	0	0	0	0	0	0	0	0.000000000	0	0	0	0	0	0	0	0	0	0	0	0	0	0	0	0	0	0	0	0	0	0.000000000
1504704715.200933933	-0.374291	-0.449456	-1.12901	0.29299	-0.286854	-3.14466	0.076699	0	0	0	0	0	0	0	0	0	0	0	0	0	0	0.000000000	0	0	0	0	0	0	0	0	0	0	0	0	0	0	0	0	0	0	0	0	0	0.000000000
1504704715.221451997	-0.374291	-0.449456	-1.12901	0.29299	-0.286854	-3.14466	0.076699	0	0	0	0	0	0	0	0	0	0	0	0	0	0	0.000000000	0	0	0	0	0	0	0	0	0	0	0	0	0	0	0	0	0	0	0	0	0	0.000000000
1504704715.240987062	-0.374291	-0.449456	-1.12901	0.29299	-0.286854	-3.14313	0.076699	0	0	0	0	0	0	0	0	0	0	0	0	0	0	0.000000000	0	0	0	0	0	0	0	0	0	0	0	0	0	0	0	0	0	0	0	0	0	0.000000000
1504704715.260921955	-0.374291	-0.449456	-1.12901	0.29299	-0.286854	-3.14466	0.076699	0	0	0	0	0	0	0	0	0	0	0	0	0	0	0.000000000	0	0	0	0	0	0	0	0	0	0	0	0	0	0	0	0	0	0	0	0	0	0.000000000
1504704715.280975103	-0.374291	-0.449456	-1.12901	0.29299	-0.286854	-3.14313	0.076699	0	0	0	0	0	0	0	0	0	0	0	0	0	0	0.000000000	0	0	0	0	0	0	0	0	0	0	0	0	0	0	0	0	0	0	0	0	0	0.000000000
1504704715.301114082	-0.374291	-0.449456	-1.12901	0.29299	-0.286854	-3.14466	0.076699	0	0	0	0	0	0	0	0	0	0	0	0	0	0	0.000000000	0	0	0	0	0	0	0	0	0	0	0	0	0	0	0	0	0	0	0	0	0	0.000000000
1504704715.321005105	-0.374291	-0.449456	-1.12901	0.29299	-0.286854	-3.14466	0.076699	0	0	0	0	0	0	0	0	0	0	0	0	0	0	0.000000000	0	0	0	0	0	0	0	0	0	0	0	0	0	0	0	0	0	0	0	0	0	0.000000000
1504704715.340956926	-0.374291	-0.449456	-1.12901	0.29299	-0.286854	-3.14466	0.076699	0	0	0	0	0	0	0	0	0	0	0	0	0	0	0.000000000	0	0	0	0	0	0	0	0	0	0	0	0	0	0	0	0	0	0	0	0	0	0.000000000
1504704715.360910892	-0.374291	-0.449456	-1.12901	0.29299	-0.286854	-3.14466	0.078233	0	0	0	0	0	0	0	0	0	0	0	0	0	0	0.000000000	0	0	0	0	0	0	0	0	0	0	0	0	0	0	0	0	0	0	0	0	0	0.000000000
1504704715.380903005	-0.374291	-0.449456	-1.12901	0.29299	-0.286854	-3.14466	0.076699	0	0	0	0	0	0	0	0	0	0	0	0	0	0	0.000000000	0	0	0	0	0	0	0	0	0	0	0	0	0	0	0	0	0	0	0	0	0	0.000000000
1504704715.400909900	-0.374291	-0.449456	-1.12901	0.29299	-0.286854	-3.14466	0.076699	0	0	0	0	0	0	0	0	0	0	0	0	0	0	0.000000000	0	0	0	0	0	0	0	0	0	0	0	0	0	0	0	0	0	0	0	0	0	0.000000000
1504704715.421006917	-0.374291	-0.449456	-1.12901	0.29299	-0.286854	-3.14466	0.076699	0	0	0	0	0	0	0	0	0	0	0	0	0	0	0.000000000	0	0	0	0	0	0	0	0	0	0	0	0	0	0	0	0	0	0	0	0	0	0.000000000
1504704715.440913915	-0.374291	-0.449456	-1.12901	0.29299	-0.28532	-3.14466	0.076699	0	0	0	0	0	0	0	0	0	0	0	0	0	0	0.000000000	0	0	0	0	0	0	0	0	0	0	0	0	0	0	0	0	0	0	0	0	0	0.000000000
1504704715.461026906	-0.374291	-0.449456	-1.12901	0.29299	-0.28532	-3.14466	0.076699	0	0	0	0	0	0	0	0	0	0	0	0	0	0	0.000000000	0	0	0	0	0	0	0	0	0	0	0	0	0	0	0	0	0	0	0	0	0	0.000000000
1504704715.480942964	-0.374291	-0.449456	-1.12901	0.29299	-0.286854	-3.14466	0.076699	0	0	0	0	0	0	0	0	0	0	0	0	0	0	0.000000000	0	0	0	0	0	0	0	0	0	0	0	0	0	0	0	0	0	0	0	0	0	0.000000000
1504704715.500905990	-0.372757	-0.449456	-1.12901	0.29299	-0.286854	-3.14466	0.076699	0	0	0	0	0	0	0	0	0	0	0	0	0	0	0.000000000	0	0	0	0	0	0	0	0	0	0	0	0	0	0	0	0	0	0	0	0	0	0.000000000
1504704715.520905971	-0.372757	-0.449456	-1.12901	0.29299	-0.286854	-3.14466	0.076699	0	0	0	0	0	0	0	0	0	0	0	0	0	0	0.000000000	0	0	0	0	0	0	0	0	0	0	0	0	0	0	0	0	0	0	0	0	0	0.000000000
1504704715.540951013	-0.374291	-0.449456	-1.12901	0.29299	-0.28532	-3.14466	0.076699	0	0	0	0	0	0	0	0	0	0	0	0	0	0	0.000000000	0	0	0	0	0	0	0	0	0	0	0	0	0	0	0	0	0	0	0	0	0	0.000000000
1504704715.560807943	-0.374291	-0.449456	-1.12901	0.29299	-0.286854	-3.14466	0.076699	0	0	0	0	0	0	0	0	0	0	0	0	0	0	0.000000000	0	0	0	0	0	0	0	0	0	0	0	0	0	0	0	0	0	0	0	0	0	0.000000000
1504704715.580909013	-0.374291	-0.449456	-1.12901	0.29299	-0.286854	-3.14313	0.076699	0	0	0	0	0	0	0	0	0	0	0	0	0	0	0.000000000	0	0	0	0	0	0	0	0	0	0	0	0	0	0	0	0	0	0	0	0	0	0.000000000
1504704715.601126909	-0.374291	-0.449456	-1.12901	0.29299	-0.28532	-3.14466	0.078233	0	0	0	0	0	0	0	0	0	0	0	0	0	0	0.000000000	0	0	0	0	0	0	0	0	0	0	0	0	0	0	0	0	0	0	0	0	0	0.000000000
1504704715.621018886	-0.374291	-0.449456	-1.12901	0.29299	-0.28532	-3.14466	0.078233	0	0	0	0	0	0	0	0	0	0	0	0	0	0	0.000000000	0	0	0	0	0	0	0	0	0	0	0	0	0	0	0	0	0	0	0	0	0	0.000000000
1504704715.640857934	-0.374291	-0.449456	-1.12901	0.29299	-0.28532	-3.14466	0.076699	0	0	0	0	0	0	0	0	0	0	0	0	0	0	0.000000000	0	0	0	0	0	0	0	0	0	0	0	0	0	0	0	0	0	0	0	0	0	0.000000000
1504704715.660974979	-0.374291	-0.449456	-1.12901	0.29299	-0.28532	-3.14466	0.076699	0	0	0	0	0	0	0	0	0	0	0	0	0	0	0.000000000	0	0	0	0	0	0	0	0	0	0	0	0	0	0	0	0	0	0	0	0	0	0.000000000
1504704715.681047916	-0.374291	-0.449456	-1.12901	0.29299	-0.286854	-3.14466	0.076699	0	0	0	0	0	0	0	0	0	0	0	0	0	0	0.000000000	0	0	0	0	0	0	0	0	0	0	0	0	0	0	0	0	0	0	0	0	0	0.000000000
1504704715.701014041	-0.374291	-0.449456	-1.12901	0.29299	-0.286854	-3.14466	0.076699	0	0	0	0	0	0	0	0	0	0	0	0	0	0	0.000000000	0	0	0	0	0	0	0	0	0	0	0	0	0	0	0	0	0	0	0	0	0	0.000000000
1504704715.720905065	-0.374291	-0.449456	-1.12901	0.29299	-0.286854	-3.14466	0.076699	0	0	0	0	0	0	0	0	0	0	0	0	0	0	0.000000000	0	0	0	0	0	0	0	0	0	0	0	0	0	0	0	0	0	0	0	0	0	0.000000000
1504704715.740969896	-0.374291	-0.449456	-1.12901	0.29299	-0.28532	-3.14466	0.076699	0	0	0	0	0	0	0	0	0	0	0	0	0	0	0.000000000	0	0	0	0	0	0	0	0	0	0	0	0	0	0	0	0	0	0	0	0	0	0.000000000
1504704715.761059045	-0.374291	-0.449456	-1.12901	0.29299	-0.286854	-3.14466	0.076699	0	0	0	0	0	0	0	0	0	0	0	0	0	0	0.000000000	0	0	0	0	0	0	0	0	0	0	0	0	0	0	0	0	0	0	0	0	0	0.000000000
1504704715.780953884	-0.374291	-0.449456	-1.12901	0.29299	-0.286854	-3.14466	0.076699	0	0	0	0	0	0	0	0	0	0	0	0	0	0	0.000000000	0	0	0	0	0	0	0	0	0	0	0	0	0	0	0	0	0	0	0	0	0	0.000000000
1504704715.800991058	-0.374291	-0.449456	-1.12901	0.29299	-0.286854	-3.14313	0.076699	0	0	0	0	0	0	0	0	0	0	0	0	0	0	0.000000000	0	0	0	0	0	0	0	0	0	0	0	0	0	0	0	0	0	0	0	0	0	0.000000000
1504704715.821427106	-0.374291	-0.449456	-1.12901	0.29299	-0.286854	-3.14313	0.076699	0	0	0	0	0	0	0	0	0	0	0	0	0	0	0.000000000	0	0	0	0	0	0	0	0	0	0	0	0	0	0	0	0	0	0	0	0	0	0.000000000
1504704715.840967893	-0.372757	-0.449456	-1.12901	0.29299	-0.286854	-3.14466	0.076699	0	0	0	0	0	0	0	0	0	0	0	0	0	0	0.000000000	0	0	0	0	0	0	0	0	0	0	0	0	0	0	0	0	0	0	0	0	0	0.000000000
1504704715.860842943	-0.374291	-0.449456	-1.12748	0.29299	-0.28532	-3.14313	0.076699	0	0	0	0	0	0	0	0	0	0	0	0	0	0	0.000000000	0	0	0	0	0	0	0	0	0	0	0	0	0	0	0	0	0	0	0	0	0	0.000000000
1504704715.880906105	-0.374291	-0.449456	-1.12901	0.29299	-0.286854	-3.14466	0.076699	0	0	0	0	0	0	0	0	0	0	0	0	0	0	0.000000000	0	0	0	0	0	0	0	0	0	0	0	0	0	0	0	0	0	0	0	0	0	0.000000000
1504704715.901047945	-0.372757	-0.449456	-1.12901	0.29299	-0.286854	-3.14466	0.076699	0	0	0	0	0	0	0	0	0	0	0	0	0	0	0.000000000	0	0	0	0	0	0	0	0	0	0	0	0	0	0	0	0	0	0	0	0	0	0.000000000
1504704715.921235084	-0.372757	-0.449456	-1.12901	0.29299	-0.286854	-3.14466	0.076699	0	0	0	0	0	0	0	0	0	0	0	0	0	0	0.000000000	0	0	0	0	0	0	0	0	0	0	0	0	0	0	0	0	0	0	0	0	0	0.000000000
1504704715.940931081	-0.374291	-0.449456	-1.12901	0.29299	-0.28532	-3.14466	0.076699	0	0	0	0	0	0	0	0	0	0	0	0	0	0	0.000000000	0	0	0	0	0	0	0	0	0	0	0	0	0	0	0	0	0	0	0	0	0	0.000000000
1504704715.960971117	-0.374291	-0.449456	-1.12901	0.29299	-0.286854	-3.14466	0.076699	0	0	0	0	0	0	0	0	0	0	0	0	0	0	0.000000000	0	0	0	0	0	0	0	0	0	0	0	0	0	0	0	0	0	0	0	0	0	0.000000000
1504704715.980953931	-0.374291	-0.449456	-1.12901	0.29299	-0.286854	-3.14466	0.076699	0	0	0	0	0	0	0	0	0	0	0	0	0	0	0.000000000	0	0	0	0	0	0	0	0	0	0	0	0	0	0	0	0	0	0	0	0	0	0.000000000
1504704716.000945091	-0.374291	-0.449456	-1.12901	0.29299	-0.286854	-3.14466	0.076699	0	0	0	0	0	0	0	0	0	0	0	0	0	0	0.000000000	0	0	0	0	0	0	0	0	0	0	0	0	0	0	0	0	0	0	0	0	0	0.000000000
1504704716.020977973	-0.374291	-0.449456	-1.12901	0.29299	-0.286854	-3.14466	0.076699	0	0	0	0	0	0	0	0	0	0	0	0	0	0	0.000000000	0	0	0	0	0	0	0	0	0	0	0	0	0	0	0	0	0	0	0	0	0	0.000000000
1504704716.040812015	-0.374291	-0.449456	-1.12901	0.29299	-0.286854	-3.14466	0.076699	0	0	0	0	0	0	0	0	0	0	0	0	0	0	0.000000000	0	0	0	0	0	0	0	0	0	0	0	0	0	0	0	0	0	0	0	0	0	0.000000000
1504704716.060899972	-0.374291	-0.449456	-1.12901	0.29299	-0.286854	-3.14466	0.076699	0	0	0	0	0	0	0	0	0	0	0	0	0	0	0.000000000	0	0	0	0	0	0	0	0	0	0	0	0	0	0	0	0	0	0	0	0	0	0.000000000
1504704716.080915927	-0.374291	-0.449456	-1.12901	0.29299	-0.286854	-3.14466	0.076699	0	0	0	0	0	0	0	0	0	0	0	0	0	0	0.000000000	0	0	0	0	0	0	0	0	0	0	0	0	0	0	0	0	0	0	0	0	0	0.000000000
1504704716.100893974	-0.374291	-0.449456	-1.12901	0.29299	-0.286854	-3.14466	0.076699	0	0	0	0	0	0	0	0	0	0	0	0	0	0	0.000000000	0	0	0	0	0	0	0	0	0	0	0	0	0	0	0	0	0	0	0	0	0	0.000000000
1504704716.120912075	-0.374291	-0.449456	-1.12901	0.29299	-0.286854	-3.14466	0.076699	0	0	0	0	0	0	0	0	0	0	0	0	0	0	0.000000000	0	0	0	0	0	0	0	0	0	0	0	0	0	0	0	0	0	0	0	0	0	0.000000000
1504704716.140953063	-0.374291	-0.449456	-1.12901	0.29299	-0.286854	-3.14466	0.076699	0	0	0	0	0	0	0	0	0	0	0	0	0	0	0.000000000	0	0	0	0	0	0	0	0	0	0	0	0	0	0	0	0	0	0	0	0	0	0.000000000
1504704716.160932064	-0.374291	-0.449456	-1.12901	0.29299	-0.286854	-3.14466	0.078233	0	0	0	0	0	0	0	0	0	0	0	0	0	0	0.000000000	0	0	0	0	0	0	0	0	0	0	0	0	0	0	0	0	0	0	0	0	0	0.000000000
1504704716.181298017	-0.374291	-0.449456	-1.12901	0.29299	-0.28532	-3.14313	0.078233	0	0	0	0	0	0	0	0	0	0	0	0	0	0	0.000000000	0	0	0	0	0	0	0	0	0	0	0	0	0	0	0	0	0	0	0	0	0	0.000000000
1504704716.200952053	-0.374291	-0.449456	-1.12901	0.29299	-0.286854	-3.14313	0.076699	0	0	0	0	0	0	0	0	0	0	0	0	0	0	0.000000000	0	0	0	0	0	0	0	0	0	0	0	0	0	0	0	0	0	0	0	0	0	0.000000000
1504704716.222580909	-0.374291	-0.449456	-1.12901	0.29299	-0.286854	-3.14313	0.076699	0	0	0	0	0	0	0	0	0	0	0	0	0	0	0.000000000	0	0	0	0	0	0	0	0	0	0	0	0	0	0	0	0	0	0	0	0	0	0.000000000
1504704716.240932941	-0.374291	-0.449456	-1.12901	0.29299	-0.286854	-3.14466	0.076699	0	0	0	0	0	0	0	0	0	0	0	0	0	0	0.000000000	0	0	0	0	0	0	0	0	0	0	0	0	0	0	0	0	0	0	0	0	0	0.000000000
1504704716.260932922	-0.374291	-0.449456	-1.12901	0.29299	-0.286854	-3.14466	0.076699	0	0	0	0	0	0	0	0	0	0	0	0	0	0	0.000000000	0	0	0	0	0	0	0	0	0	0	0	0	0	0	0	0	0	0	0	0	0	0.000000000
1504704716.280970096	-0.374291	-0.449456	-1.12901	0.29299	-0.28532	-3.14466	0.076699	0	0	0	0	0	0	0	0	0	0	0	0	0	0	0.000000000	0	0	0	0	0	0	0	0	0	0	0	0	0	0	0	0	0	0	0	0	0	0.000000000
1504704716.300789117	-0.374291	-0.449456	-1.12901	0.29299	-0.286854	-3.14313	0.076699	0	0	0	0	0	0	0	0	0	0	0	0	0	0	0.000000000	0	0	0	0	0	0	0	0	0	0	0	0	0	0	0	0	0	0	0	0	0	0.000000000
1504704716.320961952	-0.374291	-0.449456	-1.12901	0.29299	-0.286854	-3.14313	0.076699	0	0	0	0	0	0	0	0	0	0	0	0	0	0	0.000000000	0	0	0	0	0	0	0	0	0	0	0	0	0	0	0	0	0	0	0	0	0	0.000000000
1504704716.340889930	-0.374291	-0.449456	-1.12901	0.29299	-0.28532	-3.14313	0.076699	0	0	0	0	0	0	0	0	0	0	0	0	0	0	0.000000000	0	0	0	0	0	0	0	0	0	0	0	0	0	0	0	0	0	0	0	0	0	0.000000000
1504704716.360934019	-0.374291	-0.449456	-1.12901	0.29299	-0.28532	-3.14466	0.076699	0	0	0	0	0	0	0	0	0	0	0	0	0	0	0.000000000	0	0	0	0	0	0	0	0	0	0	0	0	0	0	0	0	0	0	0	0	0	0.000000000
1504704716.380841970	-0.374291	-0.449456	-1.12901	0.29299	-0.286854	-3.14466	0.076699	0	0	0	0	0	0	0	0	0	0	0	0	0	0	0.000000000	0	0	0	0	0	0	0	0	0	0	0	0	0	0	0	0	0	0	0	0	0	0.000000000
1504704716.400798082	-0.374291	-0.449456	-1.12901	0.29299	-0.286854	-3.14466	0.076699	0	0	0	0	0	0	0	0	0	0	0	0	0	0	0.000000000	0	0	0	0	0	0	0	0	0	0	0	0	0	0	0	0	0	0	0	0	0	0.000000000
1504704716.420941114	-0.374291	-0.449456	-1.12901	0.29299	-0.286854	-3.14466	0.076699	0	0	0	0	0	0	0	0	0	0	0	0	0	0	0.000000000	0	0	0	0	0	0	0	0	0	0	0	0	0	0	0	0	0	0	0	0	0	0.000000000
1504704716.440870046	-0.374291	-0.449456	-1.12901	0.29299	-0.286854	-3.14466	0.076699	0	0	0	0	0	0	0	0	0	0	0	0	0	0	0.000000000	0	0	0	0	0	0	0	0	0	0	0	0	0	0	0	0	0	0	0	0	0	0.000000000
1504704716.461024999	-0.374291	-0.449456	-1.12901	0.29299	-0.286854	-3.14313	0.076699	0	0	0	0	0	0	0	0	0	0	0	0	0	0	0.000000000	0	0	0	0	0	0	0	0	0	0	0	0	0	0	0	0	0	0	0	0	0	0.000000000
1504704716.480973005	-0.374291	-0.449456	-1.12901	0.29299	-0.286854	-3.14466	0.076699	0	0	0	0	0	0	0	0	0	0	0	0	0	0	0.000000000	0	0	0	0	0	0	0	0	0	0	0	0	0	0	0	0	0	0	0	0	0	0.000000000
1504704716.500912904	-0.374291	-0.449456	-1.12901	0.29299	-0.286854	-3.14466	0.076699	0	0	0	0	0	0	0	0	0	0	0	0	0	0	0.000000000	0	0	0	0	0	0	0	0	0	0	0	0	0	0	0	0	0	0	0	0	0	0.000000000
1504704716.520900011	-0.374291	-0.449456	-1.12901	0.29299	-0.286854	-3.14466	0.076699	0	0	0	0	0	0	0	0	0	0	0	0	0	0	0.000000000	0	0	0	0	0	0	0	0	0	0	0	0	0	0	0	0	0	0	0	0	0	0.000000000
1504704716.541214942	-0.374291	-0.449456	-1.12901	0.29299	-0.28532	-3.14466	0.076699	0	0	0	0	0	0	0	0	0	0	0	0	0	0	0.000000000	0	0	0	0	0	0	0	0	0	0	0	0	0	0	0	0	0	0	0	0	0	0.000000000
1504704716.560924053	-0.374291	-0.449456	-1.12901	0.29299	-0.286854	-3.14466	0.076699	0	0	0	0	0	0	0	0	0	0	0	0	0	0	0.000000000	0	0	0	0	0	0	0	0	0	0	0	0	0	0	0	0	0	0	0	0	0	0.000000000
1504704716.580874919	-0.374291	-0.449456	-1.12901	0.29299	-0.286854	-3.14466	0.076699	0	0	0	0	0	0	0	0	0	0	0	0	0	0	0.000000000	0	0	0	0	0	0	0	0	0	0	0	0	0	0	0	0	0	0	0	0	0	0.000000000
1504704716.600790023	-0.374291	-0.449456	-1.12901	0.29299	-0.286854	-3.14466	0.076699	0	0	0	0	0	0	0	0	0	0	0	0	0	0	0.000000000	0	0	0	0	0	0	0	0	0	0	0	0	0	0	0	0	0	0	0	0	0	0.000000000
1504704716.620847940	-0.374291	-0.449456	-1.12901	0.29299	-0.286854	-3.14466	0.076699	0	0	0	0	0	0	0	0	0	0	0	0	0	0	0.000000000	0	0	0	0	0	0	0	0	0	0	0	0	0	0	0	0	0	0	0	0	0	0.000000000
1504704716.641254901	-0.374291	-0.449456	-1.12901	0.29299	-0.28532	-3.14313	0.076699	0	0	0	0	0	0	0	0	0	0	0	0	0	0	0.000000000	0	0	0	0	0	0	0	0	0	0	0	0	0	0	0	0	0	0	0	0	0	0.000000000
1504704716.660830020	-0.374291	-0.449456	-1.12901	0.29299	-0.286854	-3.14466	0.076699	0	0	0	0	0	0	0	0	0	0	0	0	0	0	0.000000000	0	0	0	0	0	0	0	0	0	0	0	0	0	0	0	0	0	0	0	0	0	0.000000000
1504704716.680840969	-0.374291	-0.449456	-1.12901	0.29299	-0.28532	-3.14466	0.076699	0	0	0	0	0	0	0	0	0	0	0	0	0	0	0.000000000	0	0	0	0	0	0	0	0	0	0	0	0	0	0	0	0	0	0	0	0	0	0.000000000
1504704716.700795888	-0.374291	-0.449456	-1.12901	0.29299	-0.286854	-3.14466	0.076699	0	0	0	0	0	0	0	0	0	0	0	0	0	0	0.000000000	0	0	0	0	0	0	0	0	0	0	0	0	0	0	0	0	0	0	0	0	0	0.000000000
1504704716.720957040	-0.374291	-0.449456	-1.12901	0.29299	-0.286854	-3.14466	0.076699	0	0	0	0	0	0	0	0	0	0	0	0	0	0	0.000000000	0	0	0	0	0	0	0	0	0	0	0	0	0	0	0	0	0	0	0	0	0	0.000000000
1504704716.740972042	-0.374291	-0.449456	-1.12901	0.29299	-0.286854	-3.14466	0.076699	0	0	0	0	0	0	0	0	0	0	0	0	0	0	0.000000000	0	0	0	0	0	0	0	0	0	0	0	0	0	0	0	0	0	0	0	0	0	0.000000000
1504704716.761436939	-0.374291	-0.449456	-1.12901	0.29299	-0.28532	-3.14466	0.076699	0	0	0	0	0	0	0	0	0	0	0	0	0	0	0.000000000	0	0	0	0	0	0	0	0	0	0	0	0	0	0	0	0	0	0	0	0	0	0.000000000
1504704716.780813932	-0.374291	-0.449456	-1.12901	0.29299	-0.286854	-3.14466	0.076699	0	0	0	0	0	0	0	0	0	0	0	0	0	0	0.000000000	0	0	0	0	0	0	0	0	0	0	0	0	0	0	0	0	0	0	0	0	0	0.000000000
1504704716.800990104	-0.374291	-0.449456	-1.12901	0.29299	-0.286854	-3.14466	0.076699	0	0	0	0	0	0	0	0	0	0	0	0	0	0	0.000000000	0	0	0	0	0	0	0	0	0	0	0	0	0	0	0	0	0	0	0	0	0	0.000000000
1504704716.820971965	-0.374291	-0.449456	-1.12901	0.29299	-0.286854	-3.14466	0.076699	0	0	0	0	0	0	0	0	0	0	0	0	0	0	0.000000000	0	0	0	0	0	0	0	0	0	0	0	0	0	0	0	0	0	0	0	0	0	0.000000000
1504704716.841268062	-0.374291	-0.449456	-1.12901	0.29299	-0.286854	-3.14466	0.076699	0	0	0	0	0	0	0	0	0	0	0	0	0	0	0.000000000	0	0	0	0	0	0	0	0	0	0	0	0	0	0	0	0	0	0	0	0	0	0.000000000
1504704716.861124992	-0.374291	-0.449456	-1.12901	0.29299	-0.28532	-3.14313	0.078233	0	0	0	0	0	0	0	0	0	0	0	0	0	0	0.000000000	0	0	0	0	0	0	0	0	0	0	0	0	0	0	0	0	0	0	0	0	0	0.000000000
1504704716.880943059	-0.374291	-0.449456	-1.12901	0.29299	-0.286854	-3.14466	0.076699	0	0	0	0	0	0	0	0	0	0	0	0	0	0	0.000000000	0	0	0	0	0	0	0	0	0	0	0	0	0	0	0	0	0	0	0	0	0	0.000000000
1504704716.900926113	-0.374291	-0.449456	-1.12901	0.29299	-0.286854	-3.14466	0.076699	0	0	0	0	0	0	0	0	0	0	0	0	0	0	0.000000000	0	0	0	0	0	0	0	0	0	0	0	0	0	0	0	0	0	0	0	0	0	0.000000000
1504704716.920948028	-0.374291	-0.449456	-1.12901	0.29299	-0.286854	-3.14466	0.076699	0	0	0	0	0	0	0	0	0	0	0	0	0	0	0.000000000	0	0	0	0	0	0	0	0	0	0	0	0	0	0	0	0	0	0	0	0	0	0.000000000
1504704716.940824985	-0.374291	-0.449456	-1.12901	0.29299	-0.286854	-3.14466	0.076699	0	0	0	0	0	0	0	0	0	0	0	0	0	0	0.000000000	0	0	0	0	0	0	0	0	0	0	0	0	0	0	0	0	0	0	0	0	0	0.000000000
1504704716.960921049	-0.374291	-0.449456	-1.12901	0.29299	-0.28532	-3.14313	0.076699	0	0	0	0	0	0	0	0	0	0	0	0	0	0	0.000000000	0	0	0	0	0	0	0	0	0	0	0	0	0	0	0	0	0	0	0	0	0	0.000000000
1504704716.980832099	-0.374291	-0.449456	-1.12901	0.29299	-0.28532	-3.14466	0.076699	0	0	0	0	0	0	0	0	0	0	0	0	0	0	0.000000000	0	0	0	0	0	0	0	0	0	0	0	0	0	0	0	0	0	0	0	0	0	0.000000000
1504704717.000945091	-0.374291	-0.449456	-1.12901	0.29299	-0.286854	-3.14466	0.076699	0	0	0	0	0	0	0	0	0	0	0	0	0	0	0.000000000	0	0	0	0	0	0	0	0	0	0	0	0	0	0	0	0	0	0	0	0	0	0.000000000
1504704717.021258115	-0.374291	-0.449456	-1.12901	0.29299	-0.286854	-3.14466	0.076699	0	0	0	0	0	0	0	0	0	0	0	0	0	0	0.000000000	0	0	0	0	0	0	0	0	0	0	0	0	0	0	0	0	0	0	0	0	0	0.000000000
1504704717.040977001	-0.374291	-0.449456	-1.12901	0.29299	-0.28532	-3.14466	0.076699	0	0	0	0	0	0	0	0	0	0	0	0	0	0	0.000000000	0	0	0	0	0	0	0	0	0	0	0	0	0	0	0	0	0	0	0	0	0	0.000000000
1504704717.060897111	-0.374291	-0.449456	-1.12901	0.29299	-0.286854	-3.14466	0.076699	0	0	0	0	0	0	0	0	0	0	0	0	0	0	0.000000000	0	0	0	0	0	0	0	0	0	0	0	0	0	0	0	0	0	0	0	0	0	0.000000000
1504704717.080929994	-0.374291	-0.449456	-1.12901	0.29299	-0.286854	-3.14466	0.076699	0	0	0	0	0	0	0	0	0	0	0	0	0	0	0.000000000	0	0	0	0	0	0	0	0	0	0	0	0	0	0	0	0	0	0	0	0	0	0.000000000
1504704717.100817918	-0.374291	-0.449456	-1.12901	0.29299	-0.286854	-3.14466	0.076699	0	0	0	0	0	0	0	0	0	0	0	0	0	0	0.000000000	0	0	0	0	0	0	0	0	0	0	0	0	0	0	0	0	0	0	0	0	0	0.000000000
1504704717.120892047	-0.374291	-0.449456	-1.12901	0.29299	-0.286854	-3.14466	0.076699	0	0	0	0	0	0	0	0	0	0	0	0	0	0	0.000000000	0	0	0	0	0	0	0	0	0	0	0	0	0	0	0	0	0	0	0	0	0	0.000000000
1504704717.140872001	-0.374291	-0.449456	-1.12901	0.29299	-0.286854	-3.14466	0.076699	0	0	0	0	0	0	0	0	0	0	0	0	0	0	0.000000000	0	0	0	0	0	0	0	0	0	0	0	0	0	0	0	0	0	0	0	0	0	0.000000000
1504704717.160892963	-0.374291	-0.449456	-1.12901	0.29299	-0.286854	-3.14466	0.076699	0	0	0	0	0	0	0	0	0	0	0	0	0	0	0.000000000	0	0	0	0	0	0	0	0	0	0	0	0	0	0	0	0	0	0	0	0	0	0.000000000
1504704717.180938005	-0.374291	-0.449456	-1.12901	0.29299	-0.286854	-3.14466	0.076699	0	0	0	0	0	0	0	0	0	0	0	0	0	0	0.000000000	0	0	0	0	0	0	0	0	0	0	0	0	0	0	0	0	0	0	0	0	0	0.000000000
1504704717.200861930	-0.374291	-0.449456	-1.12901	0.29299	-0.28532	-3.14466	0.076699	0	0	0	0	0	0	0	0	0	0	0	0	0	0	0.000000000	0	0	0	0	0	0	0	0	0	0	0	0	0	0	0	0	0	0	0	0	0	0.000000000
1504704717.220910072	-0.374291	-0.449456	-1.12901	0.29299	-0.28532	-3.14466	0.076699	0	0	0	0	0	0	0	0	0	0	0	0	0	0	0.000000000	0	0	0	0	0	0	0	0	0	0	0	0	0	0	0	0	0	0	0	0	0	0.000000000
1504704717.241131067	-0.374291	-0.449456	-1.12901	0.29299	-0.28532	-3.14466	0.076699	0	0	0	0	0	0	0	0	0	0	0	0	0	0	0.000000000	0	0	0	0	0	0	0	0	0	0	0	0	0	0	0	0	0	0	0	0	0	0.000000000
1504704717.260925054	-0.374291	-0.449456	-1.12901	0.29299	-0.28532	-3.14466	0.076699	0	0	0	0	0	0	0	0	0	0	0	0	0	0	0.000000000	0	0	0	0	0	0	0	0	0	0	0	0	0	0	0	0	0	0	0	0	0	0.000000000
1504704717.280914068	-0.374291	-0.449456	-1.12901	0.29299	-0.286854	-3.14466	0.076699	0	0	0	0	0	0	0	0	0	0	0	0	0	0	0.000000000	0	0	0	0	0	0	0	0	0	0	0	0	0	0	0	0	0	0	0	0	0	0.000000000
1504704717.300791025	-0.374291	-0.449456	-1.12901	0.29299	-0.286854	-3.14466	0.076699	0	0	0	0	0	0	0	0	0	0	0	0	0	0	0.000000000	0	0	0	0	0	0	0	0	0	0	0	0	0	0	0	0	0	0	0	0	0	0.000000000
1504704717.320871114	-0.374291	-0.449456	-1.12901	0.29299	-0.286854	-3.14466	0.076699	0	0	0	0	0	0	0	0	0	0	0	0	0	0	0.000000000	0	0	0	0	0	0	0	0	0	0	0	0	0	0	0	0	0	0	0	0	0	0.000000000
1504704717.340991973	-0.374291	-0.449456	-1.12901	0.29299	-0.286854	-3.14466	0.076699	0	0	0	0	0	0	0	0	0	0	0	0	0	0	0.000000000	0	0	0	0	0	0	0	0	0	0	0	0	0	0	0	0	0	0	0	0	0	0.000000000
1504704717.360987901	-0.374291	-0.449456	-1.12901	0.29299	-0.28532	-3.14313	0.078233	0	0	0	0	0	0	0	0	0	0	0	0	0	0	0.000000000	0	0	0	0	0	0	0	0	0	0	0	0	0	0	0	0	0	0	0	0	0	0.000000000
1504704717.380934953	-0.374291	-0.449456	-1.12901	0.29299	-0.286854	-3.14466	0.076699	0	0	0	0	0	0	0	0	0	0	0	0	0	0	0.000000000	0	0	0	0	0	0	0	0	0	0	0	0	0	0	0	0	0	0	0	0	0	0.000000000
1504704717.400818109	-0.374291	-0.449456	-1.12901	0.29299	-0.286854	-3.14466	0.076699	0	0	0	0	0	0	0	0	0	0	0	0	0	0	0.000000000	0	0	0	0	0	0	0	0	0	0	0	0	0	0	0	0	0	0	0	0	0	0.000000000
1504704717.421746969	-0.374291	-0.449456	-1.12901	0.29299	-0.286854	-3.14466	0.076699	0	0	0	0	0	0	0	0	0	0	0	0	0	0	0.000000000	0	0	0	0	0	0	0	0	0	0	0	0	0	0	0	0	0	0	0	0	0	0.000000000
1504704717.440890073	-0.374291	-0.449456	-1.12901	0.29299	-0.286854	-3.14313	0.076699	0	0	0	0	0	0	0	0	0	0	0	0	0	0	0.000000000	0	0	0	0	0	0	0	0	0	0	0	0	0	0	0	0	0	0	0	0	0	0.000000000
1504704717.460942029	-0.374291	-0.449456	-1.12901	0.29299	-0.286854	-3.14466	0.076699	0	0	0	0	0	0	0	0	0	0	0	0	0	0	0.000000000	0	0	0	0	0	0	0	0	0	0	0	0	0	0	0	0	0	0	0	0	0	0.000000000
1504704717.480948925	-0.374291	-0.449456	-1.12901	0.29299	-0.286854	-3.14466	0.076699	0	0	0	0	0	0	0	0	0	0	0	0	0	0	0.000000000	0	0	0	0	0	0	0	0	0	0	0	0	0	0	0	0	0	0	0	0	0	0.000000000
1504704717.501060962	-0.374291	-0.449456	-1.12901	0.29299	-0.286854	-3.14466	0.076699	0	0	0	0	0	0	0	0	0	0	0	0	0	0	0.000000000	0	0	0	0	0	0	0	0	0	0	0	0	0	0	0	0	0	0	0	0	0	0.000000000
1504704717.520925998	-0.374291	-0.449456	-1.12901	0.29299	-0.286854	-3.14466	0.076699	0	0	0	0	0	0	0	0	0	0	0	0	0	0	0.000000000	0	0	0	0	0	0	0	0	0	0	0	0	0	0	0	0	0	0	0	0	0	0.000000000
1504704717.541019916	-0.374291	-0.449456	-1.12901	0.29299	-0.28532	-3.14466	0.076699	0	0	0	0	0	0	0	0	0	0	0	0	0	0	0.000000000	0	0	0	0	0	0	0	0	0	0	0	0	0	0	0	0	0	0	0	0	0	0.000000000
1504704717.560998916	-0.374291	-0.449456	-1.12901	0.29299	-0.286854	-3.14466	0.076699	0	0	0	0	0	0	0	0	0	0	0	0	0	0	0.000000000	0	0	0	0	0	0	0	0	0	0	0	0	0	0	0	0	0	0	0	0	0	0.000000000
1504704717.580830097	-0.374291	-0.449456	-1.12901	0.29299	-0.286854	-3.14466	0.076699	0	0	0	0	0	0	0	0	0	0	0	0	0	0	0.000000000	0	0	0	0	0	0	0	0	0	0	0	0	0	0	0	0	0	0	0	0	0	0.000000000
1504704717.600954055	-0.374291	-0.449456	-1.12901	0.29299	-0.286854	-3.14466	0.076699	0	0	0	0	0	0	0	0	0	0	0	0	0	0	0.000000000	0	0	0	0	0	0	0	0	0	0	0	0	0	0	0	0	0	0	0	0	0	0.000000000
1504704717.620831012	-0.374291	-0.449456	-1.12901	0.29299	-0.286854	-3.14466	0.076699	0	0	0	0	0	0	0	0	0	0	0	0	0	0	0.000000000	0	0	0	0	0	0	0	0	0	0	0	0	0	0	0	0	0	0	0	0	0	0.000000000
1504704717.640950918	-0.374291	-0.449456	-1.12901	0.29299	-0.286854	-3.14466	0.076699	0	0	0	0	0	0	0	0	0	0	0	0	0	0	0.000000000	0	0	0	0	0	0	0	0	0	0	0	0	0	0	0	0	0	0	0	0	0	0.000000000
1504704717.661011934	-0.374291	-0.449456	-1.12901	0.29299	-0.286854	-3.14466	0.076699	0	0	0	0	0	0	0	0	0	0	0	0	0	0	0.000000000	0	0	0	0	0	0	0	0	0	0	0	0	0	0	0	0	0	0	0	0	0	0.000000000
1504704717.681329965	-0.374291	-0.449456	-1.12901	0.29299	-0.286854	-3.14313	0.076699	0	0	0	0	0	0	0	0	0	0	0	0	0	0	0.000000000	0	0	0	0	0	0	0	0	0	0	0	0	0	0	0	0	0	0	0	0	0	0.000000000
1504704717.700825929	-0.374291	-0.449456	-1.12901	0.29299	-0.286854	-3.14466	0.076699	0	0	0	0	0	0	0	0	0	0	0	0	0	0	0.000000000	0	0	0	0	0	0	0	0	0	0	0	0	0	0	0	0	0	0	0	0	0	0.000000000
1504704717.720787048	-0.374291	-0.449456	-1.12901	0.29299	-0.286854	-3.14466	0.076699	0	0	0	0	0	0	0	0	0	0	0	0	0	0	0.000000000	0	0	0	0	0	0	0	0	0	0	0	0	0	0	0	0	0	0	0	0	0	0.000000000
1504704717.740967988	-0.374291	-0.449456	-1.12901	0.29299	-0.286854	-3.14466	0.076699	0	0	0	0	0	0	0	0	0	0	0	0	0	0	0.000000000	0	0	0	0	0	0	0	0	0	0	0	0	0	0	0	0	0	0	0	0	0	0.000000000
1504704717.760925054	-0.374291	-0.449456	-1.12901	0.29299	-0.28532	-3.14466	0.076699	0	0	0	0	0	0	0	0	0	0	0	0	0	0	0.000000000	0	0	0	0	0	0	0	0	0	0	0	0	0	0	0	0	0	0	0	0	0	0.000000000
1504704717.781035900	-0.374291	-0.449456	-1.12901	0.29299	-0.28532	-3.14466	0.076699	0	0	0	0	0	0	0	0	0	0	0	0	0	0	0.000000000	0	0	0	0	0	0	0	0	0	0	0	0	0	0	0	0	0	0	0	0	0	0.000000000
1504704717.800827980	-0.374291	-0.449456	-1.12901	0.29299	-0.286854	-3.14466	0.076699	0	0	0	0	0	0	0	0	0	0	0	0	0	0	0.000000000	0	0	0	0	0	0	0	0	0	0	0	0	0	0	0	0	0	0	0	0	0	0.000000000
1504704717.820903062	-0.374291	-0.449456	-1.12901	0.29299	-0.286854	-3.14466	0.076699	0	0	0	0	0	0	0	0	0	0	0	0	0	0	0.000000000	0	0	0	0	0	0	0	0	0	0	0	0	0	0	0	0	0	0	0	0	0	0.000000000
1504704717.841109991	-0.374291	-0.449456	-1.12901	0.29299	-0.286854	-3.14466	0.076699	0	0	0	0	0	0	0	0	0	0	0	0	0	0	0.000000000	0	0	0	0	0	0	0	0	0	0	0	0	0	0	0	0	0	0	0	0	0	0.000000000
1504704717.860908031	-0.374291	-0.449456	-1.12901	0.29299	-0.286854	-3.14313	0.076699	0	0	0	0	0	0	0	0	0	0	0	0	0	0	0.000000000	0	0	0	0	0	0	0	0	0	0	0	0	0	0	0	0	0	0	0	0	0	0.000000000
1504704717.880955934	-0.374291	-0.449456	-1.12901	0.29299	-0.286854	-3.14466	0.076699	0	0	0	0	0	0	0	0	0	0	0	0	0	0	0.000000000	0	0	0	0	0	0	0	0	0	0	0	0	0	0	0	0	0	0	0	0	0	0.000000000
1504704717.900918006	-0.374291	-0.449456	-1.12901	0.29299	-0.286854	-3.14466	0.076699	0	0	0	0	0	0	0	0	0	0	0	0	0	0	0.000000000	0	0	0	0	0	0	0	0	0	0	0	0	0	0	0	0	0	0	0	0	0	0.000000000
1504704717.920989990	-0.374291	-0.449456	-1.12901	0.29299	-0.286854	-3.14466	0.076699	0	0	0	0	0	0	0	0	0	0	0	0	0	0	0.000000000	0	0	0	0	0	0	0	0	0	0	0	0	0	0	0	0	0	0	0	0	0	0.000000000
1504704717.941179037	-0.374291	-0.449456	-1.12901	0.29299	-0.28532	-3.14466	0.076699	0	0	0	0	0	0	0	0	0	0	0	0	0	0	0.000000000	0	0	0	0	0	0	0	0	0	0	0	0	0	0	0	0	0	0	0	0	0	0.000000000
1504704717.960916042	-0.374291	-0.449456	-1.12901	0.29299	-0.286854	-3.14313	0.076699	0	0	0	0	0	0	0	0	0	0	0	0	0	0	0.000000000	0	0	0	0	0	0	0	0	0	0	0	0	0	0	0	0	0	0	0	0	0	0.000000000
1504704717.980922937	-0.374291	-0.449456	-1.12901	0.29299	-0.286854	-3.14466	0.076699	0	0	0	0	0	0	0	0	0	0	0	0	0	0	0.000000000	0	0	0	0	0	0	0	0	0	0	0	0	0	0	0	0	0	0	0	0	0	0.000000000
1504704718.000924110	-0.374291	-0.449456	-1.12901	0.29299	-0.286854	-3.14466	0.076699	0	0	0	0	0	0	0	0	0	0	0	0	0	0	0.000000000	0	0	0	0	0	0	0	0	0	0	0	0	0	0	0	0	0	0	0	0	0	0.000000000
1504704718.020884037	-0.374291	-0.449456	-1.12901	0.29299	-0.286854	-3.14466	0.076699	0	0	0	0	0	0	0	0	0	0	0	0	0	0	0.000000000	0	0	0	0	0	0	0	0	0	0	0	0	0	0	0	0	0	0	0	0	0	0.000000000
1504704718.040967941	-0.374291	-0.449456	-1.12901	0.29299	-0.286854	-3.14313	0.076699	0	0	0	0	0	0	0	0	0	0	0	0	0	0	0.000000000	0	0	0	0	0	0	0	0	0	0	0	0	0	0	0	0	0	0	0	0	0	0.000000000
1504704718.060942888	-0.374291	-0.449456	-1.12901	0.29299	-0.286854	-3.14466	0.076699	0	0	0	0	0	0	0	0	0	0	0	0	0	0	0.000000000	0	0	0	0	0	0	0	0	0	0	0	0	0	0	0	0	0	0	0	0	0	0.000000000
1504704718.080878973	-0.374291	-0.449456	-1.12901	0.29299	-0.286854	-3.14466	0.076699	0	0	0	0	0	0	0	0	0	0	0	0	0	0	0.000000000	0	0	0	0	0	0	0	0	0	0	0	0	0	0	0	0	0	0	0	0	0	0.000000000
1504704718.101211071	-0.374291	-0.449456	-1.12901	0.29299	-0.286854	-3.14313	0.076699	0	0	0	0	0	0	0	0	0	0	0	0	0	0	0.000000000	0	0	0	0	0	0	0	0	0	0	0	0	0	0	0	0	0	0	0	0	0	0.000000000
1504704718.120902061	-0.374291	-0.449456	-1.12901	0.29299	-0.286854	-3.14313	0.076699	0	0	0	0	0	0	0	0	0	0	0	0	0	0	0.000000000	0	0	0	0	0	0	0	0	0	0	0	0	0	0	0	0	0	0	0	0	0	0.000000000
1504704718.141333103	-0.374291	-0.449456	-1.12901	0.29299	-0.286854	-3.14313	0.076699	0	0	0	0	0	0	0	0	0	0	0	0	0	0	0.000000000	0	0	0	0	0	0	0	0	0	0	0	0	0	0	0	0	0	0	0	0	0	0.000000000
1504704718.160909891	-0.374291	-0.449456	-1.12901	0.29299	-0.286854	-3.14466	0.076699	0	0	0	0	0	0	0	0	0	0	0	0	0	0	0.000000000	0	0	0	0	0	0	0	0	0	0	0	0	0	0	0	0	0	0	0	0	0	0.000000000
1504704718.180948972	-0.374291	-0.449456	-1.12901	0.29299	-0.28532	-3.14313	0.076699	0	0	0	0	0	0	0	0	0	0	0	0	0	0	0.000000000	0	0	0	0	0	0	0	0	0	0	0	0	0	0	0	0	0	0	0	0	0	0.000000000
1504704718.200823068	-0.374291	-0.449456	-1.12901	0.29299	-0.286854	-3.14466	0.076699	0	0	0	0	0	0	0	0	0	0	0	0	0	0	0.000000000	0	0	0	0	0	0	0	0	0	0	0	0	0	0	0	0	0	0	0	0	0	0.000000000
1504704718.220890998	-0.374291	-0.449456	-1.12901	0.29299	-0.286854	-3.14466	0.076699	0	0	0	0	0	0	0	0	0	0	0	0	0	0	0.000000000	0	0	0	0	0	0	0	0	0	0	0	0	0	0	0	0	0	0	0	0	0	0.000000000
1504704718.240899085	-0.374291	-0.449456	-1.12901	0.29299	-0.286854	-3.14313	0.076699	0	0	0	0	0	0	0	0	0	0	0	0	0	0	0.000000000	0	0	0	0	0	0	0	0	0	0	0	0	0	0	0	0	0	0	0	0	0	0.000000000
1504704718.260797977	-0.374291	-0.449456	-1.12901	0.29299	-0.28532	-3.14466	0.076699	0	0	0	0	0	0	0	0	0	0	0	0	0	0	0.000000000	0	0	0	0	0	0	0	0	0	0	0	0	0	0	0	0	0	0	0	0	0	0.000000000
1504704718.280931949	-0.374291	-0.449456	-1.12901	0.29299	-0.286854	-3.14466	0.076699	0	0	0	0	0	0	0	0	0	0	0	0	0	0	0.000000000	0	0	0	0	0	0	0	0	0	0	0	0	0	0	0	0	0	0	0	0	0	0.000000000
1504704718.300966978	-0.372757	-0.449456	-1.12901	0.29299	-0.286854	-3.14466	0.076699	0	0	0	0	0	0	0	0	0	0	0	0	0	0	0.000000000	0	0	0	0	0	0	0	0	0	0	0	0	0	0	0	0	0	0	0	0	0	0.000000000
1504704718.321137905	-0.372757	-0.449456	-1.12901	0.29299	-0.286854	-3.14466	0.076699	0	0	0	0	0	0	0	0	0	0	0	0	0	0	0.000000000	0	0	0	0	0	0	0	0	0	0	0	0	0	0	0	0	0	0	0	0	0	0.000000000
1504704718.341344118	-0.374291	-0.449456	-1.12901	0.29299	-0.28532	-3.14466	0.076699	0	0	0	0	0	0	0	0	0	0	0	0	0	0	0.000000000	0	0	0	0	0	0	0	0	0	0	0	0	0	0	0	0	0	0	0	0	0	0.000000000
1504704718.360865116	-0.374291	-0.449456	-1.12901	0.29299	-0.286854	-3.14466	0.076699	0	0	0	0	0	0	0	0	0	0	0	0	0	0	0.000000000	0	0	0	0	0	0	0	0	0	0	0	0	0	0	0	0	0	0	0	0	0	0.000000000
1504704718.380924940	-0.374291	-0.449456	-1.12901	0.29299	-0.286854	-3.14466	0.076699	0	0	0	0	0	0	0	0	0	0	0	0	0	0	0.000000000	0	0	0	0	0	0	0	0	0	0	0	0	0	0	0	0	0	0	0	0	0	0.000000000
1504704718.400780916	-0.374291	-0.449456	-1.12901	0.29299	-0.286854	-3.14466	0.076699	0	0	0	0	0	0	0	0	0	0	0	0	0	0	0.000000000	0	0	0	0	0	0	0	0	0	0	0	0	0	0	0	0	0	0	0	0	0	0.000000000
1504704718.420881986	-0.374291	-0.449456	-1.12901	0.29299	-0.286854	-3.14466	0.076699	0	0	0	0	0	0	0	0	0	0	0	0	0	0	0.000000000	0	0	0	0	0	0	0	0	0	0	0	0	0	0	0	0	0	0	0	0	0	0.000000000
1504704718.441258907	-0.374291	-0.449456	-1.12901	0.29299	-0.286854	-3.14466	0.076699	0	0	0	0	0	0	0	0	0	0	0	0	0	0	0.000000000	0	0	0	0	0	0	0	0	0	0	0	0	0	0	0	0	0	0	0	0	0	0.000000000
1504704718.460907936	-0.374291	-0.449456	-1.12901	0.29299	-0.28532	-3.14466	0.076699	0	0	0	0	0	0	0	0	0	0	0	0	0	0	0.000000000	0	0	0	0	0	0	0	0	0	0	0	0	0	0	0	0	0	0	0	0	0	0.000000000
1504704718.480921030	-0.374291	-0.449456	-1.12901	0.29299	-0.286854	-3.14466	0.076699	0	0	0	0	0	0	0	0	0	0	0	0	0	0	0.000000000	0	0	0	0	0	0	0	0	0	0	0	0	0	0	0	0	0	0	0	0	0	0.000000000
1504704718.500845909	-0.374291	-0.449456	-1.12901	0.29299	-0.286854	-3.14466	0.076699	0	0	0	0	0	0	0	0	0	0	0	0	0	0	0.000000000	0	0	0	0	0	0	0	0	0	0	0	0	0	0	0	0	0	0	0	0	0	0.000000000
1504704718.520844936	-0.374291	-0.449456	-1.12901	0.29299	-0.286854	-3.14466	0.076699	0	0	0	0	0	0	0	0	0	0	0	0	0	0	0.000000000	0	0	0	0	0	0	0	0	0	0	0	0	0	0	0	0	0	0	0	0	0	0.000000000
1504704718.540837049	-0.374291	-0.449456	-1.12901	0.29299	-0.286854	-3.14466	0.076699	0	0	0	0	0	0	0	0	0	0	0	0	0	0	0.000000000	0	0	0	0	0	0	0	0	0	0	0	0	0	0	0	0	0	0	0	0	0	0.000000000
1504704718.560939073	-0.374291	-0.449456	-1.12901	0.29299	-0.28532	-3.14466	0.076699	0	0	0	0	0	0	0	0	0	0	0	0	0	0	0.000000000	0	0	0	0	0	0	0	0	0	0	0	0	0	0	0	0	0	0	0	0	0	0.000000000
1504704718.580825090	-0.374291	-0.449456	-1.12901	0.29299	-0.286854	-3.14466	0.076699	0	0	0	0	0	0	0	0	0	0	0	0	0	0	0.000000000	0	0	0	0	0	0	0	0	0	0	0	0	0	0	0	0	0	0	0	0	0	0.000000000
1504704718.600959062	-0.374291	-0.449456	-1.12901	0.29299	-0.286854	-3.14466	0.076699	0	0	0	0	0	0	0	0	0	0	0	0	0	0	0.000000000	0	0	0	0	0	0	0	0	0	0	0	0	0	0	0	0	0	0	0	0	0	0.000000000
1504704718.621463060	-0.374291	-0.449456	-1.12901	0.29299	-0.286854	-3.14466	0.076699	0	0	0	0	0	0	0	0	0	0	0	0	0	0	0.000000000	0	0	0	0	0	0	0	0	0	0	0	0	0	0	0	0	0	0	0	0	0	0.000000000
1504704718.640804052	-0.374291	-0.449456	-1.12901	0.29299	-0.28532	-3.14313	0.076699	0	0	0	0	0	0	0	0	0	0	0	0	0	0	0.000000000	0	0	0	0	0	0	0	0	0	0	0	0	0	0	0	0	0	0	0	0	0	0.000000000
1504704718.660903930	-0.374291	-0.449456	-1.12901	0.29299	-0.286854	-3.14466	0.076699	0	0	0	0	0	0	0	0	0	0	0	0	0	0	0.000000000	0	0	0	0	0	0	0	0	0	0	0	0	0	0	0	0	0	0	0	0	0	0.000000000
1504704718.680902957	-0.374291	-0.449456	-1.12901	0.29299	-0.286854	-3.14466	0.076699	0	0	0	0	0	0	0	0	0	0	0	0	0	0	0.000000000	0	0	0	0	0	0	0	0	0	0	0	0	0	0	0	0	0	0	0	0	0	0.000000000
1504704718.700829982	-0.374291	-0.449456	-1.12901	0.29299	-0.286854	-3.14466	0.076699	0	0	0	0	0	0	0	0	0	0	0	0	0	0	0.000000000	0	0	0	0	0	0	0	0	0	0	0	0	0	0	0	0	0	0	0	0	0	0.000000000
1504704718.720953941	-0.374291	-0.449456	-1.12901	0.29299	-0.286854	-3.14466	0.076699	0	0	0	0	0	0	0	0	0	0	0	0	0	0	0.000000000	0	0	0	0	0	0	0	0	0	0	0	0	0	0	0	0	0	0	0	0	0	0.000000000
1504704718.740829944	-0.374291	-0.449456	-1.12901	0.29299	-0.286854	-3.14466	0.076699	0	0	0	0	0	0	0	0	0	0	0	0	0	0	0.000000000	0	0	0	0	0	0	0	0	0	0	0	0	0	0	0	0	0	0	0	0	0	0.000000000
1504704718.760870933	-0.374291	-0.449456	-1.12901	0.29299	-0.286854	-3.14466	0.076699	0	0	0	0	0	0	0	0	0	0	0	0	0	0	0.000000000	0	0	0	0	0	0	0	0	0	0	0	0	0	0	0	0	0	0	0	0	0	0.000000000
1504704718.780915021	-0.374291	-0.449456	-1.12901	0.29299	-0.286854	-3.14466	0.076699	0	0	0	0	0	0	0	0	0	0	0	0	0	0	0.000000000	0	0	0	0	0	0	0	0	0	0	0	0	0	0	0	0	0	0	0	0	0	0.000000000
1504704718.800818920	-0.374291	-0.449456	-1.12901	0.29299	-0.28532	-3.14466	0.076699	0	0	0	0	0	0	0	0	0	0	0	0	0	0	0.000000000	0	0	0	0	0	0	0	0	0	0	0	0	0	0	0	0	0	0	0	0	0	0.000000000
1504704718.820884943	-0.374291	-0.449456	-1.12901	0.29299	-0.28532	-3.14466	0.076699	0	0	0	0	0	0	0	0	0	0	0	0	0	0	0.000000000	0	0	0	0	0	0	0	0	0	0	0	0	0	0	0	0	0	0	0	0	0	0.000000000
1504704718.841139078	-0.374291	-0.449456	-1.12901	0.29299	-0.286854	-3.14466	0.078233	0	0	0	0	0	0	0	0	0	0	0	0	0	0	0.000000000	0	0	0	0	0	0	0	0	0	0	0	0	0	0	0	0	0	0	0	0	0	0.000000000
1504704718.860979080	-0.374291	-0.449456	-1.12901	0.29299	-0.286854	-3.14466	0.076699	0	0	0	0	0	0	0	0	0	0	0	0	0	0	0.000000000	0	0	0	0	0	0	0	0	0	0	0	0	0	0	0	0	0	0	0	0	0	0.000000000
1504704718.880933046	-0.374291	-0.449456	-1.12901	0.29299	-0.28532	-3.14466	0.076699	0	0	0	0	0	0	0	0	0	0	0	0	0	0	0.000000000	0	0	0	0	0	0	0	0	0	0	0	0	0	0	0	0	0	0	0	0	0	0.000000000
1504704718.900811910	-0.374291	-0.449456	-1.12901	0.29299	-0.286854	-3.14466	0.076699	0	0	0	0	0	0	0	0	0	0	0	0	0	0	0.000000000	0	0	0	0	0	0	0	0	0	0	0	0	0	0	0	0	0	0	0	0	0	0.000000000
1504704718.920941114	-0.374291	-0.449456	-1.12901	0.29299	-0.286854	-3.14466	0.076699	0	0	0	0	0	0	0	0	0	0	0	0	0	0	0.000000000	0	0	0	0	0	0	0	0	0	0	0	0	0	0	0	0	0	0	0	0	0	0.000000000
1504704718.941107034	-0.374291	-0.449456	-1.12901	0.29299	-0.286854	-3.14466	0.076699	0	0	0	0	0	0	0	0	0	0	0	0	0	0	0.000000000	0	0	0	0	0	0	0	0	0	0	0	0	0	0	0	0	0	0	0	0	0	0.000000000
1504704718.960906028	-0.374291	-0.449456	-1.12901	0.29299	-0.286854	-3.14466	0.076699	0	0	0	0	0	0	0	0	0	0	0	0	0	0	0.000000000	0	0	0	0	0	0	0	0	0	0	0	0	0	0	0	0	0	0	0	0	0	0.000000000
1504704718.980952024	-0.374291	-0.449456	-1.12901	0.29299	-0.28532	-3.14466	0.076699	0	0	0	0	0	0	0	0	0	0	0	0	0	0	0.000000000	0	0	0	0	0	0	0	0	0	0	0	0	0	0	0	0	0	0	0	0	0	0.000000000
1504704719.000823974	-0.374291	-0.449456	-1.12901	0.29299	-0.28532	-3.14466	0.076699	0	0	0	0	0	0	0	0	0	0	0	0	0	0	0.000000000	0	0	0	0	0	0	0	0	0	0	0	0	0	0	0	0	0	0	0	0	0	0.000000000
1504704719.020937919	-0.374291	-0.449456	-1.12901	0.29299	-0.28532	-3.14466	0.076699	0	0	0	0	0	0	0	0	0	0	0	0	0	0	0.000000000	0	0	0	0	0	0	0	0	0	0	0	0	0	0	0	0	0	0	0	0	0	0.000000000
1504704719.040926933	-0.374291	-0.449456	-1.12901	0.29299	-0.28532	-3.14466	0.076699	0	0	0	0	0	0	0	0	0	0	0	0	0	0	0.000000000	0	0	0	0	0	0	0	0	0	0	0	0	0	0	0	0	0	0	0	0	0	0.000000000
1504704719.060817956	-0.374291	-0.449456	-1.12901	0.29299	-0.286854	-3.14466	0.076699	0	0	0	0	0	0	0	0	0	0	0	0	0	0	0.000000000	0	0	0	0	0	0	0	0	0	0	0	0	0	0	0	0	0	0	0	0	0	0.000000000
1504704719.080887079	-0.374291	-0.449456	-1.12901	0.29299	-0.286854	-3.14466	0.076699	0	0	0	0	0	0	0	0	0	0	0	0	0	0	0.000000000	0	0	0	0	0	0	0	0	0	0	0	0	0	0	0	0	0	0	0	0	0	0.000000000
1504704719.100816011	-0.374291	-0.449456	-1.12901	0.29299	-0.286854	-3.14466	0.076699	0	0	0	0	0	0	0	0	0	0	0	0	0	0	0.000000000	0	0	0	0	0	0	0	0	0	0	0	0	0	0	0	0	0	0	0	0	0	0.000000000
1504704719.120917081	-0.374291	-0.449456	-1.12901	0.29299	-0.286854	-3.14466	0.076699	0	0	0	0	0	0	0	0	0	0	0	0	0	0	0.000000000	0	0	0	0	0	0	0	0	0	0	0	0	0	0	0	0	0	0	0	0	0	0.000000000
1504704719.141136884	-0.374291	-0.449456	-1.12901	0.29299	-0.28532	-3.14313	0.076699	0	0	0	0	0	0	0	0	0	0	0	0	0	0	0.000000000	0	0	0	0	0	0	0	0	0	0	0	0	0	0	0	0	0	0	0	0	0	0.000000000
1504704719.160860061	-0.374291	-0.449456	-1.12901	0.29299	-0.286854	-3.14466	0.076699	0	0	0	0	0	0	0	0	0	0	0	0	0	0	0.000000000	0	0	0	0	0	0	0	0	0	0	0	0	0	0	0	0	0	0	0	0	0	0.000000000
1504704719.180943965	-0.374291	-0.449456	-1.12901	0.29299	-0.28532	-3.14466	0.076699	0	0	0	0	0	0	0	0	0	0	0	0	0	0	0.000000000	0	0	0	0	0	0	0	0	0	0	0	0	0	0	0	0	0	0	0	0	0	0.000000000
1504704719.200809955	-0.374291	-0.449456	-1.12901	0.29299	-0.286854	-3.14466	0.076699	0	0	0	0	0	0	0	0	0	0	0	0	0	0	0.000000000	0	0	0	0	0	0	0	0	0	0	0	0	0	0	0	0	0	0	0	0	0	0.000000000
1504704719.220938920	-0.374291	-0.449456	-1.12901	0.29299	-0.286854	-3.14466	0.076699	0	0	0	0	0	0	0	0	0	0	0	0	0	0	0.000000000	0	0	0	0	0	0	0	0	0	0	0	0	0	0	0	0	0	0	0	0	0	0.000000000
1504704719.240848064	-0.374291	-0.449456	-1.12901	0.29299	-0.286854	-3.14313	0.076699	0	0	0	0	0	0	0	0	0	0	0	0	0	0	0.000000000	0	0	0	0	0	0	0	0	0	0	0	0	0	0	0	0	0	0	0	0	0	0.000000000
1504704719.260857105	-0.374291	-0.449456	-1.12901	0.29299	-0.28532	-3.14466	0.076699	0	0	0	0	0	0	0	0	0	0	0	0	0	0	0.000000000	0	0	0	0	0	0	0	0	0	0	0	0	0	0	0	0	0	0	0	0	0	0.000000000
1504704719.280901908	-0.374291	-0.449456	-1.12901	0.29299	-0.286854	-3.14466	0.078233	0	0	0	0	0	0	0	0	0	0	0	0	0	0	0.000000000	0	0	0	0	0	0	0	0	0	0	0	0	0	0	0	0	0	0	0	0	0	0.000000000
1504704719.300829887	-0.374291	-0.449456	-1.12748	0.29299	-0.286854	-3.14466	0.076699	0	0	0	0	0	0	0	0	0	0	0	0	0	0	0.000000000	0	0	0	0	0	0	0	0	0	0	0	0	0	0	0	0	0	0	0	0	0	0.000000000
1504704719.320909976	-0.374291	-0.449456	-1.12748	0.29299	-0.286854	-3.14466	0.076699	0	0	0	0	0	0	0	0	0	0	0	0	0	0	0.000000000	0	0	0	0	0	0	0	0	0	0	0	0	0	0	0	0	0	0	0	0	0	0.000000000
1504704719.340883970	-0.374291	-0.449456	-1.12748	0.29299	-0.286854	-3.14466	0.076699	0	0	0	0	0	0	0	0	0	0	0	0	0	0	0.000000000	0	0	0	0	0	0	0	0	0	0	0	0	0	0	0	0	0	0	0	0	0	0.000000000
1504704719.360955953	-0.374291	-0.449456	-1.12901	0.29299	-0.286854	-3.14466	0.076699	0	0	0	0	0	0	0	0	0	0	0	0	0	0	0.000000000	0	0	0	0	0	0	0	0	0	0	0	0	0	0	0	0	0	0	0	0	0	0.000000000
1504704719.380817890	-0.374291	-0.449456	-1.12901	0.29299	-0.286854	-3.14466	0.076699	0	0	0	0	0	0	0	0	0	0	0	0	0	0	0.000000000	0	0	0	0	0	0	0	0	0	0	0	0	0	0	0	0	0	0	0	0	0	0.000000000
1504704719.400897026	-0.374291	-0.449456	-1.12901	0.29299	-0.286854	-3.14466	0.076699	0	0	0	0	0	0	0	0	0	0	0	0	0	0	0.000000000	0	0	0	0	0	0	0	0	0	0	0	0	0	0	0	0	0	0	0	0	0	0.000000000
1504704719.420968055	-0.374291	-0.449456	-1.12901	0.29299	-0.286854	-3.14466	0.076699	0	0	0	0	0	0	0	0	0	0	0	0	0	0	0.000000000	0	0	0	0	0	0	0	0	0	0	0	0	0	0	0	0	0	0	0	0	0	0.000000000
1504704719.440953969	-0.374291	-0.449456	-1.12901	0.29299	-0.28532	-3.14466	0.076699	0	0	0	0	0	0	0	0	0	0	0	0	0	0	0.000000000	0	0	0	0	0	0	0	0	0	0	0	0	0	0	0	0	0	0	0	0	0	0.000000000
1504704719.460916042	-0.374291	-0.449456	-1.12901	0.29299	-0.28532	-3.14466	0.076699	0	0	0	0	0	0	0	0	0	0	0	0	0	0	0.000000000	0	0	0	0	0	0	0	0	0	0	0	0	0	0	0	0	0	0	0	0	0	0.000000000
1504704719.480889081	-0.374291	-0.449456	-1.12901	0.29299	-0.28532	-3.14313	0.076699	0	0	0	0	0	0	0	0	0	0	0	0	0	0	0.000000000	0	0	0	0	0	0	0	0	0	0	0	0	0	0	0	0	0	0	0	0	0	0.000000000
1504704719.500821113	-0.374291	-0.449456	-1.12748	0.29299	-0.286854	-3.14466	0.076699	0	0	0	0	0	0	0	0	0	0	0	0	0	0	0.000000000	0	0	0	0	0	0	0	0	0	0	0	0	0	0	0	0	0	0	0	0	0	0.000000000
1504704719.520924091	-0.374291	-0.449456	-1.12748	0.29299	-0.286854	-3.14466	0.076699	0	0	0	0	0	0	0	0	0	0	0	0	0	0	0.000000000	0	0	0	0	0	0	0	0	0	0	0	0	0	0	0	0	0	0	0	0	0	0.000000000
1504704719.540821075	-0.374291	-0.449456	-1.12901	0.29299	-0.28532	-3.14466	0.078233	0	0	0	0	0	0	0	0	0	0	0	0	0	0	0.000000000	0	0	0	0	0	0	0	0	0	0	0	0	0	0	0	0	0	0	0	0	0	0.000000000
1504704719.560914039	-0.374291	-0.449456	-1.12901	0.29299	-0.286854	-3.14466	0.076699	0	0	0	0	0	0	0	0	0	0	0	0	0	0	0.000000000	0	0	0	0	0	0	0	0	0	0	0	0	0	0	0	0	0	0	0	0	0	0.000000000
1504704719.581115007	-0.374291	-0.449456	-1.12901	0.29299	-0.286854	-3.14466	0.076699	0	0	0	0	0	0	0	0	0	0	0	0	0	0	0.000000000	0	0	0	0	0	0	0	0	0	0	0	0	0	0	0	0	0	0	0	0	0	0.000000000
1504704719.600821018	-0.374291	-0.449456	-1.12901	0.29299	-0.286854	-3.14466	0.076699	0	0	0	0	0	0	0	0	0	0	0	0	0	0	0.000000000	0	0	0	0	0	0	0	0	0	0	0	0	0	0	0	0	0	0	0	0	0	0.000000000
1504704719.620826959	-0.374291	-0.449456	-1.12901	0.29299	-0.286854	-3.14466	0.076699	0	0	0	0	0	0	0	0	0	0	0	0	0	0	0.000000000	0	0	0	0	0	0	0	0	0	0	0	0	0	0	0	0	0	0	0	0	0	0.000000000
1504704719.640876054	-0.374291	-0.449456	-1.12901	0.29299	-0.286854	-3.14466	0.076699	0	0	0	0	0	0	0	0	0	0	0	0	0	0	0.000000000	0	0	0	0	0	0	0	0	0	0	0	0	0	0	0	0	0	0	0	0	0	0.000000000
1504704719.660898923	-0.374291	-0.449456	-1.12901	0.29299	-0.286854	-3.14313	0.076699	0	0	0	0	0	0	0	0	0	0	0	0	0	0	0.000000000	0	0	0	0	0	0	0	0	0	0	0	0	0	0	0	0	0	0	0	0	0	0.000000000
1504704719.680830955	-0.374291	-0.449456	-1.12901	0.29299	-0.286854	-3.14466	0.076699	0	0	0	0	0	0	0	0	0	0	0	0	0	0	0.000000000	0	0	0	0	0	0	0	0	0	0	0	0	0	0	0	0	0	0	0	0	0	0.000000000
1504704719.700931072	-0.374291	-0.449456	-1.12901	0.29299	-0.286854	-3.14466	0.076699	0	0	0	0	0	0	0	0	0	0	0	0	0	0	0.000000000	0	0	0	0	0	0	0	0	0	0	0	0	0	0	0	0	0	0	0	0	0	0.000000000
1504704719.721306085	-0.374291	-0.449456	-1.12901	0.29299	-0.286854	-3.14466	0.076699	0	0	0	0	0	0	0	0	0	0	0	0	0	0	0.000000000	0	0	0	0	0	0	0	0	0	0	0	0	0	0	0	0	0	0	0	0	0	0.000000000
1504704719.740947008	-0.374291	-0.449456	-1.12901	0.29299	-0.286854	-3.14466	0.076699	0	0	0	0	0	0	0	0	0	0	0	0	0	0	0.000000000	0	0	0	0	0	0	0	0	0	0	0	0	0	0	0	0	0	0	0	0	0	0.000000000
1504704719.760972976	-0.374291	-0.449456	-1.12901	0.29299	-0.286854	-3.14466	0.076699	0	0	0	0	0	0	0	0	0	0	0	0	0	0	0.000000000	0	0	0	0	0	0	0	0	0	0	0	0	0	0	0	0	0	0	0	0	0	0.000000000
1504704719.780901908	-0.374291	-0.449456	-1.12901	0.29299	-0.28532	-3.14466	0.076699	0	0	0	0	0	0	0	0	0	0	0	0	0	0	0.000000000	0	0	0	0	0	0	0	0	0	0	0	0	0	0	0	0	0	0	0	0	0	0.000000000
1504704719.800937891	-0.374291	-0.449456	-1.12901	0.29299	-0.28532	-3.14466	0.076699	0	0	0	0	0	0	0	0	0	0	0	0	0	0	0.000000000	0	0	0	0	0	0	0	0	0	0	0	0	0	0	0	0	0	0	0	0	0	0.000000000
1504704719.820910930	-0.374291	-0.449456	-1.12901	0.29299	-0.28532	-3.14466	0.076699	0	0	0	0	0	0	0	0	0	0	0	0	0	0	0.000000000	0	0	0	0	0	0	0	0	0	0	0	0	0	0	0	0	0	0	0	0	0	0.000000000
1504704719.840852022	-0.374291	-0.449456	-1.12901	0.29299	-0.286854	-3.14466	0.076699	0	0	0	0	0	0	0	0	0	0	0	0	0	0	0.000000000	0	0	0	0	0	0	0	0	0	0	0	0	0	0	0	0	0	0	0	0	0	0.000000000
1504704719.860847949	-0.374291	-0.449456	-1.12901	0.29299	-0.286854	-3.14466	0.076699	0	0	0	0	0	0	0	0	0	0	0	0	0	0	0.000000000	0	0	0	0	0	0	0	0	0	0	0	0	0	0	0	0	0	0	0	0	0	0.000000000
1504704719.880899906	-0.374291	-0.449456	-1.12901	0.29299	-0.286854	-3.14466	0.076699	0	0	0	0	0	0	0	0	0	0	0	0	0	0	0.000000000	0	0	0	0	0	0	0	0	0	0	0	0	0	0	0	0	0	0	0	0	0	0.000000000
1504704719.900893926	-0.374291	-0.449456	-1.12901	0.29299	-0.28532	-3.14466	0.076699	0	0	0	0	0	0	0	0	0	0	0	0	0	0	0.000000000	0	0	0	0	0	0	0	0	0	0	0	0	0	0	0	0	0	0	0	0	0	0.000000000
1504704719.920919895	-0.374291	-0.449456	-1.12901	0.29299	-0.28532	-3.14466	0.076699	0	0	0	0	0	0	0	0	0	0	0	0	0	0	0.000000000	0	0	0	0	0	0	0	0	0	0	0	0	0	0	0	0	0	0	0	0	0	0.000000000
1504704719.941060066	-0.374291	-0.449456	-1.12901	0.29299	-0.286854	-3.14313	0.076699	0	0	0	0	0	0	0	0	0	0	0	0	0	0	0.000000000	0	0	0	0	0	0	0	0	0	0	0	0	0	0	0	0	0	0	0	0	0	0.000000000
1504704719.960825920	-0.374291	-0.449456	-1.12901	0.29299	-0.28532	-3.14466	0.076699	0	0	0	0	0	0	0	0	0	0	0	0	0	0	0.000000000	0	0	0	0	0	0	0	0	0	0	0	0	0	0	0	0	0	0	0	0	0	0.000000000
1504704719.980835914	-0.374291	-0.449456	-1.12901	0.29299	-0.286854	-3.14466	0.076699	0	0	0	0	0	0	0	0	0	0	0	0	0	0	0.000000000	0	0	0	0	0	0	0	0	0	0	0	0	0	0	0	0	0	0	0	0	0	0.000000000
1504704720.000781059	-0.374291	-0.449456	-1.12901	0.29299	-0.286854	-3.14466	0.076699	0	0	0	0	0	0	0	0	0	0	0	0	0	0	0.000000000	0	0	0	0	0	0	0	0	0	0	0	0	0	0	0	0	0	0	0	0	0	0.000000000
1504704720.021379947	-0.374291	-0.449456	-1.12901	0.29299	-0.286854	-3.14466	0.076699	0	0	0	0	0	0	0	0	0	0	0	0	0	0	0.000000000	0	0	0	0	0	0	0	0	0	0	0	0	0	0	0	0	0	0	0	0	0	0.000000000
1504704720.041053056	-0.374291	-0.449456	-1.12901	0.29299	-0.286854	-3.14466	0.076699	0	0	0	0	0	0	0	0	0	0	0	0	0	0	0.000000000	0	0	0	0	0	0	0	0	0	0	0	0	0	0	0	0	0	0	0	0	0	0.000000000
1504704720.061153888	-0.374291	-0.449456	-1.12901	0.29299	-0.286854	-3.14466	0.076699	0	0	0	0	0	0	0	0	0	0	0	0	0	0	0.000000000	0	0	0	0	0	0	0	0	0	0	0	0	0	0	0	0	0	0	0	0	0	0.000000000
1504704720.080797910	-0.374291	-0.449456	-1.12901	0.29299	-0.286854	-3.14466	0.076699	0	0	0	0	0	0	0	0	0	0	0	0	0	0	0.000000000	0	0	0	0	0	0	0	0	0	0	0	0	0	0	0	0	0	0	0	0	0	0.000000000
1504704720.100927114	-0.374291	-0.449456	-1.12901	0.29299	-0.286854	-3.14466	0.076699	0	0	0	0	0	0	0	0	0	0	0	0	0	0	0.000000000	0	0	0	0	0	0	0	0	0	0	0	0	0	0	0	0	0	0	0	0	0	0.000000000
1504704720.121052026	-0.374291	-0.449456	-1.12901	0.29299	-0.286854	-3.14466	0.076699	0	0	0	0	0	0	0	0	0	0	0	0	0	0	0.000000000	0	0	0	0	0	0	0	0	0	0	0	0	0	0	0	0	0	0	0	0	0	0.000000000
1504704720.141046047	-0.374291	-0.449456	-1.12901	0.29299	-0.286854	-3.14466	0.076699	0	0	0	0	0	0	0	0	0	0	0	0	0	0	0.000000000	0	0	0	0	0	0	0	0	0	0	0	0	0	0	0	0	0	0	0	0	0	0.000000000
1504704720.160870075	-0.374291	-0.449456	-1.12901	0.29299	-0.286854	-3.14466	0.076699	0	0	0	0	0	0	0	0	0	0	0	0	0	0	0.000000000	0	0	0	0	0	0	0	0	0	0	0	0	0	0	0	0	0	0	0	0	0	0.000000000
1504704720.180892944	-0.374291	-0.449456	-1.12901	0.29299	-0.286854	-3.14466	0.076699	0	0	0	0	0	0	0	0	0	0	0	0	0	0	0.000000000	0	0	0	0	0	0	0	0	0	0	0	0	0	0	0	0	0	0	0	0	0	0.000000000
1504704720.200886964	-0.372757	-0.449456	-1.12901	0.29299	-0.286854	-3.14466	0.076699	0	0	0	0	0	0	0	0	0	0	0	0	0	0	0.000000000	0	0	0	0	0	0	0	0	0	0	0	0	0	0	0	0	0	0	0	0	0	0.000000000
1504704720.220845937	-0.372757	-0.449456	-1.12901	0.29299	-0.286854	-3.14466	0.076699	0	0	0	0	0	0	0	0	0	0	0	0	0	0	0.000000000	0	0	0	0	0	0	0	0	0	0	0	0	0	0	0	0	0	0	0	0	0	0.000000000
1504704720.241090059	-0.374291	-0.449456	-1.12901	0.29299	-0.286854	-3.14466	0.076699	0	0	0	0	0	0	0	0	0	0	0	0	0	0	0.000000000	0	0	0	0	0	0	0	0	0	0	0	0	0	0	0	0	0	0	0	0	0	0.000000000
1504704720.260847091	-0.374291	-0.449456	-1.12901	0.29299	-0.286854	-3.14466	0.076699	0	0	0	0	0	0	0	0	0	0	0	0	0	0	0.000000000	0	0	0	0	0	0	0	0	0	0	0	0	0	0	0	0	0	0	0	0	0	0.000000000
1504704720.280781030	-0.374291	-0.449456	-1.12901	0.29299	-0.286854	-3.14466	0.078233	0	0	0	0	0	0	0	0	0	0	0	0	0	0	0.000000000	0	0	0	0	0	0	0	0	0	0	0	0	0	0	0	0	0	0	0	0	0	0.000000000
1504704720.300888061	-0.374291	-0.449456	-1.12901	0.29299	-0.286854	-3.14466	0.076699	0	0	0	0	0	0	0	0	0	0	0	0	0	0	0.000000000	0	0	0	0	0	0	0	0	0	0	0	0	0	0	0	0	0	0	0	0	0	0.000000000
1504704720.320832014	-0.374291	-0.449456	-1.12901	0.29299	-0.286854	-3.14466	0.076699	0	0	0	0	0	0	0	0	0	0	0	0	0	0	0.000000000	0	0	0	0	0	0	0	0	0	0	0	0	0	0	0	0	0	0	0	0	0	0.000000000
1504704720.341126918	-0.374291	-0.449456	-1.12901	0.29299	-0.286854	-3.14313	0.076699	0	0	0	0	0	0	0	0	0	0	0	0	0	0	0.000000000	0	0	0	0	0	0	0	0	0	0	0	0	0	0	0	0	0	0	0	0	0	0.000000000
1504704720.360774040	-0.374291	-0.449456	-1.12901	0.29299	-0.28532	-3.14466	0.076699	0	0	0	0	0	0	0	0	0	0	0	0	0	0	0.000000000	0	0	0	0	0	0	0	0	0	0	0	0	0	0	0	0	0	0	0	0	0	0.000000000
1504704720.380841970	-0.374291	-0.449456	-1.12901	0.29299	-0.286854	-3.14466	0.076699	0	0	0	0	0	0	0	0	0	0	0	0	0	0	0.000000000	0	0	0	0	0	0	0	0	0	0	0	0	0	0	0	0	0	0	0	0	0	0.000000000
1504704720.400840044	-0.374291	-0.449456	-1.12901	0.29299	-0.286854	-3.14466	0.076699	0	0	0	0	0	0	0	0	0	0	0	0	0	0	0.000000000	0	0	0	0	0	0	0	0	0	0	0	0	0	0	0	0	0	0	0	0	0	0.000000000
1504704720.420933961	-0.374291	-0.449456	-1.12901	0.29299	-0.286854	-3.14466	0.076699	0	0	0	0	0	0	0	0	0	0	0	0	0	0	0.000000000	0	0	0	0	0	0	0	0	0	0	0	0	0	0	0	0	0	0	0	0	0	0.000000000
1504704720.441067934	-0.374291	-0.449456	-1.12901	0.29299	-0.28532	-3.14466	0.076699	0	0	0	0	0	0	0	0	0	0	0	0	0	0	0.000000000	0	0	0	0	0	0	0	0	0	0	0	0	0	0	0	0	0	0	0	0	0	0.000000000
1504704720.460876941	-0.374291	-0.449456	-1.12901	0.29299	-0.286854	-3.14466	0.076699	0	0	0	0	0	0	0	0	0	0	0	0	0	0	0.000000000	0	0	0	0	0	0	0	0	0	0	0	0	0	0	0	0	0	0	0	0	0	0.000000000
1504704720.480906963	-0.372757	-0.449456	-1.12901	0.29299	-0.286854	-3.14466	0.076699	0	0	0	0	0	0	0	0	0	0	0	0	0	0	0.000000000	0	0	0	0	0	0	0	0	0	0	0	0	0	0	0	0	0	0	0	0	0	0.000000000
1504704720.500811100	-0.374291	-0.449456	-1.12901	0.29299	-0.286854	-3.14466	0.076699	0	0	0	0	0	0	0	0	0	0	0	0	0	0	0.000000000	0	0	0	0	0	0	0	0	0	0	0	0	0	0	0	0	0	0	0	0	0	0.000000000
1504704720.520926952	-0.374291	-0.449456	-1.12901	0.29299	-0.286854	-3.14466	0.076699	0	0	0	0	0	0	0	0	0	0	0	0	0	0	0.000000000	0	0	0	0	0	0	0	0	0	0	0	0	0	0	0	0	0	0	0	0	0	0.000000000
1504704720.541167974	-0.374291	-0.449456	-1.12901	0.29299	-0.286854	-3.14466	0.076699	0	0	0	0	0	0	0	0	0	0	0	0	0	0	0.000000000	0	0	0	0	0	0	0	0	0	0	0	0	0	0	0	0	0	0	0	0	0	0.000000000
1504704720.560827970	-0.374291	-0.449456	-1.12901	0.29299	-0.286854	-3.14466	0.076699	0	0	0	0	0	0	0	0	0	0	0	0	0	0	0.000000000	0	0	0	0	0	0	0	0	0	0	0	0	0	0	0	0	0	0	0	0	0	0.000000000
1504704720.580833911	-0.374291	-0.449456	-1.12901	0.29299	-0.286854	-3.14466	0.076699	0	0	0	0	0	0	0	0	0	0	0	0	0	0	0.000000000	0	0	0	0	0	0	0	0	0	0	0	0	0	0	0	0	0	0	0	0	0	0.000000000
1504704720.600927114	-0.374291	-0.449456	-1.12901	0.29299	-0.286854	-3.14466	0.076699	0	0	0	0	0	0	0	0	0	0	0	0	0	0	0.000000000	0	0	0	0	0	0	0	0	0	0	0	0	0	0	0	0	0	0	0	0	0	0.000000000
1504704720.620984077	-0.374291	-0.449456	-1.12901	0.29299	-0.286854	-3.14466	0.076699	0	0	0	0	0	0	0	0	0	0	0	0	0	0	0.000000000	0	0	0	0	0	0	0	0	0	0	0	0	0	0	0	0	0	0	0	0	0	0.000000000
1504704720.641025066	-0.374291	-0.449456	-1.12901	0.29299	-0.286854	-3.14466	0.076699	0	0	0	0	0	0	0	0	0	0	0	0	0	0	0.000000000	0	0	0	0	0	0	0	0	0	0	0	0	0	0	0	0	0	0	0	0	0	0.000000000
1504704720.660970926	-0.374291	-0.449456	-1.12901	0.29299	-0.286854	-3.14466	0.076699	0	0	0	0	0	0	0	0	0	0	0	0	0	0	0.000000000	0	0	0	0	0	0	0	0	0	0	0	0	0	0	0	0	0	0	0	0	0	0.000000000
1504704720.680988073	-0.374291	-0.449456	-1.12901	0.29299	-0.286854	-3.14466	0.076699	0	0	0	0	0	0	0	0	0	0	0	0	0	0	0.000000000	0	0	0	0	0	0	0	0	0	0	0	0	0	0	0	0	0	0	0	0	0	0.000000000
1504704720.700828075	-0.374291	-0.449456	-1.12901	0.29299	-0.286854	-3.14466	0.076699	0	0	0	0	0	0	0	0	0	0	0	0	0	0	0.000000000	0	0	0	0	0	0	0	0	0	0	0	0	0	0	0	0	0	0	0	0	0	0.000000000
1504704720.720937013	-0.374291	-0.449456	-1.12901	0.29299	-0.286854	-3.14466	0.076699	0	0	0	0	0	0	0	0	0	0	0	0	0	0	0.000000000	0	0	0	0	0	0	0	0	0	0	0	0	0	0	0	0	0	0	0	0	0	0.000000000
1504704720.740966081	-0.374291	-0.449456	-1.12901	0.29299	-0.286854	-3.14466	0.076699	0	0	0	0	0	0	0	0	0	0	0	0	0	0	0.000000000	0	0	0	0	0	0	0	0	0	0	0	0	0	0	0	0	0	0	0	0	0	0.000000000
1504704720.760875940	-0.374291	-0.449456	-1.12901	0.29299	-0.28532	-3.14466	0.076699	0	0	0	0	0	0	0	0	0	0	0	0	0	0	0.000000000	0	0	0	0	0	0	0	0	0	0	0	0	0	0	0	0	0	0	0	0	0	0.000000000
1504704720.780900955	-0.374291	-0.449456	-1.12901	0.29299	-0.286854	-3.14466	0.076699	0	0	0	0	0	0	0	0	0	0	0	0	0	0	0.000000000	0	0	0	0	0	0	0	0	0	0	0	0	0	0	0	0	0	0	0	0	0	0.000000000
1504704720.800839900	-0.374291	-0.449456	-1.12901	0.29299	-0.286854	-3.14466	0.076699	0	0	0	0	0	0	0	0	0	0	0	0	0	0	0.000000000	0	0	0	0	0	0	0	0	0	0	0	0	0	0	0	0	0	0	0	0	0	0.000000000
1504704720.821899890	-0.374291	-0.449456	-1.12901	0.29299	-0.286854	-3.14466	0.076699	0	0	0	0	0	0	0	0	0	0	0	0	0	0	0.000000000	0	0	0	0	0	0	0	0	0	0	0	0	0	0	0	0	0	0	0	0	0	0.000000000
1504704720.841164112	-0.374291	-0.449456	-1.12901	0.29299	-0.28532	-3.14466	0.078233	0	0	0	0	0	0	0	0	0	0	0	0	0	0	0.000000000	0	0	0	0	0	0	0	0	0	0	0	0	0	0	0	0	0	0	0	0	0	0.000000000
1504704720.860826969	-0.374291	-0.449456	-1.12901	0.29299	-0.286854	-3.14466	0.076699	0	0	0	0	0	0	0	0	0	0	0	0	0	0	0.000000000	0	0	0	0	0	0	0	0	0	0	0	0	0	0	0	0	0	0	0	0	0	0.000000000
1504704720.880920886	-0.374291	-0.449456	-1.12901	0.29299	-0.286854	-3.14466	0.076699	0	0	0	0	0	0	0	0	0	0	0	0	0	0	0.000000000	0	0	0	0	0	0	0	0	0	0	0	0	0	0	0	0	0	0	0	0	0	0.000000000
1504704720.900902986	-0.374291	-0.449456	-1.12901	0.29299	-0.28532	-3.14466	0.076699	0	0	0	0	0	0	0	0	0	0	0	0	0	0	0.000000000	0	0	0	0	0	0	0	0	0	0	0	0	0	0	0	0	0	0	0	0	0	0.000000000
1504704720.920897006	-0.374291	-0.449456	-1.12901	0.29299	-0.28532	-3.14466	0.076699	0	0	0	0	0	0	0	0	0	0	0	0	0	0	0.000000000	0	0	0	0	0	0	0	0	0	0	0	0	0	0	0	0	0	0	0	0	0	0.000000000
1504704720.940948963	-0.374291	-0.449456	-1.12901	0.29299	-0.286854	-3.14466	0.076699	0	0	0	0	0	0	0	0	0	0	0	0	0	0	0.000000000	0	0	0	0	0	0	0	0	0	0	0	0	0	0	0	0	0	0	0	0	0	0.000000000
1504704720.960875034	-0.374291	-0.449456	-1.12901	0.29299	-0.286854	-3.14466	0.076699	0	0	0	0	0	0	0	0	0	0	0	0	0	0	0.000000000	0	0	0	0	0	0	0	0	0	0	0	0	0	0	0	0	0	0	0	0	0	0.000000000
1504704720.980811119	-0.374291	-0.449456	-1.12901	0.29299	-0.286854	-3.14466	0.076699	0	0	0	0	0	0	0	0	0	0	0	0	0	0	0.000000000	0	0	0	0	0	0	0	0	0	0	0	0	0	0	0	0	0	0	0	0	0	0.000000000
1504704721.000802040	-0.374291	-0.449456	-1.12901	0.29299	-0.28532	-3.14466	0.076699	0	0	0	0	0	0	0	0	0	0	0	0	0	0	0.000000000	0	0	0	0	0	0	0	0	0	0	0	0	0	0	0	0	0	0	0	0	0	0.000000000
1504704721.021384000	-0.374291	-0.449456	-1.12901	0.29299	-0.28532	-3.14466	0.076699	0	0	0	0	0	0	0	0	0	0	0	0	0	0	0.000000000	0	0	0	0	0	0	0	0	0	0	0	0	0	0	0	0	0	0	0	0	0	0.000000000
1504704721.040898084	-0.374291	-0.449456	-1.12901	0.29299	-0.286854	-3.14466	0.076699	0	0	0	0	0	0	0	0	0	0	0	0	0	0	0.000000000	0	0	0	0	0	0	0	0	0	0	0	0	0	0	0	0	0	0	0	0	0	0.000000000
1504704721.060900926	-0.374291	-0.449456	-1.12901	0.29299	-0.286854	-3.14466	0.076699	0	0	0	0	0	0	0	0	0	0	0	0	0	0	0.000000000	0	0	0	0	0	0	0	0	0	0	0	0	0	0	0	0	0	0	0	0	0	0.000000000
1504704721.080791950	-0.374291	-0.449456	-1.12901	0.29299	-0.28532	-3.14466	0.076699	0	0	0	0	0	0	0	0	0	0	0	0	0	0	0.000000000	0	0	0	0	0	0	0	0	0	0	0	0	0	0	0	0	0	0	0	0	0	0.000000000
1504704721.100866079	-0.374291	-0.449456	-1.12901	0.29299	-0.286854	-3.14313	0.076699	0	0	0	0	0	0	0	0	0	0	0	0	0	0	0.000000000	0	0	0	0	0	0	0	0	0	0	0	0	0	0	0	0	0	0	0	0	0	0.000000000
1504704721.120933055	-0.374291	-0.449456	-1.12901	0.29299	-0.286854	-3.14313	0.076699	0	0	0	0	0	0	0	0	0	0	0	0	0	0	0.000000000	0	0	0	0	0	0	0	0	0	0	0	0	0	0	0	0	0	0	0	0	0	0.000000000
1504704721.140878915	-0.374291	-0.449456	-1.12901	0.29299	-0.286854	-3.14466	0.076699	0	0	0	0	0	0	0	0	0	0	0	0	0	0	0.000000000	0	0	0	0	0	0	0	0	0	0	0	0	0	0	0	0	0	0	0	0	0	0.000000000
1504704721.161000013	-0.374291	-0.449456	-1.12901	0.29299	-0.286854	-3.14466	0.076699	0	0	0	0	0	0	0	0	0	0	0	0	0	0	0.000000000	0	0	0	0	0	0	0	0	0	0	0	0	0	0	0	0	0	0	0	0	0	0.000000000
1504704721.180928945	-0.374291	-0.449456	-1.12901	0.29299	-0.286854	-3.14466	0.076699	0	0	0	0	0	0	0	0	0	0	0	0	0	0	0.000000000	0	0	0	0	0	0	0	0	0	0	0	0	0	0	0	0	0	0	0	0	0	0.000000000
1504704721.200860977	-0.374291	-0.449456	-1.12901	0.29299	-0.286854	-3.14313	0.076699	0	0	0	0	0	0	0	0	0	0	0	0	0	0	0.000000000	0	0	0	0	0	0	0	0	0	0	0	0	0	0	0	0	0	0	0	0	0	0.000000000
1504704721.220912933	-0.374291	-0.449456	-1.12901	0.29299	-0.286854	-3.14313	0.076699	0	0	0	0	0	0	0	0	0	0	0	0	0	0	0.000000000	0	0	0	0	0	0	0	0	0	0	0	0	0	0	0	0	0	0	0	0	0	0.000000000
1504704721.241144895	-0.374291	-0.449456	-1.12901	0.29299	-0.286854	-3.14466	0.076699	0	0	0	0	0	0	0	0	0	0	0	0	0	0	0.000000000	0	0	0	0	0	0	0	0	0	0	0	0	0	0	0	0	0	0	0	0	0	0.000000000
1504704721.260902881	-0.374291	-0.449456	-1.12901	0.29299	-0.286854	-3.14466	0.076699	0	0	0	0	0	0	0	0	0	0	0	0	0	0	0.000000000	0	0	0	0	0	0	0	0	0	0	0	0	0	0	0	0	0	0	0	0	0	0.000000000
1504704721.280776977	-0.374291	-0.449456	-1.12901	0.29299	-0.286854	-3.14466	0.076699	0	0	0	0	0	0	0	0	0	0	0	0	0	0	0.000000000	0	0	0	0	0	0	0	0	0	0	0	0	0	0	0	0	0	0	0	0	0	0.000000000
1504704721.300904035	-0.374291	-0.449456	-1.12901	0.29299	-0.286854	-3.14466	0.076699	0	0	0	0	0	0	0	0	0	0	0	0	0	0	0.000000000	0	0	0	0	0	0	0	0	0	0	0	0	0	0	0	0	0	0	0	0	0	0.000000000
1504704721.320913076	-0.374291	-0.449456	-1.12901	0.29299	-0.286854	-3.14466	0.076699	0	0	0	0	0	0	0	0	0	0	0	0	0	0	0.000000000	0	0	0	0	0	0	0	0	0	0	0	0	0	0	0	0	0	0	0	0	0	0.000000000
1504704721.340877056	-0.374291	-0.449456	-1.12901	0.29299	-0.28532	-3.14466	0.076699	0	0	0	0	0	0	0	0	0	0	0	0	0	0	0.000000000	0	0	0	0	0	0	0	0	0	0	0	0	0	0	0	0	0	0	0	0	0	0.000000000
1504704721.360784053	-0.374291	-0.449456	-1.12901	0.29299	-0.28532	-3.14466	0.076699	0	0	0	0	0	0	0	0	0	0	0	0	0	0	0.000000000	0	0	0	0	0	0	0	0	0	0	0	0	0	0	0	0	0	0	0	0	0	0.000000000
1504704721.380755901	-0.374291	-0.449456	-1.12901	0.29299	-0.286854	-3.14466	0.076699	0	0	0	0	0	0	0	0	0	0	0	0	0	0	0.000000000	0	0	0	0	0	0	0	0	0	0	0	0	0	0	0	0	0	0	0	0	0	0.000000000
1504704721.400649070	-0.374291	-0.449456	-1.12901	0.29299	-0.286854	-3.14466	0.076699	0	0	0	0	0	0	0	0	0	0	0	0	0	0	0.000000000	0	0	0	0	0	0	0	0	0	0	0	0	0	0	0	0	0	0	0	0	0	0.000000000
1504704721.420643091	-0.374291	-0.449456	-1.12901	0.29299	-0.286854	-3.14313	0.076699	0	0	0	0	0	0	0	0	0	0	0	0	0	0	0.000000000	0	0	0	0	0	0	0	0	0	0	0	0	0	0	0	0	0	0	0	0	0	0.000000000
1504704721.440638065	-0.374291	-0.449456	-1.12901	0.29299	-0.286854	-3.14313	0.076699	0	0	0	0	0	0	0	0	0	0	0	0	0	0	0.000000000	0	0	0	0	0	0	0	0	0	0	0	0	0	0	0	0	0	0	0	0	0	0.000000000
