DingWan/Reconbot3Ddemo/02_MATLAB_Code/sensors_data/encoders_data_latest.txt
time_stamp	actual_pos_joint_4	actual_pos_joint_5	actual_pos_joint_3	actual_pos_joint_1	actual_pos_joint_2	actual_pos_joint_6	actual_vel_joint_4	actual_vel_joint_5	actual_vel_joint_3	actual_vel_joint_1	actual_vel_joint_2	actual_vel_joint_6	actual_acc_joint_4	actual_acc_joint_5	actual_acc_joint_3	actual_acc_joint_1	actual_acc_joint_2	actual_acc_joint_6	actual_time_from_start	desired_pos_joint_4	desired_pos_joint_5	desired_pos_joint_3	desired_pos_joint_1	desired_pos_joint_2	desired_pos_joint_6	desired_vel_joint_4	desired_vel_joint_5	desired_vel_joint_3	desired_vel_joint_1	desired_vel_joint_2	desired_vel_joint_6	desired_acc_joint_4	desired_acc_joint_5	desired_acc_joint_3	desired_acc_joint_1	desired_acc_joint_2	desired_acc_joint_6	desired_time_from_start
1504020437.018189907	-0.00613592	0.771592	-0.800738	-0.00153398	0.814544	-1.58153	0	0	0	0	0	0	0	0	0	0	0	0	0.000000000	-1.9984e-15	0.788798	-0.788798	1.80411e-16	0.828698	-1.5708	0.1	0.1	0.1	0.1	0.1	0.1	0	0	0	0	0	0	0.000000000
1504020437.038183927	-0.00613592	0.771592	-0.800738	-0.00153398	0.814544	-1.58153	0	0	0	0	0	0	0	0	0	0	0	0	0.000000000	-1.9984e-15	0.788798	-0.788798	1.80411e-16	0.828698	-1.5708	0.1	0.1	0.1	0.1	0.1	0.1	0	0	0	0	0	0	0.000000000
1504020437.058330059	-0.00613592	0.773126	-0.800738	-0.00153398	0.814544	-1.58153	0	0	0	0	0	0	0	0	0	0	0	0	0.000000000	-1.9984e-15	0.788798	-0.788798	1.80411e-16	0.828698	-1.5708	0.1	0.1	0.1	0.1	0.1	0.1	0	0	0	0	0	0	0.000000000
1504020437.078201055	-0.00613592	0.771592	-0.800738	-0.00153398	0.814544	-1.58153	0	0	0	0	0	0	0	0	0	0	0	0	0.000000000	-1.9984e-15	0.788798	-0.788798	1.80411e-16	0.828698	-1.5708	0.1	0.1	0.1	0.1	0.1	0.1	0	0	0	0	0	0	0.000000000
1504020437.098459005	-0.00613592	0.773126	-0.800738	-0.00153398	0.814544	-1.58153	0	0	0	0	0	0	0	0	0	0	0	0	0.000000000	-1.9984e-15	0.788798	-0.788798	1.80411e-16	0.828698	-1.5708	0.1	0.1	0.1	0.1	0.1	0.1	0	0	0	0	0	0	0.000000000
1504020437.119009017	-0.00613592	0.773126	-0.800738	-0.00153398	0.814544	-1.58153	0	0	0	0	0	0	0	0	0	0	0	0	0.000000000	-1.9984e-15	0.788798	-0.788798	1.80411e-16	0.828698	-1.5708	0.1	0.1	0.1	0.1	0.1	0.1	0	0	0	0	0	0	0.000000000
1504020437.138369083	-0.00613592	0.771592	-0.800738	-0.00153398	0.814544	-1.58153	0	0	0	0	0	0	0	0	0	0	0	0	0.000000000	-1.9984e-15	0.788798	-0.788798	1.80411e-16	0.828698	-1.5708	0.1	0.1	0.1	0.1	0.1	0.1	0	0	0	0	0	0	0.000000000
1504020437.158296108	-0.00613592	0.771592	-0.800738	-0.00153398	0.814544	-1.58153	0	0	0	0	0	0	0	0	0	0	0	0	0.000000000	-1.9984e-15	0.788798	-0.788798	1.80411e-16	0.828698	-1.5708	0.1	0.1	0.1	0.1	0.1	0.1	0	0	0	0	0	0	0.000000000
1504020437.178169965	-0.00613592	0.773126	-0.800738	-0.00153398	0.814544	-1.58153	0	0	0	0	0	0	0	0	0	0	0	0	0.000000000	-1.9984e-15	0.788798	-0.788798	1.80411e-16	0.828698	-1.5708	0.1	0.1	0.1	0.1	0.1	0.1	0	0	0	0	0	0	0.000000000
1504020437.198185920	-0.00613592	0.773126	-0.800738	-0.00153398	0.814544	-1.58	0	0	0	0	0	0	0	0	0	0	0	0	0.000000000	-1.9984e-15	0.788798	-0.788798	1.80411e-16	0.828698	-1.5708	0.1	0.1	0.1	0.1	0.1	0.1	0	0	0	0	0	0	0.000000000
1504020437.218175888	-0.00613592	0.771592	-0.800738	-0.00153398	0.814544	-1.58	0	0	0	0	0	0	0	0	0	0	0	0	0.000000000	-1.9984e-15	0.788798	-0.788798	1.80411e-16	0.828698	-1.5708	0.1	0.1	0.1	0.1	0.1	0.1	0	0	0	0	0	0	0.000000000
1504020437.238197088	-0.00613592	0.771592	-0.800738	-0.00153398	0.814544	-1.58	0	0	0	0	0	0	0	0	0	0	0	0	0.000000000	-1.9984e-15	0.788798	-0.788798	1.80411e-16	0.828698	-1.5708	0.1	0.1	0.1	0.1	0.1	0.1	0	0	0	0	0	0	0.000000000
1504020437.258152008	-0.00613592	0.771592	-0.800738	-0.00153398	0.814544	-1.58153	0	0	0	0	0	0	0	0	0	0	0	0	0.000000000	-1.9984e-15	0.788798	-0.788798	1.80411e-16	0.828698	-1.5708	0.1	0.1	0.1	0.1	0.1	0.1	0	0	0	0	0	0	0.000000000
1504020437.278280019	-0.00613592	0.771592	-0.800738	-0.00153398	0.814544	-1.58	0	0	0	0	0	0	0	0	0	0	0	0	0.000000000	-1.9984e-15	0.788798	-0.788798	1.80411e-16	0.828698	-1.5708	0.1	0.1	0.1	0.1	0.1	0.1	0	0	0	0	0	0	0.000000000
1504020437.298557043	-0.00613592	0.773126	-0.800738	-0.00153398	0.814544	-1.58153	0	0	0	0	0	0	0	0	0	0	0	0	0.000000000	-1.9984e-15	0.788798	-0.788798	1.80411e-16	0.828698	-1.5708	0.1	0.1	0.1	0.1	0.1	0.1	0	0	0	0	0	0	0.000000000
1504020437.318202972	-0.0076699	0.773126	-0.800738	-0.00153398	0.814544	-1.58153	0	0	0	0	0	0	0	0	0	0	0	0	0.000000000	-1.9984e-15	0.788798	-0.788798	1.80411e-16	0.828698	-1.5708	0.1	0.1	0.1	0.1	0.1	0.1	0	0	0	0	0	0	0.000000000
1504020437.338155984	-0.0076699	0.773126	-0.800738	-0.00153398	0.814544	-1.58153	0	0	0	0	0	0	0	0	0	0	0	0	0.000000000	-1.9984e-15	0.788798	-0.788798	1.80411e-16	0.828698	-1.5708	0.1	0.1	0.1	0.1	0.1	0.1	0	0	0	0	0	0	0.000000000
1504020437.358201980	-0.00613592	0.771592	-0.800738	-0.00153398	0.814544	-1.58153	0	0	0	0	0	0	0	0	0	0	0	0	0.000000000	-1.9984e-15	0.788798	-0.788798	1.80411e-16	0.828698	-1.5708	0.1	0.1	0.1	0.1	0.1	0.1	0	0	0	0	0	0	0.000000000
1504020437.378246068	-0.00613592	0.773126	-0.800738	-0.00153398	0.814544	-1.58153	0	0	0	0	0	0	0	0	0	0	0	0	0.000000000	-1.9984e-15	0.788798	-0.788798	1.80411e-16	0.828698	-1.5708	0.1	0.1	0.1	0.1	0.1	0.1	0	0	0	0	0	0	0.000000000
1504020437.398163080	-0.00613592	0.771592	-0.800738	-0.00153398	0.816078	-1.58153	0	0	0	0	0	0	0	0	0	0	0	0	0.000000000	-1.9984e-15	0.788798	-0.788798	1.80411e-16	0.828698	-1.5708	0.1	0.1	0.1	0.1	0.1	0.1	0	0	0	0	0	0	0.000000000
1504020437.418693065	-0.00613592	0.771592	-0.800738	-0.00153398	0.816078	-1.58153	0	0	0	0	0	0	0	0	0	0	0	0	0.000000000	-1.9984e-15	0.788798	-0.788798	1.80411e-16	0.828698	-1.5708	0.1	0.1	0.1	0.1	0.1	0.1	0	0	0	0	0	0	0.000000000
1504020437.438149929	-0.00613592	0.771592	-0.800738	-0.00153398	0.814544	-1.58	0	0	0	0	0	0	0	0	0	0	0	0	0.000000000	-1.9984e-15	0.788798	-0.788798	1.80411e-16	0.828698	-1.5708	0.1	0.1	0.1	0.1	0.1	0.1	0	0	0	0	0	0	0.000000000
1504020437.458226919	-0.00613592	0.771592	-0.800738	-0.00153398	0.814544	-1.58	0	0	0	0	0	0	0	0	0	0	0	0	0.000000000	-1.9984e-15	0.788798	-0.788798	1.80411e-16	0.828698	-1.5708	0.1	0.1	0.1	0.1	0.1	0.1	0	0	0	0	0	0	0.000000000
1504020437.478180885	-0.00613592	0.773126	-0.800738	-0.00153398	0.814544	-1.58153	0	0	0	0	0	0	0	0	0	0	0	0	0.000000000	-1.9984e-15	0.788798	-0.788798	1.80411e-16	0.828698	-1.5708	0.1	0.1	0.1	0.1	0.1	0.1	0	0	0	0	0	0	0.000000000
1504020437.499102115	-0.00613592	0.771592	-0.800738	-0.00153398	0.814544	-1.58153	0	0	0	0	0	0	0	0	0	0	0	0	0.000000000	-1.9984e-15	0.788798	-0.788798	1.80411e-16	0.828698	-1.5708	0.1	0.1	0.1	0.1	0.1	0.1	0	0	0	0	0	0	0.000000000
1504020437.518888950	-0.00613592	0.771592	-0.800738	-0.00153398	0.814544	-1.58153	0	0	0	0	0	0	0	0	0	0	0	0	0.000000000	-1.9984e-15	0.788798	-0.788798	1.80411e-16	0.828698	-1.5708	0.1	0.1	0.1	0.1	0.1	0.1	0	0	0	0	0	0	0.000000000
1504020437.538146972	-0.00613592	0.771592	-0.800738	-0.00153398	0.814544	-1.58153	0	0	0	0	0	0	0	0	0	0	0	0	0.000000000	-1.9984e-15	0.788798	-0.788798	1.80411e-16	0.828698	-1.5708	0.1	0.1	0.1	0.1	0.1	0.1	0	0	0	0	0	0	0.000000000
1504020437.559786081	-0.00613592	0.773126	-0.800738	-0.00153398	0.814544	-1.58153	0	0	0	0	0	0	0	0	0	0	0	0	0.000000000	-1.9984e-15	0.788798	-0.788798	1.80411e-16	0.828698	-1.5708	0.1	0.1	0.1	0.1	0.1	0.1	0	0	0	0	0	0	0.000000000
1504020437.579628944	-0.00613592	0.771592	-0.800738	-0.00153398	0.816078	-1.58	0	0	0	0	0	0	0	0	0	0	0	0	0.000000000	-1.9984e-15	0.788798	-0.788798	1.80411e-16	0.828698	-1.5708	0.1	0.1	0.1	0.1	0.1	0.1	0	0	0	0	0	0	0.000000000
1504020437.598582029	-0.00613592	0.771592	-0.800738	-0.00153398	0.814544	-1.58153	0	0	0	0	0	0	0	0	0	0	0	0	0.000000000	-1.9984e-15	0.788798	-0.788798	1.80411e-16	0.828698	-1.5708	0.1	0.1	0.1	0.1	0.1	0.1	0	0	0	0	0	0	0.000000000
1504020437.618387937	-0.00613592	0.771592	-0.800738	-0.00153398	0.814544	-1.58153	0	0	0	0	0	0	0	0	0	0	0	0	0.000000000	-1.9984e-15	0.788798	-0.788798	1.80411e-16	0.828698	-1.5708	0.1	0.1	0.1	0.1	0.1	0.1	0	0	0	0	0	0	0.000000000
1504020437.640198945	-0.00613592	0.771592	-0.800738	-0.00153398	0.814544	-1.58153	0	0	0	0	0	0	0	0	0	0	0	0	0.000000000	-1.9984e-15	0.788798	-0.788798	1.80411e-16	0.828698	-1.5708	0.1	0.1	0.1	0.1	0.1	0.1	0	0	0	0	0	0	0.000000000
1504020437.658078908	-0.00613592	0.773126	-0.800738	-0.00153398	0.814544	-1.58153	0	0	0	0	0	0	0	0	0	0	0	0	0.000000000	-1.9984e-15	0.788798	-0.788798	1.80411e-16	0.828698	-1.5708	0.1	0.1	0.1	0.1	0.1	0.1	0	0	0	0	0	0	0.000000000
1504020437.677959918	-0.00613592	0.771592	-0.800738	-0.00153398	0.814544	-1.58153	0	0	0	0	0	0	0	0	0	0	0	0	0.000000000	-1.9984e-15	0.788798	-0.788798	1.80411e-16	0.828698	-1.5708	0.1	0.1	0.1	0.1	0.1	0.1	0	0	0	0	0	0	0.000000000
1504020437.698025941	-0.00613592	0.771592	-0.800738	-0.00153398	0.814544	-1.58153	0	0	0	0	0	0	0	0	0	0	0	0	0.000000000	-1.9984e-15	0.788798	-0.788798	1.80411e-16	0.828698	-1.5708	0.1	0.1	0.1	0.1	0.1	0.1	0	0	0	0	0	0	0.000000000
1504020437.718363046	-0.00613592	0.771592	-0.800738	-0.00153398	0.814544	-1.58153	0	0	0	0	0	0	0	0	0	0	0	0	0.000000000	-1.9984e-15	0.788798	-0.788798	1.80411e-16	0.828698	-1.5708	0.1	0.1	0.1	0.1	0.1	0.1	0	0	0	0	0	0	0.000000000
1504020437.737982988	-0.00613592	0.773126	-0.800738	-0.00153398	0.814544	-1.58153	0	0	0	0	0	0	0	0	0	0	0	0	0.000000000	-1.9984e-15	0.788798	-0.788798	1.80411e-16	0.828698	-1.5708	0.1	0.1	0.1	0.1	0.1	0.1	0	0	0	0	0	0	0.000000000
1504020437.758157968	-0.00613592	0.773126	-0.800738	-0.00153398	0.814544	-1.58153	0	0	0	0	0	0	0	0	0	0	0	0	0.000000000	-1.9984e-15	0.788798	-0.788798	1.80411e-16	0.828698	-1.5708	0.1	0.1	0.1	0.1	0.1	0.1	0	0	0	0	0	0	0.000000000
1504020437.778137922	-0.00613592	0.771592	-0.800738	-0.00153398	0.814544	-1.58153	0	0	0	0	0	0	0	0	0	0	0	0	0.000000000	-1.9984e-15	0.788798	-0.788798	1.80411e-16	0.828698	-1.5708	0.1	0.1	0.1	0.1	0.1	0.1	0	0	0	0	0	0	0.000000000
1504020437.798261880	-0.00613592	0.773126	-0.800738	-0.00153398	0.814544	-1.58153	0	0	0	0	0	0	0	0	0	0	0	0	0.000000000	-1.9984e-15	0.788798	-0.788798	1.80411e-16	0.828698	-1.5708	0.1	0.1	0.1	0.1	0.1	0.1	0	0	0	0	0	0	0.000000000
1504020437.818182945	-0.00613592	0.773126	-0.800738	-0.00153398	0.814544	-1.58153	0	0	0	0	0	0	0	0	0	0	0	0	0.000000000	-1.9984e-15	0.788798	-0.788798	1.80411e-16	0.828698	-1.5708	0.1	0.1	0.1	0.1	0.1	0.1	0	0	0	0	0	0	0.000000000
1504020437.838257074	-0.00613592	0.773126	-0.800738	-0.00153398	0.814544	-1.58153	0	0	0	0	0	0	0	0	0	0	0	0	0.000000000	-1.9984e-15	0.788798	-0.788798	1.80411e-16	0.828698	-1.5708	0.1	0.1	0.1	0.1	0.1	0.1	0	0	0	0	0	0	0.000000000
1504020437.858190059	-0.00613592	0.773126	-0.800738	-0.00153398	0.814544	-1.58153	0	0	0	0	0	0	0	0	0	0	0	0	0.000000000	-1.9984e-15	0.788798	-0.788798	1.80411e-16	0.828698	-1.5708	0.1	0.1	0.1	0.1	0.1	0.1	0	0	0	0	0	0	0.000000000
1504020437.878221988	-0.00613592	0.771592	-0.800738	-0.00153398	0.814544	-1.58	0	0	0	0	0	0	0	0	0	0	0	0	0.000000000	-1.9984e-15	0.788798	-0.788798	1.80411e-16	0.828698	-1.5708	0.1	0.1	0.1	0.1	0.1	0.1	0	0	0	0	0	0	0.000000000
1504020437.898375034	-0.0076699	0.773126	-0.800738	-0.00153398	0.814544	-1.58	0	0	0	0	0	0	0	0	0	0	0	0	0.000000000	-1.9984e-15	0.788798	-0.788798	1.80411e-16	0.828698	-1.5708	0.1	0.1	0.1	0.1	0.1	0.1	0	0	0	0	0	0	0.000000000
1504020437.918554067	-0.00613592	0.773126	-0.800738	-0.00153398	0.814544	-1.58153	0	0	0	0	0	0	0	0	0	0	0	0	0.000000000	-1.9984e-15	0.788798	-0.788798	1.80411e-16	0.828698	-1.5708	0.1	0.1	0.1	0.1	0.1	0.1	0	0	0	0	0	0	0.000000000
1504020437.938205003	-0.00613592	0.773126	-0.800738	-0.00153398	0.814544	-1.58153	0	0	0	0	0	0	0	0	0	0	0	0	0.000000000	-1.9984e-15	0.788798	-0.788798	1.80411e-16	0.828698	-1.5708	0.1	0.1	0.1	0.1	0.1	0.1	0	0	0	0	0	0	0.000000000
1504020437.958194017	-0.00613592	0.771592	-0.800738	-0.00153398	0.816078	-1.58153	0	0	0	0	0	0	0	0	0	0	0	0	0.000000000	-1.9984e-15	0.788798	-0.788798	1.80411e-16	0.828698	-1.5708	0.1	0.1	0.1	0.1	0.1	0.1	0	0	0	0	0	0	0.000000000
1504020437.978264093	-0.00613592	0.771592	-0.800738	-0.00153398	0.814544	-1.58	0	0	0	0	0	0	0	0	0	0	0	0	0.000000000	-1.9984e-15	0.788798	-0.788798	1.80411e-16	0.828698	-1.5708	0.1	0.1	0.1	0.1	0.1	0.1	0	0	0	0	0	0	0.000000000
1504020437.998553991	-0.00613592	0.773126	-0.800738	-0.00153398	0.814544	-1.58153	0	0	0	0	0	0	0	0	0	0	0	0	0.000000000	-1.9984e-15	0.788798	-0.788798	1.80411e-16	0.828698	-1.5708	0.1	0.1	0.1	0.1	0.1	0.1	0	0	0	0	0	0	0.000000000
1504020438.018316030	-0.00613592	0.771592	-0.800738	-0.00153398	0.814544	-1.58153	0	0	0	0	0	0	0	0	0	0	0	0	0.000000000	-1.9984e-15	0.788798	-0.788798	1.80411e-16	0.828698	-1.5708	0.1	0.1	0.1	0.1	0.1	0.1	0	0	0	0	0	0	0.000000000
1504020438.038289070	-0.00613592	0.771592	-0.800738	-0.00153398	0.814544	-1.58153	0	0	0	0	0	0	0	0	0	0	0	0	0.000000000	-1.9984e-15	0.788798	-0.788798	1.80411e-16	0.828698	-1.5708	0.1	0.1	0.1	0.1	0.1	0.1	0	0	0	0	0	0	0.000000000
1504020438.058199882	-0.00613592	0.773126	-0.800738	-0.00153398	0.814544	-1.58153	0	0	0	0	0	0	0	0	0	0	0	0	0.000000000	-1.9984e-15	0.788798	-0.788798	1.80411e-16	0.828698	-1.5708	0.1	0.1	0.1	0.1	0.1	0.1	0	0	0	0	0	0	0.000000000
1504020438.078229904	-0.00613592	0.771592	-0.800738	-0.00153398	0.814544	-1.58	0	0	0	0	0	0	0	0	0	0	0	0	0.000000000	-1.9984e-15	0.788798	-0.788798	1.80411e-16	0.828698	-1.5708	0.1	0.1	0.1	0.1	0.1	0.1	0	0	0	0	0	0	0.000000000
1504020438.098421096	-0.00613592	0.771592	-0.800738	-0.00153398	0.814544	-1.58153	0	0	0	0	0	0	0	0	0	0	0	0	0.000000000	-1.9984e-15	0.788798	-0.788798	1.80411e-16	0.828698	-1.5708	0.1	0.1	0.1	0.1	0.1	0.1	0	0	0	0	0	0	0.000000000
1504020438.120059013	-0.00613592	0.773126	-0.800738	-0.00153398	0.814544	-1.58153	0	0	0	0	0	0	0	0	0	0	0	0	0.000000000	-1.9984e-15	0.788798	-0.788798	1.80411e-16	0.828698	-1.5708	0.1	0.1	0.1	0.1	0.1	0.1	0	0	0	0	0	0	0.000000000
1504020438.138226032	-0.00613592	0.773126	-0.800738	-0.00153398	0.814544	-1.58153	0	0	0	0	0	0	0	0	0	0	0	0	0.000000000	-1.9984e-15	0.788798	-0.788798	1.80411e-16	0.828698	-1.5708	0.1	0.1	0.1	0.1	0.1	0.1	0	0	0	0	0	0	0.000000000
1504020438.158293008	-0.00613592	0.771592	-0.800738	-0.00153398	0.814544	-1.58153	0	0	0	0	0	0	0	0	0	0	0	0	0.000000000	-1.9984e-15	0.788798	-0.788798	1.80411e-16	0.828698	-1.5708	0.1	0.1	0.1	0.1	0.1	0.1	0	0	0	0	0	0	0.000000000
1504020438.178277015	-0.00613592	0.773126	-0.800738	-0.00153398	0.814544	-1.58153	0	0	0	0	0	0	0	0	0	0	0	0	0.000000000	-1.9984e-15	0.788798	-0.788798	1.80411e-16	0.828698	-1.5708	0.1	0.1	0.1	0.1	0.1	0.1	0	0	0	0	0	0	0.000000000
1504020438.200079917	-0.00613592	0.771592	-0.800738	-0.00153398	0.814544	-1.58153	0	0	0	0	0	0	0	0	0	0	0	0	0.000000000	-1.9984e-15	0.788798	-0.788798	1.80411e-16	0.828698	-1.5708	0.1	0.1	0.1	0.1	0.1	0.1	0	0	0	0	0	0	0.000000000
1504020438.218303918	-0.00613592	0.771592	-0.800738	-0.00153398	0.814544	-1.58153	0	0	0	0	0	0	0	0	0	0	0	0	0.000000000	-1.9984e-15	0.788798	-0.788798	1.80411e-16	0.828698	-1.5708	0.1	0.1	0.1	0.1	0.1	0.1	0	0	0	0	0	0	0.000000000
1504020438.241889953	-0.00613592	0.773126	-0.800738	-0.00153398	0.814544	-1.58153	0	0	0	0	0	0	0	0	0	0	0	0	0.000000000	-1.9984e-15	0.788798	-0.788798	1.80411e-16	0.828698	-1.5708	0.1	0.1	0.1	0.1	0.1	0.1	0	0	0	0	0	0	0.000000000
1504020438.258034944	-0.00613592	0.771592	-0.800738	-0.00153398	0.814544	-1.58153	0	0	0	0	0	0	0	0	0	0	0	0	0.000000000	-1.9984e-15	0.788798	-0.788798	1.80411e-16	0.828698	-1.5708	0.1	0.1	0.1	0.1	0.1	0.1	0	0	0	0	0	0	0.000000000
1504020438.277970075	-0.00613592	0.771592	-0.800738	-0.00153398	0.814544	-1.58153	0	0	0	0	0	0	0	0	0	0	0	0	0.000000000	-1.9984e-15	0.788798	-0.788798	1.80411e-16	0.828698	-1.5708	0.1	0.1	0.1	0.1	0.1	0.1	0	0	0	0	0	0	0.000000000
1504020438.297979116	-0.00613592	0.771592	-0.800738	-0.00153398	0.814544	-1.58153	0	0	0	0	0	0	0	0	0	0	0	0	0.000000000	-1.9984e-15	0.788798	-0.788798	1.80411e-16	0.828698	-1.5708	0.1	0.1	0.1	0.1	0.1	0.1	0	0	0	0	0	0	0.000000000
1504020438.318181037	-0.00613592	0.771592	-0.800738	-0.00153398	0.816078	-1.58153	0	0	0	0	0	0	0	0	0	0	0	0	0.000000000	-1.9984e-15	0.788798	-0.788798	1.80411e-16	0.828698	-1.5708	0.1	0.1	0.1	0.1	0.1	0.1	0	0	0	0	0	0	0.000000000
1504020438.337965965	-0.00613592	0.773126	-0.800738	-0.00153398	0.814544	-1.58153	0	0	0	0	0	0	0	0	0	0	0	0	0.000000000	-1.9984e-15	0.788798	-0.788798	1.80411e-16	0.828698	-1.5708	0.1	0.1	0.1	0.1	0.1	0.1	0	0	0	0	0	0	0.000000000
1504020438.357934951	-0.00613592	0.773126	-0.800738	-0.00153398	0.814544	-1.58153	0	0	0	0	0	0	0	0	0	0	0	0	0.000000000	-1.9984e-15	0.788798	-0.788798	1.80411e-16	0.828698	-1.5708	0.1	0.1	0.1	0.1	0.1	0.1	0	0	0	0	0	0	0.000000000
1504020438.377969980	-0.00613592	0.773126	-0.800738	-0.00153398	0.814544	-1.58153	0	0	0	0	0	0	0	0	0	0	0	0	0.000000000	-1.9984e-15	0.788798	-0.788798	1.80411e-16	0.828698	-1.5708	0.1	0.1	0.1	0.1	0.1	0.1	0	0	0	0	0	0	0.000000000
1504020438.397921085	-0.00613592	0.771592	-0.800738	-0.00153398	0.814544	-1.58	0	0	0	0	0	0	0	0	0	0	0	0	0.000000000	-1.9984e-15	0.788798	-0.788798	1.80411e-16	0.828698	-1.5708	0.1	0.1	0.1	0.1	0.1	0.1	0	0	0	0	0	0	0.000000000
1504020438.417968988	-0.00613592	0.771592	-0.800738	-0.00153398	0.814544	-1.58153	0	0	0	0	0	0	0	0	0	0	0	0	0.000000000	-1.9984e-15	0.788798	-0.788798	1.80411e-16	0.828698	-1.5708	0.1	0.1	0.1	0.1	0.1	0.1	0	0	0	0	0	0	0.000000000
1504020438.437956094	-0.00613592	0.771592	-0.800738	-0.00153398	0.814544	-1.58153	0	0	0	0	0	0	0	0	0	0	0	0	0.000000000	-1.9984e-15	0.788798	-0.788798	1.80411e-16	0.828698	-1.5708	0.1	0.1	0.1	0.1	0.1	0.1	0	0	0	0	0	0	0.000000000
1504020438.457948923	-0.00613592	0.771592	-0.800738	-0.00153398	0.814544	-1.58153	0	0	0	0	0	0	0	0	0	0	0	0	0.000000000	-1.9984e-15	0.788798	-0.788798	1.80411e-16	0.828698	-1.5708	0.1	0.1	0.1	0.1	0.1	0.1	0	0	0	0	0	0	0.000000000
1504020438.477993965	-0.00613592	0.773126	-0.800738	-0.00153398	0.814544	-1.58153	0	0	0	0	0	0	0	0	0	0	0	0	0.000000000	-1.9984e-15	0.788798	-0.788798	1.80411e-16	0.828698	-1.5708	0.1	0.1	0.1	0.1	0.1	0.1	0	0	0	0	0	0	0.000000000
1504020438.498023986	-0.00613592	0.771592	-0.800738	-0.00153398	0.814544	-1.58	0	0	0	0	0	0	0	0	0	0	0	0	0.000000000	-1.9984e-15	0.788798	-0.788798	1.80411e-16	0.828698	-1.5708	0.1	0.1	0.1	0.1	0.1	0.1	0	0	0	0	0	0	0.000000000
1504020438.518081903	-0.00613592	0.773126	-0.800738	-0.00153398	0.814544	-1.58153	0	0	0	0	0	0	0	0	0	0	0	0	0.000000000	-1.9984e-15	0.788798	-0.788798	1.80411e-16	0.828698	-1.5708	0.1	0.1	0.1	0.1	0.1	0.1	0	0	0	0	0	0	0.000000000
1504020438.537974119	-0.00613592	0.771592	-0.800738	-0.00153398	0.814544	-1.58153	0	0	0	0	0	0	0	0	0	0	0	0	0.000000000	-1.9984e-15	0.788798	-0.788798	1.80411e-16	0.828698	-1.5708	0.1	0.1	0.1	0.1	0.1	0.1	0	0	0	0	0	0	0.000000000
1504020438.557915925	-0.00613592	0.771592	-0.800738	-0.00153398	0.814544	-1.58153	0	0	0	0	0	0	0	0	0	0	0	0	0.000000000	-1.9984e-15	0.788798	-0.788798	1.80411e-16	0.828698	-1.5708	0.1	0.1	0.1	0.1	0.1	0.1	0	0	0	0	0	0	0.000000000
1504020438.577928066	-0.00613592	0.771592	-0.800738	-0.00153398	0.814544	-1.58153	0	0	0	0	0	0	0	0	0	0	0	0	0.000000000	-1.9984e-15	0.788798	-0.788798	1.80411e-16	0.828698	-1.5708	0.1	0.1	0.1	0.1	0.1	0.1	0	0	0	0	0	0	0.000000000
1504020438.597923040	-0.00613592	0.771592	-0.800738	-0.00153398	0.814544	-1.58153	0	0	0	0	0	0	0	0	0	0	0	0	0.000000000	-1.9984e-15	0.788798	-0.788798	1.80411e-16	0.828698	-1.5708	0.1	0.1	0.1	0.1	0.1	0.1	0	0	0	0	0	0	0.000000000
1504020438.617995023	-0.00613592	0.771592	-0.800738	-0.00153398	0.814544	-1.58153	0	0	0	0	0	0	0	0	0	0	0	0	0.000000000	-1.9984e-15	0.788798	-0.788798	1.80411e-16	0.828698	-1.5708	0.1	0.1	0.1	0.1	0.1	0.1	0	0	0	0	0	0	0.000000000
1504020438.638710021	-0.00613592	0.771592	-0.800738	-0.00153398	0.814544	-1.58153	0	0	0	0	0	0	0	0	0	0	0	0	0.000000000	-1.9984e-15	0.788798	-0.788798	1.80411e-16	0.828698	-1.5708	0.1	0.1	0.1	0.1	0.1	0.1	0	0	0	0	0	0	0.000000000
1504020438.658312082	-0.00613592	0.771592	-0.800738	-0.00153398	0.814544	-1.58153	0	0	0	0	0	0	0	0	0	0	0	0	0.000000000	-1.9984e-15	0.788798	-0.788798	1.80411e-16	0.828698	-1.5708	0.1	0.1	0.1	0.1	0.1	0.1	0	0	0	0	0	0	0.000000000
1504020438.678431987	-0.00613592	0.771592	-0.800738	-0.00153398	0.814544	-1.58153	0	0	0	0	0	0	0	0	0	0	0	0	0.000000000	-1.9984e-15	0.788798	-0.788798	1.80411e-16	0.828698	-1.5708	0.1	0.1	0.1	0.1	0.1	0.1	0	0	0	0	0	0	0.000000000
1504020438.698981046	-0.00613592	0.773126	-0.800738	-0.00153398	0.814544	-1.58153	0	0	0	0	0	0	0	0	0	0	0	0	0.000000000	-1.9984e-15	0.788798	-0.788798	1.80411e-16	0.828698	-1.5708	0.1	0.1	0.1	0.1	0.1	0.1	0	0	0	0	0	0	0.000000000
1504020438.718528032	-0.00613592	0.773126	-0.800738	-0.00153398	0.814544	-1.58	0	0	0	0	0	0	0	0	0	0	0	0	0.000000000	-1.9984e-15	0.788798	-0.788798	1.80411e-16	0.828698	-1.5708	0.1	0.1	0.1	0.1	0.1	0.1	0	0	0	0	0	0	0.000000000
1504020438.738490104	-0.00613592	0.773126	-0.800738	-0.00153398	0.814544	-1.58	0	0	0	0	0	0	0	0	0	0	0	0	0.000000000	-1.9984e-15	0.788798	-0.788798	1.80411e-16	0.828698	-1.5708	0.1	0.1	0.1	0.1	0.1	0.1	0	0	0	0	0	0	0.000000000
1504020438.758213996	-0.00613592	0.771592	-0.800738	-0.00153398	0.814544	-1.58153	0	0	0	0	0	0	0	0	0	0	0	0	0.000000000	-1.9984e-15	0.788798	-0.788798	1.80411e-16	0.828698	-1.5708	0.1	0.1	0.1	0.1	0.1	0.1	0	0	0	0	0	0	0.000000000
1504020438.778004884	-0.00613592	0.771592	-0.800738	-0.00153398	0.814544	-1.58153	0	0	0	0	0	0	0	0	0	0	0	0	0.000000000	-1.9984e-15	0.788798	-0.788798	1.80411e-16	0.828698	-1.5708	0.1	0.1	0.1	0.1	0.1	0.1	0	0	0	0	0	0	0.000000000
1504020438.798001050	-0.00613592	0.773126	-0.800738	-0.00153398	0.814544	-1.58153	0	0	0	0	0	0	0	0	0	0	0	0	0.000000000	-1.9984e-15	0.788798	-0.788798	1.80411e-16	0.828698	-1.5708	0.1	0.1	0.1	0.1	0.1	0.1	0	0	0	0	0	0	0.000000000
1504020438.818007946	-0.00613592	0.771592	-0.800738	-0.00153398	0.814544	-1.58153	0	0	0	0	0	0	0	0	0	0	0	0	0.000000000	-1.9984e-15	0.788798	-0.788798	1.80411e-16	0.828698	-1.5708	0.1	0.1	0.1	0.1	0.1	0.1	0	0	0	0	0	0	0.000000000
1504020438.837958097	-0.00613592	0.771592	-0.800738	-0.00153398	0.814544	-1.58153	0	0	0	0	0	0	0	0	0	0	0	0	0.000000000	-1.9984e-15	0.788798	-0.788798	1.80411e-16	0.828698	-1.5708	0.1	0.1	0.1	0.1	0.1	0.1	0	0	0	0	0	0	0.000000000
1504020438.858022928	-0.00613592	0.771592	-0.800738	-0.00153398	0.814544	-1.58153	0	0	0	0	0	0	0	0	0	0	0	0	0.000000000	-1.9984e-15	0.788798	-0.788798	1.80411e-16	0.828698	-1.5708	0.1	0.1	0.1	0.1	0.1	0.1	0	0	0	0	0	0	0.000000000
1504020438.877998113	-0.00613592	0.771592	-0.800738	-0.00306796	0.814544	-1.58153	0	0	0	0	0	0	0	0	0	0	0	0	0.000000000	-1.9984e-15	0.788798	-0.788798	1.80411e-16	0.828698	-1.5708	0.1	0.1	0.1	0.1	0.1	0.1	0	0	0	0	0	0	0.000000000
1504020438.898057937	-0.00613592	0.771592	-0.800738	-0.00153398	0.814544	-1.58153	0	0	0	0	0	0	0	0	0	0	0	0	0.000000000	-1.9984e-15	0.788798	-0.788798	1.80411e-16	0.828698	-1.5708	0.1	0.1	0.1	0.1	0.1	0.1	0	0	0	0	0	0	0.000000000
1504020438.918169021	-0.00613592	0.773126	-0.800738	-0.00153398	0.814544	-1.58	0	0	0	0	0	0	0	0	0	0	0	0	0.000000000	-1.9984e-15	0.788798	-0.788798	1.80411e-16	0.828698	-1.5708	0.1	0.1	0.1	0.1	0.1	0.1	0	0	0	0	0	0	0.000000000
1504020438.938518047	-0.00613592	0.773126	-0.800738	-0.00153398	0.814544	-1.58	0	0	0	0	0	0	0	0	0	0	0	0	0.000000000	-1.9984e-15	0.788798	-0.788798	1.80411e-16	0.828698	-1.5708	0.1	0.1	0.1	0.1	0.1	0.1	0	0	0	0	0	0	0.000000000
1504020438.958257913	-0.00613592	0.773126	-0.800738	-0.00153398	0.814544	-1.58	0	0	0	0	0	0	0	0	0	0	0	0	0.000000000	-1.9984e-15	0.788798	-0.788798	1.80411e-16	0.828698	-1.5708	0.1	0.1	0.1	0.1	0.1	0.1	0	0	0	0	0	0	0.000000000
1504020438.979048967	-0.00613592	0.773126	-0.800738	-0.00153398	0.814544	-1.58153	0	0	0	0	0	0	0	0	0	0	0	0	0.000000000	-1.9984e-15	0.788798	-0.788798	1.80411e-16	0.828698	-1.5708	0.1	0.1	0.1	0.1	0.1	0.1	0	0	0	0	0	0	0.000000000
1504020438.998094081	-0.00613592	0.773126	-0.800738	-0.00153398	0.814544	-1.58153	0	0	0	0	0	0	0	0	0	0	0	0	0.000000000	-1.9984e-15	0.788798	-0.788798	1.80411e-16	0.828698	-1.5708	0.1	0.1	0.1	0.1	0.1	0.1	0	0	0	0	0	0	0.000000000
1504020439.018057107	-0.00613592	0.773126	-0.800738	-0.00153398	0.814544	-1.58153	0	0	0	0	0	0	0	0	0	0	0	0	0.000000000	-1.9984e-15	0.788798	-0.788798	1.80411e-16	0.828698	-1.5708	0.1	0.1	0.1	0.1	0.1	0.1	0	0	0	0	0	0	0.000000000
1504020439.038115978	-0.00613592	0.773126	-0.800738	-0.00153398	0.814544	-1.58153	0	0	0	0	0	0	0	0	0	0	0	0	0.000000000	-1.9984e-15	0.788798	-0.788798	1.80411e-16	0.828698	-1.5708	0.1	0.1	0.1	0.1	0.1	0.1	0	0	0	0	0	0	0.000000000
1504020439.058160066	-0.00613592	0.771592	-0.800738	-0.00153398	0.814544	-1.58153	0	0	0	0	0	0	0	0	0	0	0	0	0.000000000	-1.9984e-15	0.788798	-0.788798	1.80411e-16	0.828698	-1.5708	0.1	0.1	0.1	0.1	0.1	0.1	0	0	0	0	0	0	0.000000000
1504020439.078268051	-0.0076699	0.773126	-0.800738	-0.00153398	0.814544	-1.58153	0	0	0	0	0	0	0	0	0	0	0	0	0.000000000	-1.9984e-15	0.788798	-0.788798	1.80411e-16	0.828698	-1.5708	0.1	0.1	0.1	0.1	0.1	0.1	0	0	0	0	0	0	0.000000000
1504020439.098109006	-0.00613592	0.771592	-0.800738	-0.00153398	0.814544	-1.58	0	0	0	0	0	0	0	0	0	0	0	0	0.000000000	-1.9984e-15	0.788798	-0.788798	1.80411e-16	0.828698	-1.5708	0.1	0.1	0.1	0.1	0.1	0.1	0	0	0	0	0	0	0.000000000
1504020439.118735074	-0.00613592	0.771592	-0.800738	-0.00153398	0.814544	-1.58153	0	0	0	0	0	0	0	0	0	0	0	0	0.000000000	-1.9984e-15	0.788798	-0.788798	1.80411e-16	0.828698	-1.5708	0.1	0.1	0.1	0.1	0.1	0.1	0	0	0	0	0	0	0.000000000
1504020439.138643980	-0.00613592	0.771592	-0.800738	-0.00153398	0.814544	-1.58153	0	0	0	0	0	0	0	0	0	0	0	0	0.000000000	-1.9984e-15	0.788798	-0.788798	1.80411e-16	0.828698	-1.5708	0.1	0.1	0.1	0.1	0.1	0.1	0	0	0	0	0	0	0.000000000
1504020439.158188104	-0.00613592	0.773126	-0.800738	-0.00153398	0.814544	-1.58153	0	0	0	0	0	0	0	0	0	0	0	0	0.000000000	-1.9984e-15	0.788798	-0.788798	1.80411e-16	0.828698	-1.5708	0.1	0.1	0.1	0.1	0.1	0.1	0	0	0	0	0	0	0.000000000
1504020439.178204059	-0.00613592	0.771592	-0.800738	-0.00153398	0.814544	-1.58153	0	0	0	0	0	0	0	0	0	0	0	0	0.000000000	-1.9984e-15	0.788798	-0.788798	1.80411e-16	0.828698	-1.5708	0.1	0.1	0.1	0.1	0.1	0.1	0	0	0	0	0	0	0.000000000
1504020439.198185920	-0.00613592	0.773126	-0.800738	-0.00153398	0.814544	-1.58153	0	0	0	0	0	0	0	0	0	0	0	0	0.000000000	-1.9984e-15	0.788798	-0.788798	1.80411e-16	0.828698	-1.5708	0.1	0.1	0.1	0.1	0.1	0.1	0	0	0	0	0	0	0.000000000
1504020439.219244003	-0.00613592	0.773126	-0.800738	-0.00153398	0.814544	-1.58153	0	0	0	0	0	0	0	0	0	0	0	0	0.000000000	-1.9984e-15	0.788798	-0.788798	1.80411e-16	0.828698	-1.5708	0.1	0.1	0.1	0.1	0.1	0.1	0	0	0	0	0	0	0.000000000
1504020439.242515087	-0.00613592	0.773126	-0.800738	-0.00153398	0.814544	-1.58153	0	0	0	0	0	0	0	0	0	0	0	0	0.000000000	-1.9984e-15	0.788798	-0.788798	1.80411e-16	0.828698	-1.5708	0.1	0.1	0.1	0.1	0.1	0.1	0	0	0	0	0	0	0.000000000
1504020439.260307073	-0.00613592	0.771592	-0.800738	-0.00153398	0.814544	-1.58153	0	0	0	0	0	0	0	0	0	0	0	0	0.000000000	-1.9984e-15	0.788798	-0.788798	1.80411e-16	0.828698	-1.5708	0.1	0.1	0.1	0.1	0.1	0.1	0	0	0	0	0	0	0.000000000
1504020439.278083086	-0.00613592	0.771592	-0.800738	-0.00153398	0.814544	-1.58153	0	0	0	0	0	0	0	0	0	0	0	0	0.000000000	-1.9984e-15	0.788798	-0.788798	1.80411e-16	0.828698	-1.5708	0.1	0.1	0.1	0.1	0.1	0.1	0	0	0	0	0	0	0.000000000
1504020439.298065900	-0.00613592	0.773126	-0.800738	-0.00153398	0.814544	-1.58153	0	0	0	0	0	0	0	0	0	0	0	0	0.000000000	-1.9984e-15	0.788798	-0.788798	1.80411e-16	0.828698	-1.5708	0.1	0.1	0.1	0.1	0.1	0.1	0	0	0	0	0	0	0.000000000
1504020439.318124055	-0.00613592	0.771592	-0.800738	-0.00153398	0.814544	-1.58153	0	0	0	0	0	0	0	0	0	0	0	0	0.000000000	-1.9984e-15	0.788798	-0.788798	1.80411e-16	0.828698	-1.5708	0.1	0.1	0.1	0.1	0.1	0.1	0	0	0	0	0	0	0.000000000
1504020439.337997913	-0.00613592	0.773126	-0.800738	-0.00153398	0.814544	-1.58	0	0	0	0	0	0	0	0	0	0	0	0	0.000000000	-1.9984e-15	0.788798	-0.788798	1.80411e-16	0.828698	-1.5708	0.1	0.1	0.1	0.1	0.1	0.1	0	0	0	0	0	0	0.000000000
1504020439.358161926	-0.00613592	0.773126	-0.800738	-0.00153398	0.814544	-1.58	0	0	0	0	0	0	0	0	0	0	0	0	0.000000000	-1.9984e-15	0.788798	-0.788798	1.80411e-16	0.828698	-1.5708	0.1	0.1	0.1	0.1	0.1	0.1	0	0	0	0	0	0	0.000000000
1504020439.378084897	-0.00613592	0.773126	-0.800738	-0.00153398	0.814544	-1.58153	0	0	0	0	0	0	0	0	0	0	0	0	0.000000000	-1.9984e-15	0.788798	-0.788798	1.80411e-16	0.828698	-1.5708	0.1	0.1	0.1	0.1	0.1	0.1	0	0	0	0	0	0	0.000000000
1504020439.398221015	-0.00613592	0.771592	-0.800738	-0.00153398	0.814544	-1.58153	0	0	0	0	0	0	0	0	0	0	0	0	0.000000000	-1.9984e-15	0.788798	-0.788798	1.80411e-16	0.828698	-1.5708	0.1	0.1	0.1	0.1	0.1	0.1	0	0	0	0	0	0	0.000000000
1504020439.418205976	-0.00613592	0.771592	-0.800738	-0.00153398	0.814544	-1.58153	0	0	0	0	0	0	0	0	0	0	0	0	0.000000000	-1.9984e-15	0.788798	-0.788798	1.80411e-16	0.828698	-1.5708	0.1	0.1	0.1	0.1	0.1	0.1	0	0	0	0	0	0	0.000000000
1504020439.438680887	-0.00613592	0.771592	-0.800738	-0.00153398	0.814544	-1.58153	0	0	0	0	0	0	0	0	0	0	0	0	0.000000000	-1.9984e-15	0.788798	-0.788798	1.80411e-16	0.828698	-1.5708	0.1	0.1	0.1	0.1	0.1	0.1	0	0	0	0	0	0	0.000000000
1504020439.458194017	-0.00613592	0.771592	-0.800738	-0.00153398	0.814544	-1.58153	0	0	0	0	0	0	0	0	0	0	0	0	0.000000000	-1.9984e-15	0.788798	-0.788798	1.80411e-16	0.828698	-1.5708	0.1	0.1	0.1	0.1	0.1	0.1	0	0	0	0	0	0	0.000000000
1504020439.478219985	-0.00613592	0.771592	-0.800738	-0.00153398	0.814544	-1.58153	0	0	0	0	0	0	0	0	0	0	0	0	0.000000000	-1.9984e-15	0.788798	-0.788798	1.80411e-16	0.828698	-1.5708	0.1	0.1	0.1	0.1	0.1	0.1	0	0	0	0	0	0	0.000000000
1504020439.498226881	-0.00613592	0.773126	-0.800738	-0.00153398	0.814544	-1.58153	0	0	0	0	0	0	0	0	0	0	0	0	0.000000000	-1.9984e-15	0.788798	-0.788798	1.80411e-16	0.828698	-1.5708	0.1	0.1	0.1	0.1	0.1	0.1	0	0	0	0	0	0	0.000000000
1504020439.518423080	-0.00613592	0.773126	-0.800738	-0.00153398	0.814544	-1.58153	0	0	0	0	0	0	0	0	0	0	0	0	0.000000000	-1.9984e-15	0.788798	-0.788798	1.80411e-16	0.828698	-1.5708	0.1	0.1	0.1	0.1	0.1	0.1	0	0	0	0	0	0	0.000000000
1504020439.538008928	-0.00460194	0.771592	-0.800738	-0.00153398	0.814544	-1.58	0	0	0	0	0	0	0	0	0	0	0	0	0.000000000	-1.9984e-15	0.788798	-0.788798	1.80411e-16	0.828698	-1.5708	0.1	0.1	0.1	0.1	0.1	0.1	0	0	0	0	0	0	0.000000000
1504020439.560306072	-0.00460194	0.771592	-0.800738	-0.00153398	0.814544	-1.58	0	0	0	0	0	0	0	0	0	0	0	0	0.000000000	-1.9984e-15	0.788798	-0.788798	1.80411e-16	0.828698	-1.5708	0.1	0.1	0.1	0.1	0.1	0.1	0	0	0	0	0	0	0.000000000
1504020439.578032970	-0.00613592	0.771592	-0.800738	-0.00153398	0.814544	-1.58153	0	0	0	0	0	0	0	0	0	0	0	0	0.000000000	-8.69384e-05	0.788798	-0.788798	-7.67326e-06	0.828698	-1.5708	0.1	0.1	0.1	0.1	0.1	0.1	0	0	0	0	0	0	0.000000000
1504020439.598054885	-0.00613592	0.771592	-0.800738	-0.00153398	0.814544	-1.58153	0	0	0	0	0	0	0	0	0	0	0	0	0.000000000	-8.69384e-05	0.788798	-0.788798	-7.67326e-06	0.828698	-1.5708	0.1	0.1	0.1	0.1	0.1	0.1	0	0	0	0	0	0	0.000000000
1504020439.618117094	-0.00613592	0.771592	-0.800738	-0.00153398	0.814544	-1.58153	0	0	0	0	0	0	0	0	0	0	0	0	0.000000000	-0.000288926	0.788798	-0.788798	-2.55009e-05	0.828698	-1.5708	0.1	0.1	0.1	0.1	0.1	0.1	0	0	0	0	0	0	0.000000000
1504020439.638432979	-0.00613592	0.773126	-0.800738	-0.00153398	0.814544	-1.58153	0	0	0	0	0	0	0	0	0	0	0	0	0.000000000	-0.000288926	0.788798	-0.788798	-2.55009e-05	0.828698	-1.5708	0.1	0.1	0.1	0.1	0.1	0.1	0	0	0	0	0	0	0.000000000
1504020439.658389091	-0.00613592	0.773126	-0.800738	-0.00153398	0.814544	-1.58153	0	0	0	0	0	0	0	0	0	0	0	0	0.000000000	-0.000288926	0.788798	-0.788798	-2.55009e-05	0.828698	-1.5708	0.1	0.1	0.1	0.1	0.1	0.1	0	0	0	0	0	0	0.000000000
1504020439.679066896	-0.00613592	0.771592	-0.800738	-0.00153398	0.814544	-1.58153	0	0	0	0	0	0	0	0	0	0	0	0	0.000000000	-0.000674305	0.788798	-0.788798	-5.95147e-05	0.828698	-1.5708	0.1	0.1	0.1	0.1	0.1	0.1	0	0	0	0	0	0	0.000000000
1504020439.698333978	-0.00613592	0.771592	-0.800738	-0.00153398	0.814544	-1.58153	0	0	0	0	0	0	0	0	0	0	0	0	0.000000000	-0.000674305	0.788798	-0.788798	-5.95147e-05	0.828698	-1.5708	0.1	0.1	0.1	0.1	0.1	0.1	0	0	0	0	0	0	0.000000000
1504020439.718672037	-0.00613592	0.771592	-0.800738	-0.00153398	0.814544	-1.58153	0	0	0	0	0	0	0	0	0	0	0	0	0.000000000	-0.00129655	0.788798	-0.788798	-0.000114435	0.828698	-1.5708	0.1	0.1	0.1	0.1	0.1	0.1	0	0	0	0	0	0	0.000000000
1504020439.738094091	-0.00613592	0.771592	-0.800738	-0.00153398	0.814544	-1.58	0	0	0	0	0	0	0	0	0	0	0	0	0.000000000	-0.00129655	0.788798	-0.788798	-0.000114435	0.828698	-1.5708	0.1	0.1	0.1	0.1	0.1	0.1	0	0	0	0	0	0	0.000000000
1504020439.758337020	-0.00613592	0.771592	-0.800738	-0.00153398	0.814544	-1.58153	0	0	0	0	0	0	0	0	0	0	0	0	0.000000000	-0.00129655	0.788798	-0.788798	-0.000114435	0.828698	-1.5708	0.1	0.1	0.1	0.1	0.1	0.1	0	0	0	0	0	0	0.000000000
1504020439.778332948	-0.00613592	0.771592	-0.800738	-0.00153398	0.814544	-1.58153	0	0	0	0	0	0	0	0	0	0	0	0	0.000000000	-0.00220541	0.788798	-0.788798	-0.000194651	0.828698	-1.5708	0.1	0.1	0.1	0.1	0.1	0.1	0	0	0	0	0	0	0.000000000
1504020439.798429965	-0.00613592	0.771592	-0.800738	-0.00153398	0.814544	-1.58153	0	0	0	0	0	0	0	0	0	0	0	0	0.000000000	-0.00220541	0.788798	-0.788798	-0.000194651	0.828698	-1.5708	0.1	0.1	0.1	0.1	0.1	0.1	0	0	0	0	0	0	0.000000000
1504020439.818468093	-0.00613592	0.773126	-0.800738	-0.00153398	0.814544	-1.58153	0	0	0	0	0	0	0	0	0	0	0	0	0.000000000	-0.00344693	0.788798	-0.788798	-0.000304229	0.828698	-1.5708	0.1	0.1	0.1	0.1	0.1	0.1	0	0	0	0	0	0	0.000000000
1504020439.838095903	-0.00613592	0.771592	-0.800738	-0.00153398	0.814544	-1.58153	0	0	0	0	0	0	0	0	0	0	0	0	0.000000000	-0.00344693	0.788798	-0.788798	-0.000304229	0.828698	-1.5708	0.1	0.1	0.1	0.1	0.1	0.1	0	0	0	0	0	0	0.000000000
1504020439.858253002	-0.00613592	0.773126	-0.800738	-0.00153398	0.814544	-1.58153	0	0	0	0	0	0	0	0	0	0	0	0	0.000000000	-0.00344693	0.788798	-0.788798	-0.000304229	0.828698	-1.5708	0.1	0.1	0.1	0.1	0.1	0.1	0	0	0	0	0	0	0.000000000
1504020439.878119945	-0.00613592	0.771592	-0.800738	-0.00153398	0.814544	-1.58153	0	0	0	0	0	0	0	0	0	0	0	0	0.000000000	-0.00506363	0.788798	-0.788798	-0.00044692	0.828698	-1.5708	0.1	0.1	0.1	0.1	0.1	0.1	0	0	0	0	0	0	0.000000000
1504020439.898013114	-0.00613592	0.771592	-0.800738	-0.00153398	0.814544	-1.58153	0	0	0	0	0	0	0	0	0	0	0	0	0.000000000	-0.00506363	0.788798	-0.788798	-0.00044692	0.828698	-1.5708	0.1	0.1	0.1	0.1	0.1	0.1	0	0	0	0	0	0	0.000000000
1504020439.918210029	-0.00613592	0.771592	-0.800738	-0.00153398	0.814544	-1.58153	0	0	0	0	0	0	0	0	0	0	0	0	0.000000000	-0.00506363	0.788798	-0.788798	-0.00044692	0.828698	-1.5708	0.1	0.1	0.1	0.1	0.1	0.1	0	0	0	0	0	0	0.000000000
1504020439.938453912	-0.00613592	0.771592	-0.800738	-0.00153398	0.814544	-1.58153	0	0	0	0	0	0	0	0	0	0	0	0	0.000000000	-0.00709448	0.788798	-0.788798	-0.000626165	0.828698	-1.5708	0.1	0.1	0.1	0.1	0.1	0.1	0	0	0	0	0	0	0.000000000
1504020439.958189964	-0.00613592	0.773126	-0.800738	-0.00153398	0.814544	-1.58153	0	0	0	0	0	0	0	0	0	0	0	0	0.000000000	-0.00709448	0.788798	-0.788798	-0.000626165	0.828698	-1.5708	0.1	0.1	0.1	0.1	0.1	0.1	0	0	0	0	0	0	0.000000000
1504020439.979948043	-0.00613592	0.771592	-0.800738	-0.00153398	0.814544	-1.58	0	0	0	0	0	0	0	0	0	0	0	0	0.000000000	-0.00957507	0.788798	-0.788798	-0.000845105	0.828698	-1.5708	0.1	0.1	0.1	0.1	0.1	0.1	0	0	0	0	0	0	0.000000000
1504020439.998347997	-0.00613592	0.771592	-0.800738	-0.00153398	0.814544	-1.58	0	0	0	0	0	0	0	0	0	0	0	0	0.000000000	-0.00957507	0.788798	-0.788798	-0.000845105	0.828698	-1.5708	0.1	0.1	0.1	0.1	0.1	0.1	0	0	0	0	0	0	0.000000000
1504020440.020412921	-0.00613592	0.771592	-0.800738	-0.00153398	0.814544	-1.58	0	0	0	0	0	0	0	0	0	0	0	0	0.000000000	-0.00957507	0.788798	-0.788798	-0.000845105	0.828698	-1.5708	0.1	0.1	0.1	0.1	0.1	0.1	0	0	0	0	0	0	0.000000000
1504020440.038269996	-0.00613592	0.773126	-0.800738	-0.00306796	0.814544	-1.58153	0	0	0	0	0	0	0	0	0	0	0	0	0.000000000	-0.0125376	0.788798	-0.788798	-0.00110658	0.828698	-1.5708	0.1	0.1	0.1	0.1	0.1	0.1	0	0	0	0	0	0	0.000000000
1504020440.058219909	-0.00613592	0.771592	-0.800738	-0.00153398	0.814544	-1.58153	0	0	0	0	0	0	0	0	0	0	0	0	0.000000000	-0.0125376	0.788798	-0.788798	-0.00110658	0.828698	-1.5708	0.1	0.1	0.1	0.1	0.1	0.1	0	0	0	0	0	0	0.000000000
1504020440.078550100	-0.00613592	0.773126	-0.800738	-0.00306796	0.814544	-1.58153	0	0	0	0	0	0	0	0	0	0	0	0	0.000000000	-0.0160112	0.788798	-0.788798	-0.00141316	0.828698	-1.5708	0.1	0.1	0.1	0.1	0.1	0.1	0	0	0	0	0	0	0.000000000
1504020440.098613977	-0.00613592	0.773126	-0.800738	-0.00306796	0.814544	-1.58	0	0	0	0	0	0	0	0	0	0	0	0	0.000000000	-0.0160112	0.788798	-0.788798	-0.00141316	0.828698	-1.5708	0.1	0.1	0.1	0.1	0.1	0.1	0	0	0	0	0	0	0.000000000
1504020440.119309902	-0.00613592	0.771592	-0.800738	-0.00153398	0.814544	-1.58153	0	0	0	0	0	0	0	0	0	0	0	0	0.000000000	-0.0160112	0.788798	-0.788798	-0.00141316	0.828698	-1.5708	0.1	0.1	0.1	0.1	0.1	0.1	0	0	0	0	0	0	0.000000000
1504020440.139473915	-0.00920388	0.771592	-0.800738	-0.00153398	0.814544	-1.58153	0	0	0	0	0	0	0	0	0	0	0	0	0.000000000	-0.0200215	0.788798	-0.788798	-0.00176712	0.828698	-1.5708	0.1	0.1	0.1	0.1	0.1	0.1	0	0	0	0	0	0	0.000000000
1504020440.160708904	-0.0122718	0.771592	-0.800738	-0.00153398	0.814544	-1.58153	0.107442	0	0	0	0	0	0	0	0	0	0	0	0.000000000	-0.0200215	0.788798	-0.788798	-0.00176712	0.828698	-1.5708	0.1	0.1	0.1	0.1	0.1	0.1	0	0	0	0	0	0	0.000000000
1504020440.178133010	-0.0122718	0.771592	-0.800738	-0.00153398	0.814544	-1.58153	0.107442	0	0	0	0	0	0	0	0	0	0	0	0.000000000	-0.0245914	0.788798	-0.788798	-0.00217046	0.828698	-1.5708	0.1	0.1	0.1	0.1	0.1	0.1	0	0	0	0	0	0	0.000000000
1504020440.199183940	-0.0153398	0.771592	-0.800738	-0.00153398	0.814544	-1.58153	0.107442	0	0	0	0	0	0	0	0	0	0	0	0.000000000	-0.0245914	0.788798	-0.788798	-0.00217046	0.828698	-1.5708	0.1	0.1	0.1	0.1	0.1	0.1	0	0	0	0	0	0	0.000000000
1504020440.218149900	-0.0153398	0.773126	-0.800738	-0.00153398	0.814544	-1.58153	0	0	0	0	0	0	0	0	0	0	0	0	0.000000000	-0.0245914	0.788798	-0.788798	-0.00217046	0.828698	-1.5708	0.1	0.1	0.1	0.1	0.1	0.1	0	0	0	0	0	0	0.000000000
1504020440.238233089	-0.0153398	0.773126	-0.800738	-0.00153398	0.814544	-1.58153	0	0	0	0	0	0	0	0	0	0	0	0	0.000000000	-0.0297406	0.788798	-0.788798	-0.00262493	0.828698	-1.5708	0.101953	0.1	0.1	0.1	0.1	0.1	0	0	0	0	0	0	0.000000000
1504020440.258496046	-0.0184078	0.771592	-0.800738	-0.00153398	0.814544	-1.58153	0	0	0	0	0	0	0	0	0	0	0	0	0.000000000	-0.0297406	0.788798	-0.788798	-0.00262493	0.828698	-1.5708	0.101953	0.1	0.1	0.1	0.1	0.1	0	0	0	0	0	0	0.000000000
1504020440.280544996	-0.0199418	0.773126	-0.800738	-0.00153398	0.814544	-1.58153	0.107442	0	0	0	0	0	0	0	0	0	0	0	0.000000000	-0.0354858	0.788798	-0.788798	-0.00313201	0.828698	-1.5708	0.113756	0.1	0.1	0.1	0.1	0.1	0	0	0	0	0	0	0.000000000
1504020440.298849105	-0.0199418	0.773126	-0.800738	-0.00153398	0.814544	-1.58153	0.107442	0	0	0	0	0	0	0	0	0	0	0	0.000000000	-0.0354858	0.788798	-0.788798	-0.00313201	0.828698	-1.5708	0.113756	0.1	0.1	0.1	0.1	0.1	0	0	0	0	0	0	0.000000000
1504020440.319400072	-0.0245437	0.771592	-0.800738	-0.00153398	0.814544	-1.58153	0.155195	0	0	0	0	0	0	0	0	0	0	0	0.000000000	-0.0354858	0.788798	-0.788798	-0.00313201	0.828698	-1.5708	0.113756	0.1	0.1	0.1	0.1	0.1	0	0	0	0	0	0	0.000000000
1504020440.338196992	-0.0291456	0.771592	-0.800738	-0.00153398	0.814544	-1.58153	0.155195	0	0	0	0	0	0	0	0	0	0	0	0.000000000	-0.0418411	0.788798	-0.788798	-0.00369293	0.828698	-1.5708	0.125834	0.1	0.1	0.1	0.1	0.1	0	0	0	0	0	0	0.000000000
1504020440.358871936	-0.0337476	0.771592	-0.800738	-0.00153398	0.814544	-1.58153	0.155195	0	0	0	0	0	0	0	0	0	0	0	0.000000000	-0.0418411	0.788798	-0.788798	-0.00369293	0.828698	-1.5708	0.125834	0.1	0.1	0.1	0.1	0.1	0	0	0	0	0	0	0.000000000
1504020440.379133939	-0.0352816	0.773126	-0.800738	-0.00153398	0.816078	-1.58153	0.107442	0	0	0	0	0	0	0	0	0	0	0	0.000000000	-0.0488176	0.788798	-0.788798	-0.00430869	0.828698	-1.5708	0.138135	0.1	0.1	0.1	0.1	0.1	0	0	0	0	0	0	0.000000000
1504020440.398477077	-0.0352816	0.771592	-0.800738	-0.00153398	0.814544	-1.58153	0	0	0	0	0	0	0	0	0	0	0	0	0.000000000	-0.0488176	0.788798	-0.788798	-0.00430869	0.828698	-1.5708	0.138135	0.1	0.1	0.1	0.1	0.1	0	0	0	0	0	0	0.000000000
1504020440.418137073	-0.0368155	0.773126	-0.800738	-0.00153398	0.814544	-1.58	0	0	0	0	0	0	0	0	0	0	0	0	0.000000000	-0.0488176	0.788798	-0.788798	-0.00430869	0.828698	-1.5708	0.138135	0.1	0.1	0.1	0.1	0.1	0	0	0	0	0	0	0.000000000
1504020440.438088893	-0.0368155	0.773126	-0.800738	-0.00153398	0.814544	-1.58	0	0	0	0	0	0	0	0	0	0	0	0	0.000000000	-0.0564239	0.788798	-0.788798	-0.00498003	0.828698	-1.5708	0.150606	0.1	0.1	0.1	0.1	0.1	0	0	0	0	0	0	0.000000000
1504020440.458146095	-0.0444854	0.771592	-0.800738	-0.00153398	0.814544	-1.58153	0.250699	0	0	0	0	0	0	0	0	0	0	0	0.000000000	-0.0564239	0.788798	-0.788798	-0.00498003	0.828698	-1.5708	0.150606	0.1	0.1	0.1	0.1	0.1	0	0	0	0	0	0	0.000000000
1504020440.478319883	-0.0475534	0.773126	-0.800738	-0.00153398	0.814544	-1.58153	0.202947	0	0	0	0	0	0	0	0	0	0	0	0.000000000	-0.064666	0.788798	-0.788798	-0.00570748	0.828698	-1.5708	0.163194	0.1	0.1	0.1	0.1	0.1	0	0	0	0	0	0	0.000000000
1504020440.498732089	-0.0521553	0.773126	-0.800738	-0.00153398	0.814544	-1.58	0.155195	0	0	0	0	0	0	0	0	0	0	0	0.000000000	-0.064666	0.788798	-0.788798	-0.00570748	0.828698	-1.5708	0.163194	0.1	0.1	0.1	0.1	0.1	0	0	0	0	0	0	0.000000000
1504020440.518213987	-0.0536893	0.773126	-0.800738	-0.00306796	0.814544	-1.58153	0	0	0	0	0	0	0	0	0	0	0	0	0.000000000	-0.064666	0.788798	-0.788798	-0.00570748	0.828698	-1.5708	0.163194	0.1	0.1	0.1	0.1	0.1	0	0	0	0	0	0	0.000000000
1504020440.538271903	-0.0536893	0.773126	-0.800738	-0.00306796	0.814544	-1.58153	0	0	0	0	0	0	0	0	0	0	0	0	0.000000000	-0.0735473	0.788798	-0.788798	-0.00649135	0.828698	-1.5708	0.175849	0.1	0.1	0.1	0.1	0.1	0	0	0	0	0	0	0.000000000
1504020440.558099031	-0.0552233	0.773126	-0.800738	-0.00153398	0.814544	-1.58153	0	0	0	0	0	0	0	0	0	0	0	0	0.000000000	-0.0735473	0.788798	-0.788798	-0.00649135	0.828698	-1.5708	0.175849	0.1	0.1	0.1	0.1	0.1	0	0	0	0	0	0	0.000000000
1504020440.578155040	-0.0582913	0.771592	-0.800738	-0.00153398	0.814544	-1.58153	0.107442	0	0	0	0	0	0	0	0	0	0	0	0.000000000	-0.0830688	0.788798	-0.788798	-0.00733173	0.828698	-1.5708	0.188525	0.1	0.1	0.1	0.1	0.1	0	0	0	0	0	0	0.000000000
1504020440.598140001	-0.0659612	0.771592	-0.800738	-0.00153398	0.814544	-1.58153	0.250699	0	0	0	0	0	0	0	0	0	0	0	0.000000000	-0.0830688	0.788798	-0.788798	-0.00733173	0.828698	-1.5708	0.188525	0.1	0.1	0.1	0.1	0.1	0	0	0	0	0	0	0.000000000
1504020440.619946002	-0.0659612	0.771592	-0.800738	-0.00153398	0.814544	-1.58153	0.250699	0	0	0	0	0	0	0	0	0	0	0	0.000000000	-0.0830688	0.788798	-0.788798	-0.00733173	0.828698	-1.5708	0.188525	0.1	0.1	0.1	0.1	0.1	0	0	0	0	0	0	0.000000000
1504020440.638257026	-0.0705631	0.771592	-0.800738	-0.00153398	0.814544	-1.58153	0.202947	0	0	0	0	0	0	0	0	0	0	0	0.000000000	-0.0932292	0.788798	-0.788798	-0.00822849	0.828698	-1.5708	0.201175	0.1	0.1	0.1	0.1	0.1	0	0	0	0	0	0	0.000000000
1504020440.658219099	-0.076699	0.773126	-0.800738	-0.00153398	0.814544	-1.58153	0.202947	0	0	0	0	0	0	0	0	0	0	0	0.000000000	-0.0932292	0.788798	-0.788798	-0.00822849	0.828698	-1.5708	0.201175	0.1	0.1	0.1	0.1	0.1	0	0	0	0	0	0	0.000000000
1504020440.678555011	-0.082835	0.771592	-0.800738	-0.00153398	0.814544	-1.58153	0.202947	0	0	0	0	0	0	0	0	0	0	0	0.000000000	-0.104025	0.788798	-0.788798	-0.00918132	0.828698	-1.5708	0.213753	0.1	0.1	0.1	0.1	0.1	0	0	0	0	0	0	0.000000000
1504020440.698090076	-0.0843689	0.771592	-0.800738	-0.00153398	0.814544	-1.58153	0	0	0	0	0	0	0	0	0	0	0	0	0.000000000	-0.104025	0.788798	-0.788798	-0.00918132	0.828698	-1.5708	0.213753	0.1	0.1	0.1	0.1	0.1	0	0	0	0	0	0	0.000000000
1504020440.720524072	-0.0874369	0.771592	-0.800738	-0.00153398	0.814544	-1.58153	0.107442	0	0	0	0	0	0	0	0	0	0	0	0.000000000	-0.104025	0.788798	-0.788798	-0.00918132	0.828698	-1.5708	0.213753	0.1	0.1	0.1	0.1	0.1	0	0	0	0	0	0	0.000000000
1504020440.738048076	-0.0874369	0.771592	-0.800738	-0.00153398	0.814544	-1.58153	0.107442	0	0	0	0	0	0	0	0	0	0	0	0.000000000	-0.11545	0.788798	-0.788798	-0.0101897	0.828698	-1.5708	0.226216	0.1	0.1	0.1	0.1	0.1	0	0	0	0	0	0	0.000000000
1504020440.758232116	-0.0935728	0.771592	-0.800738	-0.00153398	0.814544	-1.58153	0.298451	0	0	0	0	0	0	0	0	0	0	0	0.000000000	-0.11545	0.788798	-0.788798	-0.0101897	0.828698	-1.5708	0.226216	0.1	0.1	0.1	0.1	0.1	0	0	0	0	0	0	0.000000000
1504020440.778407096	-0.0997088	0.771592	-0.800738	-0.00153398	0.814544	-1.58153	0.250699	0	0	0	0	0	0	0	0	0	0	0	0.000000000	-0.11545	0.788798	-0.788798	-0.0101897	0.828698	-1.5708	0.226216	0.1	0.1	0.1	0.1	0.1	0	0	0	0	0	0	0.000000000
1504020440.798110961	-0.105845	0.773126	-0.800738	-0.00153398	0.814544	-1.58153	0.202947	0	0	0	0	0	0	0	0	0	0	0	0.000000000	-0.127496	0.788798	-0.788798	-0.011253	0.828698	-1.5708	0.238524	0.1	0.1	0.1	0.1	0.1	0	0	0	0	0	0	0.000000000
1504020440.819820880	-0.110447	0.771592	-0.800738	-0.00153398	0.814544	-1.58153	0.202947	0	0	0	0	0	0	0	0	0	0	0	0.000000000	-0.127496	0.788798	-0.788798	-0.011253	0.828698	-1.5708	0.238524	0.1	0.1	0.1	0.1	0.1	0	0	0	0	0	0	0.000000000
1504020440.838160991	-0.110447	0.771592	-0.800738	-0.00306796	0.814544	-1.58153	0.202947	0	0	0	0	0	0	0	0	0	0	0	0.000000000	-0.140155	0.788798	-0.788798	-0.0123702	0.828698	-1.5708	0.250636	0.1	0.1	0.1	0.1	0.1	0	0	0	0	0	0	0.000000000
1504020440.858103990	-0.116583	0.771592	-0.800738	-0.00306796	0.814544	-1.58153	0.202947	0	0	0	0	0	0	0	0	0	0	0	0.000000000	-0.140155	0.788798	-0.788798	-0.0123702	0.828698	-1.5708	0.250636	0.1	0.1	0.1	0.1	0.1	0	0	0	0	0	0	0.000000000
1504020440.878068923	-0.121184	0.771592	-0.800738	-0.00306796	0.814544	-1.58153	0.155195	0	0	0	0	0	0	0	0	0	0	0	0.000000000	-0.140155	0.788798	-0.788798	-0.0123702	0.828698	-1.5708	0.250636	0.1	0.1	0.1	0.1	0.1	0	0	0	0	0	0	0.000000000
1504020440.898046970	-0.124252	0.773126	-0.800738	-0.00306796	0.814544	-1.58153	0.107442	0	0	0	0	0	0	0	0	0	0	0	0.000000000	-0.153413	0.788798	-0.788798	-0.0135404	0.828698	-1.5708	0.262513	0.1	0.1	0.1	0.1	0.1	0	0	0	0	0	0	0.000000000
1504020440.918816089	-0.124252	0.773126	-0.800738	-0.00306796	0.814544	-1.58153	0.107442	0	0	0	0	0	0	0	0	0	0	0	0.000000000	-0.153413	0.788798	-0.788798	-0.0135404	0.828698	-1.5708	0.262513	0.1	0.1	0.1	0.1	0.1	0	0	0	0	0	0	0.000000000
1504020440.940067052	-0.13499	0.773126	-0.800738	-0.00460194	0.814544	-1.58153	0.346204	0	0	0	0	0	0	0	0	0	0	0	0.000000000	-0.167257	0.788798	-0.788798	-0.0147623	0.828698	-1.5708	0.274119	0.1	0.1	0.1	0.1	0.1	0	0	0	0	0	0	0.000000000
1504020440.958092927	-0.14266	0.771592	-0.800738	-0.00460194	0.814544	-1.58153	0.298451	0	0	0	0	0	0	0	0	0	0	0	0.000000000	-0.167257	0.788798	-0.788798	-0.0147623	0.828698	-1.5708	0.274119	0.1	0.1	0.1	0.1	0.1	0	0	0	0	0	0	0.000000000
1504020440.978070974	-0.148796	0.771592	-0.800738	-0.00613592	0.814544	-1.58153	0.250699	0	0	0	0	0	0	0	0	0	0	0	0.000000000	-0.167257	0.788798	-0.788798	-0.0147623	0.828698	-1.5708	0.274119	0.1	0.1	0.1	0.1	0.1	0	0	0	0	0	0	0.000000000
1504020440.998109102	-0.154932	0.771592	-0.800738	-0.0076699	0.814544	-1.58153	0.250699	0	0	0.107442	0	0	0	0	0	0	0	0	0.000000000	-0.181673	0.788798	-0.788798	-0.0160346	0.828698	-1.5708	0.28542	0.1	0.1	0.1	0.1	0.1	0	0	0	0	0	0	0.000000000
1504020441.018148899	-0.159534	0.773126	-0.800738	-0.0076699	0.814544	-1.58153	0.155195	0	0	0	0	0	0	0	0	0	0	0	0.000000000	-0.181673	0.788798	-0.788798	-0.0160346	0.828698	-1.5708	0.28542	0.1	0.1	0.1	0.1	0.1	0	0	0	0	0	0	0.000000000
1504020441.038460016	-0.159534	0.773126	-0.800738	-0.0076699	0.814544	-1.58153	0.155195	0	0	0	0	0	0	0	0	0	0	0	0.000000000	-0.196641	0.788798	-0.788798	-0.0173557	0.828698	-1.5708	0.296381	0.1	0.1	0.1	0.1	0.1	0	0	0	0	0	0	0.000000000
1504020441.058137893	-0.167204	0.773126	-0.800738	-0.0076699	0.814544	-1.58153	0.250699	0	0	0	0	0	0	0	0	0	0	0	0.000000000	-0.196641	0.788798	-0.788798	-0.0173557	0.828698	-1.5708	0.296381	0.1	0.1	0.1	0.1	0.1	0	0	0	0	0	0	0.000000000
1504020441.078061103	-0.174874	0.771592	-0.800738	-0.0076699	0.814544	-1.58153	0.346204	0	0	0	0	0	0	0	0	0	0	0	0.000000000	-0.196641	0.788798	-0.788798	-0.0173557	0.828698	-1.5708	0.296381	0.1	0.1	0.1	0.1	0.1	0	0	0	0	0	0	0.000000000
1504020441.098176002	-0.182544	0.773126	-0.800738	-0.00920388	0.814544	-1.58153	0.250699	0	0	0	0	0	0	0	0	0	0	0	0.000000000	-0.212145	0.788798	-0.788798	-0.0187241	0.828698	-1.5708	0.306971	0.1	0.1	0.1	0.1	0.1	0	0	0	0	0	0	0.000000000
1504020441.118932008	-0.18868	0.773126	-0.800738	-0.00920388	0.814544	-1.58153	0.250699	0	0	0	0	0	0	0	0	0	0	0	0.000000000	-0.212145	0.788798	-0.788798	-0.0187241	0.828698	-1.5708	0.306971	0.1	0.1	0.1	0.1	0.1	0	0	0	0	0	0	0.000000000
1504020441.138169050	-0.18868	0.773126	-0.800738	-0.00920388	0.814544	-1.58153	0.250699	0	0	0	0	0	0	0	0	0	0	0	0.000000000	-0.228163	0.788798	-0.788798	-0.0201379	0.828698	-1.5708	0.317159	0.1	0.1	0.1	0.1	0.1	0	0	0	0	0	0	0.000000000
1504020441.158519983	-0.197884	0.773126	-0.800738	-0.0107379	0.814544	-1.58153	0.346204	0	0	0	0	0	0	0	0	0	0	0	0.000000000	-0.228163	0.788798	-0.788798	-0.0201379	0.828698	-1.5708	0.317159	0.1	0.1	0.1	0.1	0.1	0	0	0	0	0	0	0.000000000
1504020441.178127050	-0.207087	0.773126	-0.800738	-0.0107379	0.814544	-1.58153	0.346204	0	0	0	0	0	0	0	0	0	0	0	0.000000000	-0.228163	0.788798	-0.788798	-0.0201379	0.828698	-1.5708	0.317159	0.1	0.1	0.1	0.1	0.1	0	0	0	0	0	0	0.000000000
1504020441.198223114	-0.217825	0.771592	-0.800738	-0.0107379	0.814544	-1.58153	0.346204	0	0	0	0	0	0	0	0	0	0	0	0.000000000	-0.244674	0.788798	-0.788798	-0.0215952	0.828698	-1.5708	0.326918	0.1	0.1	0.1	0.1	0.1	0	0	0	0	0	0	0.000000000
1504020441.218270063	-0.217825	0.771592	-0.800738	-0.0107379	0.814544	-1.58153	0.346204	0	0	0	0	0	0	0	0	0	0	0	0.000000000	-0.244674	0.788798	-0.788798	-0.0215952	0.828698	-1.5708	0.326918	0.1	0.1	0.1	0.1	0.1	0	0	0	0	0	0	0.000000000
1504020441.238420009	-0.225495	0.771592	-0.800738	-0.0107379	0.814544	-1.58153	0.346204	0	0	0	0	0	0	0	0	0	0	0	0.000000000	-0.261655	0.788798	-0.788798	-0.0230939	0.828698	-1.5708	0.33622	0.1	0.1	0.1	0.1	0.1	0	0	0	0	0	0	0.000000000
1504020441.258219003	-0.231631	0.771592	-0.800738	-0.0122718	0.814544	-1.58153	0.298451	0	0	0	0	0	0	0	0	0	0	0	0.000000000	-0.261655	0.788798	-0.788798	-0.0230939	0.828698	-1.5708	0.33622	0.1	0.1	0.1	0.1	0.1	0	0	0	0	0	0	0.000000000
1504020441.278409957	-0.239301	0.773126	-0.800738	-0.0138058	0.814544	-1.58153	0.298451	0	0	0	0	0	0	0	0	0	0	0	0.000000000	-0.261655	0.788798	-0.788798	-0.0230939	0.828698	-1.5708	0.33622	0.1	0.1	0.1	0.1	0.1	0	0	0	0	0	0	0.000000000
1504020441.298121929	-0.248505	0.773126	-0.800738	-0.0138058	0.814544	-1.58153	0.346204	0	0	0	0	0	0	0	0	0	0	0	0.000000000	-0.279081	0.788798	-0.788798	-0.024632	0.828698	-1.5708	0.34504	0.1	0.1	0.1	0.1	0.1	0	0	0	0	0	0	0.000000000
1504020441.318136930	-0.256175	0.771592	-0.800738	-0.0153398	0.814544	-1.58153	0.298451	0	0	0	0	0	0	0	0	0	0	0	0.000000000	-0.279081	0.788798	-0.788798	-0.024632	0.828698	-1.5708	0.34504	0.1	0.1	0.1	0.1	0.1	0	0	0	0	0	0	0.000000000
1504020441.338382005	-0.256175	0.771592	-0.800738	-0.0153398	0.814544	-1.58153	0.298451	0	0	0	0	0	0	0	0	0	0	0	0.000000000	-0.296927	0.788798	-0.788798	-0.0262071	0.828698	-1.5708	0.353354	0.1	0.1	0.1	0.1	0.1	0	0	0	0	0	0	0.000000000
1504020441.358200073	-0.265379	0.773126	-0.800738	-0.0153398	0.814544	-1.58153	0.346204	0	0	0	0	0	0	0	0	0	0	0	0.000000000	-0.296927	0.788798	-0.788798	-0.0262071	0.828698	-1.5708	0.353354	0.1	0.1	0.1	0.1	0.1	0	0	0	0	0	0	0.000000000
1504020441.378252983	-0.274583	0.771592	-0.800738	-0.0168738	0.814544	-1.58153	0.346204	0	0	0	0	0	0	0	0	0	0	0	0.000000000	-0.296927	0.788798	-0.788798	-0.0262071	0.828698	-1.5708	0.353354	0.1	0.1	0.1	0.1	0.1	0	0	0	0	0	0	0.000000000
1504020441.398122072	-0.283786	0.773126	-0.800738	-0.0168738	0.814544	-1.58153	0.298451	0	0	0	0	0	0	0	0	0	0	0	0.000000000	-0.315167	0.788798	-0.788798	-0.0278169	0.828698	-1.5708	0.361142	0.1	0.1	0.1	0.1	0.1	0	0	0	0	0	0	0.000000000
1504020441.418272018	-0.291456	0.773126	-0.800738	-0.0184078	0.814544	-1.58153	0.298451	0	0	0	0	0	0	0	0	0	0	0	0.000000000	-0.315167	0.788798	-0.788798	-0.0278169	0.828698	-1.5708	0.361142	0.1	0.1	0.1	0.1	0.1	0	0	0	0	0	0	0.000000000
1504020441.438107013	-0.291456	0.773126	-0.800738	-0.0184078	0.814544	-1.58153	0.298451	0	0	0	0	0	0	0	0	0	0	0	0.000000000	-0.333772	0.788798	-0.788798	-0.029459	0.828698	-1.5708	0.36838	0.1	0.1	0.1	0.1	0.1	0	0	0	0	0	0	0.000000000
1504020441.458199024	-0.30066	0.773126	-0.800738	-0.0199418	0.814544	-1.58153	0.298451	0	0	0	0	0	0	0	0	0	0	0	0.000000000	-0.333772	0.788798	-0.788798	-0.029459	0.828698	-1.5708	0.36838	0.1	0.1	0.1	0.1	0.1	0	0	0	0	0	0	0.000000000
1504020441.478187084	-0.309864	0.771592	-0.800738	-0.0199418	0.814544	-1.58153	0.346204	0	0	0	0	0	0	0	0	0	0	0	0.000000000	-0.333772	0.788798	-0.788798	-0.029459	0.828698	-1.5708	0.36838	0.1	0.1	0.1	0.1	0.1	0	0	0	0	0	0	0.000000000
1504020441.498325109	-0.320602	0.771592	-0.800738	-0.0214757	0.814544	-1.58153	0.346204	0	0	0	0	0	0	0	0	0	0	0	0.000000000	-0.352714	0.788798	-0.788798	-0.0311308	0.828698	-1.5708	0.375054	0.1	0.1	0.1	0.1	0.1	0	0	0	0	0	0	0.000000000
1504020441.518620014	-0.329806	0.773126	-0.800738	-0.0214757	0.814544	-1.58153	0.346204	0	0	0	0	0	0	0	0	0	0	0	0.000000000	-0.352714	0.788798	-0.788798	-0.0311308	0.828698	-1.5708	0.375054	0.1	0.1	0.1	0.1	0.1	0	0	0	0	0	0	0.000000000
1504020441.538067102	-0.329806	0.773126	-0.800738	-0.0214757	0.814544	-1.58153	0.346204	0	0	0	0	0	0	0	0	0	0	0	0.000000000	-0.371963	0.788798	-0.788798	-0.0328298	0.828698	-1.5708	0.38114	0.1	0.1	0.1	0.1	0.1	0	0	0	0	0	0	0.000000000
1504020441.558226108	-0.340544	0.773126	-0.800738	-0.0230097	0.814544	-1.58	0.393956	0	0	0	0	0	0	0	0	0	0	0	0.000000000	-0.371963	0.788798	-0.788798	-0.0328298	0.828698	-1.5708	0.38114	0.1	0.1	0.1	0.1	0.1	0	0	0	0	0	0	0.000000000
1504020441.578152894	-0.349748	0.773126	-0.800738	-0.0230097	0.814544	-1.58153	0.346204	0	0	0	0	0	0	0	0	0	0	0	0.000000000	-0.371963	0.788798	-0.788798	-0.0328298	0.828698	-1.5708	0.38114	0.1	0.1	0.1	0.1	0.1	0	0	0	0	0	0	0.000000000
1504020441.598526000	-0.358952	0.773126	-0.800738	-0.0245437	0.814544	-1.58153	0.346204	0	0	0	0	0	0	0	0	0	0	0	0.000000000	-0.39149	0.788798	-0.788798	-0.0345533	0.828698	-1.5708	0.386631	0.1	0.1	0.1	0.1	0.1	0	0	0	0	0	0	0.000000000
1504020441.618976116	-0.366621	0.771592	-0.800738	-0.0245437	0.814544	-1.58153	0.298451	0	0	0	0	0	0	0	0	0	0	0	0.000000000	-0.39149	0.788798	-0.788798	-0.0345533	0.828698	-1.5708	0.386631	0.1	0.1	0.1	0.1	0.1	0	0	0	0	0	0	0.000000000
1504020441.638430118	-0.366621	0.771592	-0.800738	-0.0245437	0.814544	-1.58153	0.298451	0	0	0	0	0	0	0	0	0	0	0	0.000000000	-0.411263	0.788798	-0.788798	-0.0362985	0.828698	-1.5708	0.391504	0.1	0.1	0.1	0.1	0.1	0	0	0	0	0	0	0.000000000
1504020441.658305883	-0.375825	0.771592	-0.800738	-0.0260777	0.814544	-1.58153	0.393956	0	0	0	0	0	0	0	0	0	0	0	0.000000000	-0.411263	0.788798	-0.788798	-0.0362985	0.828698	-1.5708	0.391504	0.1	0.1	0.1	0.1	0.1	0	0	0	0	0	0	0.000000000
1504020441.678137063	-0.383495	0.771592	-0.800738	-0.0276117	0.814544	-1.58153	0.346204	0	0	0	0	0	0	0	0	0	0	0	0.000000000	-0.411263	0.788798	-0.788798	-0.0362985	0.828698	-1.5708	0.391504	0.1	0.1	0.1	0.1	0.1	0	0	0	0	0	0	0.000000000
1504020441.699168920	-0.395767	0.771592	-0.800738	-0.0291456	0.814544	-1.58153	0.393956	0	0	0	0	0	0	0	0	0	0	0	0.000000000	-0.431251	0.788798	-0.788798	-0.0380626	0.828698	-1.5708	0.395755	0.1	0.1	0.1	0.1	0.1	0	0	0	0	0	0	0.000000000
1504020441.718775033	-0.404971	0.771592	-0.800738	-0.0306796	0.816078	-1.58153	0.393956	0	0	0	0	0	0	0	0	0	0	0	0.000000000	-0.431251	0.788798	-0.788798	-0.0380626	0.828698	-1.5708	0.395755	0.1	0.1	0.1	0.1	0.1	0	0	0	0	0	0	0.000000000
1504020441.738816976	-0.404971	0.771592	-0.800738	-0.0306796	0.816078	-1.58153	0.393956	0	0	0	0	0	0	0	0	0	0	0	0.000000000	-0.451421	0.788798	-0.788798	-0.0398428	0.828698	-1.5708	0.399371	0.1	0.1	0.1	0.1	0.1	0	0	0	0	0	0	0.000000000
1504020441.758161067	-0.417243	0.773126	-0.800738	-0.0322136	0.814544	-1.58153	0.393956	0	0	0.107442	0	0	0	0	0	0	0	0	0.000000000	-0.451421	0.788798	-0.788798	-0.0398428	0.828698	-1.5708	0.399371	0.1	0.1	0.1	0.1	0.1	0	0	0	0	0	0	0.000000000
1504020441.779269933	-0.424913	0.771592	-0.800738	-0.0322136	0.814544	-1.58153	0.346204	0	0	0	0	0	0	0	0	0	0	0	0.000000000	-0.451421	0.788798	-0.788798	-0.0398428	0.828698	-1.5708	0.399371	0.1	0.1	0.1	0.1	0.1	0	0	0	0	0	0	0.000000000
1504020441.798927068	-0.424913	0.771592	-0.800738	-0.0322136	0.814544	-1.58153	0.346204	0	0	0	0	0	0	0	0	0	0	0	0.000000000	-0.471741	0.788798	-0.788798	-0.0416363	0.828698	-1.5708	0.402339	0.1	0.1	0.1	0.1	0.1	0	0	0	0	0	0	0.000000000
1504020441.820466995	-0.437185	0.773126	-0.800738	-0.0322136	0.814544	-1.58153	0.346204	0	0	0	0	0	0	0	0	0	0	0	0.000000000	-0.471741	0.788798	-0.788798	-0.0416363	0.828698	-1.5708	0.402339	0.1	0.1	0.1	0.1	0.1	0	0	0	0	0	0	0.000000000
1504020441.840173006	-0.449456	0.773126	-0.800738	-0.0322136	0.814544	-1.58153	0.346204	0	0	0	0	0	0	0	0	0	0	0	0.000000000	-0.492178	0.788798	-0.788798	-0.0434401	0.828698	-1.5708	0.404658	0.1	0.1	0.1	0.1	0.1	0	0	0	0	0	0	0.000000000
1504020441.858719110	-0.449456	0.773126	-0.800738	-0.0322136	0.814544	-1.58153	0.346204	0	0	0	0	0	0	0	0	0	0	0	0.000000000	-0.492178	0.788798	-0.788798	-0.0434401	0.828698	-1.5708	0.404658	0.1	0.1	0.1	0.1	0.1	0	0	0	0	0	0	0.000000000
1504020441.878257989	-0.464796	0.773126	-0.800738	-0.0352816	0.814544	-1.58153	0.441708	0	0	0	0	0	0	0	0	0	0	0	0.000000000	-0.492178	0.788798	-0.788798	-0.0434401	0.828698	-1.5708	0.404658	0.1	0.1	0.1	0.1	0.1	0	0	0	0	0	0	0.000000000
1504020441.898142099	-0.474	0.773126	-0.800738	-0.0352816	0.814544	-1.58153	0.441708	0	0	0	0	0	0	0	0	0	0	0	0.000000000	-0.512699	0.788798	-0.788798	-0.0452513	0.828698	-1.5708	0.406315	0.1	0.1	0.1	0.1	0.1	0	0	0	0	0	0	0.000000000
1504020441.918793916	-0.48167	0.771592	-0.800738	-0.0352816	0.816078	-1.58153	0.346204	0	0	0	0	0	0	0	0	0	0	0	0.000000000	-0.512699	0.788798	-0.788798	-0.0452513	0.828698	-1.5708	0.406315	0.1	0.1	0.1	0.1	0.1	0	0	0	0	0	0	0.000000000
1504020441.938172101	-0.487806	0.773126	-0.800738	-0.0368155	0.814544	-1.58153	0.346204	0	0	0	0	0	0	0	0	0	0	0	0.000000000	-0.512699	0.788798	-0.788798	-0.0452513	0.828698	-1.5708	0.406315	0.1	0.1	0.1	0.1	0.1	0	0	0	0	0	0	0.000000000
1504020441.958309888	-0.498544	0.773126	-0.800738	-0.0368155	0.814544	-1.58153	0.393956	0	0	0	0	0	0	0	0	0	0	0	0.000000000	-0.533271	0.788798	-0.788798	-0.047067	0.828698	-1.5708	0.407315	0.1	0.1	0.1	0.1	0.1	0	0	0	0	0	0	0.000000000
1504020441.978414058	-0.509282	0.771592	-0.800738	-0.0383495	0.814544	-1.58153	0.441708	0	0	0	0	0	0	0	0	0	0	0	0.000000000	-0.533271	0.788798	-0.788798	-0.047067	0.828698	-1.5708	0.407315	0.1	0.1	0.1	0.1	0.1	0	0	0	0	0	0	0.000000000
1504020441.998070001	-0.513884	0.771592	-0.800738	-0.0383495	0.814544	-1.58153	0.346204	0	0	0	0	0	0	0	0	0	0	0	0.000000000	-0.553859	0.788798	-0.788798	-0.0488841	0.828698	-1.5708	0.407645	0.1	0.1	0.1	0.1	0.1	0	0	0	0	0	0	0.000000000
1504020442.018179893	-0.524621	0.773126	-0.800738	-0.0398835	0.814544	-1.58153	0.393956	0	0	0	0	0	0	0	0	0	0	0	0.000000000	-0.553859	0.788798	-0.788798	-0.0488841	0.828698	-1.5708	0.407645	0.1	0.1	0.1	0.1	0.1	0	0	0	0	0	0	0.000000000
1504020442.038230895	-0.536893	0.773126	-0.800738	-0.0414175	0.816078	-1.58153	0.393956	0	0	0	0	0	0	0	0	0	0	0	0.000000000	-0.553859	0.788798	-0.788798	-0.0488841	0.828698	-1.5708	0.407645	0.1	0.1	0.1	0.1	0.1	0	0	0	0	0	0	0.000000000
1504020442.058137893	-0.536893	0.773126	-0.800738	-0.0414175	0.816078	-1.58153	0.393956	0	0	0	0	0	0	0	0	0	0	0	0.000000000	-0.57443	0.788798	-0.788798	-0.0506997	0.828698	-1.5708	0.407314	0.1	0.1	0.1	0.1	0.1	0	0	0	0	0	0	0.000000000
1504020442.078094959	-0.546097	0.773126	-0.800738	-0.0414175	0.816078	-1.58153	0.393956	0	0	0	0	0	0	0	0	0	0	0	0.000000000	-0.57443	0.788798	-0.788798	-0.0506997	0.828698	-1.5708	0.407314	0.1	0.1	0.1	0.1	0.1	0	0	0	0	0	0	0.000000000
1504020442.098001003	-0.556835	0.773126	-0.800738	-0.0429515	0.814544	-1.58153	0.393956	0	0	0	0	0	0	0	0	0	0	0	0.000000000	-0.594951	0.788798	-0.788798	-0.0525109	0.828698	-1.5708	0.406316	0.1	0.1	0.1	0.1	0.1	0	0	0	0	0	0	0.000000000
1504020442.118516921	-0.566039	0.773126	-0.800738	-0.0429515	0.814544	-1.58153	0.346204	0	0	0	0	0	0	0	0	0	0	0	0.000000000	-0.594951	0.788798	-0.788798	-0.0525109	0.828698	-1.5708	0.406316	0.1	0.1	0.1	0.1	0.1	0	0	0	0	0	0	0.000000000
1504020442.138191938	-0.575243	0.773126	-0.800738	-0.0429515	0.814544	-1.58153	0.393956	0	0	0	0	0	0	0	0	0	0	0	0.000000000	-0.594951	0.788798	-0.788798	-0.0525109	0.828698	-1.5708	0.406316	0.1	0.1	0.1	0.1	0.1	0	0	0	0	0	0	0.000000000
1504020442.158050060	-0.575243	0.773126	-0.800738	-0.0429515	0.814544	-1.58153	0.393956	0	0	0	0	0	0	0	0	0	0	0	0.000000000	-0.615389	0.788798	-0.788798	-0.0543148	0.828698	-1.5708	0.404658	0.1	0.1	0.1	0.1	0.1	0	0	0	0	0	0	0.000000000
1504020442.178250074	-0.585981	0.771592	-0.800738	-0.0444854	0.814544	-1.58153	0.393956	0	0	0	0	0	0	0	0	0	0	0	0.000000000	-0.615389	0.788798	-0.788798	-0.0543148	0.828698	-1.5708	0.404658	0.1	0.1	0.1	0.1	0.1	0	0	0	0	0	0	0.000000000
1504020442.198054075	-0.596719	0.771592	-0.800738	-0.0444854	0.814544	-1.58153	0.393956	0	0	0	0	0	0	0	0	0	0	0	0.000000000	-0.635709	0.788798	-0.788798	-0.0561082	0.828698	-1.5708	0.402339	0.1	0.1	0.1	0.1	0.1	0	0	0	0	0	0	0.000000000
1504020442.218108892	-0.607456	0.771592	-0.800738	-0.0444854	0.814544	-1.58153	0.441708	0	0	0	0	0	0	0	0	0	0	0	0.000000000	-0.635709	0.788798	-0.788798	-0.0561082	0.828698	-1.5708	0.402339	0.1	0.1	0.1	0.1	0.1	0	0	0	0	0	0	0.000000000
1504020442.238416910	-0.618194	0.773126	-0.800738	-0.0460194	0.814544	-1.58153	0.393956	0	0	0	0	0	0	0	0	0	0	0	0.000000000	-0.635709	0.788798	-0.788798	-0.0561082	0.828698	-1.5708	0.402339	0.1	0.1	0.1	0.1	0.1	0	0	0	0	0	0	0.000000000
1504020442.258145093	-0.618194	0.773126	-0.800738	-0.0460194	0.814544	-1.58153	0.393956	0	0	0	0	0	0	0	0	0	0	0	0.000000000	-0.655879	0.788798	-0.788798	-0.0578885	0.828698	-1.5708	0.399371	0.1	0.1	0.1	0.1	0.1	0	0	0	0	0	0	0.000000000
1504020442.278542995	-0.625864	0.771592	-0.800738	-0.0475534	0.816078	-1.58153	0.298451	0	0	0.107442	0	0	0	0	0	0	0	0	0.000000000	-0.655879	0.788798	-0.788798	-0.0578885	0.828698	-1.5708	0.399371	0.1	0.1	0.1	0.1	0.1	0	0	0	0	0	0	0.000000000
1504020442.298105001	-0.636602	0.773126	-0.800738	-0.0475534	0.814544	-1.58153	0.346204	0	0	0	0	0	0	0	0	0	0	0	0.000000000	-0.675867	0.788798	-0.788798	-0.0596526	0.828698	-1.5708	0.395754	0.1	0.1	0.1	0.1	0.1	0	0	0	0	0	0	0.000000000
1504020442.318384885	-0.645806	0.773126	-0.800738	-0.0490874	0.814544	-1.58153	0.346204	0	0	0	0	0	0	0	0	0	0	0	0.000000000	-0.675867	0.788798	-0.788798	-0.0596526	0.828698	-1.5708	0.395754	0.1	0.1	0.1	0.1	0.1	0	0	0	0	0	0	0.000000000
1504020442.338011026	-0.656544	0.771592	-0.800738	-0.0490874	0.814544	-1.58153	0.393956	0	0	0	0	0	0	0	0	0	0	0	0.000000000	-0.675867	0.788798	-0.788798	-0.0596526	0.828698	-1.5708	0.395754	0.1	0.1	0.1	0.1	0.1	0	0	0	0	0	0	0.000000000
1504020442.358072042	-0.656544	0.771592	-0.800738	-0.0490874	0.814544	-1.58153	0.393956	0	0	0	0	0	0	0	0	0	0	0	0.000000000	-0.69564	0.788798	-0.788798	-0.0613978	0.828698	-1.5708	0.391505	0.1	0.1	0.1	0.1	0.1	0	0	0	0	0	0	0.000000000
1504020442.378096103	-0.665748	0.773126	-0.800738	-0.0506214	0.814544	-1.58153	0.346204	0	0	0	0	0	0	0	0	0	0	0	0.000000000	-0.69564	0.788798	-0.788798	-0.0613978	0.828698	-1.5708	0.391505	0.1	0.1	0.1	0.1	0.1	0	0	0	0	0	0	0.000000000
1504020442.398087024	-0.676486	0.773126	-0.800738	-0.0506214	0.814544	-1.58153	0.346204	0	0	0	0	0	0	0	0	0	0	0	0.000000000	-0.715167	0.788798	-0.788798	-0.0631212	0.828698	-1.5708	0.386631	0.1	0.1	0.1	0.1	0.1	0	0	0	0	0	0	0.000000000
1504020442.418001890	-0.687223	0.773126	-0.800738	-0.0521553	0.814544	-1.58153	0.393956	0	0	0	0	0	0	0	0	0	0	0	0.000000000	-0.715167	0.788798	-0.788798	-0.0631212	0.828698	-1.5708	0.386631	0.1	0.1	0.1	0.1	0.1	0	0	0	0	0	0	0.000000000
1504020442.438764095	-0.696427	0.771592	-0.800738	-0.0536893	0.814544	-1.58153	0.346204	0	0	0	0	0	0	0	0	0	0	0	0.000000000	-0.715167	0.788798	-0.788798	-0.0631212	0.828698	-1.5708	0.386631	0.1	0.1	0.1	0.1	0.1	0	0	0	0	0	0	0.000000000
1504020442.458106994	-0.696427	0.771592	-0.800738	-0.0536893	0.814544	-1.58153	0.346204	0	0	0	0	0	0	0	0	0	0	0	0.000000000	-0.734416	0.788798	-0.788798	-0.0648202	0.828698	-1.5708	0.381139	0.1	0.1	0.1	0.1	0.1	0	0	0	0	0	0	0.000000000
1504020442.478168010	-0.705631	0.773126	-0.800738	-0.0536893	0.814544	-1.58153	0.298451	0	0	0	0	0	0	0	0	0	0	0	0.000000000	-0.734416	0.788798	-0.788798	-0.0648202	0.828698	-1.5708	0.381139	0.1	0.1	0.1	0.1	0.1	0	0	0	0	0	0	0.000000000
1504020442.498152017	-0.714835	0.771592	-0.800738	-0.0552233	0.814544	-1.58153	0.346204	0	0	0	0	0	0	0	0	0	0	0	0.000000000	-0.753358	0.788798	-0.788798	-0.0664921	0.828698	-1.5708	0.375054	0.1	0.1	0.1	0.1	0.1	0	0	0	0	0	0	0.000000000
1504020442.518273115	-0.725573	0.771592	-0.800738	-0.0552233	0.814544	-1.58153	0.393956	0	0	0	0	0	0	0	0	0	0	0	0.000000000	-0.753358	0.788798	-0.788798	-0.0664921	0.828698	-1.5708	0.375054	0.1	0.1	0.1	0.1	0.1	0	0	0	0	0	0	0.000000000
1504020442.538011074	-0.734777	0.771592	-0.800738	-0.0552233	0.814544	-1.58153	0.393956	0	0	0	0	0	0	0	0	0	0	0	0.000000000	-0.753358	0.788798	-0.788798	-0.0664921	0.828698	-1.5708	0.375054	0.1	0.1	0.1	0.1	0.1	0	0	0	0	0	0	0.000000000
1504020442.558023929	-0.734777	0.771592	-0.800738	-0.0552233	0.814544	-1.58153	0.393956	0	0	0	0	0	0	0	0	0	0	0	0.000000000	-0.771963	0.788798	-0.788798	-0.0681342	0.828698	-1.5708	0.368379	0.1	0.1	0.1	0.1	0.1	0	0	0	0	0	0	0.000000000
1504020442.578078031	-0.743981	0.771592	-0.800738	-0.0567573	0.814544	-1.58153	0.346204	0	0	0	0	0	0	0	0	0	0	0	0.000000000	-0.771963	0.788798	-0.788798	-0.0681342	0.828698	-1.5708	0.368379	0.1	0.1	0.1	0.1	0.1	0	0	0	0	0	0	0.000000000
1504020442.598007917	-0.754719	0.771592	-0.800738	-0.0567573	0.814544	-1.58153	0.346204	0	0	0	0	0	0	0	0	0	0	0	0.000000000	-0.790203	0.788798	-0.788798	-0.069744	0.828698	-1.5708	0.361142	0.1	0.1	0.1	0.1	0.1	0	0	0	0	0	0	0.000000000
1504020442.618079900	-0.762388	0.773126	-0.800738	-0.0582913	0.814544	-1.58153	0.298451	0	0	0	0	0	0	0	0	0	0	0	0.000000000	-0.790203	0.788798	-0.788798	-0.069744	0.828698	-1.5708	0.361142	0.1	0.1	0.1	0.1	0.1	0	0	0	0	0	0	0.000000000
1504020442.638765096	-0.762388	0.773126	-0.800738	-0.0582913	0.814544	-1.58153	0.298451	0	0	0	0	0	0	0	0	0	0	0	0.000000000	-0.790203	0.788798	-0.788798	-0.069744	0.828698	-1.5708	0.361142	0.1	0.1	0.1	0.1	0.1	0	0	0	0	0	0	0.000000000
1504020442.657996892	-0.771592	0.771592	-0.800738	-0.0598253	0.814544	-1.58153	0.346204	0	0	0	0	0	0	0	0	0	0	0	0.000000000	-0.808049	0.788798	-0.788798	-0.0713191	0.828698	-1.5708	0.353355	0.1	0.1	0.1	0.1	0.1	0	0	0	0	0	0	0.000000000
1504020442.678008079	-0.779262	0.773126	-0.800738	-0.0598253	0.814544	-1.58153	0.298451	0	0	0	0	0	0	0	0	0	0	0	0.000000000	-0.808049	0.788798	-0.788798	-0.0713191	0.828698	-1.5708	0.353355	0.1	0.1	0.1	0.1	0.1	0	0	0	0	0	0	0.000000000
1504020442.698189020	-0.786932	0.773126	-0.800738	-0.0613592	0.814544	-1.58153	0.298451	0	0	0	0	0	0	0	0	0	0	0	0.000000000	-0.825475	0.788798	-0.788798	-0.0728572	0.828698	-1.5708	0.345041	0.1	0.1	0.1	0.1	0.1	0	0	0	0	0	0	0.000000000
1504020442.718283891	-0.796136	0.773126	-0.800738	-0.0628932	0.814544	-1.58153	0.298451	0	0	0	0	0	0	0	0	0	0	0	0.000000000	-0.825475	0.788798	-0.788798	-0.0728572	0.828698	-1.5708	0.345041	0.1	0.1	0.1	0.1	0.1	0	0	0	0	0	0	0.000000000
1504020442.738658905	-0.806874	0.771592	-0.800738	-0.0628932	0.814544	-1.58153	0.393956	0	0	0	0	0	0	0	0	0	0	0	0.000000000	-0.825475	0.788798	-0.788798	-0.0728572	0.828698	-1.5708	0.345041	0.1	0.1	0.1	0.1	0.1	0	0	0	0	0	0	0.000000000
1504020442.758223056	-0.806874	0.771592	-0.800738	-0.0628932	0.814544	-1.58153	0.393956	0	0	0	0	0	0	0	0	0	0	0	0.000000000	-0.842456	0.788798	-0.788798	-0.0743559	0.828698	-1.5708	0.33622	0.1	0.1	0.1	0.1	0.1	0	0	0	0	0	0	0.000000000
1504020442.778475046	-0.816078	0.773126	-0.800738	-0.0644272	0.814544	-1.58153	0.346204	0	0	0	0	0	0	0	0	0	0	0	0.000000000	-0.842456	0.788798	-0.788798	-0.0743559	0.828698	-1.5708	0.33622	0.1	0.1	0.1	0.1	0.1	0	0	0	0	0	0	0.000000000
1504020442.797986984	-0.825282	0.771592	-0.800738	-0.0644272	0.814544	-1.58153	0.346204	0	0	0	0	0	0	0	0	0	0	0	0.000000000	-0.842456	0.788798	-0.788798	-0.0743559	0.828698	-1.5708	0.33622	0.1	0.1	0.1	0.1	0.1	0	0	0	0	0	0	0.000000000
1504020442.818049907	-0.831418	0.773126	-0.800738	-0.0659612	0.814544	-1.58153	0.250699	0	0	0	0	0	0	0	0	0	0	0	0.000000000	-0.858967	0.788798	-0.788798	-0.0758132	0.828698	-1.5708	0.326918	0.1	0.1	0.1	0.1	0.1	0	0	0	0	0	0	0.000000000
1504020442.839231967	-0.840621	0.773126	-0.800738	-0.0659612	0.816078	-1.58153	0.298451	0	0	0	0	0	0	0	0	0	0	0	0.000000000	-0.858967	0.788798	-0.788798	-0.0758132	0.828698	-1.5708	0.326918	0.1	0.1	0.1	0.1	0.1	0	0	0	0	0	0	0.000000000
1504020442.857979059	-0.840621	0.773126	-0.800738	-0.0659612	0.816078	-1.58153	0.298451	0	0	0	0	0	0	0	0	0	0	0	0.000000000	-0.874985	0.788798	-0.788798	-0.077227	0.828698	-1.5708	0.317159	0.1	0.1	0.1	0.1	0.1	0	0	0	0	0	0	0.000000000
1504020442.878592014	-0.846757	0.773126	-0.800738	-0.0674952	0.814544	-1.58153	0.250699	0	0	0	0	0	0	0	0	0	0	0	0.000000000	-0.874985	0.788798	-0.788798	-0.077227	0.828698	-1.5708	0.317159	0.1	0.1	0.1	0.1	0.1	0	0	0	0	0	0	0.000000000
1504020442.898060083	-0.855961	0.773126	-0.800738	-0.0674952	0.816078	-1.58153	0.346204	0	0	0	0	0	0	0	0	0	0	0	0.000000000	-0.874985	0.788798	-0.788798	-0.077227	0.828698	-1.5708	0.317159	0.1	0.1	0.1	0.1	0.1	0	0	0	0	0	0	0.000000000
1504020442.918785095	-0.863631	0.771592	-0.800738	-0.0690291	0.814544	-1.58153	0.346204	0	0	0	0	0	0	0	0	0	0	0	0.000000000	-0.890489	0.788798	-0.788798	-0.0785953	0.828698	-1.5708	0.306972	0.1	0.1	0.1	0.1	0.1	0	0	0	0	0	0	0.000000000
1504020442.938067913	-0.872835	0.771592	-0.800738	-0.0690291	0.814544	-1.58153	0.346204	0	0	0	0	0	0	0	0	0	0	0	0.000000000	-0.890489	0.788798	-0.788798	-0.0785953	0.828698	-1.5708	0.306972	0.1	0.1	0.1	0.1	0.1	0	0	0	0	0	0	0.000000000
1504020442.958185911	-0.872835	0.771592	-0.800738	-0.0690291	0.814544	-1.58153	0.346204	0	0	0	0	0	0	0	0	0	0	0	0.000000000	-0.905457	0.788798	-0.788798	-0.0799165	0.828698	-1.5708	0.296381	0.1	0.1	0.1	0.1	0.1	0	0	0	0	0	0	0.000000000
1504020442.978108882	-0.878971	0.773126	-0.800738	-0.0690291	0.814544	-1.58153	0.250699	0	0	0	0	0	0	0	0	0	0	0	0.000000000	-0.905457	0.788798	-0.788798	-0.0799165	0.828698	-1.5708	0.296381	0.1	0.1	0.1	0.1	0.1	0	0	0	0	0	0	0.000000000
1504020442.998562097	-0.883573	0.773126	-0.800738	-0.0690291	0.814544	-1.58153	0.202947	0	0	0	0	0	0	0	0	0	0	0	0.000000000	-0.905457	0.788798	-0.788798	-0.0799165	0.828698	-1.5708	0.296381	0.1	0.1	0.1	0.1	0.1	0	0	0	0	0	0	0.000000000
1504020443.018117904	-0.892777	0.773126	-0.800738	-0.0705631	0.814544	-1.58153	0.298451	0	0	0	0	0	0	0	0	0	0	0	0.000000000	-0.919872	0.788798	-0.788798	-0.0811888	0.828698	-1.5708	0.285419	0.1	0.1	0.1	0.1	0.1	0	0	0	0	0	0	0.000000000
1504020443.037974119	-0.901981	0.773126	-0.800738	-0.0705631	0.814544	-1.58153	0.346204	0	0	0	0	0	0	0	0	0	0	0	0.000000000	-0.919872	0.788798	-0.788798	-0.0811888	0.828698	-1.5708	0.285419	0.1	0.1	0.1	0.1	0.1	0	0	0	0	0	0	0.000000000
1504020443.058027029	-0.901981	0.773126	-0.800738	-0.0705631	0.814544	-1.58153	0.346204	0	0	0	0	0	0	0	0	0	0	0	0.000000000	-0.933717	0.788798	-0.788798	-0.0824107	0.828698	-1.5708	0.274119	0.1	0.1	0.1	0.1	0.1	0	0	0	0	0	0	0.000000000
1504020443.078089952	-0.908117	0.773126	-0.800738	-0.0720971	0.814544	-1.58153	0.250699	0	0	0	0	0	0	0	0	0	0	0	0.000000000	-0.933717	0.788798	-0.788798	-0.0824107	0.828698	-1.5708	0.274119	0.1	0.1	0.1	0.1	0.1	0	0	0	0	0	0	0.000000000
1504020443.098452091	-0.917321	0.773126	-0.800738	-0.0720971	0.814544	-1.58153	0.346204	0	0	0	0	0	0	0	0	0	0	0	0.000000000	-0.933717	0.788798	-0.788798	-0.0824107	0.828698	-1.5708	0.274119	0.1	0.1	0.1	0.1	0.1	0	0	0	0	0	0	0.000000000
1504020443.118522882	-0.923456	0.773126	-0.800738	-0.0736311	0.816078	-1.58153	0.298451	0	0	0	0	0	0	0	0	0	0	0	0.000000000	-0.946975	0.788798	-0.788798	-0.0835809	0.828698	-1.5708	0.262512	0.1	0.1	0.1	0.1	0.1	0	0	0	0	0	0	0.000000000
1504020443.138228893	-0.923456	0.773126	-0.800738	-0.0736311	0.816078	-1.58153	0.298451	0	0	0	0	0	0	0	0	0	0	0	0.000000000	-0.946975	0.788798	-0.788798	-0.0835809	0.828698	-1.5708	0.262512	0.1	0.1	0.1	0.1	0.1	0	0	0	0	0	0	0.000000000
1504020443.158113956	-0.931126	0.773126	-0.800738	-0.0736311	0.814544	-1.58153	0.250699	0	0	0	0	0	0	0	0	0	0	0	0.000000000	-0.959633	0.788798	-0.788798	-0.0846981	0.828698	-1.5708	0.250636	0.1	0.1	0.1	0.1	0.1	0	0	0	0	0	0	0.000000000
1504020443.178427934	-0.938796	0.773126	-0.800738	-0.0751651	0.816078	-1.58153	0.250699	0	0	0	0	0	0	0	0	0	0	0	0.000000000	-0.959633	0.788798	-0.788798	-0.0846981	0.828698	-1.5708	0.250636	0.1	0.1	0.1	0.1	0.1	0	0	0	0	0	0	0.000000000
1504020443.204436063	-0.943398	0.771592	-0.800738	-0.0736311	0.814544	-1.58153	0.202947	0	0	0	0	0	0	0	0	0	0	0	0.000000000	-0.97168	0.788798	-0.788798	-0.0857614	0.828698	-1.5708	0.238524	0.1	0.1	0.1	0.1	0.1	0	0	0	0	0	0	0.000000000
1504020443.218305110	-0.943398	0.771592	-0.800738	-0.0736311	0.814544	-1.58153	0.202947	0	0	0	0	0	0	0	0	0	0	0	0.000000000	-0.97168	0.788798	-0.788798	-0.0857614	0.828698	-1.5708	0.238524	0.1	0.1	0.1	0.1	0.1	0	0	0	0	0	0	0.000000000
1504020443.238043069	-0.948	0.773126	-0.800738	-0.0751651	0.814544	-1.58153	0.155195	0	0	0	0	0	0	0	0	0	0	0	0.000000000	-0.97168	0.788798	-0.788798	-0.0857614	0.828698	-1.5708	0.238524	0.1	0.1	0.1	0.1	0.1	0	0	0	0	0	0	0.000000000
1504020443.258493900	-0.952602	0.773126	-0.800738	-0.0751651	0.814544	-1.58153	0.202947	0	0	0	0	0	0	0	0	0	0	0	0.000000000	-0.983105	0.788798	-0.788798	-0.0867697	0.828698	-1.5708	0.226217	0.1	0.1	0.1	0.1	0.1	0	0	0	0	0	0	0.000000000
1504020443.278068065	-0.960272	0.773126	-0.800738	-0.076699	0.814544	-1.58153	0.298451	0	0	0	0	0	0	0	0	0	0	0	0.000000000	-0.983105	0.788798	-0.788798	-0.0867697	0.828698	-1.5708	0.226217	0.1	0.1	0.1	0.1	0.1	0	0	0	0	0	0	0.000000000
1504020443.298156023	-0.966408	0.773126	-0.800738	-0.078233	0.816078	-1.58153	0.202947	0	0	0	0	0	0	0	0	0	0	0	0.000000000	-0.983105	0.788798	-0.788798	-0.0867697	0.828698	-1.5708	0.226217	0.1	0.1	0.1	0.1	0.1	0	0	0	0	0	0	0.000000000
1504020443.318325996	-0.972544	0.771592	-0.800738	-0.078233	0.814544	-1.58153	0.250699	0	0	0	0	0	0	0	0	0	0	0	0.000000000	-0.993901	0.788798	-0.788798	-0.0877226	0.828698	-1.5708	0.213752	0.1	0.1	0.1	0.1	0.1	0	0	0	0	0	0	0.000000000
1504020443.338259935	-0.977146	0.771592	-0.800738	-0.078233	0.814544	-1.58153	0.202947	0	0	0	0	0	0	0	0	0	0	0	0.000000000	-0.993901	0.788798	-0.788798	-0.0877226	0.828698	-1.5708	0.213752	0.1	0.1	0.1	0.1	0.1	0	0	0	0	0	0	0.000000000
1504020443.358030080	-0.977146	0.771592	-0.800738	-0.078233	0.814544	-1.58153	0.202947	0	0	0	0	0	0	0	0	0	0	0	0.000000000	-1.00406	0.788798	-0.788798	-0.0886193	0.828698	-1.5708	0.201175	0.1	0.1	0.1	0.1	0.1	0	0	0	0	0	0	0.000000000
1504020443.378014087	-0.984816	0.773126	-0.800738	-0.078233	0.814544	-1.58153	0.202947	0	0	0	0	0	0	0	0	0	0	0	0.000000000	-1.00406	0.788798	-0.788798	-0.0886193	0.828698	-1.5708	0.201175	0.1	0.1	0.1	0.1	0.1	0	0	0	0	0	0	0.000000000
1504020443.397994995	-0.989418	0.773126	-0.800738	-0.078233	0.814544	-1.58153	0.202947	0	0	0	0	0	0	0	0	0	0	0	0.000000000	-1.00406	0.788798	-0.788798	-0.0886193	0.828698	-1.5708	0.201175	0.1	0.1	0.1	0.1	0.1	0	0	0	0	0	0	0.000000000
1504020443.417984962	-0.99402	0.773126	-0.800738	-0.079767	0.814544	-1.58153	0.202947	0	0	0	0	0	0	0	0	0	0	0	0.000000000	-1.01358	0.788798	-0.788798	-0.0894597	0.828698	-1.5708	0.188525	0.1	0.1	0.1	0.1	0.1	0	0	0	0	0	0	0.000000000
1504020443.437999010	-0.998621	0.771592	-0.800738	-0.079767	0.814544	-1.58153	0.202947	0	0	0	0	0	0	0	0	0	0	0	0.000000000	-1.01358	0.788798	-0.788798	-0.0894597	0.828698	-1.5708	0.188525	0.1	0.1	0.1	0.1	0.1	0	0	0	0	0	0	0.000000000
1504020443.458034038	-0.998621	0.771592	-0.800738	-0.079767	0.814544	-1.58153	0.202947	0	0	0	0	0	0	0	0	0	0	0	0.000000000	-1.02246	0.788798	-0.788798	-0.0902436	0.828698	-1.5708	0.175851	0.1	0.1	0.1	0.1	0.1	0	0	0	0	0	0	0.000000000
1504020443.478120088	-1.00476	0.773126	-0.800738	-0.079767	0.814544	-1.58153	0.202947	0	0	0	0	0	0	0	0	0	0	0	0.000000000	-1.02246	0.788798	-0.788798	-0.0902436	0.828698	-1.5708	0.175851	0.1	0.1	0.1	0.1	0.1	0	0	0	0	0	0	0.000000000
1504020443.498050928	-1.00629	0.771592	-0.800738	-0.079767	0.816078	-1.58153	0.107442	0	0	0	0	0	0	0	0	0	0	0	0.000000000	-1.02246	0.788798	-0.788798	-0.0902436	0.828698	-1.5708	0.175851	0.1	0.1	0.1	0.1	0.1	0	0	0	0	0	0	0.000000000
1504020443.518707990	-1.01089	0.773126	-0.800738	-0.079767	0.814544	-1.58153	0.155195	0	0	0	0	0	0	0	0	0	0	0	0.000000000	-1.03071	0.788798	-0.788798	-0.090971	0.828698	-1.5708	0.163192	0.1	0.1	0.1	0.1	0.1	0	0	0	0	0	0	0.000000000
1504020443.538752079	-1.0155	0.773126	-0.800738	-0.079767	0.814544	-1.58153	0.202947	0	0	0	0	0	0	0	0	0	0	0	0.000000000	-1.03071	0.788798	-0.788798	-0.090971	0.828698	-1.5708	0.163192	0.1	0.1	0.1	0.1	0.1	0	0	0	0	0	0	0.000000000
1504020443.558022975	-1.0155	0.773126	-0.800738	-0.079767	0.814544	-1.58153	0.202947	0	0	0	0	0	0	0	0	0	0	0	0.000000000	-1.03831	0.788798	-0.788798	-0.0916424	0.828698	-1.5708	0.150606	0.1	0.1	0.1	0.1	0.1	0	0	0	0	0	0	0.000000000
1504020443.578144073	-1.0201	0.773126	-0.800738	-0.081301	0.814544	-1.58153	0.202947	0	0	0	0	0	0	0	0	0	0	0	0.000000000	-1.03831	0.788798	-0.788798	-0.0916424	0.828698	-1.5708	0.150606	0.1	0.1	0.1	0.1	0.1	0	0	0	0	0	0	0.000000000
1504020443.598035097	-1.02317	0.773126	-0.800738	-0.081301	0.814544	-1.58153	0.155195	0	0	0	0	0	0	0	0	0	0	0	0.000000000	-1.03831	0.788798	-0.788798	-0.0916424	0.828698	-1.5708	0.150606	0.1	0.1	0.1	0.1	0.1	0	0	0	0	0	0	0.000000000
1504020443.617997884	-1.02777	0.773126	-0.800738	-0.082835	0.814544	-1.58153	0.155195	0	0	0	0	0	0	0	0	0	0	0	0.000000000	-1.04529	0.788798	-0.788798	-0.0922581	0.828698	-1.5708	0.138134	0.1	0.1	0.1	0.1	0.1	0	0	0	0	0	0	0.000000000
1504020443.638094902	-1.03084	0.773126	-0.800738	-0.082835	0.814544	-1.58153	0.107442	0	0	0	0	0	0	0	0	0	0	0	0.000000000	-1.04529	0.788798	-0.788798	-0.0922581	0.828698	-1.5708	0.138134	0.1	0.1	0.1	0.1	0.1	0	0	0	0	0	0	0.000000000
1504020443.658251047	-1.03084	0.773126	-0.800738	-0.082835	0.814544	-1.58153	0.107442	0	0	0	0	0	0	0	0	0	0	0	0.000000000	-1.05164	0.788798	-0.788798	-0.092819	0.828698	-1.5708	0.125834	0.1	0.1	0.1	0.1	0.1	0	0	0	0	0	0	0.000000000
1504020443.678234100	-1.03544	0.773126	-0.800738	-0.082835	0.816078	-1.58153	0.155195	0	0	0	0	0	0	0	0	0	0	0	0.000000000	-1.05164	0.788798	-0.788798	-0.092819	0.828698	-1.5708	0.125834	0.1	0.1	0.1	0.1	0.1	0	0	0	0	0	0	0.000000000
1504020443.698008060	-1.03697	0.773126	-0.800738	-0.082835	0.814544	-1.58153	0.107442	0	0	0	0	0	0	0	0	0	0	0	0.000000000	-1.05164	0.788798	-0.788798	-0.092819	0.828698	-1.5708	0.125834	0.1	0.1	0.1	0.1	0.1	0	0	0	0	0	0	0.000000000
1504020443.718066930	-1.0385	0.773126	-0.800738	-0.0843689	0.814544	-1.58153	0.107442	0	0	0	0	0	0	0	0	0	0	0	0.000000000	-1.05739	0.788798	-0.788798	-0.0933261	0.828698	-1.5708	0.113758	0.1	0.1	0.1	0.1	0.1	0	0	0	0	0	0	0.000000000
1504020443.738044977	-1.04311	0.773126	-0.800738	-0.0843689	0.814544	-1.58153	0.155195	0	0	0	0	0	0	0	0	0	0	0	0.000000000	-1.05739	0.788798	-0.788798	-0.0933261	0.828698	-1.5708	0.113758	0.1	0.1	0.1	0.1	0.1	0	0	0	0	0	0	0.000000000
1504020443.758316993	-1.04311	0.773126	-0.800738	-0.0843689	0.814544	-1.58153	0.155195	0	0	0	0	0	0	0	0	0	0	0	0.000000000	-1.06254	0.788798	-0.788798	-0.0937806	0.828698	-1.5708	0.101952	0.1	0.1	0.1	0.1	0.1	0	0	0	0	0	0	0.000000000
1504020443.778023004	-1.04617	0.773126	-0.800738	-0.0843689	0.814544	-1.58153	0.155195	0	0	0	0	0	0	0	0	0	0	0	0.000000000	-1.06254	0.788798	-0.788798	-0.0937806	0.828698	-1.5708	0.101952	0.1	0.1	0.1	0.1	0.1	0	0	0	0	0	0	0.000000000
1504020443.798082113	-1.04924	0.773126	-0.800738	-0.0859029	0.814544	-1.58153	0.107442	0	0	0	0	0	0	0	0	0	0	0	0.000000000	-1.06254	0.788798	-0.788798	-0.0937806	0.828698	-1.5708	0.101952	0.1	0.1	0.1	0.1	0.1	0	0	0	0	0	0	0.000000000
1504020443.818021059	-1.05078	0.773126	-0.800738	-0.0859029	0.814544	-1.58153	0.107442	0	0	0	0	0	0	0	0	0	0	0	0.000000000	-1.06711	0.788798	-0.788798	-0.0941839	0.828698	-1.5708	0.1	0.1	0.1	0.1	0.1	0.1	0	0	0	0	0	0	0.000000000
1504020443.838481903	-1.05231	0.773126	-0.800738	-0.0859029	0.814544	-1.58	0	0	0	0	0	0	0	0	0	0	0	0	0.000000000	-1.06711	0.788798	-0.788798	-0.0941839	0.828698	-1.5708	0.1	0.1	0.1	0.1	0.1	0.1	0	0	0	0	0	0	0.000000000
1504020443.858047008	-1.05231	0.773126	-0.800738	-0.0859029	0.814544	-1.58	0	0	0	0	0	0	0	0	0	0	0	0	0.000000000	-1.06711	0.788798	-0.788798	-0.0941839	0.828698	-1.5708	0.1	0.1	0.1	0.1	0.1	0.1	0	0	0	0	0	0	0.000000000
1504020443.878035068	-1.05538	0.771592	-0.800738	-0.0859029	0.814544	-1.58153	0.107442	0	0	0	0	0	0	0	0	0	0	0	0.000000000	-1.07112	0.788798	-0.788798	-0.0945379	0.828698	-1.5708	0.1	0.1	0.1	0.1	0.1	0.1	0	0	0	0	0	0	0.000000000
1504020443.898093938	-1.05845	0.773126	-0.800738	-0.0859029	0.814544	-1.58153	0.107442	0	0	0	0	0	0	0	0	0	0	0	0.000000000	-1.07112	0.788798	-0.788798	-0.0945379	0.828698	-1.5708	0.1	0.1	0.1	0.1	0.1	0.1	0	0	0	0	0	0	0.000000000
1504020443.918128013	-1.06151	0.771592	-0.800738	-0.0859029	0.814544	-1.58153	0.107442	0	0	0	0	0	0	0	0	0	0	0	0.000000000	-1.07459	0.788798	-0.788798	-0.0948445	0.828698	-1.5708	0.1	0.1	0.1	0.1	0.1	0.1	0	0	0	0	0	0	0.000000000
1504020443.938432931	-1.06305	0.771592	-0.800738	-0.0859029	0.814544	-1.58153	0.107442	0	0	0	0	0	0	0	0	0	0	0	0.000000000	-1.07459	0.788798	-0.788798	-0.0948445	0.828698	-1.5708	0.1	0.1	0.1	0.1	0.1	0.1	0	0	0	0	0	0	0.000000000
1504020443.958420991	-1.06305	0.771592	-0.800738	-0.0859029	0.814544	-1.58153	0.107442	0	0	0	0	0	0	0	0	0	0	0	0.000000000	-1.07459	0.788798	-0.788798	-0.0948445	0.828698	-1.5708	0.1	0.1	0.1	0.1	0.1	0.1	0	0	0	0	0	0	0.000000000
1504020443.977998971	-1.06458	0.773126	-0.800738	-0.0874369	0.814544	-1.58153	0	0	0	0	0	0	0	0	0	0	0	0	0.000000000	-1.07755	0.788798	-0.788798	-0.095106	0.828698	-1.5708	0.1	0.1	0.1	0.1	0.1	0.1	0	0	0	0	0	0	0.000000000
1504020443.998153924	-1.06612	0.771592	-0.800738	-0.0874369	0.814544	-1.58153	0	0	0	0	0	0	0	0	0	0	0	0	0.000000000	-1.07755	0.788798	-0.788798	-0.095106	0.828698	-1.5708	0.1	0.1	0.1	0.1	0.1	0.1	0	0	0	0	0	0	0.000000000
1504020444.018024921	-1.06765	0.773126	-0.800738	-0.0874369	0.814544	-1.58153	0	0	0	0	0	0	0	0	0	0	0	0	0.000000000	-1.08004	0.788798	-0.788798	-0.0953249	0.828698	-1.5708	0.1	0.1	0.1	0.1	0.1	0.1	0	0	0	0	0	0	0.000000000
1504020444.038062095	-1.06765	0.773126	-0.800738	-0.0874369	0.814544	-1.58153	0	0	0	0	0	0	0	0	0	0	0	0	0.000000000	-1.08004	0.788798	-0.788798	-0.0953249	0.828698	-1.5708	0.1	0.1	0.1	0.1	0.1	0.1	0	0	0	0	0	0	0.000000000
1504020444.057979106	-1.06765	0.773126	-0.800738	-0.0874369	0.814544	-1.58153	0	0	0	0	0	0	0	0	0	0	0	0	0.000000000	-1.08004	0.788798	-0.788798	-0.0953249	0.828698	-1.5708	0.1	0.1	0.1	0.1	0.1	0.1	0	0	0	0	0	0	0.000000000
1504020444.078305959	-1.06765	0.773126	-0.800738	-0.0874369	0.816078	-1.58153	0	0	0	0	0	0	0	0	0	0	0	0	0.000000000	-1.08207	0.788798	-0.788798	-0.0955041	0.828698	-1.5708	0.1	0.1	0.1	0.1	0.1	0.1	0	0	0	0	0	0	0.000000000
1504020444.097980022	-1.06765	0.771592	-0.800738	-0.0874369	0.814544	-1.58153	0	0	0	0	0	0	0	0	0	0	0	0	0.000000000	-1.08207	0.788798	-0.788798	-0.0955041	0.828698	-1.5708	0.1	0.1	0.1	0.1	0.1	0.1	0	0	0	0	0	0	0.000000000
1504020444.118252038	-1.06918	0.773126	-0.800738	-0.0874369	0.814544	-1.58153	0	0	0	0	0	0	0	0	0	0	0	0	0.000000000	-1.08368	0.788798	-0.788798	-0.0956468	0.828698	-1.5708	0.1	0.1	0.1	0.1	0.1	0.1	0	0	0	0	0	0	0.000000000
1504020444.138269901	-1.07072	0.771592	-0.800738	-0.0889709	0.814544	-1.58153	0	0	0	0	0	0	0	0	0	0	0	0	0.000000000	-1.08368	0.788798	-0.788798	-0.0956468	0.828698	-1.5708	0.1	0.1	0.1	0.1	0.1	0.1	0	0	0	0	0	0	0.000000000
1504020444.158018112	-1.07072	0.771592	-0.800738	-0.0889709	0.816078	-1.58153	0	0	0	0	0	0	0	0	0	0	0	0	0.000000000	-1.08368	0.788798	-0.788798	-0.0956468	0.828698	-1.5708	0.1	0.1	0.1	0.1	0.1	0.1	0	0	0	0	0	0	0.000000000
1504020444.178061962	-1.07225	0.771592	-0.800738	-0.0874369	0.814544	-1.58153	0	0	0	0	0	0	0	0	0	0	0	0	0.000000000	-1.08492	0.788798	-0.788798	-0.0957564	0.828698	-1.5708	0.1	0.1	0.1	0.1	0.1	0.1	0	0	0	0	0	0	0.000000000
1504020444.198035001	-1.07379	0.773126	-0.800738	-0.0889709	0.816078	-1.58153	0	0	0	0	0	0	0	0	0	0	0	0	0.000000000	-1.08492	0.788798	-0.788798	-0.0957564	0.828698	-1.5708	0.1	0.1	0.1	0.1	0.1	0.1	0	0	0	0	0	0	0.000000000
1504020444.218038082	-1.07225	0.773126	-0.800738	-0.0874369	0.814544	-1.58153	0	0	0	0	0	0	0	0	0	0	0	0	0.000000000	-1.08583	0.788798	-0.788798	-0.0958366	0.828698	-1.5708	0.1	0.1	0.1	0.1	0.1	0.1	0	0	0	0	0	0	0.000000000
1504020444.238095045	-1.07379	0.773126	-0.800738	-0.0889709	0.814544	-1.58153	0	0	0	0	0	0	0	0	0	0	0	0	0.000000000	-1.08583	0.788798	-0.788798	-0.0958366	0.828698	-1.5708	0.1	0.1	0.1	0.1	0.1	0.1	0	0	0	0	0	0	0.000000000
1504020444.258182048	-1.07379	0.773126	-0.800738	-0.0889709	0.814544	-1.58153	0	0	0	0	0	0	0	0	0	0	0	0	0.000000000	-1.08583	0.788798	-0.788798	-0.0958366	0.828698	-1.5708	0.1	0.1	0.1	0.1	0.1	0.1	0	0	0	0	0	0	0.000000000
1504020444.278104066	-1.07379	0.773126	-0.800738	-0.0889709	0.814544	-1.58153	0	0	0	0	0	0	0	0	0	0	0	0	0.000000000	-1.08646	0.788798	-0.788798	-0.0958915	0.828698	-1.5708	0.1	0.1	0.1	0.1	0.1	0.1	0	0	0	0	0	0	0.000000000
1504020444.298548936	-1.07379	0.771592	-0.800738	-0.0889709	0.814544	-1.58153	0	0	0	0	0	0	0	0	0	0	0	0	0.000000000	-1.08646	0.788798	-0.788798	-0.0958915	0.828698	-1.5708	0.1	0.1	0.1	0.1	0.1	0.1	0	0	0	0	0	0	0.000000000
1504020444.318644046	-1.07379	0.771592	-0.800738	-0.0889709	0.814544	-1.58153	0	0	0	0	0	0	0	0	0	0	0	0	0.000000000	-1.08684	0.788798	-0.788798	-0.0959256	0.828698	-1.5708	0.1	0.1	0.1	0.1	0.1	0.1	0	0	0	0	0	0	0.000000000
1504020444.338476896	-1.07532	0.771592	-0.800738	-0.0889709	0.814544	-1.58153	0	0	0	0	0	0	0	0	0	0	0	0	0.000000000	-1.08684	0.788798	-0.788798	-0.0959256	0.828698	-1.5708	0.1	0.1	0.1	0.1	0.1	0.1	0	0	0	0	0	0	0.000000000
1504020444.358117103	-1.07532	0.773126	-0.800738	-0.0889709	0.814544	-1.58153	0	0	0	0	0	0	0	0	0	0	0	0	0.000000000	-1.08684	0.788798	-0.788798	-0.0959256	0.828698	-1.5708	0.1	0.1	0.1	0.1	0.1	0.1	0	0	0	0	0	0	0.000000000
1504020444.378289937	-1.07532	0.773126	-0.800738	-0.0889709	0.814544	-1.58153	0	0	0	0	0	0	0	0	0	0	0	0	0.000000000	-1.08704	0.788798	-0.788798	-0.0959434	0.828698	-1.5708	0.1	0.1	0.1	0.1	0.1	0.1	0	0	0	0	0	0	0.000000000
1504020444.398374080	-1.07532	0.771592	-0.800738	-0.0889709	0.814544	-1.58153	0	0	0	0	0	0	0	0	0	0	0	0	0.000000000	-1.08704	0.788798	-0.788798	-0.0959434	0.828698	-1.5708	0.1	0.1	0.1	0.1	0.1	0.1	0	0	0	0	0	0	0.000000000
1504020444.418028116	-1.07532	0.771592	-0.800738	-0.0889709	0.814544	-1.58153	0	0	0	0	0	0	0	0	0	0	0	0	0.000000000	-1.08712	0.788798	-0.788798	-0.0959501	0.828698	-1.5708	0.1	0.1	0.1	0.1	0.1	0.1	0	0	0	0	0	0	0.000000000
1504020444.438016891	-1.07532	0.771592	-0.800738	-0.0889709	0.814544	-1.58153	0	0	0	0	0	0	0	0	0	0	0	0	0.000000000	-1.08712	0.788798	-0.788798	-0.0959501	0.828698	-1.5708	0.1	0.1	0.1	0.1	0.1	0.1	0	0	0	0	0	0	0.000000000
1504020444.458051919	-1.07532	0.771592	-0.800738	-0.0889709	0.814544	-1.58153	0	0	0	0	0	0	0	0	0	0	0	0	0.000000000	-1.08712	0.788798	-0.788798	-0.0959501	0.828698	-1.5708	0.1	0.1	0.1	0.1	0.1	0.1	0	0	0	0	0	0	0.000000000
1504020444.478028059	-1.07532	0.773126	-0.800738	-0.0889709	0.814544	-1.58153	0	0	0	0	0	0	0	0	0	0	0	0	0.000000000	-1.08713	0.788798	-0.788798	-0.0959511	0.828698	-1.5708	0.1	0.1	0.1	0.1	0.1	0.1	0	0	0	0	0	0	0.000000000
1504020444.498008012	-1.07532	0.771592	-0.800738	-0.0889709	0.814544	-1.58153	0	0	0	0	0	0	0	0	0	0	0	0	0.000000000	-1.08713	0.788798	-0.788798	-0.0959511	0.828698	-1.5708	0.1	0.1	0.1	0.1	0.1	0.1	0	0	0	0	0	0	0.000000000
1504020444.518727064	-1.07532	0.773126	-0.802272	-0.0889709	0.814544	-1.58153	0	0	0	0	0	0	0	0	0	0	0	0	0.000000000	-1.08713	0.788806	-0.788811	-0.0959511	0.82869	-1.5708	0.1	0.1	0.1	0.1	0.1	0.1	0	0	0	0	0	0	0.000000000
1504020444.537966012	-1.07532	0.771592	-0.800738	-0.0889709	0.816078	-1.58153	0	0	0	0	0	0	0	0	0	0	0	0	0.000000000	-1.08713	0.788806	-0.788811	-0.0959511	0.82869	-1.5708	0.1	0.1	0.1	0.1	0.1	0.1	0	0	0	0	0	0	0.000000000
1504020444.558037996	-1.07532	0.771592	-0.800738	-0.0889709	0.816078	-1.58153	0	0	0	0	0	0	0	0	0	0	0	0	0.000000000	-1.08713	0.788806	-0.788811	-0.0959511	0.82869	-1.5708	0.1	0.1	0.1	0.1	0.1	0.1	0	0	0	0	0	0	0.000000000
1504020444.578126907	-1.07532	0.771592	-0.800738	-0.0889709	0.814544	-1.58153	0	0	0	0	0	0	0	0	0	0	0	0	0.000000000	-1.08712	0.788858	-0.788903	-0.0959534	0.828637	-1.57084	0.1	0.1	0.1	0.1	0.1	0.1	0	0	0	0	0	0	0.000000000
1504020444.598268985	-1.07532	0.771592	-0.800738	-0.0889709	0.814544	-1.58153	0	0	0	0	0	0	0	0	0	0	0	0	0.000000000	-1.08712	0.788858	-0.788903	-0.0959534	0.828637	-1.57084	0.1	0.1	0.1	0.1	0.1	0.1	0	0	0	0	0	0	0.000000000
1504020444.618872880	-1.07379	0.773126	-0.800738	-0.0889709	0.816078	-1.58153	0	0	0	0	0	0	0	0	0	0	0	0	0.000000000	-1.08709	0.788997	-0.789147	-0.0959597	0.828495	-1.57095	0.1	0.1	0.1	0.1	0.1	0.1	0	0	0	0	0	0	0.000000000
1504020444.638446092	-1.07532	0.773126	-0.800738	-0.0889709	0.814544	-1.58153	0	0	0	0	0	0	0	0	0	0	0	0	0.000000000	-1.08709	0.788997	-0.789147	-0.0959597	0.828495	-1.57095	0.1	0.1	0.1	0.1	0.1	0.1	0	0	0	0	0	0	0.000000000
1504020444.658121109	-1.07532	0.773126	-0.800738	-0.0889709	0.814544	-1.58153	0	0	0	0	0	0	0	0	0	0	0	0	0.000000000	-1.08709	0.788997	-0.789147	-0.0959597	0.828495	-1.57095	0.1	0.1	0.1	0.1	0.1	0.1	0	0	0	0	0	0	0.000000000
1504020444.678241014	-1.07532	0.771592	-0.800738	-0.0889709	0.814544	-1.58153	0	0	0	0	0	0	0	0	0	0	0	0	0.000000000	-1.08704	0.789262	-0.789611	-0.0959717	0.828225	-1.57115	0.1	0.1	0.1	0.1	0.1	0.1	0	0	0	0	0	0	0.000000000
1504020444.698791980	-1.07532	0.773126	-0.800738	-0.0889709	0.814544	-1.58153	0	0	0	0	0	0	0	0	0	0	0	0	0.000000000	-1.08704	0.789262	-0.789611	-0.0959717	0.828225	-1.57115	0.1	0.1	0.1	0.1	0.1	0.1	0	0	0	0	0	0	0.000000000
1504020444.718648910	-1.07532	0.773126	-0.800738	-0.0889709	0.816078	-1.58153	0	0	0	0	0	0	0	0	0	0	0	0	0.000000000	-1.08704	0.789262	-0.789611	-0.0959717	0.828225	-1.57115	0.1	0.1	0.1	0.1	0.1	0.1	0	0	0	0	0	0	0.000000000
1504020444.738487958	-1.07532	0.773126	-0.800738	-0.0889709	0.816078	-1.58153	0	0	0	0	0	0	0	0	0	0	0	0	0.000000000	-1.08696	0.789691	-0.790362	-0.0959912	0.827789	-1.57147	0.1	0.1	0.1	0.1	0.1	0.1	0	0	0	0	0	0	0.000000000
1504020444.758311033	-1.07532	0.773126	-0.800738	-0.0889709	0.814544	-1.58153	0	0	0	0	0	0	0	0	0	0	0	0	0.000000000	-1.08696	0.789691	-0.790362	-0.0959912	0.827789	-1.57147	0.1	0.1	0.1	0.1	0.1	0.1	0	0	0	0	0	0	0.000000000
1504020444.778420925	-1.07532	0.773126	-0.800738	-0.0889709	0.814544	-1.58153	0	0	0	0	0	0	0	0	0	0	0	0	0.000000000	-1.08683	0.790319	-0.791458	-0.0960198	0.827151	-1.57194	0.1	0.1	0.1	0.1	0.1	0.1	0	0	0	0	0	0	0.000000000
1504020444.798120975	-1.07532	0.773126	-0.800738	-0.0889709	0.814544	-1.58153	0	0	0	0	0	0	0	0	0	0	0	0	0.000000000	-1.08683	0.790319	-0.791458	-0.0960198	0.827151	-1.57194	0.1	0.1	0.1	0.1	0.1	0.1	0	0	0	0	0	0	0.000000000
1504020444.818600893	-1.07532	0.771592	-0.800738	-0.0889709	0.814544	-1.58153	0	0	0	0	0	0	0	0	0	0	0	0	0.000000000	-1.08683	0.790319	-0.791458	-0.0960198	0.827151	-1.57194	0.1	0.1	0.1	0.1	0.1	0.1	0	0	0	0	0	0	0.000000000
1504020444.838316917	-1.07532	0.771592	-0.800738	-0.0889709	0.814544	-1.58153	0	0	0	0	0	0	0	0	0	0	0	0	0.000000000	-1.08667	0.791178	-0.792954	-0.0960591	0.826281	-1.57258	0.1	0.1	0.1	0.1	0.1	0.1	0	0	0	0	0	0	0.000000000
1504020444.858149051	-1.07532	0.773126	-0.800738	-0.0889709	0.814544	-1.58153	0	0	0	0	0	0	0	0	0	0	0	0	0.000000000	-1.08667	0.791178	-0.792954	-0.0960591	0.826281	-1.57258	0.1	0.1	0.1	0.1	0.1	0.1	0	0	0	0	0	0	0.000000000
1504020444.878818988	-1.07532	0.773126	-0.800738	-0.0905049	0.814544	-1.58153	0	0	0	0	0	0	0	0	0	0	0	0	0.000000000	-1.08645	0.792301	-0.794902	-0.0961106	0.825149	-1.57342	0.1	0.1	0.1	0.1	0.1	0.1	0	0	0	0	0	0	0.000000000
1504020444.899158954	-1.07532	0.773126	-0.800738	-0.0905049	0.814544	-1.58153	0	0	0	0	0	0	0	0	0	0	0	0	0.000000000	-1.08645	0.792301	-0.794902	-0.0961106	0.825149	-1.57342	0.1	0.1	0.1	0.1	0.1	0.1	0	0	0	0	0	0	0.000000000
1504020444.918586015	-1.07532	0.771592	-0.800738	-0.0889709	0.814544	-1.58307	0	0	0	0	0	0	0	0	0	0	0	0	0.000000000	-1.08645	0.792301	-0.794902	-0.0961106	0.825149	-1.57342	0.1	0.1	0.1	0.1	0.1	0.1	0	0	0	0	0	0	0.000000000
1504020444.938051939	-1.07532	0.771592	-0.800738	-0.0889709	0.814544	-1.58614	0	0	0	0	0	0.107442	0	0	0	0	0	0	0.000000000	-1.08618	0.793717	-0.797347	-0.096176	0.823728	-1.57446	0.1	0.1	0.1	0.1	0.1	0.1	0	0	0	0	0	0	0.000000000
1504020444.958136081	-1.07532	0.771592	-0.800738	-0.0889709	0.814544	-1.58614	0	0	0	0	0	0	0	0	0	0	0	0	0.000000000	-1.08618	0.793717	-0.797347	-0.096176	0.823728	-1.57446	0.1	0.1	0.1	0.1	0.1	0.1	0	0	0	0	0	0	0.000000000
1504020444.978152036	-1.07532	0.773126	-0.802272	-0.0905049	0.814544	-1.58614	0	0	0	0	0	0	0	0	0	0	0	0	0.000000000	-1.08584	0.795456	-0.800333	-0.0962569	0.821994	-1.57574	0.1	0.1	0.1	0.1	0.1	0.1	0	0	0	0	0	0	0.000000000
1504020444.999033927	-1.07532	0.773126	-0.803806	-0.0889709	0.814544	-1.58614	0	0	0.107442	0	0	0	0	0	0	0	0	0	0.000000000	-1.08584	0.795456	-0.800333	-0.0962569	0.821994	-1.57574	0.1	0.1	0.1	0.1	0.1	0.1	0	0	0	0	0	0	0.000000000
1504020445.020682096	-1.07532	0.773126	-0.80534	-0.0889709	0.81301	-1.58614	0	0	0	0	0	0	0	0	0	0	0	0	0.000000000	-1.08545	0.797545	-0.803895	-0.0963549	0.819926	-1.57726	0.1	0.1	0.1	0.1	0.1	0.1	0	0	0	0	0	0	0.000000000
1504020445.038688898	-1.07532	0.773126	-0.80534	-0.0889709	0.81301	-1.58614	0	0	0	0	0	0	0	0	0	0	0	0	0.000000000	-1.08545	0.797545	-0.803895	-0.0963549	0.819926	-1.57726	0.1	0.1	0.1	0.1	0.1	0.1	0	0	0	0	0	0	0.000000000
1504020445.058134078	-1.07532	0.771592	-0.806874	-0.0905049	0.81301	-1.58614	0	0	0	0	0	0	0	0	0	0	0	0	0.000000000	-1.08545	0.797545	-0.803895	-0.0963549	0.819926	-1.57726	0.1	0.1	0.1	0.1	0.1	0.1	0	0	0	0	0	0	0.000000000
1504020445.078227996	-1.07532	0.773126	-0.808408	-0.0889709	0.81301	-1.58614	0	0	0	0	0	0	0	0	0	0	0	0	0.000000000	-1.08498	0.800012	-0.808068	-0.0964718	0.817504	-1.57903	0.1	0.1	0.1	0.1	0.1	0.1	0	0	0	0	0	0	0.000000000
1504020445.098119974	-1.07532	0.773126	-0.808408	-0.0889709	0.81301	-1.58614	0	0	0	0	0	0	0	0	0	0	0	0	0.000000000	-1.08498	0.800012	-0.808068	-0.0964718	0.817504	-1.57903	0.1	0.1	0.1	0.1	0.1	0.1	0	0	0	0	0	0	0.000000000
1504020445.119102954	-1.07532	0.773126	-0.811476	-0.0905049	0.811476	-1.58767	0	0	0	0	0	0	0	0	0	0	0	0	0.000000000	-1.08498	0.800012	-0.808068	-0.0964718	0.817504	-1.57903	0.1	0.1	0.1	0.1	0.1	0.1	0	0	0	0	0	0	0.000000000
1504020445.138303041	-1.07532	0.771592	-0.811476	-0.0905049	0.811476	-1.5892	0	0	0	0	0	0	0	0	0	0	0	0	0.000000000	-1.08444	0.802884	-0.81288	-0.0966095	0.814713	-1.58107	0.1	0.1	0.1	0.1	0.1	0.1	0	0	0	0	0	0	0.000000000
1504020445.158200025	-1.07532	0.773126	-0.81301	-0.0905049	0.808408	-1.58767	0	0	0.107442	0	0.107442	0	0	0	0	0	0	0	0.000000000	-1.08444	0.802884	-0.81288	-0.0966095	0.814713	-1.58107	0.1	0.1	0.1	0.1	0.1	0.1	0	0	0	0	0	0	0.000000000
1504020445.178405046	-1.07532	0.773126	-0.816078	-0.0889709	0.806874	-1.5892	0	0	0.155195	0	0.107442	0	0	0	0	0	0	0	0.000000000	-1.08382	0.806187	-0.818356	-0.0967699	0.811538	-1.58339	0.1	0.1	0.108425	0.1	0.1	0.1	0	0	0	0	0	0	0.000000000
1504020445.200089931	-1.07532	0.773126	-0.819146	-0.0905049	0.806874	-1.59227	0	0	0.107442	0	0	0.107442	0	0	0	0	0	0	0.000000000	-1.08382	0.806187	-0.818356	-0.0967699	0.811538	-1.58339	0.1	0.1	0.108425	0.1	0.1	0.1	0	0	0	0	0	0	0.000000000
1504020445.218620061	-1.07532	0.773126	-0.819146	-0.0905049	0.806874	-1.59227	0	0	0.107442	0	0	0.107442	0	0	0	0	0	0	0.000000000	-1.08382	0.806187	-0.818356	-0.0967699	0.811538	-1.58339	0.1	0.1	0.108425	0.1	0.1	0.1	0	0	0	0	0	0	0.000000000
1504020445.238502979	-1.07532	0.773126	-0.822214	-0.0905049	0.80534	-1.59687	0	0	0.107442	0	0	0.107442	0	0	0	0	0	0	0.000000000	-1.08313	0.809949	-0.824516	-0.0969551	0.80797	-1.58599	0.1	0.1	0.121979	0.1	0.1	0.1	0	0	0	0	0	0	0.000000000
1504020445.258111953	-1.07532	0.773126	-0.822214	-0.0905049	0.80534	-1.59687	0	0	0.107442	0	0	0.107442	0	0	0	0	0	0	0.000000000	-1.08313	0.809949	-0.824516	-0.0969551	0.80797	-1.58599	0.1	0.1	0.121979	0.1	0.1	0.1	0	0	0	0	0	0	0.000000000
1504020445.278167009	-1.07532	0.773126	-0.825282	-0.0905049	0.802272	-1.59687	0	0	0.107442	0	0.107442	0	0	0	0	0	0	0	0.000000000	-1.08235	0.814194	-0.831378	-0.0971674	0.803997	-1.58887	0.1	0.1	0.135859	0.1	0.1	0.1	0	0	0	0	0	0	0.000000000
1504020445.298851013	-1.07532	0.773126	-0.82835	-0.0905049	0.800738	-1.59687	0	0	0.107442	0	0	0	0	0	0	0	0	0	0.000000000	-1.08235	0.814194	-0.831378	-0.0971674	0.803997	-1.58887	0.1	0.1	0.135859	0.1	0.1	0.1	0	0	0	0	0	0	0.000000000
1504020445.318542003	-1.07532	0.773126	-0.831418	-0.0905049	0.800738	-1.59841	0	0	0.107442	0	0	0	0	0	0	0	0	0	0.000000000	-1.08235	0.814194	-0.831378	-0.0971674	0.803997	-1.58887	0.1	0.1	0.135859	0.1	0.1	0.1	0	0	0	0	0	0	0.000000000
1504020445.338131904	-1.07532	0.773126	-0.832952	-0.0905049	0.799204	-1.60148	0	0	0.107442	0	0	0.107442	0	0	0	0	0	0	0.000000000	-1.0815	0.81895	-0.838952	-0.0974093	0.799615	-1.59204	0.1	0.1	0.149975	0.1	0.1	0.1	0	0	0	0	0	0	0.000000000
1504020445.358594894	-1.07532	0.773126	-0.837554	-0.0905049	0.79767	-1.60454	0	0	0.155195	0	0	0.107442	0	0	0	0	0	0	0.000000000	-1.0815	0.81895	-0.838952	-0.0974093	0.799615	-1.59204	0.1	0.1	0.149975	0.1	0.1	0.1	0	0	0	0	0	0	0.000000000
1504020445.378072977	-1.07532	0.773126	-0.837554	-0.0905049	0.79767	-1.60454	0	0	0.155195	0	0	0.107442	0	0	0	0	0	0	0.000000000	-1.08055	0.824242	-0.847248	-0.0976833	0.794819	-1.5955	0.1	0.104785	0.164255	0.1	0.1	0.1	0	0	0	0	0	0	0.000000000
1504020445.398221015	-1.07685	0.773126	-0.843689	-0.0905049	0.796136	-1.60454	0	0	0.250699	0	0	0	0	0	0	0	0	0	0.000000000	-1.08055	0.824242	-0.847248	-0.0976833	0.794819	-1.5955	0.1	0.104785	0.164255	0.1	0.1	0.1	0	0	0	0	0	0	0.000000000
1504020445.418348073	-1.07685	0.773126	-0.846757	-0.0905049	0.793068	-1.60761	0	0	0.202947	0	0.107442	0	0	0	0	0	0	0	0.000000000	-1.08055	0.824242	-0.847248	-0.0976833	0.794819	-1.5955	0.1	0.104785	0.164255	0.1	0.1	0.1	0	0	0	0	0	0	0.000000000
1504020445.438199996	-1.07685	0.776194	-0.849825	-0.0905049	0.79	-1.60608	0	0.0955044	0.107442	0	0.107442	0	0	0	0	0	0	0	0.000000000	-1.07952	0.830097	-0.856269	-0.0979922	0.789607	-1.59925	0.1	0.115927	0.178612	0.1	0.103198	0.1	0	0	0	0	0	0	0.000000000
1504020445.458066940	-1.07685	0.777728	-0.854427	-0.0905049	0.788466	-1.60915	0	0	0.202947	0	0	0.107442	0	0	0	0	0	0	0.000000000	-1.07952	0.830097	-0.856269	-0.0979922	0.789607	-1.59925	0.1	0.115927	0.178612	0.1	0.103198	0.1	0	0	0	0	0	0	0.000000000
1504020445.477988004	-1.07839	0.779262	-0.857495	-0.0905049	0.786932	-1.61068	0	0	0.155195	0	0	0.107442	0	0	0	0	0	0	0.000000000	-1.07841	0.83654	-0.866014	-0.0983391	0.783979	-1.60327	0.1	0.127585	0.192967	0.1	0.111428	0.1	0	0	0	0	0	0	0.000000000
1504020445.498039007	-1.07839	0.779262	-0.860563	-0.0905049	0.785398	-1.61375	0	0	0.202947	0	0	0.155195	0	0	0	0	0	0	0.000000000	-1.07841	0.83654	-0.866014	-0.0983391	0.783979	-1.60327	0.1	0.127585	0.192967	0.1	0.111428	0.1	0	0	0	0	0	0	0.000000000
1504020445.518842935	-1.07839	0.780796	-0.865165	-0.0905049	0.780796	-1.61528	0	0	0.202947	0	0.107442	0	0	0	0	0	0	0	0.000000000	-1.07841	0.83654	-0.866014	-0.0983391	0.783979	-1.60327	0.1	0.127585	0.192967	0.1	0.111428	0.1	0	0	0	0	0	0	0.000000000
1504020445.538022041	-1.07839	0.780796	-0.865165	-0.0905049	0.780796	-1.61528	0	0	0.202947	0	0.107442	0	0	0	0	0	0	0	0.000000000	-1.07721	0.843598	-0.876481	-0.0987271	0.777938	-1.60757	0.1	0.139751	0.207235	0.1	0.119611	0.1	0	0	0	0	0	0	0.000000000
1504020445.558068037	-1.07839	0.785398	-0.869767	-0.0905049	0.777728	-1.61682	0	0.143257	0.155195	0	0.107442	0	0	0	0	0	0	0	0.000000000	-1.07721	0.843598	-0.876481	-0.0987271	0.777938	-1.60757	0.1	0.139751	0.207235	0.1	0.119611	0.1	0	0	0	0	0	0	0.000000000
1504020445.578043937	-1.07992	0.788466	-0.875903	-0.0920388	0.77466	-1.61835	0	0.143257	0.202947	0	0.155195	0	0	0	0	0	0	0	0.000000000	-1.07592	0.851297	-0.887659	-0.0991595	0.771488	-1.61214	0.1	0.152422	0.221338	0.1	0.127708	0.1	0	0	0	0	0	0	0.000000000
1504020445.598021984	-1.07839	0.794602	-0.882039	-0.0905049	0.773126	-1.61988	0	0.238761	0.250699	0	0	0.107442	0	0	0	0	0	0	0.000000000	-1.07592	0.851297	-0.887659	-0.0991595	0.771488	-1.61214	0.1	0.152422	0.221338	0.1	0.127708	0.1	0	0	0	0	0	0	0.000000000
1504020445.618025064	-1.07839	0.799204	-0.886641	-0.0905049	0.768524	-1.62295	0	0.191009	0.155195	0	0.155195	0.107442	0	0	0	0	0	0	0.000000000	-1.07592	0.851297	-0.887659	-0.0991595	0.771488	-1.61214	0.1	0.152422	0.221338	0.1	0.127708	0.1	0	0	0	0	0	0	0.000000000
1504020445.638022899	-1.07839	0.806874	-0.891243	-0.0920388	0.763922	-1.62449	0	0.238761	0.202947	0	0.202947	0	0	0	0	0	0	0	0.000000000	-1.07454	0.85966	-0.899538	-0.0996399	0.764636	-1.61697	0.1	0.165586	0.235198	0.1	0.135684	0.1	0	0	0	0	0	0	0.000000000
1504020445.658220052	-1.07839	0.806874	-0.891243	-0.0920388	0.763922	-1.62449	0	0.238761	0.202947	0	0.202947	0	0	0	0	0	0	0	0.000000000	-1.07454	0.85966	-0.899538	-0.0996399	0.764636	-1.61697	0.1	0.165586	0.235198	0.1	0.135684	0.1	0	0	0	0	0	0	0.000000000
1504020445.678508043	-1.07992	0.811476	-0.897379	-0.0935728	0.760854	-1.62602	0	0.191009	0.250699	0	0.155195	0	0	0	0	0	0	0	0.000000000	-1.07307	0.868711	-0.9121	-0.100172	0.757388	-1.62206	0.1	0.179228	0.248731	0.1	0.143502	0.100653	0	0	0	0	0	0	0.000000000
