DingWan/Reconbot3Ddemo/02_MATLAB_Code/sensors_data/encoders_data.txt
time_stamp	actual_pos_joint_4	actual_pos_joint_5	actual_pos_joint_3	actual_pos_joint_1	actual_pos_joint_2	actual_pos_joint_6	actual_vel_joint_4	actual_vel_joint_5	actual_vel_joint_3	actual_vel_joint_1	actual_vel_joint_2	actual_vel_joint_6	actual_acc_joint_4	actual_acc_joint_5	actual_acc_joint_3	actual_acc_joint_1	actual_acc_joint_2	actual_acc_joint_6	actual_time_from_start	desired_pos_joint_4	desired_pos_joint_5	desired_pos_joint_3	desired_pos_joint_1	desired_pos_joint_2	desired_pos_joint_6	desired_vel_joint_4	desired_vel_joint_5	desired_vel_joint_3	desired_vel_joint_1	desired_vel_joint_2	desired_vel_joint_6	desired_acc_joint_4	desired_acc_joint_5	desired_acc_joint_3	desired_acc_joint_1	desired_acc_joint_2	desired_acc_joint_6	desired_time_from_start
1504111122.854365110	0.00306796	0.711767	-0.82068	0.00920388	0.800738	-1.64289	0	0	0	0	0	0	0	0	0	0	0	0	0.000000000	0	0.788798	-0.788798	0	0.828698	-1.5708	0.1	0.1	0.1	0.1	0.1	0.1	0	0	0	0	0	0	0.000000000
1504111122.874954938	0.00306796	0.711767	-0.82068	0.00920388	0.800738	-1.64289	0	0	0	0	0	0	0	0	0	0	0	0	0.000000000	0	0.788798	-0.788798	0	0.828698	-1.5708	0.1	0.1	0.1	0.1	0.1	0.1	0	0	0	0	0	0	0.000000000
1504111122.894756078	0.00306796	0.711767	-0.82068	0.00920388	0.799204	-1.64136	0	0	0	0	0	0	0	0	0	0	0	0	0.000000000	0	0.788798	-0.788798	0	0.828698	-1.5708	0.1	0.1	0.1	0.1	0.1	0.1	0	0	0	0	0	0	0.000000000
1504111122.914546966	0.00306796	0.711767	-0.82068	0.00920388	0.800738	-1.64136	0	0	0	0	0	0	0	0	0	0	0	0	0.000000000	0	0.788798	-0.788798	0	0.828698	-1.5708	0.1	0.1	0.1	0.1	0.1	0.1	0	0	0	0	0	0	0.000000000
1504111122.934549093	0.00153398	0.711767	-0.82068	0.00920388	0.800738	-1.64136	0	0	0	0	0	0	0	0	0	0	0	0	0.000000000	0	0.788798	-0.788798	0	0.828698	-1.5708	0.1	0.1	0.1	0.1	0.1	0.1	0	0	0	0	0	0	0.000000000
1504111122.954941987	0.00153398	0.711767	-0.82068	0.00920388	0.800738	-1.64136	0	0	0	0	0	0	0	0	0	0	0	0	0.000000000	0	0.788798	-0.788798	0	0.828698	-1.5708	0.1	0.1	0.1	0.1	0.1	0.1	0	0	0	0	0	0	0.000000000
1504111122.974544048	0.00306796	0.711767	-0.82068	0.00920388	0.800738	-1.64136	0	0	0	0	0	0	0	0	0	0	0	0	0.000000000	0	0.788798	-0.788798	0	0.828698	-1.5708	0.1	0.1	0.1	0.1	0.1	0.1	0	0	0	0	0	0	0.000000000
1504111122.994474887	0.00153398	0.713301	-0.82068	0.00920388	0.799204	-1.64289	0	0	0	0	0	0	0	0	0	0	0	0	0.000000000	0	0.788798	-0.788798	0	0.828698	-1.5708	0.1	0.1	0.1	0.1	0.1	0.1	0	0	0	0	0	0	0.000000000
1504111123.014396905	0.00306796	0.711767	-0.82068	0.00920388	0.800738	-1.64136	0	0	0	0	0	0	0	0	0	0	0	0	0.000000000	0	0.788798	-0.788798	0	0.828698	-1.5708	0.1	0.1	0.1	0.1	0.1	0.1	0	0	0	0	0	0	0.000000000
1504111123.034533977	0.00306796	0.711767	-0.82068	0.00920388	0.800738	-1.64136	0	0	0	0	0	0	0	0	0	0	0	0	0.000000000	0	0.788798	-0.788798	0	0.828698	-1.5708	0.1	0.1	0.1	0.1	0.1	0.1	0	0	0	0	0	0	0.000000000
1504111123.054404973	0.00306796	0.711767	-0.82068	0.00920388	0.800738	-1.64136	0	0	0	0	0	0	0	0	0	0	0	0	0.000000000	0	0.788798	-0.788798	0	0.828698	-1.5708	0.1	0.1	0.1	0.1	0.1	0.1	0	0	0	0	0	0	0.000000000
1504111123.074620008	0.00306796	0.711767	-0.82068	0.00920388	0.800738	-1.64136	0	0	0	0	0	0	0	0	0	0	0	0	0.000000000	0	0.788798	-0.788798	0	0.828698	-1.5708	0.1	0.1	0.1	0.1	0.1	0.1	0	0	0	0	0	0	0.000000000
1504111123.095048904	0.00306796	0.711767	-0.82068	0.00920388	0.800738	-1.64136	0	0	0	0	0	0	0	0	0	0	0	0	0.000000000	0	0.788798	-0.788798	0	0.828698	-1.5708	0.1	0.1	0.1	0.1	0.1	0.1	0	0	0	0	0	0	0.000000000
1504111123.114687919	0.00306796	0.711767	-0.82068	0.00920388	0.800738	-1.64136	0	0	0	0	0	0	0	0	0	0	0	0	0.000000000	0	0.788798	-0.788798	0	0.828698	-1.5708	0.1	0.1	0.1	0.1	0.1	0.1	0	0	0	0	0	0	0.000000000
1504111123.134553909	0.00306796	0.711767	-0.82068	0.00920388	0.800738	-1.64136	0	0	0	0	0	0	0	0	0	0	0	0	0.000000000	0	0.788798	-0.788798	0	0.828698	-1.5708	0.1	0.1	0.1	0.1	0.1	0.1	0	0	0	0	0	0	0.000000000
1504111123.162107944	0.00306796	0.711767	-0.82068	0.00920388	0.800738	-1.64136	0	0	0	0	0	0	0	0	0	0	0	0	0.000000000	0	0.788798	-0.788798	0	0.828698	-1.5708	0.1	0.1	0.1	0.1	0.1	0.1	0	0	0	0	0	0	0.000000000
1504111123.174453020	0.00306796	0.711767	-0.82068	0.00920388	0.800738	-1.64136	0	0	0	0	0	0	0	0	0	0	0	0	0.000000000	0	0.788798	-0.788798	0	0.828698	-1.5708	0.1	0.1	0.1	0.1	0.1	0.1	0	0	0	0	0	0	0.000000000
1504111123.194500923	0.00306796	0.711767	-0.82068	0.00920388	0.799204	-1.64136	0	0	0	0	0	0	0	0	0	0	0	0	0.000000000	0	0.788798	-0.788798	0	0.828698	-1.5708	0.1	0.1	0.1	0.1	0.1	0.1	0	0	0	0	0	0	0.000000000
1504111123.214430093	0.00306796	0.711767	-0.82068	0.00920388	0.800738	-1.64136	0	0	0	0	0	0	0	0	0	0	0	0	0.000000000	0	0.788798	-0.788798	0	0.828698	-1.5708	0.1	0.1	0.1	0.1	0.1	0.1	0	0	0	0	0	0	0.000000000
1504111123.234611034	0.00153398	0.711767	-0.82068	0.00920388	0.800738	-1.64136	0	0	0	0	0	0	0	0	0	0	0	0	0.000000000	0	0.788798	-0.788798	0	0.828698	-1.5708	0.1	0.1	0.1	0.1	0.1	0.1	0	0	0	0	0	0	0.000000000
1504111123.254489898	0.00153398	0.711767	-0.82068	0.00920388	0.800738	-1.64136	0	0	0	0	0	0	0	0	0	0	0	0	0.000000000	0	0.788798	-0.788798	0	0.828698	-1.5708	0.1	0.1	0.1	0.1	0.1	0.1	0	0	0	0	0	0	0.000000000
1504111123.274698019	0.00306796	0.711767	-0.82068	0.00920388	0.800738	-1.64136	0	0	0	0	0	0	0	0	0	0	0	0	0.000000000	0	0.788798	-0.788798	0	0.828698	-1.5708	0.1	0.1	0.1	0.1	0.1	0.1	0	0	0	0	0	0	0.000000000
1504111123.295167922	0.00153398	0.711767	-0.82068	0.00920388	0.800738	-1.64136	0	0	0	0	0	0	0	0	0	0	0	0	0.000000000	0	0.788798	-0.788798	0	0.828698	-1.5708	0.1	0.1	0.1	0.1	0.1	0.1	0	0	0	0	0	0	0.000000000
1504111123.314542055	0.00306796	0.711767	-0.82068	0.00920388	0.800738	-1.64136	0	0	0	0	0	0	0	0	0	0	0	0	0.000000000	0	0.788798	-0.788798	0	0.828698	-1.5708	0.1	0.1	0.1	0.1	0.1	0.1	0	0	0	0	0	0	0.000000000
1504111123.334903955	0.00153398	0.711767	-0.82068	0.00920388	0.800738	-1.64289	0	0	0	0	0	0	0	0	0	0	0	0	0.000000000	0	0.788798	-0.788798	0	0.828698	-1.5708	0.1	0.1	0.1	0.1	0.1	0.1	0	0	0	0	0	0	0.000000000
1504111123.354482889	0.00153398	0.711767	-0.82068	0.00920388	0.800738	-1.64289	0	0	0	0	0	0	0	0	0	0	0	0	0.000000000	0	0.788798	-0.788798	0	0.828698	-1.5708	0.1	0.1	0.1	0.1	0.1	0.1	0	0	0	0	0	0	0.000000000
1504111123.374680995	0.00306796	0.711767	-0.82068	0.00920388	0.800738	-1.64136	0	0	0	0	0	0	0	0	0	0	0	0	0.000000000	0	0.788798	-0.788798	0	0.828698	-1.5708	0.1	0.1	0.1	0.1	0.1	0.1	0	0	0	0	0	0	0.000000000
1504111123.394550085	0.00306796	0.711767	-0.82068	0.0076699	0.800738	-1.64136	0	0	0	0	0	0	0	0	0	0	0	0	0.000000000	0	0.788798	-0.788798	0	0.828698	-1.5708	0.1	0.1	0.1	0.1	0.1	0.1	0	0	0	0	0	0	0.000000000
1504111123.414530992	0.00306796	0.711767	-0.82068	0.00920388	0.800738	-1.64136	0	0	0	0	0	0	0	0	0	0	0	0	0.000000000	0	0.788798	-0.788798	0	0.828698	-1.5708	0.1	0.1	0.1	0.1	0.1	0.1	0	0	0	0	0	0	0.000000000
1504111123.434535026	0.00306796	0.711767	-0.82068	0.00920388	0.800738	-1.64289	0	0	0	0	0	0	0	0	0	0	0	0	0.000000000	0	0.788798	-0.788798	0	0.828698	-1.5708	0.1	0.1	0.1	0.1	0.1	0.1	0	0	0	0	0	0	0.000000000
1504111123.454453945	0.00306796	0.711767	-0.82068	0.00920388	0.800738	-1.64289	0	0	0	0	0	0	0	0	0	0	0	0	0.000000000	0	0.788798	-0.788798	0	0.828698	-1.5708	0.1	0.1	0.1	0.1	0.1	0.1	0	0	0	0	0	0	0.000000000
1504111123.475908994	0.00306796	0.711767	-0.82068	0.00920388	0.800738	-1.64136	0	0	0	0	0	0	0	0	0	0	0	0	0.000000000	0	0.788798	-0.788798	0	0.828698	-1.5708	0.1	0.1	0.1	0.1	0.1	0.1	0	0	0	0	0	0	0.000000000
1504111123.494862079	0.00306796	0.711767	-0.82068	0.00920388	0.800738	-1.64136	0	0	0	0	0	0	0	0	0	0	0	0	0.000000000	0	0.788798	-0.788798	0	0.828698	-1.5708	0.1	0.1	0.1	0.1	0.1	0.1	0	0	0	0	0	0	0.000000000
1504111123.514286041	0.00153398	0.711767	-0.82068	0.00920388	0.800738	-1.64136	0	0	0	0	0	0	0	0	0	0	0	0	0.000000000	0	0.788798	-0.788798	0	0.828698	-1.5708	0.1	0.1	0.1	0.1	0.1	0.1	0	0	0	0	0	0	0.000000000
1504111123.534296989	0.00153398	0.711767	-0.82068	0.00920388	0.800738	-1.64136	0	0	0	0	0	0	0	0	0	0	0	0	0.000000000	0	0.788798	-0.788798	0	0.828698	-1.5708	0.1	0.1	0.1	0.1	0.1	0.1	0	0	0	0	0	0	0.000000000
1504111123.554271936	0.00306796	0.711767	-0.82068	0.00920388	0.799204	-1.64136	0	0	0	0	0	0	0	0	0	0	0	0	0.000000000	0	0.788798	-0.788798	0	0.828698	-1.5708	0.1	0.1	0.1	0.1	0.1	0.1	0	0	0	0	0	0	0.000000000
1504111123.574274063	0.00306796	0.711767	-0.82068	0.00920388	0.799204	-1.64136	0	0	0	0	0	0	0	0	0	0	0	0	0.000000000	0	0.788798	-0.788798	0	0.828698	-1.5708	0.1	0.1	0.1	0.1	0.1	0.1	0	0	0	0	0	0	0.000000000
1504111123.594454050	0.00153398	0.711767	-0.82068	0.00920388	0.799204	-1.64289	0	0	0	0	0	0	0	0	0	0	0	0	0.000000000	0	0.788798	-0.788798	0	0.828698	-1.5708	0.1	0.1	0.1	0.1	0.1	0.1	0	0	0	0	0	0	0.000000000
1504111123.614964008	0.00306796	0.711767	-0.82068	0.00920388	0.800738	-1.64136	0	0	0	0	0	0	0	0	0	0	0	0	0.000000000	0	0.788798	-0.788798	0	0.828698	-1.5708	0.1	0.1	0.1	0.1	0.1	0.1	0	0	0	0	0	0	0.000000000
1504111123.634500980	0.00306796	0.711767	-0.82068	0.00920388	0.800738	-1.64289	0	0	0	0	0	0	0	0	0	0	0	0	0.000000000	0	0.788798	-0.788798	0	0.828698	-1.5708	0.1	0.1	0.1	0.1	0.1	0.1	0	0	0	0	0	0	0.000000000
1504111123.654419898	0.00306796	0.711767	-0.82068	0.00920388	0.800738	-1.64289	0	0	0	0	0	0	0	0	0	0	0	0	0.000000000	0	0.788798	-0.788798	0	0.828698	-1.5708	0.1	0.1	0.1	0.1	0.1	0.1	0	0	0	0	0	0	0.000000000
1504111123.674365043	0.00153398	0.711767	-0.82068	0.00920388	0.799204	-1.64136	0	0	0	0	0	0	0	0	0	0	0	0	0.000000000	0	0.788798	-0.788798	0	0.828698	-1.5708	0.1	0.1	0.1	0.1	0.1	0.1	0	0	0	0	0	0	0.000000000
1504111123.696144104	0.00306796	0.711767	-0.82068	0.00920388	0.799204	-1.64136	0	0	0	0	0	0	0	0	0	0	0	0	0.000000000	0	0.788798	-0.788798	0	0.828698	-1.5708	0.1	0.1	0.1	0.1	0.1	0.1	0	0	0	0	0	0	0.000000000
1504111123.714468002	0.00153398	0.711767	-0.82068	0.00920388	0.799204	-1.64136	0	0	0	0	0	0	0	0	0	0	0	0	0.000000000	0	0.788798	-0.788798	0	0.828698	-1.5708	0.1	0.1	0.1	0.1	0.1	0.1	0	0	0	0	0	0	0.000000000
1504111123.734457969	0.00306796	0.711767	-0.82068	0.00920388	0.799204	-1.64136	0	0	0	0	0	0	0	0	0	0	0	0	0.000000000	0	0.788798	-0.788798	0	0.828698	-1.5708	0.1	0.1	0.1	0.1	0.1	0.1	0	0	0	0	0	0	0.000000000
1504111123.754710912	0.00306796	0.711767	-0.82068	0.00920388	0.799204	-1.64136	0	0	0	0	0	0	0	0	0	0	0	0	0.000000000	0	0.788798	-0.788798	0	0.828698	-1.5708	0.1	0.1	0.1	0.1	0.1	0.1	0	0	0	0	0	0	0.000000000
1504111123.774466037	0.00306796	0.711767	-0.82068	0.00920388	0.800738	-1.64136	0	0	0	0	0	0	0	0	0	0	0	0	0.000000000	0	0.788798	-0.788798	0	0.828698	-1.5708	0.1	0.1	0.1	0.1	0.1	0.1	0	0	0	0	0	0	0.000000000
1504111123.794538021	0.00306796	0.711767	-0.82068	0.00920388	0.800738	-1.64289	0	0	0	0	0	0	0	0	0	0	0	0	0.000000000	0	0.788798	-0.788798	0	0.828698	-1.5708	0.1	0.1	0.1	0.1	0.1	0.1	0	0	0	0	0	0	0.000000000
1504111123.814418077	0.00306796	0.711767	-0.82068	0.00920388	0.800738	-1.64136	0	0	0	0	0	0	0	0	0	0	0	0	0.000000000	0	0.788798	-0.788798	0	0.828698	-1.5708	0.1	0.1	0.1	0.1	0.1	0.1	0	0	0	0	0	0	0.000000000
1504111123.834477901	0.00306796	0.711767	-0.82068	0.00920388	0.800738	-1.64136	0	0	0	0	0	0	0	0	0	0	0	0	0.000000000	0	0.788798	-0.788798	0	0.828698	-1.5708	0.1	0.1	0.1	0.1	0.1	0.1	0	0	0	0	0	0	0.000000000
1504111123.854887008	0.00306796	0.711767	-0.82068	0.00920388	0.800738	-1.64136	0	0	0	0	0	0	0	0	0	0	0	0	0.000000000	0	0.788798	-0.788798	0	0.828698	-1.5708	0.1	0.1	0.1	0.1	0.1	0.1	0	0	0	0	0	0	0.000000000
1504111123.874694108	0.00306796	0.711767	-0.82068	0.00920388	0.800738	-1.64136	0	0	0	0	0	0	0	0	0	0	0	0	0.000000000	0	0.788798	-0.788798	0	0.828698	-1.5708	0.1	0.1	0.1	0.1	0.1	0.1	0	0	0	0	0	0	0.000000000
1504111123.895807981	0.00306796	0.711767	-0.82068	0.00920388	0.800738	-1.64136	0	0	0	0	0	0	0	0	0	0	0	0	0.000000000	0	0.788798	-0.788798	0	0.828698	-1.5708	0.1	0.1	0.1	0.1	0.1	0.1	0	0	0	0	0	0	0.000000000
1504111123.914392948	0.00153398	0.713301	-0.82068	0.00920388	0.800738	-1.64136	0	0	0	0	0	0	0	0	0	0	0	0	0.000000000	0	0.788798	-0.788798	0	0.828698	-1.5708	0.1	0.1	0.1	0.1	0.1	0.1	0	0	0	0	0	0	0.000000000
1504111123.934581995	0.00153398	0.711767	-0.82068	0.00920388	0.800738	-1.64136	0	0	0	0	0	0	0	0	0	0	0	0	0.000000000	0	0.788798	-0.788798	0	0.828698	-1.5708	0.1	0.1	0.1	0.1	0.1	0.1	0	0	0	0	0	0	0.000000000
1504111123.954456090	0.00153398	0.711767	-0.82068	0.00920388	0.800738	-1.64136	0	0	0	0	0	0	0	0	0	0	0	0	0.000000000	0	0.788798	-0.788798	0	0.828698	-1.5708	0.1	0.1	0.1	0.1	0.1	0.1	0	0	0	0	0	0	0.000000000
1504111123.974836111	0.00153398	0.711767	-0.82068	0.00920388	0.800738	-1.64136	0	0	0	0	0	0	0	0	0	0	0	0	0.000000000	0	0.788798	-0.788798	0	0.828698	-1.5708	0.1	0.1	0.1	0.1	0.1	0.1	0	0	0	0	0	0	0.000000000
1504111123.994523048	0.00153398	0.711767	-0.82068	0.00920388	0.800738	-1.64136	0	0	0	0	0	0	0	0	0	0	0	0	0.000000000	0	0.788798	-0.788798	0	0.828698	-1.5708	0.1	0.1	0.1	0.1	0.1	0.1	0	0	0	0	0	0	0.000000000
1504111124.014518976	0.00306796	0.711767	-0.82068	0.00920388	0.799204	-1.64136	0	0	0	0	0	0	0	0	0	0	0	0	0.000000000	0	0.788798	-0.788798	0	0.828698	-1.5708	0.1	0.1	0.1	0.1	0.1	0.1	0	0	0	0	0	0	0.000000000
1504111124.034648895	0.00306796	0.711767	-0.82068	0.00920388	0.799204	-1.64136	0	0	0	0	0	0	0	0	0	0	0	0	0.000000000	0	0.788798	-0.788798	0	0.828698	-1.5708	0.1	0.1	0.1	0.1	0.1	0.1	0	0	0	0	0	0	0.000000000
1504111124.054497957	0.00153398	0.711767	-0.82068	0.00920388	0.800738	-1.64136	0	0	0	0	0	0	0	0	0	0	0	0	0.000000000	0	0.788798	-0.788798	0	0.828698	-1.5708	0.1	0.1	0.1	0.1	0.1	0.1	0	0	0	0	0	0	0.000000000
1504111124.074906110	0.00306796	0.711767	-0.82068	0.00920388	0.800738	-1.64136	0	0	0	0	0	0	0	0	0	0	0	0	0.000000000	0	0.788798	-0.788798	0	0.828698	-1.5708	0.1	0.1	0.1	0.1	0.1	0.1	0	0	0	0	0	0	0.000000000
1504111124.094652891	0.00306796	0.711767	-0.82068	0.00920388	0.800738	-1.64136	0	0	0	0	0	0	0	0	0	0	0	0	0.000000000	0	0.788798	-0.788798	0	0.828698	-1.5708	0.1	0.1	0.1	0.1	0.1	0.1	0	0	0	0	0	0	0.000000000
1504111124.114497900	0.00153398	0.711767	-0.82068	0.00920388	0.799204	-1.64136	0	0	0	0	0	0	0	0	0	0	0	0	0.000000000	0	0.788798	-0.788798	0	0.828698	-1.5708	0.1	0.1	0.1	0.1	0.1	0.1	0	0	0	0	0	0	0.000000000
1504111124.134784936	0.00153398	0.711767	-0.82068	0.00920388	0.799204	-1.64136	0	0	0	0	0	0	0	0	0	0	0	0	0.000000000	0	0.788798	-0.788798	0	0.828698	-1.5708	0.1	0.1	0.1	0.1	0.1	0.1	0	0	0	0	0	0	0.000000000
1504111124.154743909	0.00306796	0.711767	-0.82068	0.00920388	0.800738	-1.64136	0	0	0	0	0	0	0	0	0	0	0	0	0.000000000	0	0.788798	-0.788798	0	0.828698	-1.5708	0.1	0.1	0.1	0.1	0.1	0.1	0	0	0	0	0	0	0.000000000
1504111124.174458026	0.00306796	0.713301	-0.82068	0.00920388	0.800738	-1.64136	0	0	0	0	0	0	0	0	0	0	0	0	0.000000000	0	0.788798	-0.788798	0	0.828698	-1.5708	0.1	0.1	0.1	0.1	0.1	0.1	0	0	0	0	0	0	0.000000000
1504111124.194428920	0.00153398	0.711767	-0.82068	0.00920388	0.800738	-1.64136	0	0	0	0	0	0	0	0	0	0	0	0	0.000000000	0	0.788798	-0.788798	0	0.828698	-1.5708	0.1	0.1	0.1	0.1	0.1	0.1	0	0	0	0	0	0	0.000000000
1504111124.214461088	0.00306796	0.711767	-0.82068	0.00920388	0.799204	-1.64136	0	0	0	0	0	0	0	0	0	0	0	0	0.000000000	0	0.788798	-0.788798	0	0.828698	-1.5708	0.1	0.1	0.1	0.1	0.1	0.1	0	0	0	0	0	0	0.000000000
1504111124.234556913	0.00153398	0.711767	-0.82068	0.00920388	0.800738	-1.64136	0	0	0	0	0	0	0	0	0	0	0	0	0.000000000	0	0.788798	-0.788798	0	0.828698	-1.5708	0.1	0.1	0.1	0.1	0.1	0.1	0	0	0	0	0	0	0.000000000
1504111124.254390001	0.00153398	0.711767	-0.82068	0.00920388	0.800738	-1.64136	0	0	0	0	0	0	0	0	0	0	0	0	0.000000000	0	0.788798	-0.788798	0	0.828698	-1.5708	0.1	0.1	0.1	0.1	0.1	0.1	0	0	0	0	0	0	0.000000000
1504111124.274486064	0.00153398	0.711767	-0.82068	0.00920388	0.799204	-1.64136	0	0	0	0	0	0	0	0	0	0	0	0	0.000000000	0	0.788798	-0.788798	0	0.828698	-1.5708	0.1	0.1	0.1	0.1	0.1	0.1	0	0	0	0	0	0	0.000000000
1504111124.296163082	0.00306796	0.711767	-0.82068	0.00920388	0.800738	-1.64136	0	0	0	0	0	0	0	0	0	0	0	0	0.000000000	0	0.788798	-0.788798	0	0.828698	-1.5708	0.1	0.1	0.1	0.1	0.1	0.1	0	0	0	0	0	0	0.000000000
1504111124.314416885	0.00153398	0.711767	-0.82068	0.00920388	0.800738	-1.64136	0	0	0	0	0	0	0	0	0	0	0	0	0.000000000	0	0.788798	-0.788798	0	0.828698	-1.5708	0.1	0.1	0.1	0.1	0.1	0.1	0	0	0	0	0	0	0.000000000
1504111124.337105989	0.00306796	0.711767	-0.82068	0.00920388	0.800738	-1.64136	0	0	0	0	0	0	0	0	0	0	0	0	0.000000000	0	0.788798	-0.788798	0	0.828698	-1.5708	0.1	0.1	0.1	0.1	0.1	0.1	0	0	0	0	0	0	0.000000000
1504111124.354593038	0.00306796	0.711767	-0.82068	0.00920388	0.800738	-1.64136	0	0	0	0	0	0	0	0	0	0	0	0	0.000000000	0	0.788798	-0.788798	0	0.828698	-1.5708	0.1	0.1	0.1	0.1	0.1	0.1	0	0	0	0	0	0	0.000000000
1504111124.374670982	0.00306796	0.711767	-0.82068	0.00920388	0.800738	-1.64136	0	0	0	0	0	0	0	0	0	0	0	0	0.000000000	0	0.788798	-0.788798	0	0.828698	-1.5708	0.1	0.1	0.1	0.1	0.1	0.1	0	0	0	0	0	0	0.000000000
1504111124.395396947	0.00306796	0.711767	-0.82068	0.00920388	0.799204	-1.64136	0	0	0	0	0	0	0	0	0	0	0	0	0.000000000	0	0.788798	-0.788798	0	0.828698	-1.5708	0.1	0.1	0.1	0.1	0.1	0.1	0	0	0	0	0	0	0.000000000
1504111124.414475917	0.00153398	0.711767	-0.82068	0.00920388	0.799204	-1.64136	0	0	0	0	0	0	0	0	0	0	0	0	0.000000000	0	0.788798	-0.788798	0	0.828698	-1.5708	0.1	0.1	0.1	0.1	0.1	0.1	0	0	0	0	0	0	0.000000000
1504111124.438153982	0.00306796	0.711767	-0.82068	0.00920388	0.799204	-1.64136	0	0	0	0	0	0	0	0	0	0	0	0	0.000000000	0	0.788798	-0.788798	0	0.828698	-1.5708	0.1	0.1	0.1	0.1	0.1	0.1	0	0	0	0	0	0	0.000000000
1504111124.454590082	0.00306796	0.711767	-0.82068	0.00920388	0.799204	-1.64136	0	0	0	0	0	0	0	0	0	0	0	0	0.000000000	0	0.788798	-0.788798	0	0.828698	-1.5708	0.1	0.1	0.1	0.1	0.1	0.1	0	0	0	0	0	0	0.000000000
1504111124.474719047	0.00306796	0.711767	-0.82068	0.00920388	0.800738	-1.64136	0	0	0	0	0	0	0	0	0	0	0	0	0.000000000	0	0.788798	-0.788798	0	0.828698	-1.5708	0.1	0.1	0.1	0.1	0.1	0.1	0	0	0	0	0	0	0.000000000
1504111124.494844913	0.00153398	0.711767	-0.82068	0.00920388	0.800738	-1.64136	0	0	0	0	0	0	0	0	0	0	0	0	0.000000000	0	0.788798	-0.788798	0	0.828698	-1.5708	0.1	0.1	0.1	0.1	0.1	0.1	0	0	0	0	0	0	0.000000000
1504111124.514782905	0.00153398	0.711767	-0.82068	0.00920388	0.800738	-1.64136	0	0	0	0	0	0	0	0	0	0	0	0	0.000000000	0	0.788798	-0.788798	0	0.828698	-1.5708	0.1	0.1	0.1	0.1	0.1	0.1	0	0	0	0	0	0	0.000000000
1504111124.534630060	0.00153398	0.711767	-0.82068	0.00920388	0.800738	-1.64136	0	0	0	0	0	0	0	0	0	0	0	0	0.000000000	0	0.788798	-0.788798	0	0.828698	-1.5708	0.1	0.1	0.1	0.1	0.1	0.1	0	0	0	0	0	0	0.000000000
1504111124.554655075	0.00153398	0.711767	-0.82068	0.00920388	0.800738	-1.64136	0	0	0	0	0	0	0	0	0	0	0	0	0.000000000	0	0.788798	-0.788798	0	0.828698	-1.5708	0.1	0.1	0.1	0.1	0.1	0.1	0	0	0	0	0	0	0.000000000
1504111124.574466943	0.00306796	0.711767	-0.82068	0.00920388	0.800738	-1.64136	0	0	0	0	0	0	0	0	0	0	0	0	0.000000000	0	0.788798	-0.788798	0	0.828698	-1.5708	0.1	0.1	0.1	0.1	0.1	0.1	0	0	0	0	0	0	0.000000000
1504111124.595532894	0.00153398	0.711767	-0.82068	0.00920388	0.800738	-1.64136	0	0	0	0	0	0	0	0	0	0	0	0	0.000000000	0	0.788798	-0.788798	0	0.828698	-1.5708	0.1	0.1	0.1	0.1	0.1	0.1	0	0	0	0	0	0	0.000000000
1504111124.614383935	0.00306796	0.711767	-0.82068	0.00920388	0.800738	-1.64136	0	0	0	0	0	0	0	0	0	0	0	0	0.000000000	0	0.788798	-0.788798	0	0.828698	-1.5708	0.1	0.1	0.1	0.1	0.1	0.1	0	0	0	0	0	0	0.000000000
1504111124.634397983	0.00153398	0.711767	-0.82068	0.00920388	0.799204	-1.64136	0	0	0	0	0	0	0	0	0	0	0	0	0.000000000	0	0.788798	-0.788798	0	0.828698	-1.5708	0.1	0.1	0.1	0.1	0.1	0.1	0	0	0	0	0	0	0.000000000
1504111124.654727935	0.00153398	0.711767	-0.82068	0.00920388	0.799204	-1.64136	0	0	0	0	0	0	0	0	0	0	0	0	0.000000000	0	0.788798	-0.788798	0	0.828698	-1.5708	0.1	0.1	0.1	0.1	0.1	0.1	0	0	0	0	0	0	0.000000000
1504111124.674452066	0.00306796	0.711767	-0.82068	0.00920388	0.800738	-1.64136	0	0	0	0	0	0	0	0	0	0	0	0	0.000000000	0	0.788798	-0.788798	0	0.828698	-1.5708	0.1	0.1	0.1	0.1	0.1	0.1	0	0	0	0	0	0	0.000000000
1504111124.694550037	0.00306796	0.711767	-0.82068	0.00920388	0.800738	-1.64136	0	0	0	0	0	0	0	0	0	0	0	0	0.000000000	0	0.788798	-0.788798	0	0.828698	-1.5708	0.1	0.1	0.1	0.1	0.1	0.1	0	0	0	0	0	0	0.000000000
1504111124.714576005	0.00153398	0.711767	-0.82068	0.00920388	0.800738	-1.64136	0	0	0	0	0	0	0	0	0	0	0	0	0.000000000	0	0.788798	-0.788798	0	0.828698	-1.5708	0.1	0.1	0.1	0.1	0.1	0.1	0	0	0	0	0	0	0.000000000
1504111124.735009908	0.00153398	0.711767	-0.82068	0.00920388	0.800738	-1.64136	0	0	0	0	0	0	0	0	0	0	0	0	0.000000000	0	0.788798	-0.788798	0	0.828698	-1.5708	0.1	0.1	0.1	0.1	0.1	0.1	0	0	0	0	0	0	0.000000000
1504111124.754539012	0.00153398	0.711767	-0.82068	0.00920388	0.800738	-1.64136	0	0	0	0	0	0	0	0	0	0	0	0	0.000000000	0	0.788798	-0.788798	0	0.828698	-1.5708	0.1	0.1	0.1	0.1	0.1	0.1	0	0	0	0	0	0	0.000000000
1504111124.774542093	0.00306796	0.711767	-0.82068	0.00920388	0.800738	-1.64136	0	0	0	0	0	0	0	0	0	0	0	0	0.000000000	0	0.788798	-0.788798	0	0.828698	-1.5708	0.1	0.1	0.1	0.1	0.1	0.1	0	0	0	0	0	0	0.000000000
1504111124.794605970	0.00153398	0.711767	-0.82068	0.00920388	0.800738	-1.64136	0	0	0	0	0	0	0	0	0	0	0	0	0.000000000	0	0.788798	-0.788798	0	0.828698	-1.5708	0.1	0.1	0.1	0.1	0.1	0.1	0	0	0	0	0	0	0.000000000
1504111124.814764976	0.00153398	0.711767	-0.82068	0.00920388	0.800738	-1.64289	0	0	0	0	0	0	0	0	0	0	0	0	0.000000000	0	0.788798	-0.788798	0	0.828698	-1.5708	0.1	0.1	0.1	0.1	0.1	0.1	0	0	0	0	0	0	0.000000000
1504111124.834372997	0.00153398	0.711767	-0.82068	0.00920388	0.799204	-1.64136	0	0	0	0	0	0	0	0	0	0	0	0	0.000000000	0	0.788798	-0.788798	0	0.828698	-1.5708	0.1	0.1	0.1	0.1	0.1	0.1	0	0	0	0	0	0	0.000000000
1504111124.854967117	0.00153398	0.711767	-0.82068	0.00920388	0.799204	-1.64136	0	0	0	0	0	0	0	0	0	0	0	0	0.000000000	0	0.788798	-0.788798	0	0.828698	-1.5708	0.1	0.1	0.1	0.1	0.1	0.1	0	0	0	0	0	0	0.000000000
1504111124.876854896	0.00306796	0.711767	-0.82068	0.00920388	0.800738	-1.64289	0	0	0	0	0	0	0	0	0	0	0	0	0.000000000	0	0.788798	-0.788798	0	0.828698	-1.5708	0.1	0.1	0.1	0.1	0.1	0.1	0	0	0	0	0	0	0.000000000
1504111124.894531965	0.00306796	0.711767	-0.82068	0.00920388	0.800738	-1.64289	0	0	0	0	0	0	0	0	0	0	0	0	0.000000000	0	0.788798	-0.788798	0	0.828698	-1.5708	0.1	0.1	0.1	0.1	0.1	0.1	0	0	0	0	0	0	0.000000000
1504111124.914494991	0.00306796	0.711767	-0.82068	0.00920388	0.799204	-1.64136	0	0	0	0	0	0	0	0	0	0	0	0	0.000000000	0	0.788798	-0.788798	0	0.828698	-1.5708	0.1	0.1	0.1	0.1	0.1	0.1	0	0	0	0	0	0	0.000000000
1504111124.934292078	0.00306796	0.711767	-0.82068	0.00920388	0.800738	-1.64136	0	0	0	0	0	0	0	0	0	0	0	0	0.000000000	0	0.788798	-0.788798	0	0.828698	-1.5708	0.1	0.1	0.1	0.1	0.1	0.1	0	0	0	0	0	0	0.000000000
1504111124.954221963	0.00153398	0.711767	-0.82068	0.00920388	0.800738	-1.64136	0	0	0	0	0	0	0	0	0	0	0	0	0.000000000	0	0.788798	-0.788798	0	0.828698	-1.5708	0.1	0.1	0.1	0.1	0.1	0.1	0	0	0	0	0	0	0.000000000
1504111124.974194049	0.00153398	0.711767	-0.82068	0.00920388	0.800738	-1.64136	0	0	0	0	0	0	0	0	0	0	0	0	0.000000000	0	0.788798	-0.788798	0	0.828698	-1.5708	0.1	0.1	0.1	0.1	0.1	0.1	0	0	0	0	0	0	0.000000000
1504111124.994187116	0.00306796	0.713301	-0.82068	0.00920388	0.800738	-1.64136	0	0	0	0	0	0	0	0	0	0	0	0	0.000000000	0	0.788798	-0.788798	0	0.828698	-1.5708	0.1	0.1	0.1	0.1	0.1	0.1	0	0	0	0	0	0	0.000000000
1504111125.014204025	0.00153398	0.711767	-0.82068	0.00920388	0.799204	-1.64136	0	0	0	0	0	0	0	0	0	0	0	0	0.000000000	0	0.788798	-0.788798	0	0.828698	-1.5708	0.1	0.1	0.1	0.1	0.1	0.1	0	0	0	0	0	0	0.000000000
1504111125.034207105	0.00306796	0.711767	-0.82068	0.00920388	0.800738	-1.64289	0	0	0	0	0	0	0	0	0	0	0	0	0.000000000	0	0.788798	-0.788798	0	0.828698	-1.5708	0.1	0.1	0.1	0.1	0.1	0.1	0	0	0	0	0	0	0.000000000
1504111125.054176092	0.00306796	0.711767	-0.82068	0.00920388	0.800738	-1.64136	0	0	0	0	0	0	0	0	0	0	0	0	0.000000000	0	0.788798	-0.788798	0	0.828698	-1.5708	0.1	0.1	0.1	0.1	0.1	0.1	0	0	0	0	0	0	0.000000000
1504111125.074170112	0.00306796	0.711767	-0.82068	0.00920388	0.800738	-1.64136	0	0	0	0	0	0	0	0	0	0	0	0	0.000000000	0	0.788798	-0.788798	0	0.828698	-1.5708	0.1	0.1	0.1	0.1	0.1	0.1	0	0	0	0	0	0	0.000000000
1504111125.094187021	0.00306796	0.711767	-0.82068	0.00920388	0.800738	-1.64136	0	0	0	0	0	0	0	0	0	0	0	0	0.000000000	0	0.788798	-0.788798	0	0.828698	-1.5708	0.1	0.1	0.1	0.1	0.1	0.1	0	0	0	0	0	0	0.000000000
1504111125.114166975	0.00306796	0.711767	-0.82068	0.00920388	0.800738	-1.64136	0	0	0	0	0	0	0	0	0	0	0	0	0.000000000	0	0.788798	-0.788798	0	0.828698	-1.5708	0.1	0.1	0.1	0.1	0.1	0.1	0	0	0	0	0	0	0.000000000
1504111125.134191036	0.00306796	0.711767	-0.82068	0.00920388	0.800738	-1.64136	0	0	0	0	0	0	0	0	0	0	0	0	0.000000000	0	0.788798	-0.788798	0	0.828698	-1.5708	0.1	0.1	0.1	0.1	0.1	0.1	0	0	0	0	0	0	0.000000000
1504111125.154192924	0.00306796	0.711767	-0.82068	0.00920388	0.800738	-1.64136	0	0	0	0	0	0	0	0	0	0	0	0	0.000000000	0	0.788798	-0.788798	0	0.828698	-1.5708	0.1	0.1	0.1	0.1	0.1	0.1	0	0	0	0	0	0	0.000000000
1504111125.174191951	0.00306796	0.711767	-0.82068	0.00920388	0.800738	-1.64136	0	0	0	0	0	0	0	0	0	0	0	0	0.000000000	0	0.788798	-0.788798	0	0.828698	-1.5708	0.1	0.1	0.1	0.1	0.1	0.1	0	0	0	0	0	0	0.000000000
1504111125.194183111	0.00153398	0.711767	-0.82068	0.00920388	0.800738	-1.64136	0	0	0	0	0	0	0	0	0	0	0	0	0.000000000	0	0.788798	-0.788798	0	0.828698	-1.5708	0.1	0.1	0.1	0.1	0.1	0.1	0	0	0	0	0	0	0.000000000
1504111125.215240001	0.00306796	0.711767	-0.82068	0.00920388	0.800738	-1.64136	0	0	0	0	0	0	0	0	0	0	0	0	0.000000000	0	0.788798	-0.788798	0	0.828698	-1.5708	0.1	0.1	0.1	0.1	0.1	0.1	0	0	0	0	0	0	0.000000000
1504111125.234179019	0.00153398	0.711767	-0.82068	0.00920388	0.800738	-1.64289	0	0	0	0	0	0	0	0	0	0	0	0	0.000000000	0	0.788798	-0.788798	0	0.828698	-1.5708	0.1	0.1	0.1	0.1	0.1	0.1	0	0	0	0	0	0	0.000000000
1504111125.254302978	0.00306796	0.711767	-0.82068	0.00920388	0.799204	-1.64289	0	0	0	0	0	0	0	0	0	0	0	0	0.000000000	0	0.788798	-0.788798	0	0.828698	-1.5708	0.1	0.1	0.1	0.1	0.1	0.1	0	0	0	0	0	0	0.000000000
1504111125.274319887	0.00306796	0.711767	-0.82068	0.00920388	0.799204	-1.64289	0	0	0	0	0	0	0	0	0	0	0	0	0.000000000	0	0.788798	-0.788798	0	0.828698	-1.5708	0.1	0.1	0.1	0.1	0.1	0.1	0	0	0	0	0	0	0.000000000
1504111125.294689893	0.00306796	0.711767	-0.82068	0.00920388	0.800738	-1.64136	0	0	0	0	0	0	0	0	0	0	0	0	0.000000000	0	0.788798	-0.788798	0	0.828698	-1.5708	0.1	0.1	0.1	0.1	0.1	0.1	0	0	0	0	0	0	0.000000000
1504111125.314321041	0.00153398	0.711767	-0.82068	0.00920388	0.800738	-1.64136	0	0	0	0	0	0	0	0	0	0	0	0	0.000000000	0	0.788798	-0.788798	0	0.828698	-1.5708	0.1	0.1	0.1	0.1	0.1	0.1	0	0	0	0	0	0	0.000000000
1504111125.334364891	0.00153398	0.711767	-0.82068	0.00920388	0.800738	-1.64136	0	0	0	0	0	0	0	0	0	0	0	0	0.000000000	0	0.788798	-0.788798	0	0.828698	-1.5708	0.1	0.1	0.1	0.1	0.1	0.1	0	0	0	0	0	0	0.000000000
1504111125.354238033	0.00153398	0.711767	-0.82068	0.00920388	0.800738	-1.64136	0	0	0	0	0	0	0	0	0	0	0	0	0.000000000	0	0.788798	-0.788798	0	0.828698	-1.5708	0.1	0.1	0.1	0.1	0.1	0.1	0	0	0	0	0	0	0.000000000
1504111125.374222993	0.00153398	0.711767	-0.82068	0.00920388	0.800738	-1.64136	0	0	0	0	0	0	0	0	0	0	0	0	0.000000000	0	0.788798	-0.788798	0	0.828698	-1.5708	0.1	0.1	0.1	0.1	0.1	0.1	0	0	0	0	0	0	0.000000000
1504111125.394424915	0.00306796	0.713301	-0.82068	0.00920388	0.800738	-1.64136	0	0	0	0	0	0	0	0	0	0	0	0	0.000000000	0	0.788798	-0.788798	0	0.828698	-1.5708	0.1	0.1	0.1	0.1	0.1	0.1	0	0	0	0	0	0	0.000000000
1504111125.414380073	0.00153398	0.711767	-0.82068	0.00920388	0.800738	-1.64136	0	0	0	0	0	0	0	0	0	0	0	0	0.000000000	0	0.788798	-0.788798	0	0.828698	-1.5708	0.1	0.1	0.1	0.1	0.1	0.1	0	0	0	0	0	0	0.000000000
1504111125.434225082	0.00306796	0.711767	-0.82068	0.00920388	0.800738	-1.64136	0	0	0	0	0	0	0	0	0	0	0	0	0.000000000	0	0.788798	-0.788798	0	0.828698	-1.5708	0.1	0.1	0.1	0.1	0.1	0.1	0	0	0	0	0	0	0.000000000
1504111125.454485893	0.00306796	0.711767	-0.82068	0.00920388	0.799204	-1.64136	0	0	0	0	0	0	0	0	0	0	0	0	0.000000000	0	0.788798	-0.788798	0	0.828698	-1.5708	0.1	0.1	0.1	0.1	0.1	0.1	0	0	0	0	0	0	0.000000000
1504111125.474457025	0.00306796	0.711767	-0.82068	0.00920388	0.799204	-1.64136	0	0	0	0	0	0	0	0	0	0	0	0	0.000000000	0	0.788798	-0.788798	0	0.828698	-1.5708	0.1	0.1	0.1	0.1	0.1	0.1	0	0	0	0	0	0	0.000000000
1504111125.494488000	0.00306796	0.711767	-0.82068	0.00920388	0.800738	-1.64136	0	0	0	0	0	0	0	0	0	0	0	0	0.000000000	0	0.788798	-0.788798	0	0.828698	-1.5708	0.1	0.1	0.1	0.1	0.1	0.1	0	0	0	0	0	0	0.000000000
1504111125.514493942	0.00153398	0.711767	-0.82068	0.00920388	0.799204	-1.64136	0	0	0	0	0	0	0	0	0	0	0	0	0.000000000	0	0.788798	-0.788798	0	0.828698	-1.5708	0.1	0.1	0.1	0.1	0.1	0.1	0	0	0	0	0	0	0.000000000
1504111125.534271955	0.00306796	0.711767	-0.82068	0.00920388	0.799204	-1.64136	0	0	0	0	0	0	0	0	0	0	0	0	0.000000000	0	0.788798	-0.788798	0	0.828698	-1.5708	0.1	0.1	0.1	0.1	0.1	0.1	0	0	0	0	0	0	0.000000000
1504111125.554332971	0.00306796	0.711767	-0.82068	0.00920388	0.800738	-1.64136	0	0	0	0	0	0	0	0	0	0	0	0	0.000000000	0	0.788798	-0.788798	0	0.828698	-1.5708	0.1	0.1	0.1	0.1	0.1	0.1	0	0	0	0	0	0	0.000000000
1504111125.574327945	0.00306796	0.711767	-0.82068	0.00920388	0.800738	-1.64136	0	0	0	0	0	0	0	0	0	0	0	0	0.000000000	0	0.788798	-0.788798	0	0.828698	-1.5708	0.1	0.1	0.1	0.1	0.1	0.1	0	0	0	0	0	0	0.000000000
1504111125.594340085	0.00153398	0.711767	-0.82068	0.00920388	0.800738	-1.64136	0	0	0	0	0	0	0	0	0	0	0	0	0.000000000	0	0.788798	-0.788798	0	0.828698	-1.5708	0.1	0.1	0.1	0.1	0.1	0.1	0	0	0	0	0	0	0.000000000
1504111125.614399909	0.00306796	0.711767	-0.82068	0.00920388	0.800738	-1.64136	0	0	0	0	0	0	0	0	0	0	0	0	0.000000000	0	0.788798	-0.788798	0	0.828698	-1.5708	0.1	0.1	0.1	0.1	0.1	0.1	0	0	0	0	0	0	0.000000000
1504111125.634299039	0.00153398	0.713301	-0.82068	0.00920388	0.800738	-1.64136	0	0	0	0	0	0	0	0	0	0	0	0	0.000000000	0	0.788798	-0.788798	0	0.828698	-1.5708	0.1	0.1	0.1	0.1	0.1	0.1	0	0	0	0	0	0	0.000000000
1504111125.654267072	0.00306796	0.711767	-0.82068	0.00920388	0.799204	-1.64136	0	0	0	0	0	0	0	0	0	0	0	0	0.000000000	0	0.788798	-0.788798	0	0.828698	-1.5708	0.1	0.1	0.1	0.1	0.1	0.1	0	0	0	0	0	0	0.000000000
1504111125.674341917	0.00306796	0.711767	-0.82068	0.00920388	0.799204	-1.64136	0	0	0	0	0	0	0	0	0	0	0	0	0.000000000	0	0.788798	-0.788798	0	0.828698	-1.5708	0.1	0.1	0.1	0.1	0.1	0.1	0	0	0	0	0	0	0.000000000
1504111125.695594072	0.00306796	0.711767	-0.82068	0.00920388	0.799204	-1.64136	0	0	0	0	0	0	0	0	0	0	0	0	0.000000000	0	0.788798	-0.788798	0	0.828698	-1.5708	0.1	0.1	0.1	0.1	0.1	0.1	0	0	0	0	0	0	0.000000000
1504111125.714469909	0.00306796	0.711767	-0.82068	0.00920388	0.799204	-1.64136	0	0	0	0	0	0	0	0	0	0	0	0	0.000000000	0	0.788798	-0.788798	0	0.828698	-1.5708	0.1	0.1	0.1	0.1	0.1	0.1	0	0	0	0	0	0	0.000000000
1504111125.735640048	0.00153398	0.711767	-0.82068	0.00920388	0.800738	-1.64289	0	0	0	0	0	0	0	0	0	0	0	0	0.000000000	0	0.788798	-0.788798	0	0.828698	-1.5708	0.1	0.1	0.1	0.1	0.1	0.1	0	0	0	0	0	0	0.000000000
1504111125.755274057	0.00153398	0.711767	-0.82068	0.00920388	0.800738	-1.64289	0	0	0	0	0	0	0	0	0	0	0	0	0.000000000	0	0.788798	-0.788798	0	0.828698	-1.5708	0.1	0.1	0.1	0.1	0.1	0.1	0	0	0	0	0	0	0.000000000
1504111125.774601936	0.00153398	0.711767	-0.82068	0.00920388	0.800738	-1.64136	0	0	0	0	0	0	0	0	0	0	0	0	0.000000000	0	0.788798	-0.788798	0	0.828698	-1.5708	0.1	0.1	0.1	0.1	0.1	0.1	0	0	0	0	0	0	0.000000000
1504111125.794465065	0.00306796	0.711767	-0.82068	0.00920388	0.800738	-1.64136	0	0	0	0	0	0	0	0	0	0	0	0	0.000000000	0	0.788798	-0.788798	0	0.828698	-1.5708	0.1	0.1	0.1	0.1	0.1	0.1	0	0	0	0	0	0	0.000000000
1504111125.815092086	0.00306796	0.711767	-0.82068	0.00920388	0.800738	-1.64136	0	0	0	0	0	0	0	0	0	0	0	0	0.000000000	0	0.788798	-0.788798	0	0.828698	-1.5708	0.1	0.1	0.1	0.1	0.1	0.1	0	0	0	0	0	0	0.000000000
1504111125.834553003	0.00306796	0.713301	-0.82068	0.00920388	0.800738	-1.64136	0	0	0	0	0	0	0	0	0	0	0	0	0.000000000	0	0.788798	-0.788798	0	0.828698	-1.5708	0.1	0.1	0.1	0.1	0.1	0.1	0	0	0	0	0	0	0.000000000
1504111125.854257106	0.00306796	0.711767	-0.82068	0.00920388	0.800738	-1.64136	0	0	0	0	0	0	0	0	0	0	0	0	0.000000000	0	0.788798	-0.788798	0	0.828698	-1.5708	0.1	0.1	0.1	0.1	0.1	0.1	0	0	0	0	0	0	0.000000000
1504111125.874279975	0.00306796	0.711767	-0.82068	0.00920388	0.800738	-1.64136	0	0	0	0	0	0	0	0	0	0	0	0	0.000000000	0	0.788798	-0.788798	0	0.828698	-1.5708	0.1	0.1	0.1	0.1	0.1	0.1	0	0	0	0	0	0	0.000000000
1504111125.894867897	0.00153398	0.711767	-0.82068	0.00920388	0.800738	-1.64136	0	0	0	0	0	0	0	0	0	0	0	0	0.000000000	0	0.788798	-0.788798	0	0.828698	-1.5708	0.1	0.1	0.1	0.1	0.1	0.1	0	0	0	0	0	0	0.000000000
1504111125.914345026	0.00306796	0.711767	-0.82068	0.00920388	0.800738	-1.64136	0	0	0	0	0	0	0	0	0	0	0	0	0.000000000	0	0.788798	-0.788798	0	0.828698	-1.5708	0.1	0.1	0.1	0.1	0.1	0.1	0	0	0	0	0	0	0.000000000
1504111125.934254884	0.00306796	0.711767	-0.82068	0.00920388	0.800738	-1.64136	0	0	0	0	0	0	0	0	0	0	0	0	0.000000000	0	0.788798	-0.788798	0	0.828698	-1.5708	0.1	0.1	0.1	0.1	0.1	0.1	0	0	0	0	0	0	0.000000000
1504111125.954238891	0.00306796	0.711767	-0.82068	0.00920388	0.800738	-1.64136	0	0	0	0	0	0	0	0	0	0	0	0	0.000000000	0	0.788798	-0.788798	0	0.828698	-1.5708	0.1	0.1	0.1	0.1	0.1	0.1	0	0	0	0	0	0	0.000000000
1504111125.976445913	0.00306796	0.711767	-0.82068	0.00920388	0.800738	-1.64136	0	0	0	0	0	0	0	0	0	0	0	0	0.000000000	0	0.788798	-0.788798	0	0.828698	-1.5708	0.1	0.1	0.1	0.1	0.1	0.1	0	0	0	0	0	0	0.000000000
1504111125.994221925	0.00306796	0.711767	-0.82068	0.00920388	0.800738	-1.64136	0	0	0	0	0	0	0	0	0	0	0	0	0.000000000	0	0.788798	-0.788798	0	0.828698	-1.5708	0.1	0.1	0.1	0.1	0.1	0.1	0	0	0	0	0	0	0.000000000
1504111126.014225006	0.00306796	0.711767	-0.82068	0.00920388	0.800738	-1.64136	0	0	0	0	0	0	0	0	0	0	0	0	0.000000000	0	0.788798	-0.788798	0	0.828698	-1.5708	0.1	0.1	0.1	0.1	0.1	0.1	0	0	0	0	0	0	0.000000000
1504111126.034984111	0.00306796	0.711767	-0.82068	0.00920388	0.800738	-1.64136	0	0	0	0	0	0	0	0	0	0	0	0	0.000000000	0	0.788798	-0.788798	0	0.828698	-1.5708	0.1	0.1	0.1	0.1	0.1	0.1	0	0	0	0	0	0	0.000000000
1504111126.054415941	0.00306796	0.711767	-0.82068	0.00920388	0.800738	-1.64136	0	0	0	0	0	0	0	0	0	0	0	0	0.000000000	-0.000288926	0.788798	-0.788798	-0.000860441	0.828698	-1.5708	0.1	0.1	0.1	0.1	0.1	0.1	0	0	0	0	0	0	0.000000000
1504111126.074218034	0.00153398	0.711767	-0.82068	0.00920388	0.800738	-1.64136	0	0	0	0	0	0	0	0	0	0	0	0	0.000000000	-0.000288926	0.788798	-0.788798	-0.000860441	0.828698	-1.5708	0.1	0.1	0.1	0.1	0.1	0.1	0	0	0	0	0	0	0.000000000
1504111126.094434022	0.00306796	0.711767	-0.82068	0.00920388	0.800738	-1.64136	0	0	0	0	0	0	0	0	0	0	0	0	0.000000000	-0.000674305	0.788798	-0.788798	-0.00200812	0.828698	-1.5708	0.1	0.1	0.1	0.1	0.1	0.1	0	0	0	0	0	0	0.000000000
1504111126.114249944	0.00153398	0.713301	-0.82068	0.00920388	0.800738	-1.64136	0	0	0	0	0	0	0	0	0	0	0	0	0.000000000	-0.000674305	0.788798	-0.788798	-0.00200812	0.828698	-1.5708	0.1	0.1	0.1	0.1	0.1	0.1	0	0	0	0	0	0	0.000000000
1504111126.134222030	0.00153398	0.711767	-0.82068	0.00920388	0.800738	-1.64136	0	0	0	0	0	0	0	0	0	0	0	0	0.000000000	-0.000674305	0.788798	-0.788798	-0.00200812	0.828698	-1.5708	0.1	0.1	0.1	0.1	0.1	0.1	0	0	0	0	0	0	0.000000000
1504111126.154179096	0.00153398	0.711767	-0.82068	0.00920388	0.799204	-1.64136	0	0	0	0	0	0	0	0	0	0	0	0	0.000000000	-0.00129655	0.788798	-0.788798	-0.00386122	0.828698	-1.5708	0.1	0.1	0.1	0.1	0.1	0.1	0	0	0	0	0	0	0.000000000
1504111126.174240112	0.00153398	0.711767	-0.82068	0.00920388	0.799204	-1.64136	0	0	0	0	0	0	0	0	0	0	0	0	0.000000000	-0.00129655	0.788798	-0.788798	-0.00386122	0.828698	-1.5708	0.1	0.1	0.1	0.1	0.1	0.1	0	0	0	0	0	0	0.000000000
1504111126.194576978	0.00306796	0.713301	-0.82068	0.00920388	0.800738	-1.64136	0	0	0	0	0	0	0	0	0	0	0	0	0.000000000	-0.00220541	0.788798	-0.788798	-0.00656784	0.828698	-1.5708	0.1	0.1	0.1	0.1	0.1	0.1	0	0	0	0	0	0	0.000000000
1504111126.214653968	0.00153398	0.711767	-0.82068	0.0076699	0.800738	-1.64136	0	0	0	0	0	0	0	0	0	0	0	0	0.000000000	-0.00220541	0.788798	-0.788798	-0.00656784	0.828698	-1.5708	0.1	0.1	0.1	0.1	0.1	0.1	0	0	0	0	0	0	0.000000000
1504111126.234339952	0.00153398	0.711767	-0.82068	0.0076699	0.800738	-1.64136	0	0	0	0	0	0	0	0	0	0	0	0	0.000000000	-0.00220541	0.788798	-0.788798	-0.00656784	0.828698	-1.5708	0.1	0.1	0.1	0.1	0.1	0.1	0	0	0	0	0	0	0.000000000
1504111126.257349967	0.00306796	0.711767	-0.82068	0.00460194	0.799204	-1.64136	0	0	0	0.155195	0	0	0	0	0	0	0	0	0.000000000	-0.00344693	0.788798	-0.788798	-0.0102652	0.828698	-1.5708	0.1	0.1	0.1	0.1	0.1	0.1	0	0	0	0	0	0	0.000000000
1504111126.274377107	0.00306796	0.711767	-0.82068	0.00306796	0.800738	-1.64136	0	0	0	0.107442	0	0	0	0	0	0	0	0	0.000000000	-0.00344693	0.788798	-0.788798	-0.0102652	0.828698	-1.5708	0.1	0.1	0.1	0.1	0.1	0.1	0	0	0	0	0	0	0.000000000
1504111126.295212030	0.00306796	0.711767	-0.82068	0.00153398	0.800738	-1.64136	0	0	0	0	0	0	0	0	0	0	0	0	0.000000000	-0.00506363	0.788798	-0.788798	-0.0150798	0.828698	-1.5708	0.1	0.1	0.1	0.1	0.1	0.1	0	0	0	0	0	0	0.000000000
1504111126.314388036	0.00306796	0.711767	-0.82068	0	0.800738	-1.64289	0	0	0	0	0	0	0	0	0	0	0	0	0.000000000	-0.00506363	0.788798	-0.788798	-0.0150798	0.828698	-1.5708	0.1	0.1	0.1	0.1	0.1	0.1	0	0	0	0	0	0	0.000000000
1504111126.334777116	0.00306796	0.711767	-0.82068	0	0.800738	-1.64289	0	0	0	0	0	0	0	0	0	0	0	0	0.000000000	-0.00506363	0.788798	-0.788798	-0.0150798	0.828698	-1.5708	0.1	0.1	0.1	0.1	0.1	0.1	0	0	0	0	0	0	0.000000000
1504111126.354615926	0.00306796	0.711767	-0.82068	-0.00153398	0.800738	-1.64136	0	0	0	0	0	0	0	0	0	0	0	0	0.000000000	-0.00709448	0.788798	-0.788798	-0.0211278	0.828698	-1.5708	0.1	0.1	0.1	0.119751	0.1	0.1	0	0	0	0	0	0	0.000000000
1504111126.374573945	0.00306796	0.711767	-0.82068	-0.00153398	0.800738	-1.64136	0	0	0	0	0	0	0	0	0	0	0	0	0.000000000	-0.00709448	0.788798	-0.788798	-0.0211278	0.828698	-1.5708	0.1	0.1	0.1	0.119751	0.1	0.1	0	0	0	0	0	0	0.000000000
1504111126.394399881	0.00153398	0.711767	-0.82068	-0.00460194	0.800738	-1.64136	0	0	0	0.107442	0	0	0	0	0	0	0	0	0.000000000	-0.00957507	0.788798	-0.788798	-0.0285152	0.828698	-1.5708	0.1	0.1	0.1	0.14627	0.1	0.1	0	0	0	0	0	0	0.000000000
1504111126.414370059	0.00153398	0.711767	-0.82068	-0.0076699	0.799204	-1.64136	0	0	0	0.107442	0	0	0	0	0	0	0	0	0.000000000	-0.00957507	0.788798	-0.788798	-0.0285152	0.828698	-1.5708	0.1	0.1	0.1	0.14627	0.1	0.1	0	0	0	0	0	0	0.000000000
1504111126.435348987	0	0.713301	-0.82068	-0.0107379	0.800738	-1.64136	0	0	0	0.107442	0	0	0	0	0	0	0	0	0.000000000	-0.00957507	0.788798	-0.788798	-0.0285152	0.828698	-1.5708	0.1	0.1	0.1	0.14627	0.1	0.1	0	0	0	0	0	0	0.000000000
1504111126.454466104	0	0.713301	-0.82068	-0.0107379	0.800738	-1.64136	0	0	0	0.107442	0	0	0	0	0	0	0	0	0.000000000	-0.0125376	0.788798	-0.788798	-0.0373379	0.828698	-1.5708	0.1	0.1	0.1	0.17469	0.1	0.1	0	0	0	0	0	0	0.000000000
1504111126.474782943	-0.00613592	0.711767	-0.82068	-0.0153398	0.800738	-1.64136	0.107442	0	0	0.155195	0	0	0	0	0	0	0	0	0.000000000	-0.0125376	0.788798	-0.788798	-0.0373379	0.828698	-1.5708	0.1	0.1	0.1	0.17469	0.1	0.1	0	0	0	0	0	0	0.000000000
1504111126.494663000	-0.00920388	0.711767	-0.82068	-0.0214757	0.800738	-1.64136	0.155195	0	0	0.202947	0	0	0	0	0	0	0	0	0.000000000	-0.0160112	0.788798	-0.788798	-0.0476824	0.828698	-1.5708	0.1	0.1	0.1	0.20482	0.1	0.1	0	0	0	0	0	0	0.000000000
1504111126.514516115	-0.00920388	0.711767	-0.82068	-0.0214757	0.800738	-1.64136	0.155195	0	0	0.202947	0	0	0	0	0	0	0	0	0.000000000	-0.0160112	0.788798	-0.788798	-0.0476824	0.828698	-1.5708	0.1	0.1	0.1	0.20482	0.1	0.1	0	0	0	0	0	0	0.000000000
1504111126.534396886	-0.0107379	0.711767	-0.82068	-0.0245437	0.800738	-1.64136	0	0	0	0.155195	0	0	0	0	0	0	0	0	0.000000000	-0.0160112	0.788798	-0.788798	-0.0476824	0.828698	-1.5708	0.1	0.1	0.1	0.20482	0.1	0.1	0	0	0	0	0	0	0.000000000
1504111126.554373025	-0.00920388	0.711767	-0.82068	-0.0306796	0.800738	-1.64136	0	0	0	0.202947	0	0	0	0	0	0	0	0	0.000000000	-0.0200215	0.788798	-0.788798	-0.0596254	0.828698	-1.5708	0.1	0.1	0.1	0.236473	0.1	0.1	0	0	0	0	0	0	0.000000000
1504111126.574513912	-0.0107379	0.711767	-0.82068	-0.0368155	0.800738	-1.64136	0	0	0	0.202947	0	0	0	0	0	0	0	0	0.000000000	-0.0200215	0.788798	-0.788798	-0.0596254	0.828698	-1.5708	0.1	0.1	0.1	0.236473	0.1	0.1	0	0	0	0	0	0	0.000000000
1504111126.594955921	-0.0107379	0.711767	-0.82068	-0.0398835	0.800738	-1.64136	0	0	0	0.202947	0	0	0	0	0	0	0	0	0.000000000	-0.0245914	0.788798	-0.788798	-0.0732348	0.828698	-1.5708	0.1	0.1	0.1	0.269466	0.1	0.1	0	0	0	0	0	0	0.000000000
1504111126.614553928	-0.0107379	0.711767	-0.82068	-0.0444854	0.799204	-1.64136	0	0	0	0.202947	0	0	0	0	0	0	0	0	0.000000000	-0.0245914	0.788798	-0.788798	-0.0732348	0.828698	-1.5708	0.1	0.1	0.1	0.269466	0.1	0.1	0	0	0	0	0	0	0.000000000
1504111126.634351015	-0.0107379	0.711767	-0.82068	-0.0444854	0.799204	-1.64136	0	0	0	0.202947	0	0	0	0	0	0	0	0	0.000000000	-0.0245914	0.788798	-0.788798	-0.0732348	0.828698	-1.5708	0.1	0.1	0.1	0.269466	0.1	0.1	0	0	0	0	0	0	0.000000000
1504111126.654609918	-0.0153398	0.711767	-0.82068	-0.0506214	0.800738	-1.64136	0.155195	0	0	0.250699	0	0	0	0	0	0	0	0	0.000000000	-0.0297406	0.788798	-0.788798	-0.0885693	0.828698	-1.5708	0.101953	0.1	0.1	0.303623	0.1	0.1	0	0	0	0	0	0	0.000000000
1504111126.674551963	-0.0214757	0.711767	-0.82068	-0.0582913	0.800738	-1.64289	0.155195	0	0	0.250699	0	0	0	0	0	0	0	0	0.000000000	-0.0297406	0.788798	-0.788798	-0.0885693	0.828698	-1.5708	0.101953	0.1	0.1	0.303623	0.1	0.1	0	0	0	0	0	0	0.000000000
1504111126.694360017	-0.0214757	0.711767	-0.82068	-0.0674952	0.800738	-1.64136	0	0	0	0.250699	0	0	0	0	0	0	0	0	0.000000000	-0.0297406	0.788798	-0.788798	-0.0885693	0.828698	-1.5708	0.101953	0.1	0.1	0.303623	0.1	0.1	0	0	0	0	0	0	0.000000000
1504111126.714323043	-0.0230097	0.713301	-0.82068	-0.0720971	0.800738	-1.64136	0	0	0	0.298451	0	0	0	0	0	0	0	0	0.000000000	-0.0354858	0.788798	-0.788798	-0.105679	0.828698	-1.5708	0.113756	0.1	0.1	0.338771	0.1	0.1	0	0	0	0	0	0	0.000000000
1504111126.734244108	-0.0230097	0.713301	-0.82068	-0.079767	0.800738	-1.64136	0	0	0	0.298451	0	0	0	0	0	0	0	0	0.000000000	-0.0354858	0.788798	-0.788798	-0.105679	0.828698	-1.5708	0.113756	0.1	0.1	0.338771	0.1	0.1	0	0	0	0	0	0	0.000000000
1504111126.754368066	-0.0260777	0.711767	-0.82068	-0.0874369	0.800738	-1.64136	0	0	0	0.298451	0	0	0	0	0	0	0	0	0.000000000	-0.0418411	0.788798	-0.788798	-0.124605	0.828698	-1.5708	0.125834	0.1	0.1	0.374743	0.1	0.1	0	0	0	0	0	0	0.000000000
1504111126.774234056	-0.0260777	0.711767	-0.82068	-0.0874369	0.800738	-1.64289	0	0	0	0.298451	0	0	0	0	0	0	0	0	0.000000000	-0.0418411	0.788798	-0.788798	-0.124605	0.828698	-1.5708	0.125834	0.1	0.1	0.374743	0.1	0.1	0	0	0	0	0	0	0.000000000
1504111126.794333934	-0.0322136	0.711767	-0.82068	-0.0966408	0.800738	-1.64136	0.202947	0	0	0.346204	0	0	0	0	0	0	0	0	0.000000000	-0.0418411	0.788798	-0.788798	-0.124605	0.828698	-1.5708	0.125834	0.1	0.1	0.374743	0.1	0.1	0	0	0	0	0	0	0.000000000
1504111126.814536094	-0.0352816	0.711767	-0.82068	-0.107379	0.799204	-1.64136	0.155195	0	0	0.393956	0	0	0	0	0	0	0	0	0.000000000	-0.0488176	0.788798	-0.788798	-0.145382	0.828698	-1.5708	0.138135	0.1	0.1	0.411376	0.1	0.1	0	0	0	0	0	0	0.000000000
1504111126.834305047	-0.0398835	0.711767	-0.82068	-0.118117	0.799204	-1.64136	0.155195	0	0	0.393956	0	0	0	0	0	0	0	0	0.000000000	-0.0488176	0.788798	-0.788798	-0.145382	0.828698	-1.5708	0.138135	0.1	0.1	0.411376	0.1	0.1	0	0	0	0	0	0	0.000000000
1504111126.854546070	-0.0398835	0.711767	-0.82068	-0.118117	0.799204	-1.64136	0.155195	0	0	0.393956	0	0	0	0	0	0	0	0	0.000000000	-0.0564239	0.788798	-0.788798	-0.168034	0.828698	-1.5708	0.150606	0.1	0.1	0.448514	0.1	0.1	0	0	0	0	0	0	0.000000000
1504111126.874454975	-0.0444854	0.711767	-0.82068	-0.128854	0.800738	-1.64136	0.202947	0	0	0.346204	0	0	0	0	0	0	0	0	0.000000000	-0.0564239	0.788798	-0.788798	-0.168034	0.828698	-1.5708	0.150606	0.1	0.1	0.448514	0.1	0.1	0	0	0	0	0	0	0.000000000
1504111126.894371986	-0.0475534	0.711767	-0.82068	-0.139592	0.800738	-1.64289	0.155195	0	0	0.393956	0	0	0	0	0	0	0	0	0.000000000	-0.0564239	0.788798	-0.788798	-0.168034	0.828698	-1.5708	0.150606	0.1	0.1	0.448514	0.1	0.1	0	0	0	0	0	0	0.000000000
1504111126.914381980	-0.0506214	0.711767	-0.82068	-0.15033	0.800738	-1.64136	0	0	0	0.441708	0	0	0	0	0	0	0	0	0.000000000	-0.064666	0.788798	-0.788798	-0.19258	0.828698	-1.5708	0.163194	0.1	0.1	0.486001	0.1	0.1	0	0	0	0	0	0	0.000000000
1504111126.934456110	-0.0506214	0.711767	-0.82068	-0.15033	0.800738	-1.64136	0	0	0	0.441708	0	0	0	0	0	0	0	0	0.000000000	-0.064666	0.788798	-0.788798	-0.19258	0.828698	-1.5708	0.163194	0.1	0.1	0.486001	0.1	0.1	0	0	0	0	0	0	0.000000000
1504111126.954451084	-0.0521553	0.713301	-0.82068	-0.161068	0.800738	-1.64136	0	0	0	0.393956	0	0	0	0	0	0	0	0	0.000000000	-0.0735473	0.788798	-0.788798	-0.219029	0.828698	-1.5708	0.175849	0.1	0.1	0.523691	0.1	0.1	0	0	0	0	0	0	0.000000000
1504111126.974601984	-0.0567573	0.711767	-0.82068	-0.171806	0.799204	-1.64136	0.155195	0	0	0.393956	0	0	0	0	0	0	0	0	0.000000000	-0.0735473	0.788798	-0.788798	-0.219029	0.828698	-1.5708	0.175849	0.1	0.1	0.523691	0.1	0.1	0	0	0	0	0	0	0.000000000
1504111126.994329929	-0.0598253	0.711767	-0.82068	-0.184078	0.799204	-1.64136	0.155195	0	0	0.48946	0	0	0	0	0	0	0	0	0.000000000	-0.0735473	0.788798	-0.788798	-0.219029	0.828698	-1.5708	0.175849	0.1	0.1	0.523691	0.1	0.1	0	0	0	0	0	0	0.000000000
1504111127.014359951	-0.0644272	0.713301	-0.82068	-0.19635	0.800738	-1.64136	0.202947	0	0	0.48946	0	0	0	0	0	0	0	0	0.000000000	-0.0830688	0.788798	-0.788798	-0.247384	0.828698	-1.5708	0.188525	0.1	0.1	0.561439	0.1	0.1	0	0	0	0	0	0	0.000000000
1504111127.035202026	-0.0705631	0.711767	-0.82068	-0.19635	0.800738	-1.64136	0.202947	0	0	0.48946	0	0	0	0	0	0	0	0	0.000000000	-0.0830688	0.788798	-0.788798	-0.247384	0.828698	-1.5708	0.188525	0.1	0.1	0.561439	0.1	0.1	0	0	0	0	0	0	0.000000000
1504111127.054373979	-0.0705631	0.711767	-0.82068	-0.210155	0.800738	-1.64136	0.202947	0	0	0.48946	0	0	0	0	0	0	0	0	0.000000000	-0.0932292	0.788798	-0.788798	-0.277642	0.828698	-1.5708	0.201175	0.1	0.1	0.599112	0.1	0.1	0	0	0	0	0	0	0.000000000
1504111127.074804067	-0.076699	0.711767	-0.82068	-0.223961	0.800738	-1.64136	0.250699	0	0	0.48946	0	0	0	0	0	0	0	0	0.000000000	-0.0932292	0.788798	-0.788798	-0.277642	0.828698	-1.5708	0.201175	0.1	0.1	0.599112	0.1	0.1	0	0	0	0	0	0	0.000000000
1504111127.094352960	-0.082835	0.711767	-0.82068	-0.237767	0.800738	-1.64136	0.298451	0	0	0.48946	0	0	0	0	0	0	0	0	0.000000000	-0.0932292	0.788798	-0.788798	-0.277642	0.828698	-1.5708	0.201175	0.1	0.1	0.599112	0.1	0.1	0	0	0	0	0	0	0.000000000
1504111127.114464044	-0.082835	0.713301	-0.82068	-0.251573	0.800738	-1.64136	0	0	0	0.48946	0	0	0	0	0	0	0	0	0.000000000	-0.104025	0.788798	-0.788798	-0.309792	0.828698	-1.5708	0.213753	0.1	0.1	0.63657	0.1	0.1	0	0	0	0	0	0	0.000000000
1504111127.136457920	-0.0889709	0.713301	-0.82068	-0.266913	0.800738	-1.64136	0.202947	0	0	0.584965	0	0	0	0	0	0	0	0	0.000000000	-0.104025	0.788798	-0.788798	-0.309792	0.828698	-1.5708	0.213753	0.1	0.1	0.63657	0.1	0.1	0	0	0	0	0	0	0.000000000
1504111127.154340982	-0.0889709	0.713301	-0.82068	-0.266913	0.800738	-1.64136	0.202947	0	0	0.584965	0	0	0	0	0	0	0	0	0.000000000	-0.11545	0.788798	-0.788798	-0.343817	0.828698	-1.5708	0.226216	0.1	0.1	0.673688	0.1	0.1	0	0	0	0	0	0	0.000000000
1504111127.174289941	-0.0951068	0.711767	-0.82068	-0.282252	0.800738	-1.64136	0.298451	0	0	0.584965	0	0	0	0	0	0	0	0	0.000000000	-0.11545	0.788798	-0.788798	-0.343817	0.828698	-1.5708	0.226216	0.1	0.1	0.673688	0.1	0.1	0	0	0	0	0	0	0.000000000
1504111127.194504022	-0.0981748	0.713301	-0.82068	-0.297592	0.800738	-1.64289	0.202947	0	0	0.584965	0	0	0	0	0	0	0	0	0.000000000	-0.11545	0.788798	-0.788798	-0.343817	0.828698	-1.5708	0.226216	0.1	0.1	0.673688	0.1	0.1	0	0	0	0	0	0	0.000000000
1504111127.214587926	-0.102777	0.713301	-0.82068	-0.314466	0.800738	-1.64136	0.155195	0	0	0.632717	0	0	0	0	0	0	0	0	0.000000000	-0.127496	0.788798	-0.788798	-0.379693	0.828698	-1.5708	0.238524	0.1	0.1	0.71034	0.1	0.1	0	0	0	0	0	0	0.000000000
1504111127.234500885	-0.111981	0.713301	-0.82068	-0.334408	0.800738	-1.64136	0.298451	0	0	0.680469	0	0	0	0	0	0	0	0	0.000000000	-0.127496	0.788798	-0.788798	-0.379693	0.828698	-1.5708	0.238524	0.1	0.1	0.71034	0.1	0.1	0	0	0	0	0	0	0.000000000
1504111127.254443883	-0.111981	0.713301	-0.82068	-0.334408	0.800738	-1.64136	0.298451	0	0	0.680469	0	0	0	0	0	0	0	0	0.000000000	-0.140155	0.788798	-0.788798	-0.41739	0.828698	-1.5708	0.250636	0.1	0.1	0.746409	0.1	0.1	0	0	0	0	0	0	0.000000000
1504111127.274630069	-0.115049	0.711767	-0.82068	-0.349748	0.800738	-1.64136	0.155195	0	0	0.584965	0	0	0	0	0	0	0	0	0.000000000	-0.140155	0.788798	-0.788798	-0.41739	0.828698	-1.5708	0.250636	0.1	0.1	0.746409	0.1	0.1	0	0	0	0	0	0	0.000000000
1504111127.294303894	-0.118117	0.711767	-0.82068	-0.366621	0.800738	-1.64289	0	0	0	0.632717	0	0	0	0	0	0	0	0	0.000000000	-0.140155	0.788798	-0.788798	-0.41739	0.828698	-1.5708	0.250636	0.1	0.1	0.746409	0.1	0.1	0	0	0	0	0	0	0.000000000
1504111127.314462900	-0.125786	0.711767	-0.82068	-0.385029	0.800738	-1.64136	0.250699	0	0	0.632717	0	0	0	0	0	0	0	0	0.000000000	-0.153413	0.788798	-0.788798	-0.456874	0.828698	-1.5708	0.262513	0.1	0.1	0.781781	0.1	0.1	0	0	0	0	0	0	0.000000000
1504111127.335298061	-0.133456	0.713301	-0.82068	-0.404971	0.800738	-1.64289	0.298451	0	0	0.728221	0	0	0	0	0	0	0	0	0.000000000	-0.153413	0.788798	-0.788798	-0.456874	0.828698	-1.5708	0.262513	0.1	0.1	0.781781	0.1	0.1	0	0	0	0	0	0	0.000000000
1504111127.354914903	-0.133456	0.713301	-0.82068	-0.404971	0.800738	-1.64289	0.298451	0	0	0.728221	0	0	0	0	0	0	0	0	0.000000000	-0.167257	0.788798	-0.788798	-0.498104	0.828698	-1.5708	0.274119	0.1	0.1	0.816346	0.1	0.1	0	0	0	0	0	0	0.000000000
1504111127.374605894	-0.141126	0.713301	-0.82068	-0.426447	0.802272	-1.64136	0.298451	0	0	0.728221	0	0	0	0	0	0	0	0	0.000000000	-0.167257	0.788798	-0.788798	-0.498104	0.828698	-1.5708	0.274119	0.1	0.1	0.816346	0.1	0.1	0	0	0	0	0	0	0.000000000
1504111127.396367073	-0.147262	0.713301	-0.82068	-0.44332	0.800738	-1.64136	0.298451	0	0	0.728221	0	0	0	0	0	0	0	0	0.000000000	-0.167257	0.788798	-0.788798	-0.498104	0.828698	-1.5708	0.274119	0.1	0.1	0.816346	0.1	0.1	0	0	0	0	0	0	0.000000000
1504111127.414423942	-0.156466	0.711767	-0.82068	-0.463262	0.802272	-1.64136	0.346204	0	0	0.728221	0	0	0	0	0	0	0	0	0.000000000	-0.181673	0.788798	-0.788798	-0.541033	0.828698	-1.5708	0.28542	0.1	0.1	0.849998	0.1	0.1	0	0	0	0	0	0	0.000000000
1504111127.434467077	-0.156466	0.711767	-0.82068	-0.463262	0.802272	-1.64136	0.346204	0	0	0.728221	0	0	0	0	0	0	0	0	0.000000000	-0.181673	0.788798	-0.788798	-0.541033	0.828698	-1.5708	0.28542	0.1	0.1	0.849998	0.1	0.1	0	0	0	0	0	0	0.000000000
1504111127.454472064	-0.159534	0.713301	-0.82068	-0.486272	0.802272	-1.64136	0.107442	0	0	0.775973	0	0	0	0	0	0	0	0	0.000000000	-0.196641	0.788798	-0.788798	-0.585611	0.828698	-1.5708	0.296381	0.1	0.1	0.882641	0.1	0.1	0	0	0	0	0	0	0.000000000
1504111127.474495887	-0.164136	0.711767	-0.82068	-0.506214	0.802272	-1.64136	0.155195	0	0	0.728221	0	0	0	0	0	0	0	0	0.000000000	-0.196641	0.788798	-0.788798	-0.585611	0.828698	-1.5708	0.296381	0.1	0.1	0.882641	0.1	0.1	0	0	0	0	0	0	0.000000000
1504111127.495675086	-0.171806	0.713301	-0.82068	-0.527689	0.802272	-1.64136	0.298451	0	0	0.823726	0	0	0	0	0	0	0	0	0.000000000	-0.196641	0.788798	-0.788798	-0.585611	0.828698	-1.5708	0.296381	0.1	0.1	0.882641	0.1	0.1	0	0	0	0	0	0	0.000000000
1504111127.515166997	-0.179476	0.713301	-0.82068	-0.547631	0.802272	-1.64136	0.298451	0	0	0.728221	0	0	0	0	0	0	0	0	0.000000000	-0.212145	0.788798	-0.788798	-0.631781	0.828698	-1.5708	0.306971	0.1	0.1	0.914179	0.1	0.1	0	0	0	0	0	0	0.000000000
1504111127.536427974	-0.187146	0.713301	-0.82068	-0.569107	0.803806	-1.64136	0.250699	0	0	0.775973	0	0	0	0	0	0	0	0	0.000000000	-0.212145	0.788798	-0.788798	-0.631781	0.828698	-1.5708	0.306971	0.1	0.1	0.914179	0.1	0.1	0	0	0	0	0	0	0.000000000
1504111127.554558992	-0.187146	0.713301	-0.82068	-0.569107	0.803806	-1.64136	0.250699	0	0	0.775973	0	0	0	0	0	0	0	0	0.000000000	-0.228163	0.788798	-0.788798	-0.679484	0.828698	-1.5708	0.317159	0.1	0.1	0.944521	0.1	0.1	0	0	0	0	0	0	0.000000000
1504111127.574351072	-0.197884	0.713301	-0.82068	-0.590583	0.803806	-1.64289	0.393956	0	0	0.871478	0	0	0	0	0	0	0	0	0.000000000	-0.228163	0.788798	-0.788798	-0.679484	0.828698	-1.5708	0.317159	0.1	0.1	0.944521	0.1	0.1	0	0	0	0	0	0	0.000000000
1504111127.594377994	-0.207087	0.713301	-0.82068	-0.615126	0.803806	-1.64136	0.393956	0	0	0.91923	0	0	0	0	0	0	0	0	0.000000000	-0.228163	0.788798	-0.788798	-0.679484	0.828698	-1.5708	0.317159	0.1	0.1	0.944521	0.1	0.1	0	0	0	0	0	0	0.000000000
1504111127.614485979	-0.214757	0.714835	-0.819146	-0.638136	0.803806	-1.64136	0.346204	0	0	0.871478	0	0	0	0	0	0	0	0	0.000000000	-0.244674	0.788798	-0.788798	-0.728655	0.828698	-1.5708	0.326918	0.1	0.1	0.973583	0.1	0.1	0	0	0	0	0	0	0.000000000
1504111127.635988950	-0.220893	0.714835	-0.82068	-0.66268	0.803806	-1.64136	0.202947	0	0	0.871478	0	0	0	0	0	0	0	0	0.000000000	-0.244674	0.788798	-0.788798	-0.728655	0.828698	-1.5708	0.326918	0.1	0.1	0.973583	0.1	0.1	0	0	0	0	0	0	0.000000000
1504111127.655379056	-0.220893	0.714835	-0.82068	-0.66268	0.803806	-1.64136	0.202947	0	0	0.871478	0	0	0	0	0	0	0	0	0.000000000	-0.261655	0.788798	-0.788798	-0.779225	0.828698	-1.5708	0.33622	0.1	0.1	1.00129	0.1	0.1	0	0	0	0	0	0	0.000000000
1504111127.674784898	-0.227029	0.714835	-0.82068	-0.684155	0.803806	-1.64136	0.250699	0	0	0.823726	0	0	0	0	0	0	0	0	0.000000000	-0.261655	0.788798	-0.788798	-0.779225	0.828698	-1.5708	0.33622	0.1	0.1	1.00129	0.1	0.1	0	0	0	0	0	0	0.000000000
1504111127.694865942	-0.236233	0.714835	-0.82068	-0.708699	0.803806	-1.64136	0.298451	0	0	0.871478	0	0	0	0	0	0	0	0	0.000000000	-0.261655	0.788798	-0.788798	-0.779225	0.828698	-1.5708	0.33622	0.1	0.1	1.00129	0.1	0.1	0	0	0	0	0	0	0.000000000
1504111127.714469909	-0.246971	0.716369	-0.82068	-0.734777	0.803806	-1.64136	0.346204	0	0	0.91923	0	0	0	0	0	0	0	0	0.000000000	-0.279081	0.788798	-0.788798	-0.831122	0.828698	-1.5708	0.34504	0.1	0.1	1.02755	0.1	0.1	0	0	0	0	0	0	0.000000000
1504111127.734441041	-0.256175	0.716369	-0.82068	-0.734777	0.803806	-1.64136	0.346204	0	0	0.91923	0	0	0	0	0	0	0	0	0.000000000	-0.279081	0.788798	-0.788798	-0.831122	0.828698	-1.5708	0.34504	0.1	0.1	1.02755	0.1	0.1	0	0	0	0	0	0	0.000000000
1504111127.755033016	-0.256175	0.716369	-0.82068	-0.760854	0.803806	-1.64136	0.346204	0	0	0.966982	0	0	0	0	0	0	0	0	0.000000000	-0.279081	0.788798	-0.788798	-0.831122	0.828698	-1.5708	0.34504	0.1	0.1	1.02755	0.1	0.1	0	0	0	0	0	0	0.000000000
1504111127.774385929	-0.265379	0.716369	-0.82068	-0.783864	0.80534	-1.64289	0.346204	0	0	0.823726	0	0	0	0	0	0	0	0	0.000000000	-0.296927	0.788798	-0.788798	-0.884269	0.828698	-1.5708	0.353354	0.1	0.1	1.05231	0.1	0.1	0	0	0	0	0	0	0.000000000
1504111127.794884920	-0.274583	0.716369	-0.82068	-0.808408	0.803806	-1.64136	0.346204	0	0	0.91923	0	0	0	0	0	0	0	0	0.000000000	-0.296927	0.788798	-0.788798	-0.884269	0.828698	-1.5708	0.353354	0.1	0.1	1.05231	0.1	0.1	0	0	0	0	0	0	0.000000000
1504111127.814435005	-0.279185	0.717903	-0.82068	-0.834486	0.80534	-1.64136	0.202947	0	0	0.966982	0	0	0	0	0	0	0	0	0.000000000	-0.315167	0.788798	-0.788798	-0.938587	0.828698	-1.5708	0.361142	0.1	0.1	1.0755	0.1	0.1	0	0	0	0	0	0	0.000000000
1504111127.834549903	-0.279185	0.717903	-0.82068	-0.834486	0.80534	-1.64136	0.202947	0	0	0.966982	0	0	0	0	0	0	0	0	0.000000000	-0.315167	0.788798	-0.788798	-0.938587	0.828698	-1.5708	0.361142	0.1	0.1	1.0755	0.1	0.1	0	0	0	0	0	0	0.000000000
1504111127.854542016	-0.289922	0.717903	-0.82068	-0.866699	0.806874	-1.64289	0.346204	0	0	0.91923	0	0	0	0	0	0	0	0	0.000000000	-0.315167	0.788798	-0.788798	-0.938587	0.828698	-1.5708	0.361142	0.1	0.1	1.0755	0.1	0.1	0	0	0	0	0	0	0.000000000
1504111127.874497890	-0.303728	0.717903	-0.82068	-0.892777	0.806874	-1.64136	0.393956	0	0	0.966982	0	0	0	0	0	0	0	0	0.000000000	-0.333772	0.788798	-0.788798	-0.993994	0.828698	-1.5708	0.36838	0.1	0.1	1.09706	0.1	0.1	0	0	0	0	0	0	0.000000000
1504111127.894886016	-0.311398	0.717903	-0.82068	-0.892777	0.806874	-1.64136	0.346204	0	0	0.966982	0	0	0	0	0	0	0	0	0.000000000	-0.333772	0.788798	-0.788798	-0.993994	0.828698	-1.5708	0.36838	0.1	0.1	1.09706	0.1	0.1	0	0	0	0	0	0	0.000000000
1504111127.915796995	-0.320602	0.717903	-0.82068	-0.94033	0.806874	-1.64136	0.393956	0	0	0.966982	0	0	0	0	0	0	0	0	0.000000000	-0.352714	0.788798	-0.788798	-1.05041	0.828698	-1.5708	0.375054	0.1	0.1	1.11693	0.1	0.1	0	0	0	0	0	0	0.000000000
1504111127.934371948	-0.320602	0.717903	-0.82068	-0.94033	0.806874	-1.64136	0.393956	0	0	0.966982	0	0	0	0	0	0	0	0	0.000000000	-0.352714	0.788798	-0.788798	-1.05041	0.828698	-1.5708	0.375054	0.1	0.1	1.11693	0.1	0.1	0	0	0	0	0	0	0.000000000
1504111127.954508066	-0.33134	0.719437	-0.82068	-0.967942	0.808408	-1.64289	0.346204	0	0	1.01473	0	0	0	0	0	0	0	0	0.000000000	-0.352714	0.788798	-0.788798	-1.05041	0.828698	-1.5708	0.375054	0.1	0.1	1.11693	0.1	0.1	0	0	0	0	0	0	0.000000000
1504111127.974704980	-0.340544	0.719437	-0.82068	-1.00169	0.808408	-1.64136	0.346204	0	0	0.966982	0	0	0	0	0	0	0	0	0.000000000	-0.371963	0.788798	-0.788798	-1.10773	0.828698	-1.5708	0.38114	0.1	0.1	1.13506	0.1	0.1	0	0	0	0	0	0	0.000000000
1504111127.995012998	-0.348214	0.722505	-0.82068	-1.03237	0.808408	-1.64289	0.250699	0	0	1.06249	0	0	0	0	0	0	0	0	0.000000000	-0.371963	0.788798	-0.788798	-1.10773	0.828698	-1.5708	0.38114	0.1	0.1	1.13506	0.1	0.1	0	0	0	0	0	0	0.000000000
1504111128.014373064	-0.348214	0.722505	-0.82068	-1.03237	0.808408	-1.64289	0.250699	0	0	1.06249	0	0	0	0	0	0	0	0	0.000000000	-0.39149	0.788798	-0.788798	-1.16588	0.828698	-1.5708	0.386631	0.1	0.1	1.15141	0.1	0.1	0	0	0	0	0	0	0.000000000
1504111128.034585952	-0.355884	0.724039	-0.82068	-1.05231	0.808408	-1.64289	0.250699	0.0955044	0	1.01473	0	0	0	0	0	0	0	0	0.000000000	-0.39149	0.788798	-0.788798	-1.16588	0.828698	-1.5708	0.386631	0.1	0.1	1.15141	0.1	0.1	0	0	0	0	0	0	0.000000000
1504111128.054615020	-0.366621	0.724039	-0.82068	-1.08759	0.808408	-1.64289	0.441708	0	0	1.01473	0	0	0	0	0	0	0	0	0.000000000	-0.39149	0.788798	-0.788798	-1.16588	0.828698	-1.5708	0.386631	0.1	0.1	1.15141	0.1	0.1	0	0	0	0	0	0	0.000000000
1504111128.076814889	-0.378893	0.725573	-0.82068	-1.12134	0.809942	-1.64136	0.393956	0	0	1.11024	0	0	0	0	0	0	0	0	0.000000000	-0.411263	0.788798	-0.788798	-1.22477	0.828698	-1.5708	0.391504	0.1	0.1	1.16592	0.1	0.1	0	0	0	0	0	0	0.000000000
1504111128.095145940	-0.378893	0.725573	-0.82068	-1.12134	0.809942	-1.64136	0.393956	0	0	1.11024	0	0	0	0	0	0	0	0	0.000000000	-0.411263	0.788798	-0.788798	-1.22477	0.828698	-1.5708	0.391504	0.1	0.1	1.16592	0.1	0.1	0	0	0	0	0	0	0.000000000
1504111128.114649057	-0.391165	0.725573	-0.82068	-1.15202	0.809942	-1.64136	0.393956	0	0	1.11024	0	0	0	0	0	0	0	0	0.000000000	-0.431251	0.788798	-0.788798	-1.28429	0.828698	-1.5708	0.395755	0.1	0.1	1.17858	0.1	0.1	0	0	0	0	0	0	0.000000000
1504111128.134624004	-0.391165	0.725573	-0.82068	-1.15202	0.809942	-1.64136	0.393956	0	0	1.11024	0	0	0	0	0	0	0	0	0.000000000	-0.431251	0.788798	-0.788798	-1.28429	0.828698	-1.5708	0.395755	0.1	0.1	1.17858	0.1	0.1	0	0	0	0	0	0	0.000000000
1504111128.156153917	-0.401903	0.727107	-0.82068	-1.17963	0.811476	-1.64289	0.393956	0	0	1.06249	0	0	0	0	0	0	0	0	0.000000000	-0.431251	0.788798	-0.788798	-1.28429	0.828698	-1.5708	0.395755	0.1	0.1	1.17858	0.1	0.1	0	0	0	0	0	0	0.000000000
1504111128.174504995	-0.412641	0.727107	-0.82068	-1.21951	0.811476	-1.64136	0.298451	0	0	1.06249	0	0	0	0	0	0	0	0	0.000000000	-0.451421	0.788798	-0.788798	-1.34436	0.828698	-1.5708	0.399371	0.1	0.1	1.18935	0.1	0.1	0	0	0	0	0	0	0.000000000
1504111128.194291114	-0.423379	0.728641	-0.82068	-1.2594	0.811476	-1.64289	0.298451	0	0	1.11024	0	0	0	0	0	0	0	0	0.000000000	-0.451421	0.788798	-0.788798	-1.34436	0.828698	-1.5708	0.399371	0.1	0.1	1.18935	0.1	0.1	0	0	0	0	0	0	0.000000000
1504111128.215110063	-0.432583	0.730175	-0.82068	-1.28394	0.81301	-1.64289	0.393956	0	0	1.06249	0	0	0	0	0	0	0	0	0.000000000	-0.471741	0.788798	-0.788798	-1.40488	0.828698	-1.5708	0.402339	0.1	0.1	1.19819	0.1	0.1	0	0	0	0	0	0	0.000000000
1504111128.234483003	-0.432583	0.730175	-0.82068	-1.28394	0.81301	-1.64289	0.393956	0	0	1.06249	0	0	0	0	0	0	0	0	0.000000000	-0.471741	0.788798	-0.788798	-1.40488	0.828698	-1.5708	0.402339	0.1	0.1	1.19819	0.1	0.1	0	0	0	0	0	0	0.000000000
1504111128.254575967	-0.444854	0.731709	-0.82068	-1.30695	0.81301	-1.64289	0.441708	0	0	0.966982	0	0	0	0	0	0	0	0	0.000000000	-0.471741	0.788798	-0.788798	-1.40488	0.828698	-1.5708	0.402339	0.1	0.1	1.19819	0.1	0.1	0	0	0	0	0	0	0.000000000
1504111128.275109052	-0.455592	0.731709	-0.82068	-1.33763	0.81301	-1.64136	0.393956	0	0	0.966982	0	0	0	0	0	0	0	0	0.000000000	-0.492178	0.788798	-0.788798	-1.46574	0.828698	-1.5708	0.404658	0.1	0.1	1.2051	0.1	0.1	0	0	0	0	0	0	0.000000000
1504111128.295793056	-0.463262	0.733243	-0.82068	-1.33763	0.81301	-1.64136	0.250699	0	0	0.966982	0	0	0	0	0	0	0	0	0.000000000	-0.492178	0.788798	-0.788798	-1.46574	0.828698	-1.5708	0.404658	0.1	0.1	1.2051	0.1	0.1	0	0	0	0	0	0	0.000000000
1504111128.314739942	-0.463262	0.733243	-0.82068	-1.37445	0.81301	-1.64136	0.250699	0	0	1.01473	0	0	0	0	0	0	0	0	0.000000000	-0.512699	0.788798	-0.788798	-1.52685	0.828698	-1.5708	0.406315	0.1	0.1	1.21003	0.1	0.1	0	0	0	0	0	0	0.000000000
1504111128.334642887	-0.474	0.734777	-0.82068	-1.40052	0.814544	-1.64136	0.393956	0	0	1.15799	0	0	0	0	0	0	0	0	0.000000000	-0.512699	0.788798	-0.788798	-1.52685	0.828698	-1.5708	0.406315	0.1	0.1	1.21003	0.1	0.1	0	0	0	0	0	0	0.000000000
1504111128.354417085	-0.492408	0.737845	-0.82068	-1.44501	0.814544	-1.64136	0.48946	0.0955044	0	1.20574	0	0	0	0	0	0	0	0	0.000000000	-0.512699	0.788798	-0.788798	-1.52685	0.828698	-1.5708	0.406315	0.1	0.1	1.21003	0.1	0.1	0	0	0	0	0	0	0.000000000
1504111128.374248027	-0.49701	0.739379	-0.82068	-1.47262	0.814544	-1.64136	0.346204	0.0955044	0	0.966982	0	0	0	0	0	0	0	0	0.000000000	-0.533271	0.788798	-0.788798	-1.58812	0.828698	-1.5708	0.407315	0.1	0.1	1.21301	0.1	0.1	0	0	0	0	0	0	0.000000000
1504111128.394273042	-0.506214	0.739379	-0.82068	-1.50484	0.816078	-1.64136	0.298451	0	0	1.06249	0	0	0	0	0	0	0	0	0.000000000	-0.533271	0.788798	-0.788798	-1.58812	0.828698	-1.5708	0.407315	0.1	0.1	1.21301	0.1	0.1	0	0	0	0	0	0	0.000000000
1504111128.414237022	-0.510816	0.740913	-0.82068	-1.52324	0.814544	-1.64289	0.298451	0	0	1.15799	0	0	0	0	0	0	0	0	0.000000000	-0.553859	0.788798	-0.788798	-1.64943	0.828698	-1.5708	0.407645	0.1	0.1	1.214	0.1	0.1	0	0	0	0	0	0	0.000000000
1504111128.434297084	-0.521553	0.742447	-0.82068	-1.55239	0.814544	-1.64136	0.441708	0	0	1.30125	0	0	0	0	0	0	0	0	0.000000000	-0.553859	0.788798	-0.788798	-1.64943	0.828698	-1.5708	0.407645	0.1	0.1	1.214	0.1	0.1	0	0	0	0	0	0	0.000000000
1504111128.454257011	-0.535359	0.743981	-0.82068	-1.5846	0.814544	-1.64136	0.48946	0.0955044	0	1.15799	0	0	0	0	0	0	0	0	0.000000000	-0.553859	0.788798	-0.788798	-1.64943	0.828698	-1.5708	0.407645	0.1	0.1	1.214	0.1	0.1	0	0	0	0	0	0	0.000000000
1504111128.474405050	-0.535359	0.743981	-0.82068	-1.5846	0.814544	-1.64136	0.48946	0.0955044	0	1.15799	0	0	0	0	0	0	0	0	0.000000000	-0.57443	0.788798	-0.788798	-1.71069	0.828698	-1.5708	0.407314	0.1	0.1	1.21301	0.1	0.1	0	0	0	0	0	0	0.000000000
1504111128.494311094	-0.547631	0.745515	-0.82068	-1.61835	0.814544	-1.64136	0.441708	0	0	1.15799	0	0	0	0	0	0	0	0	0.000000000	-0.57443	0.788798	-0.788798	-1.71069	0.828698	-1.5708	0.407314	0.1	0.1	1.21301	0.1	0.1	0	0	0	0	0	0	0.000000000
1504111128.515335083	-0.555301	0.745515	-0.822214	-1.64596	0.816078	-1.64136	0.250699	0	0	1.11024	0	0	0	0	0	0	0	0	0.000000000	-0.594951	0.788798	-0.788798	-1.7718	0.828698	-1.5708	0.406316	0.1	0.1	1.21003	0.1	0.1	0	0	0	0	0	0	0.000000000
1504111128.534405946	-0.564505	0.747049	-0.822214	-1.67664	0.814544	-1.64136	0.346204	0	0	1.11024	0	0	0	0	0	0	0	0	0.000000000	-0.594951	0.788798	-0.788798	-1.7718	0.828698	-1.5708	0.406316	0.1	0.1	1.21003	0.1	0.1	0	0	0	0	0	0	0.000000000
1504111128.554296016	-0.573709	0.747049	-0.822214	-1.70885	0.814544	-1.64136	0.346204	0	0	1.11024	0	0	0	0	0	0	0	0	0.000000000	-0.594951	0.788798	-0.788798	-1.7718	0.828698	-1.5708	0.406316	0.1	0.1	1.21003	0.1	0.1	0	0	0	0	0	0	0.000000000
1504111128.574348926	-0.573709	0.747049	-0.822214	-1.70885	0.814544	-1.64136	0.346204	0	0	1.11024	0	0	0	0	0	0	0	0	0.000000000	-0.615389	0.788798	-0.788798	-1.83267	0.828698	-1.5708	0.404658	0.1	0.1	1.2051	0.1	0.1	0	0	0	0	0	0	0.000000000
1504111128.595866918	-0.582913	0.750117	-0.822214	-1.73647	0.814544	-1.64136	0.393956	0.0955044	0	1.11024	0	0	0	0	0	0	0	0	0.000000000	-0.615389	0.788798	-0.788798	-1.83267	0.828698	-1.5708	0.404658	0.1	0.1	1.2051	0.1	0.1	0	0	0	0	0	0	0.000000000
1504111128.614289999	-0.595185	0.751651	-0.822214	-1.76715	0.814544	-1.64136	0.441708	0	0	1.11024	0	0	0	0	0	0	0	0	0.000000000	-0.615389	0.788798	-0.788798	-1.83267	0.828698	-1.5708	0.404658	0.1	0.1	1.2051	0.1	0.1	0	0	0	0	0	0	0.000000000
1504111128.634326934	-0.607456	0.753185	-0.822214	-1.79783	0.814544	-1.64136	0.441708	0	0	1.15799	0	0	0	0	0	0	0	0	0.000000000	-0.635709	0.788798	-0.788798	-1.89318	0.828698	-1.5708	0.402339	0.1	0.1	1.19819	0.1	0.1	0	0	0	0	0	0	0.000000000
1504111128.654282093	-0.613592	0.753185	-0.822214	-1.82697	0.814544	-1.64136	0.298451	0	0	1.15799	0	0	0	0	0	0	0	0	0.000000000	-0.635709	0.788798	-0.788798	-1.89318	0.828698	-1.5708	0.402339	0.1	0.1	1.19819	0.1	0.1	0	0	0	0	0	0	0.000000000
1504111128.674304962	-0.613592	0.753185	-0.822214	-1.82697	0.814544	-1.64136	0.298451	0	0	1.15799	0	0	0	0	0	0	0	0	0.000000000	-0.655879	0.788798	-0.788798	-1.95325	0.828698	-1.5708	0.399371	0.1	0.1	1.18935	0.1	0.1	0	0	0	0	0	0	0.000000000
1504111128.694356918	-0.62433	0.753185	-0.822214	-1.85765	0.814544	-1.63983	0.346204	0	0	1.11024	0	0	0	0	0	0	0	0	0.000000000	-0.655879	0.788798	-0.788798	-1.95325	0.828698	-1.5708	0.399371	0.1	0.1	1.18935	0.1	0.1	0	0	0	0	0	0	0.000000000
1504111128.714590072	-0.635068	0.754719	-0.822214	-1.88373	0.814544	-1.63676	0.393956	0	0	1.01473	0	0.143257	0	0	0	0	0	0	0.000000000	-0.655879	0.788798	-0.788798	-1.95325	0.828698	-1.5708	0.399371	0.1	0.1	1.18935	0.1	0.1	0	0	0	0	0	0	0.000000000
1504111128.734288930	-0.644272	0.756253	-0.822214	-1.91287	0.81301	-1.63369	0.346204	0	0	1.06249	0	0.143257	0	0	0	0	0	0	0.000000000	-0.675867	0.788798	-0.788798	-2.01278	0.828698	-1.5708	0.395754	0.1	0.1	1.17858	0.1	0.1	0	0	0	0	0	0	0.000000000
1504111128.754232883	-0.653476	0.75932	-0.822214	-1.94355	0.81301	-1.62755	0.346204	0.0955044	0	1.11024	0	0.191009	0	0	0	0	0	0	0.000000000	-0.675867	0.788798	-0.788798	-2.01278	0.828698	-1.5708	0.395754	0.1	0.1	1.17858	0.1	0.1	0	0	0	0	0	0	0.000000000
1504111128.774300098	-0.653476	0.75932	-0.822214	-1.94355	0.81301	-1.62755	0.346204	0.0955044	0	1.11024	0	0.191009	0	0	0	0	0	0	0.000000000	-0.69564	0.788798	-0.788798	-2.07166	0.828698	-1.5708	0.391505	0.1	0.1	1.16593	0.1	0.1	0	0	0	0	0	0	0.000000000
1504111128.794372081	-0.664214	0.75932	-0.822214	-1.9727	0.81301	-1.62449	0.441708	0	0	1.11024	0	0.143257	0	0	0	0	0	0	0.000000000	-0.69564	0.788798	-0.788798	-2.07166	0.828698	-1.5708	0.391505	0.1	0.1	1.16593	0.1	0.1	0	0	0	0	0	0	0.000000000
1504111128.814371109	-0.674952	0.760854	-0.822214	-2.00184	0.81301	-1.62295	0.441708	0	0	1.06249	0	0.0955044	0	0	0	0	0	0	0.000000000	-0.69564	0.788798	-0.788798	-2.07166	0.828698	-1.5708	0.391505	0.1	0.1	1.16593	0.1	0.1	0	0	0	0	0	0	0.000000000
1504111128.834296941	-0.684155	0.75932	-0.822214	-2.03252	0.81301	-1.62295	0.346204	0	0	1.06249	0	0	0	0	0	0	0	0	0.000000000	-0.715167	0.788798	-0.788798	-2.12981	0.828698	-1.5708	0.386631	0.1	0.1	1.15141	0.1	0.1	0	0	0	0	0	0	0.000000000
1504111128.854265928	-0.694893	0.75932	-0.822214	-2.06167	0.81301	-1.62295	0.346204	0	0	1.06249	0	0	0	0	0	0	0	0	0.000000000	-0.715167	0.788798	-0.788798	-2.12981	0.828698	-1.5708	0.386631	0.1	0.1	1.15141	0.1	0.1	0	0	0	0	0	0	0.000000000
1504111128.874377965	-0.694893	0.75932	-0.822214	-2.06167	0.81301	-1.62295	0.346204	0	0	1.06249	0	0	0	0	0	0	0	0	0.000000000	-0.734416	0.788798	-0.788798	-2.18714	0.828698	-1.5708	0.381139	0.1	0.1	1.13506	0.1	0.1	0	0	0	0	0	0	0.000000000
1504111128.894503116	-0.704097	0.760854	-0.822214	-2.09082	0.81301	-1.62295	0.346204	0	0	1.11024	0	0	0	0	0	0	0	0	0.000000000	-0.734416	0.788798	-0.788798	-2.18714	0.828698	-1.5708	0.381139	0.1	0.1	1.13506	0.1	0.1	0	0	0	0	0	0	0.000000000
1504111128.914262056	-0.711767	0.760854	-0.822214	-2.11996	0.811476	-1.62142	0.298451	0	0	1.06249	0	0	0	0	0	0	0	0	0.000000000	-0.734416	0.788798	-0.788798	-2.18714	0.828698	-1.5708	0.381139	0.1	0.1	1.13506	0.1	0.1	0	0	0	0	0	0	0.000000000
1504111128.934325933	-0.722505	0.760854	-0.822214	-2.14604	0.811476	-1.61988	0.346204	0	0	0.966982	0	0.0955044	0	0	0	0	0	0	0.000000000	-0.753358	0.788798	-0.788798	-2.24355	0.828698	-1.5708	0.375054	0.1	0.1	1.11693	0.1	0.1	0	0	0	0	0	0	0.000000000
1504111128.954266071	-0.734777	0.762388	-0.822214	-2.17518	0.811476	-1.61682	0.393956	0	0	1.01473	0	0.0955044	0	0	0	0	0	0	0.000000000	-0.753358	0.788798	-0.788798	-2.24355	0.828698	-1.5708	0.375054	0.1	0.1	1.11693	0.1	0.1	0	0	0	0	0	0	0.000000000
1504111128.974282979	-0.734777	0.762388	-0.822214	-2.17518	0.811476	-1.61682	0.393956	0	0	1.01473	0	0.0955044	0	0	0	0	0	0	0.000000000	-0.771963	0.788798	-0.788798	-2.29896	0.828698	-1.5708	0.368379	0.1	0.1	1.09706	0.1	0.1	0	0	0	0	0	0	0.000000000
1504111128.994293928	-0.742447	0.762388	-0.822214	-2.20433	0.811476	-1.61221	0.298451	0	0	1.06249	0	0.143257	0	0	0	0	0	0	0.000000000	-0.771963	0.788798	-0.788798	-2.29896	0.828698	-1.5708	0.368379	0.1	0.1	1.09706	0.1	0.1	0	0	0	0	0	0	0.000000000
1504111129.014275074	-0.751651	0.762388	-0.822214	-2.23348	0.811476	-1.60761	0.346204	0	0	1.06249	0	0.143257	0	0	0	0	0	0	0.000000000	-0.771963	0.788798	-0.788798	-2.29896	0.828698	-1.5708	0.368379	0.1	0.1	1.09706	0.1	0.1	0	0	0	0	0	0	0.000000000
1504111129.034293889	-0.762388	0.762388	-0.822214	-2.26569	0.811476	-1.60761	0.346204	0	0	1.06249	0	0	0	0	0	0	0	0	0.000000000	-0.790203	0.788798	-0.788798	-2.35327	0.828698	-1.5708	0.361142	0.1	0.1	1.07551	0.1	0.1	0	0	0	0	0	0	0.000000000
1504111129.054231882	-0.768524	0.762388	-0.822214	-2.29023	0.811476	-1.60761	0.298451	0	0	1.01473	0	0	0	0	0	0	0	0	0.000000000	-0.790203	0.788798	-0.788798	-2.35327	0.828698	-1.5708	0.361142	0.1	0.1	1.07551	0.1	0.1	0	0	0	0	0	0	0.000000000
1504111129.074239969	-0.768524	0.762388	-0.822214	-2.29023	0.811476	-1.60761	0.298451	0	0	1.01473	0	0	0	0	0	0	0	0	0.000000000	-0.808049	0.788798	-0.788798	-2.40642	0.828698	-1.5708	0.353355	0.1	0.1	1.05231	0.1	0.1	0	0	0	0	0	0	0.000000000
1504111129.094837903	-0.779262	0.762388	-0.822214	-2.31631	0.811476	-1.60761	0.346204	0	0	0.966982	0	0	0	0	0	0	0	0	0.000000000	-0.808049	0.788798	-0.788798	-2.40642	0.828698	-1.5708	0.353355	0.1	0.1	1.05231	0.1	0.1	0	0	0	0	0	0	0.000000000
1504111129.114334106	-0.786932	0.762388	-0.822214	-2.34239	0.809942	-1.60761	0.298451	0	0	0.91923	0	0	0	0	0	0	0	0	0.000000000	-0.808049	0.788798	-0.788798	-2.40642	0.828698	-1.5708	0.353355	0.1	0.1	1.05231	0.1	0.1	0	0	0	0	0	0	0.000000000
1504111129.134337902	-0.794602	0.762388	-0.822214	-2.36847	0.809942	-1.60761	0.298451	0	0	0.966982	0	0	0	0	0	0	0	0	0.000000000	-0.825475	0.788798	-0.788798	-2.45832	0.828698	-1.5708	0.345041	0.1	0.1	1.02755	0.1	0.1	0	0	0	0	0	0	0.000000000
1504111129.154603004	-0.80534	0.762388	-0.822214	-2.39608	0.811476	-1.60608	0.441708	0	0	0.966982	0	0	0	0	0	0	0	0	0.000000000	-0.825475	0.788798	-0.788798	-2.45832	0.828698	-1.5708	0.345041	0.1	0.1	1.02755	0.1	0.1	0	0	0	0	0	0	0.000000000
1504111129.174346923	-0.80534	0.762388	-0.822214	-2.39608	0.811476	-1.60608	0.441708	0	0	0.966982	0	0	0	0	0	0	0	0	0.000000000	-0.842456	0.788798	-0.788798	-2.50889	0.828698	-1.5708	0.33622	0.1	0.1	1.00128	0.1	0.1	0	0	0	0	0	0	0.000000000
1504111129.194434881	-0.814544	0.762388	-0.822214	-2.42062	0.809942	-1.60454	0.393956	0	0	0.91923	0	0	0	0	0	0	0	0	0.000000000	-0.842456	0.788798	-0.788798	-2.50889	0.828698	-1.5708	0.33622	0.1	0.1	1.00128	0.1	0.1	0	0	0	0	0	0	0.000000000
1504111129.214355945	-0.822214	0.762388	-0.822214	-2.4467	0.809942	-1.60454	0.250699	0	0	0.966982	0	0	0	0	0	0	0	0	0.000000000	-0.842456	0.788798	-0.788798	-2.50889	0.828698	-1.5708	0.33622	0.1	0.1	1.00128	0.1	0.1	0	0	0	0	0	0	0.000000000
1504111129.234348058	-0.829884	0.762388	-0.822214	-2.47278	0.809942	-1.60301	0.298451	0	0	0.966982	0	0	0	0	0	0	0	0	0.000000000	-0.858967	0.788798	-0.788798	-2.55806	0.828698	-1.5708	0.326918	0.1	0.1	0.973588	0.1	0.1	0	0	0	0	0	0	0.000000000
1504111129.254851102	-0.837554	0.762388	-0.822214	-2.49732	0.809942	-1.60301	0.250699	0	0	0.91923	0	0	0	0	0	0	0	0	0.000000000	-0.858967	0.788798	-0.788798	-2.55806	0.828698	-1.5708	0.326918	0.1	0.1	0.973588	0.1	0.1	0	0	0	0	0	0	0.000000000
1504111129.274272918	-0.837554	0.762388	-0.822214	-2.49732	0.809942	-1.60301	0.250699	0	0	0.91923	0	0	0	0	0	0	0	0	0.000000000	-0.874985	0.788798	-0.788798	-2.60576	0.828698	-1.5708	0.317159	0.1	0.1	0.944518	0.1	0.1	0	0	0	0	0	0	0.000000000
1504111129.294347047	-0.845223	0.762388	-0.822214	-2.52186	0.809942	-1.60301	0.298451	0	0	0.871478	0	0	0	0	0	0	0	0	0.000000000	-0.874985	0.788798	-0.788798	-2.60576	0.828698	-1.5708	0.317159	0.1	0.1	0.944518	0.1	0.1	0	0	0	0	0	0	0.000000000
1504111129.314271926	-0.852893	0.762388	-0.822214	-2.54641	0.809942	-1.60148	0.298451	0	0	0.91923	0	0	0	0	0	0	0	0	0.000000000	-0.874985	0.788798	-0.788798	-2.60576	0.828698	-1.5708	0.317159	0.1	0.1	0.944518	0.1	0.1	0	0	0	0	0	0	0.000000000
1504111129.334258079	-0.862097	0.762388	-0.822214	-2.57095	0.809942	-1.59994	0.346204	0	0	0.91923	0	0	0	0	0	0	0	0	0.000000000	-0.890489	0.788798	-0.788798	-2.65193	0.828698	-1.5708	0.306972	0.1	0.1	0.914182	0.1	0.1	0	0	0	0	0	0	0.000000000
1504111129.354283094	-0.871301	0.762388	-0.822214	-2.59396	0.809942	-1.59841	0.346204	0	0	0.871478	0	0.0955044	0	0	0	0	0	0	0.000000000	-0.890489	0.788798	-0.788798	-2.65193	0.828698	-1.5708	0.306972	0.1	0.1	0.914182	0.1	0.1	0	0	0	0	0	0	0.000000000
1504111129.374289989	-0.871301	0.762388	-0.822214	-2.59396	0.809942	-1.59841	0.346204	0	0	0.871478	0	0.0955044	0	0	0	0	0	0	0.000000000	-0.905457	0.788798	-0.788798	-2.69651	0.828698	-1.5708	0.296381	0.1	0.1	0.882639	0.1	0.1	0	0	0	0	0	0	0.000000000
1504111129.394212961	-0.875903	0.762388	-0.822214	-2.61544	0.809942	-1.59841	0.155195	0	0	0.823726	0	0	0	0	0	0	0	0	0.000000000	-0.905457	0.788798	-0.788798	-2.69651	0.828698	-1.5708	0.296381	0.1	0.1	0.882639	0.1	0.1	0	0	0	0	0	0	0.000000000
1504111129.414239883	-0.883573	0.762388	-0.822214	-2.63845	0.809942	-1.59841	0.250699	0	0	0.871478	0	0	0	0	0	0	0	0	0.000000000	-0.905457	0.788798	-0.788798	-2.69651	0.828698	-1.5708	0.296381	0.1	0.1	0.882639	0.1	0.1	0	0	0	0	0	0	0.000000000
1504111129.434484958	-0.892777	0.762388	-0.822214	-2.66146	0.809942	-1.59841	0.346204	0	0	0.823726	0	0	0	0	0	0	0	0	0.000000000	-0.919872	0.788798	-0.788798	-2.73944	0.828698	-1.5708	0.285419	0.1	0.1	0.85	0.1	0.1	0	0	0	0	0	0	0.000000000
1504111129.454802036	-0.892777	0.762388	-0.822214	-2.66146	0.809942	-1.59841	0.346204	0	0	0.823726	0	0	0	0	0	0	0	0	0.000000000	-0.919872	0.788798	-0.788798	-2.73944	0.828698	-1.5708	0.285419	0.1	0.1	0.85	0.1	0.1	0	0	0	0	0	0	0.000000000
1504111129.476253032	-0.903515	0.762388	-0.822214	-2.68447	0.809942	-1.59841	0.346204	0	0	0.775973	0	0	0	0	0	0	0	0	0.000000000	-0.933717	0.788798	-0.788798	-2.78067	0.828698	-1.5708	0.274119	0.1	0.1	0.816347	0.1	0.1	0	0	0	0	0	0	0.000000000
1504111129.494591951	-0.909651	0.762388	-0.822214	-2.70287	0.808408	-1.59687	0.250699	0	0	0.680469	0	0	0	0	0	0	0	0	0.000000000	-0.933717	0.788798	-0.788798	-2.78067	0.828698	-1.5708	0.274119	0.1	0.1	0.816347	0.1	0.1	0	0	0	0	0	0	0.000000000
1504111129.514745950	-0.915787	0.762388	-0.822214	-2.72588	0.808408	-1.59687	0.250699	0	0	0.775973	0	0	0	0	0	0	0	0	0.000000000	-0.933717	0.788798	-0.788798	-2.78067	0.828698	-1.5708	0.274119	0.1	0.1	0.816347	0.1	0.1	0	0	0	0	0	0	0.000000000
1504111129.534490108	-0.915787	0.762388	-0.822214	-2.72588	0.808408	-1.59687	0.250699	0	0	0.775973	0	0	0	0	0	0	0	0	0.000000000	-0.946975	0.788798	-0.788798	-2.82015	0.828698	-1.5708	0.262512	0.1	0.1	0.781777	0.1	0.1	0	0	0	0	0	0	0.000000000
1504111129.555397033	-0.923456	0.762388	-0.822214	-2.74736	0.809942	-1.59687	0.298451	0	0	0.823726	0	0	0	0	0	0	0	0	0.000000000	-0.946975	0.788798	-0.788798	-2.82015	0.828698	-1.5708	0.262512	0.1	0.1	0.781777	0.1	0.1	0	0	0	0	0	0	0.000000000
1504111129.574687957	-0.93266	0.762388	-0.822214	-2.77497	0.809942	-1.59687	0.298451	0	0	0.728221	0	0	0	0	0	0	0	0	0.000000000	-0.959633	0.788798	-0.788798	-2.82015	0.828698	-1.5708	0.250636	0.1	0.1	0.781777	0.1	0.1	0	0	0	0	0	0	0.000000000
1504111129.594858884	-0.938796	0.762388	-0.822214	-2.78878	0.809942	-1.59687	0.298451	0	0	0.680469	0	0	0	0	0	0	0	0	0.000000000	-0.959633	0.788798	-0.788798	-2.85785	0.828698	-1.5708	0.250636	0.1	0.1	0.746409	0.1	0.1	0	0	0	0	0	0	0.000000000
1504111129.614835977	-0.944932	0.762388	-0.822214	-2.80718	0.808408	-1.59687	0.298451	0	0	0.680469	0	0	0	0	0	0	0	0	0.000000000	-0.959633	0.788798	-0.788798	-2.85785	0.828698	-1.5708	0.250636	0.1	0.1	0.746409	0.1	0.1	0	0	0	0	0	0	0.000000000
1504111129.635365009	-0.944932	0.762388	-0.822214	-2.80718	0.808408	-1.59687	0.298451	0	0	0.680469	0	0	0	0	0	0	0	0	0.000000000	-0.97168	0.788798	-0.788798	-2.89373	0.828698	-1.5708	0.238524	0.1	0.1	0.710339	0.1	0.1	0	0	0	0	0	0	0.000000000
1504111129.654829025	-0.948	0.760854	-0.822214	-2.82406	0.808408	-1.59687	0.107442	0	0	0.632717	0	0	0	0	0	0	0	0	0.000000000	-0.97168	0.788798	-0.788798	-2.89373	0.828698	-1.5708	0.238524	0.1	0.1	0.710339	0.1	0.1	0	0	0	0	0	0	0.000000000
1504111129.674618005	-0.952602	0.762388	-0.822214	-2.84553	0.808408	-1.59534	0.202947	0	0	0.680469	0	0	0	0	0	0	0	0	0.000000000	-0.983105	0.788798	-0.788798	-2.92775	0.828698	-1.5708	0.226217	0.1	0.1	0.673691	0.1	0.1	0	0	0	0	0	0	0.000000000
1504111129.694597959	-0.961806	0.762388	-0.822214	-2.86548	0.808408	-1.59534	0.298451	0	0	0.680469	0	0	0	0	0	0	0	0	0.000000000	-0.983105	0.788798	-0.788798	-2.92775	0.828698	-1.5708	0.226217	0.1	0.1	0.673691	0.1	0.1	0	0	0	0	0	0	0.000000000
1504111129.714591026	-0.961806	0.762388	-0.822214	-2.86548	0.808408	-1.59534	0.298451	0	0	0.680469	0	0	0	0	0	0	0	0	0.000000000	-0.983105	0.788798	-0.788798	-2.92775	0.828698	-1.5708	0.226217	0.1	0.1	0.673691	0.1	0.1	0	0	0	0	0	0	0.000000000
1504111129.734658956	-0.966408	0.762388	-0.822214	-2.88082	0.808408	-1.59534	0.202947	0	0	0.632717	0	0	0	0	0	0	0	0	0.000000000	-0.993901	0.788798	-0.788798	-2.9599	0.828698	-1.5708	0.213752	0.1	0.1	0.636569	0.1	0.1	0	0	0	0	0	0	0.000000000
1504111129.754848957	-0.972544	0.762388	-0.822214	-2.89616	0.808408	-1.59534	0.250699	0	0	0.584965	0	0	0	0	0	0	0	0	0.000000000	-0.993901	0.788798	-0.788798	-2.9599	0.828698	-1.5708	0.213752	0.1	0.1	0.636569	0.1	0.1	0	0	0	0	0	0	0.000000000
1504111129.774739027	-0.977146	0.762388	-0.822214	-2.91303	0.808408	-1.59534	0.202947	0	0	0.632717	0	0	0	0	0	0	0	0	0.000000000	-0.993901	0.788798	-0.788798	-2.9599	0.828698	-1.5708	0.213752	0.1	0.1	0.636569	0.1	0.1	0	0	0	0	0	0	0.000000000
1504111129.794370889	-0.984816	0.762388	-0.822214	-2.93144	0.808408	-1.59534	0.202947	0	0	0.680469	0	0	0	0	0	0	0	0	0.000000000	-1.00406	0.788798	-0.788798	-2.99016	0.828698	-1.5708	0.201175	0.1	0.1	0.599109	0.1	0.1	0	0	0	0	0	0	0.000000000
1504111129.818439006	-0.989418	0.762388	-0.822214	-2.94985	0.808408	-1.59687	0.155195	0	0	0.632717	0	0	0	0	0	0	0	0	0.000000000	-1.00406	0.788798	-0.788798	-2.99016	0.828698	-1.5708	0.201175	0.1	0.1	0.599109	0.1	0.1	0	0	0	0	0	0	0.000000000
1504111129.834815979	-0.989418	0.762388	-0.822214	-2.94985	0.808408	-1.59687	0.155195	0	0	0.632717	0	0	0	0	0	0	0	0	0.000000000	-1.01358	0.788798	-0.788798	-3.01851	0.828698	-1.5708	0.188525	0.1	0.1	0.56144	0.1	0.1	0	0	0	0	0	0	0.000000000
1504111129.854348897	-0.99402	0.762388	-0.822214	-2.96058	0.809942	-1.59534	0.155195	0	0	0.441708	0	0	0	0	0	0	0	0	0.000000000	-1.01358	0.788798	-0.788798	-3.01851	0.828698	-1.5708	0.188525	0.1	0.1	0.56144	0.1	0.1	0	0	0	0	0	0	0.000000000
1504111129.874345064	-0.998621	0.762388	-0.822214	-2.97439	0.808408	-1.59534	0.202947	0	0	0.441708	0	0	0	0	0	0	0	0	0.000000000	-1.01358	0.788798	-0.788798	-3.01851	0.828698	-1.5708	0.188525	0.1	0.1	0.56144	0.1	0.1	0	0	0	0	0	0	0.000000000
1504111129.895035982	-1.00476	0.762388	-0.822214	-2.98666	0.808408	-1.59534	0.250699	0	0	0.537212	0	0	0	0	0	0	0	0	0.000000000	-1.02246	0.788798	-0.788798	-3.04496	0.828698	-1.5708	0.175851	0.1	0.1	0.523696	0.1	0.1	0	0	0	0	0	0	0.000000000
1504111129.914400100	-1.00476	0.762388	-0.822214	-2.98666	0.808408	-1.59534	0.250699	0	0	0.537212	0	0	0	0	0	0	0	0	0.000000000	-1.02246	0.788798	-0.788798	-3.04496	0.828698	-1.5708	0.175851	0.1	0.1	0.523696	0.1	0.1	0	0	0	0	0	0	0.000000000
1504111129.934417963	-1.01089	0.762388	-0.822214	-3.00507	0.808408	-1.59687	0.250699	0	0	0.680469	0	0	0	0	0	0	0	0	0.000000000	-1.03071	0.788798	-0.788798	-3.06951	0.828698	-1.5708	0.163192	0.1	0.1	0.486001	0.1	0.1	0	0	0	0	0	0	0.000000000
1504111129.955810070	-1.01396	0.762388	-0.822214	-3.02501	0.808408	-1.59534	0.155195	0	0	0.632717	0	0	0	0	0	0	0	0	0.000000000	-1.03071	0.788798	-0.788798	-3.06951	0.828698	-1.5708	0.163192	0.1	0.1	0.486001	0.1	0.1	0	0	0	0	0	0	0.000000000
1504111129.976813077	-1.01856	0.762388	-0.822214	-3.03882	0.808408	-1.59534	0.155195	0	0	0.48946	0	0	0	0	0	0	0	0	0.000000000	-1.03071	0.788798	-0.788798	-3.06951	0.828698	-1.5708	0.163192	0.1	0.1	0.486001	0.1	0.1	0	0	0	0	0	0	0.000000000
1504111129.994395971	-1.02317	0.762388	-0.822214	-3.03882	0.808408	-1.59534	0.155195	0	0	0.48946	0	0	0	0	0	0	0	0	0.000000000	-1.03831	0.788798	-0.788798	-3.09216	0.828698	-1.5708	0.150606	0.1	0.1	0.448512	0.1	0.1	0	0	0	0	0	0	0.000000000
1504111130.014383077	-1.02317	0.762388	-0.822214	-3.04955	0.808408	-1.59534	0.155195	0	0	0.441708	0	0	0	0	0	0	0	0	0.000000000	-1.03831	0.788798	-0.788798	-3.09216	0.828698	-1.5708	0.150606	0.1	0.1	0.448512	0.1	0.1	0	0	0	0	0	0	0.000000000
1504111130.034538030	-1.02623	0.760854	-0.822214	-3.05876	0.808408	-1.59534	0.202947	0	0	0.393956	0	0	0	0	0	0	0	0	0.000000000	-1.04529	0.788798	-0.788798	-3.11294	0.828698	-1.5708	0.138134	0.1	0.1	0.411379	0.1	0.1	0	0	0	0	0	0	0.000000000
1504111130.056431055	-1.0293	0.762388	-0.822214	-3.06796	0.808408	-1.59534	0.107442	0	0	0.346204	0	0	0	0	0	0	0	0	0.000000000	-1.04529	0.788798	-0.788798	-3.11294	0.828698	-1.5708	0.138134	0.1	0.1	0.411379	0.1	0.1	0	0	0	0	0	0	0.000000000
1504111130.074588060	-1.03237	0.762388	-0.822214	-3.08023	0.808408	-1.59534	0.155195	0	0	0.346204	0	0	0	0	0	0	0	0	0.000000000	-1.04529	0.788798	-0.788798	-3.11294	0.828698	-1.5708	0.138134	0.1	0.1	0.411379	0.1	0.1	0	0	0	0	0	0	0.000000000
1504111130.095331907	-1.03697	0.762388	-0.822214	-3.08944	0.808408	-1.59534	0.155195	0	0	0.393956	0	0	0	0	0	0	0	0	0.000000000	-1.05164	0.788798	-0.788798	-3.13186	0.828698	-1.5708	0.125834	0.1	0.1	0.374742	0.1	0.1	0	0	0	0	0	0	0.000000000
1504111130.114444017	-1.0385	0.762388	-0.822214	-3.10018	0.808408	-1.59687	0.107442	0	0	0.393956	0	0	0	0	0	0	0	0	0.000000000	-1.05164	0.788798	-0.788798	-3.13186	0.828698	-1.5708	0.125834	0.1	0.1	0.374742	0.1	0.1	0	0	0	0	0	0	0.000000000
1504111130.134800910	-1.0385	0.762388	-0.822214	-3.10018	0.808408	-1.59687	0.107442	0	0	0.393956	0	0	0	0	0	0	0	0	0.000000000	-1.05739	0.788798	-0.788798	-3.14897	0.828698	-1.5708	0.113758	0.1	0.1	0.338773	0.1	0.1	0	0	0	0	0	0	0.000000000
1504111130.154500961	-1.04157	0.762388	-0.822214	-3.11091	0.808408	-1.59534	0.107442	0	0	0.346204	0	0	0	0	0	0	0	0	0.000000000	-1.05739	0.788798	-0.788798	-3.14897	0.828698	-1.5708	0.113758	0.1	0.1	0.338773	0.1	0.1	0	0	0	0	0	0	0.000000000
1504111130.174504041	-1.04617	0.762388	-0.822214	-3.12318	0.808408	-1.59534	0.155195	0	0	0.346204	0	0	0	0	0	0	0	0	0.000000000	-1.05739	0.788798	-0.788798	-3.14897	0.828698	-1.5708	0.113758	0.1	0.1	0.338773	0.1	0.1	0	0	0	0	0	0	0.000000000
1504111130.194441080	-1.04771	0.762388	-0.822214	-3.13085	0.808408	-1.59534	0.107442	0	0	0.346204	0	0	0	0	0	0	0	0	0.000000000	-1.06254	0.788798	-0.788798	-3.16431	0.828698	-1.5708	0.101952	0.1	0.1	0.30362	0.1	0.1	0	0	0	0	0	0	0.000000000
1504111130.214340925	-1.04924	0.762388	-0.822214	-3.13699	0.808408	-1.59687	0	0	0	0.298451	0	0	0	0	0	0	0	0	0.000000000	-1.06254	0.788798	-0.788798	-3.16431	0.828698	-1.5708	0.101952	0.1	0.1	0.30362	0.1	0.1	0	0	0	0	0	0	0.000000000
1504111130.234626054	-1.04924	0.762388	-0.822214	-3.13699	0.808408	-1.59687	0	0	0	0.298451	0	0	0	0	0	0	0	0	0.000000000	-1.06711	0.788798	-0.788798	-3.17792	0.828698	-1.5708	0.1	0.1	0.1	0.269466	0.1	0.1	0	0	0	0	0	0	0.000000000
1504111130.254920005	-1.05231	0.762388	-0.822214	-3.14773	0.808408	-1.59687	0.107442	0	0	0.298451	0	0	0	0	0	0	0	0	0.000000000	-1.06711	0.788798	-0.788798	-3.17792	0.828698	-1.5708	0.1	0.1	0.1	0.269466	0.1	0.1	0	0	0	0	0	0	0.000000000
1504111130.274713039	-1.05538	0.762388	-0.822214	-3.1554	0.808408	-1.59534	0.107442	0	0	0.298451	0	0	0	0	0	0	0	0	0.000000000	-1.06711	0.788798	-0.788798	-3.17792	0.828698	-1.5708	0.1	0.1	0.1	0.269466	0.1	0.1	0	0	0	0	0	0	0.000000000
1504111130.294488906	-1.05845	0.762388	-0.822214	-3.16153	0.808408	-1.59534	0.107442	0	0	0.250699	0	0	0	0	0	0	0	0	0.000000000	-1.07112	0.788798	-0.788798	-3.18986	0.828698	-1.5708	0.1	0.1	0.1	0.236473	0.1	0.1	0	0	0	0	0	0	0.000000000
1504111130.314459085	-1.05998	0.762388	-0.822214	-3.16153	0.808408	-1.59534	0.107442	0	0	0.250699	0	0	0	0	0	0	0	0	0.000000000	-1.07112	0.788798	-0.788798	-3.18986	0.828698	-1.5708	0.1	0.1	0.1	0.236473	0.1	0.1	0	0	0	0	0	0	0.000000000
1504111130.334522962	-1.05998	0.760854	-0.822214	-3.17074	0.808408	-1.59534	0.107442	0	0	0.298451	0	0	0	0	0	0	0	0	0.000000000	-1.07459	0.788798	-0.788798	-3.20021	0.828698	-1.5708	0.1	0.1	0.1	0.204821	0.1	0.1	0	0	0	0	0	0	0.000000000
1504111130.354348897	-1.06151	0.762388	-0.822214	-3.17687	0.808408	-1.59687	0.107442	0	0	0.250699	0	0	0	0	0	0	0	0	0.000000000	-1.07459	0.788798	-0.788798	-3.20021	0.828698	-1.5708	0.1	0.1	0.1	0.204821	0.1	0.1	0	0	0	0	0	0	0.000000000
1504111130.374941110	-1.06612	0.762388	-0.822214	-3.18148	0.808408	-1.59534	0.155195	0	0	0.202947	0	0	0	0	0	0	0	0	0.000000000	-1.07459	0.788798	-0.788798	-3.20021	0.828698	-1.5708	0.1	0.1	0.1	0.204821	0.1	0.1	0	0	0	0	0	0	0.000000000
1504111130.394350051	-1.06765	0.762388	-0.822214	-3.18608	0.808408	-1.59534	0.107442	0	0	0.202947	0	0	0	0	0	0	0	0	0.000000000	-1.07755	0.788798	-0.788798	-3.20903	0.828698	-1.5708	0.1	0.1	0.1	0.17469	0.1	0.1	0	0	0	0	0	0	0.000000000
1504111130.414331912	-1.06918	0.762388	-0.822214	-3.19068	0.808408	-1.59687	0	0	0	0.155195	0	0	0	0	0	0	0	0	0.000000000	-1.07755	0.788798	-0.788798	-3.20903	0.828698	-1.5708	0.1	0.1	0.1	0.17469	0.1	0.1	0	0	0	0	0	0	0.000000000
1504111130.438163995	-1.06918	0.762388	-0.822214	-3.19068	0.808408	-1.59687	0	0	0	0.155195	0	0	0	0	0	0	0	0	0.000000000	-1.08004	0.788798	-0.788798	-3.21642	0.828698	-1.5708	0.1	0.1	0.1	0.14627	0.1	0.1	0	0	0	0	0	0	0.000000000
1504111130.455621004	-1.06918	0.762388	-0.822214	-3.19528	0.809942	-1.59534	0	0	0	0.202947	0	0	0	0	0	0	0	0	0.000000000	-1.08004	0.788798	-0.788798	-3.21642	0.828698	-1.5708	0.1	0.1	0.1	0.14627	0.1	0.1	0	0	0	0	0	0	0.000000000
1504111130.474348068	-1.06918	0.762388	-0.822214	-3.20142	0.808408	-1.59687	0	0	0	0.202947	0	0	0	0	0	0	0	0	0.000000000	-1.08004	0.788798	-0.788798	-3.21642	0.828698	-1.5708	0.1	0.1	0.1	0.14627	0.1	0.1	0	0	0	0	0	0	0.000000000
1504111130.494381904	-1.06918	0.762388	-0.822214	-3.20449	0.808408	-1.59687	0	0	0	0.155195	0	0	0	0	0	0	0	0	0.000000000	-1.08207	0.788798	-0.788798	-3.22246	0.828698	-1.5708	0.1	0.1	0.1	0.119749	0.1	0.1	0	0	0	0	0	0	0.000000000
1504111130.517776012	-1.07072	0.760854	-0.822214	-3.20755	0.808408	-1.59687	0	0	0	0.107442	0	0	0	0	0	0	0	0	0.000000000	-1.08207	0.788798	-0.788798	-3.22246	0.828698	-1.5708	0.1	0.1	0.1	0.119749	0.1	0.1	0	0	0	0	0	0	0.000000000
1504111130.534446954	-1.07072	0.760854	-0.822214	-3.20755	0.808408	-1.59534	0	0	0	0.107442	0	0	0	0	0	0	0	0	0.000000000	-1.08368	0.788798	-0.788798	-3.22728	0.828698	-1.5708	0.1	0.1	0.1	0.1	0.1	0.1	0	0	0	0	0	0	0.000000000
1504111130.556377887	-1.07225	0.762388	-0.822214	-3.21216	0.808408	-1.59687	0	0	0	0.155195	0	0	0	0	0	0	0	0	0.000000000	-1.08368	0.788798	-0.788798	-3.22728	0.828698	-1.5708	0.1	0.1	0.1	0.1	0.1	0.1	0	0	0	0	0	0	0.000000000
1504111130.574337959	-1.07379	0.762388	-0.82068	-3.21522	0.808408	-1.59534	0.107442	0	0	0.107442	0	0	0	0	0	0	0	0	0.000000000	-1.08368	0.788798	-0.788798	-3.22728	0.828698	-1.5708	0.1	0.1	0.1	0.1	0.1	0.1	0	0	0	0	0	0	0.000000000
1504111130.594655036	-1.07685	0.762388	-0.822214	-3.21983	0.808408	-1.59687	0.107442	0	0	0.155195	0	0	0	0	0	0	0	0	0.000000000	-1.08492	0.788798	-0.788798	-3.23098	0.828698	-1.5708	0.1	0.1	0.1	0.1	0.1	0.1	0	0	0	0	0	0	0.000000000
1504111130.614485979	-1.07685	0.762388	-0.822214	-3.21983	0.808408	-1.59687	0.107442	0	0	0.155195	0	0	0	0	0	0	0	0	0.000000000	-1.08492	0.788798	-0.788798	-3.23098	0.828698	-1.5708	0.1	0.1	0.1	0.1	0.1	0.1	0	0	0	0	0	0	0.000000000
1504111130.634454965	-1.07685	0.762388	-0.822214	-3.22136	0.808408	-1.59687	0	0	0	0.107442	0	0	0	0	0	0	0	0	0.000000000	-1.08492	0.788798	-0.788798	-3.23098	0.828698	-1.5708	0.1	0.1	0.1	0.1	0.1	0.1	0	0	0	0	0	0	0.000000000
1504111130.654428958	-1.07685	0.762388	-0.82068	-3.22136	0.808408	-1.59687	0	0	0	0.107442	0	0	0	0	0	0	0	0	0.000000000	-1.08583	0.788798	-0.788798	-3.23368	0.828698	-1.5708	0.1	0.1	0.1	0.1	0.1	0.1	0	0	0	0	0	0	0.000000000
1504111130.674721002	-1.07685	0.762388	-0.82068	-3.22289	0.808408	-1.59687	0	0	0	0	0	0	0	0	0	0	0	0	0.000000000	-1.08583	0.788798	-0.788798	-3.23368	0.828698	-1.5708	0.1	0.1	0.1	0.1	0.1	0.1	0	0	0	0	0	0	0.000000000
1504111130.694350957	-1.07685	0.762388	-0.822214	-3.22443	0.808408	-1.59534	0	0	0	0	0	0	0	0	0	0	0	0	0.000000000	-1.08646	0.788798	-0.788798	-3.23554	0.828698	-1.5708	0.1	0.1	0.1	0.1	0.1	0.1	0	0	0	0	0	0	0.000000000
1504111130.714324951	-1.07685	0.762388	-0.822214	-3.22596	0.808408	-1.59534	0	0	0	0	0	0	0	0	0	0	0	0	0.000000000	-1.08646	0.788798	-0.788798	-3.23554	0.828698	-1.5708	0.1	0.1	0.1	0.1	0.1	0.1	0	0	0	0	0	0	0.000000000
1504111130.735692024	-1.07685	0.762388	-0.822214	-3.2275	0.808408	-1.59534	0	0	0	0	0	0	0	0	0	0	0	0	0.000000000	-1.08684	0.788798	-0.788798	-3.23554	0.828698	-1.5708	0.1	0.1	0.1	0.1	0.1	0.1	0	0	0	0	0	0	0.000000000
1504111130.755122900	-1.07685	0.762388	-0.822214	-3.2275	0.808408	-1.59534	0	0	0	0	0	0	0	0	0	0	0	0	0.000000000	-1.08684	0.788798	-0.788798	-3.23668	0.828698	-1.5708	0.1	0.1	0.1	0.1	0.1	0.1	0	0	0	0	0	0	0.000000000
1504111130.775135993	-1.07685	0.762388	-0.822214	-3.22903	0.808408	-1.59534	0	0	0	0	0	0	0	0	0	0	0	0	0.000000000	-1.08684	0.788798	-0.788798	-3.23668	0.828698	-1.5708	0.1	0.1	0.1	0.1	0.1	0.1	0	0	0	0	0	0	0.000000000
1504111130.794409036	-1.07685	0.762388	-0.822214	-3.23056	0.808408	-1.59687	0	0	0	0	0	0	0	0	0	0	0	0	0.000000000	-1.08704	0.788798	-0.788798	-3.23728	0.828698	-1.5708	0.1	0.1	0.1	0.1	0.1	0.1	0	0	0	0	0	0	0.000000000
1504111130.814336061	-1.07685	0.760854	-0.822214	-3.23056	0.808408	-1.59534	0	0	0	0	0	0	0	0	0	0	0	0	0.000000000	-1.08704	0.788798	-0.788798	-3.23728	0.828698	-1.5708	0.1	0.1	0.1	0.1	0.1	0.1	0	0	0	0	0	0	0.000000000
1504111130.835479021	-1.07685	0.760854	-0.822214	-3.23056	0.808408	-1.59534	0	0	0	0	0	0	0	0	0	0	0	0	0.000000000	-1.08704	0.788798	-0.788798	-3.23728	0.828698	-1.5708	0.1	0.1	0.1	0.1	0.1	0.1	0	0	0	0	0	0	0.000000000
1504111130.855274915	-1.07685	0.760854	-0.822214	-3.2321	0.808408	-1.59687	0	0	0	0	0	0	0	0	0	0	0	0	0.000000000	-1.08712	0.788798	-0.788798	-3.23751	0.828698	-1.5708	0.1	0.1	0.1	0.1	0.1	0.1	0	0	0	0	0	0	0.000000000
1504111130.874766111	-1.07839	0.762388	-0.822214	-3.2321	0.808408	-1.59534	0	0	0	0	0	0	0	0	0	0	0	0	0.000000000	-1.08712	0.788798	-0.788798	-3.23751	0.828698	-1.5708	0.1	0.1	0.1	0.1	0.1	0.1	0	0	0	0	0	0	0.000000000
1504111130.894316911	-1.07685	0.762388	-0.822214	-3.2321	0.809942	-1.59687	0	0	0	0	0	0	0	0	0	0	0	0	0.000000000	-1.08713	0.788798	-0.788798	-3.23754	0.828698	-1.5708	0.1	0.1	0.1	0.1	0.1	0.1	0	0	0	0	0	0	0.000000000
1504111130.915879964	-1.07839	0.760854	-0.822214	-3.2321	0.806874	-1.59687	0	0	0	0	0	0	0	0	0	0	0	0	0.000000000	-1.08713	0.788798	-0.788798	-3.23754	0.828698	-1.5708	0.1	0.1	0.1	0.1	0.1	0.1	0	0	0	0	0	0	0.000000000
1504111130.934776067	-1.07685	0.762388	-0.822214	-3.2321	0.808408	-1.59534	0	0	0	0	0	0	0	0	0	0	0	0	0.000000000	-1.08713	0.788798	-0.788798	-3.23754	0.828698	-1.5708	0.1	0.1	0.1	0.1	0.1	0.1	0	0	0	0	0	0	0.000000000
1504111130.954809904	-1.07685	0.762388	-0.822214	-3.2321	0.808408	-1.59534	0	0	0	0	0	0	0	0	0	0	0	0	0.000000000	-1.08713	0.788804	-0.788813	-3.23754	0.828699	-1.5708	0.1	0.1	0.1	0.1	0.1	0.1	0	0	0	0	0	0	0.000000000
1504111130.974776983	-1.07685	0.760854	-0.822214	-3.23363	0.808408	-1.59687	0	0	0	0	0	0	0	0	0	0	0	0	0.000000000	-1.08713	0.788804	-0.788813	-3.23754	0.828699	-1.5708	0.1	0.1	0.1	0.1	0.1	0.1	0	0	0	0	0	0	0.000000000
1504111130.994585037	-1.07685	0.762388	-0.822214	-3.23363	0.808408	-1.59534	0	0	0	0	0	0	0	0	0	0	0	0	0.000000000	-1.08712	0.788846	-0.788915	-3.23755	0.828703	-1.57086	0.1	0.1	0.1	0.1	0.1	0.1	0	0	0	0	0	0	0.000000000
1504111131.014543056	-1.07685	0.762388	-0.822214	-3.23363	0.808408	-1.59687	0	0	0	0	0	0	0	0	0	0	0	0	0.000000000	-1.08712	0.788846	-0.788915	-3.23755	0.828703	-1.57086	0.1	0.1	0.1	0.1	0.1	0.1	0	0	0	0	0	0	0.000000000
1504111131.034980058	-1.07685	0.762388	-0.822214	-3.23363	0.808408	-1.59534	0	0	0	0	0	0	0	0	0	0	0	0	0.000000000	-1.08712	0.788846	-0.788915	-3.23755	0.828703	-1.57086	0.1	0.1	0.1	0.1	0.1	0.1	0	0	0	0	0	0	0.000000000
1504111131.055013895	-1.07685	0.762388	-0.822214	-3.23363	0.808408	-1.59534	0	0	0	0	0	0	0	0	0	0	0	0	0.000000000	-1.08709	0.788959	-0.789185	-3.23755	0.828713	-1.57102	0.1	0.1	0.1	0.1	0.1	0.1	0	0	0	0	0	0	0.000000000
1504111131.074425935	-1.07839	0.760854	-0.822214	-3.23363	0.808408	-1.59687	0	0	0	0	0	0	0	0	0	0	0	0	0.000000000	-1.08709	0.788959	-0.789185	-3.23755	0.828713	-1.57102	0.1	0.1	0.1	0.1	0.1	0.1	0	0	0	0	0	0	0.000000000
1504111131.095002889	-1.07839	0.762388	-0.822214	-3.23363	0.808408	-1.59687	0	0	0	0	0	0	0	0	0	0	0	0	0.000000000	-1.08704	0.789173	-0.789701	-3.23756	0.828733	-1.57132	0.1	0.1	0.1	0.1	0.1	0.1	0	0	0	0	0	0	0.000000000
1504111131.114590883	-1.07685	0.760854	-0.822214	-3.23363	0.808408	-1.59534	0	0	0	0	0	0	0	0	0	0	0	0	0.000000000	-1.08704	0.789173	-0.789701	-3.23756	0.828733	-1.57132	0.1	0.1	0.1	0.1	0.1	0.1	0	0	0	0	0	0	0.000000000
1504111131.134516954	-1.07685	0.760854	-0.822214	-3.23363	0.808408	-1.59534	0	0	0	0	0	0	0	0	0	0	0	0	0.000000000	-1.08704	0.789173	-0.789701	-3.23756	0.828733	-1.57132	0.1	0.1	0.1	0.1	0.1	0.1	0	0	0	0	0	0	0.000000000
1504111131.163563966	-1.07685	0.762388	-0.822214	-3.23363	0.808408	-1.59687	0	0	0	0	0	0	0	0	0	0	0	0	0.000000000	-1.08696	0.78952	-0.790533	-3.23758	0.828765	-1.57181	0.1	0.1	0.1	0.1	0.1	0.1	0	0	0	0	0	0	0.000000000
1504111131.174524068	-1.07685	0.760854	-0.822214	-3.23363	0.808408	-1.59534	0	0	0	0	0	0	0	0	0	0	0	0	0.000000000	-1.08696	0.78952	-0.790533	-3.23758	0.828765	-1.57181	0.1	0.1	0.1	0.1	0.1	0.1	0	0	0	0	0	0	0.000000000
1504111131.197170972	-1.07685	0.762388	-0.822214	-3.23363	0.808408	-1.59534	0	0	0	0	0	0	0	0	0	0	0	0	0.000000000	-1.08683	0.790028	-0.791749	-3.23761	0.828812	-1.57252	0.1	0.1	0.1	0.1	0.1	0.1	0	0	0	0	0	0	0.000000000
1504111131.214489936	-1.07685	0.762388	-0.822214	-3.23363	0.808408	-1.59534	0	0	0	0	0	0	0	0	0	0	0	0	0.000000000	-1.08683	0.790028	-0.791749	-3.23761	0.828812	-1.57252	0.1	0.1	0.1	0.1	0.1	0.1	0	0	0	0	0	0	0.000000000
1504111131.234452962	-1.07685	0.760854	-0.822214	-3.23363	0.808408	-1.59534	0	0	0	0	0	0	0	0	0	0	0	0	0.000000000	-1.08683	0.790028	-0.791749	-3.23761	0.828812	-1.57252	0.1	0.1	0.1	0.1	0.1	0.1	0	0	0	0	0	0	0.000000000
1504111131.258300065	-1.07685	0.760854	-0.822214	-3.23363	0.808408	-1.59687	0	0	0	0	0	0	0	0	0	0	0	0	0.000000000	-1.08667	0.790725	-0.79341	-3.23765	0.828876	-1.57349	0.1	0.1	0.1	0.1	0.1	0.1	0	0	0	0	0	0	0.000000000
1504111131.275897979	-1.07685	0.762388	-0.822214	-3.23363	0.808408	-1.59534	0	0	0	0	0	0	0	0	0	0	0	0	0.000000000	-1.08667	0.790725	-0.79341	-3.23765	0.828876	-1.57349	0.1	0.1	0.1	0.1	0.1	0.1	0	0	0	0	0	0	0.000000000
1504111131.294478893	-1.07685	0.762388	-0.822214	-3.23363	0.808408	-1.59534	0	0	0	0	0	0	0	0	0	0	0	0	0.000000000	-1.08645	0.791636	-0.795573	-3.2377	0.828962	-1.57475	0.1	0.1	0.1	0.1	0.1	0.1	0	0	0	0	0	0	0.000000000
1504111131.314321994	-1.07839	0.760854	-0.822214	-3.23363	0.808408	-1.59534	0	0	0	0	0	0	0	0	0	0	0	0	0.000000000	-1.08645	0.791636	-0.795573	-3.2377	0.828962	-1.57475	0.1	0.1	0.1	0.1	0.1	0.1	0	0	0	0	0	0	0.000000000
1504111131.334667921	-1.07685	0.762388	-0.822214	-3.23363	0.808408	-1.59534	0	0	0	0	0	0	0	0	0	0	0	0	0.000000000	-1.08645	0.791636	-0.795573	-3.2377	0.828962	-1.57475	0.1	0.1	0.1	0.1	0.1	0.1	0	0	0	0	0	0	0.000000000
1504111131.354434013	-1.07685	0.760854	-0.822214	-3.23363	0.808408	-1.59534	0	0	0	0	0	0	0	0	0	0	0	0	0.000000000	-1.08618	0.792788	-0.798289	-3.23777	0.82907	-1.57633	0.1	0.1	0.1	0.1	0.1	0.1	0	0	0	0	0	0	0.000000000
1504111131.378424882	-1.07839	0.762388	-0.822214	-3.23363	0.808408	-1.59687	0	0	0	0	0	0	0	0	0	0	0	0	0.000000000	-1.08618	0.792788	-0.798289	-3.23777	0.82907	-1.57633	0.1	0.1	0.1	0.1	0.1	0.1	0	0	0	0	0	0	0.000000000
1504111131.395684957	-1.07839	0.762388	-0.822214	-3.23363	0.808408	-1.59687	0	0	0	0	0	0	0	0	0	0	0	0	0.000000000	-1.08584	0.794206	-0.801605	-3.23785	0.829205	-1.57826	0.1	0.1	0.1	0.1	0.1	0.1	0	0	0	0	0	0	0.000000000
1504111131.414577960	-1.07839	0.760854	-0.82068	-3.23363	0.808408	-1.59534	0	0	0	0	0	0	0	0	0	0	0	0	0.000000000	-1.08584	0.794206	-0.801605	-3.23785	0.829205	-1.57826	0.1	0.1	0.1	0.1	0.1	0.1	0	0	0	0	0	0	0.000000000
1504111131.438651084	-1.07839	0.762388	-0.822214	-3.23363	0.808408	-1.59687	0	0	0	0	0	0	0	0	0	0	0	0	0.000000000	-1.08584	0.794206	-0.801605	-3.23785	0.829205	-1.57826	0.1	0.1	0.1	0.1	0.1	0.1	0	0	0	0	0	0	0.000000000
1504111131.454974889	-1.07839	0.762388	-0.822214	-3.23363	0.808408	-1.59687	0	0	0	0	0	0	0	0	0	0	0	0	0.000000000	-1.08545	0.795915	-0.805564	-3.23795	0.82937	-1.58056	0.1	0.1	0.1	0.1	0.1	0.1	0	0	0	0	0	0	0.000000000
1504111131.474785089	-1.07839	0.762388	-0.822214	-3.23363	0.806874	-1.59534	0	0	0	0	0	0	0	0	0	0	0	0	0.000000000	-1.08545	0.795915	-0.805564	-3.23795	0.82937	-1.58056	0.1	0.1	0.1	0.1	0.1	0.1	0	0	0	0	0	0	0.000000000
1504111131.495171070	-1.07685	0.762388	-0.822214	-3.23363	0.808408	-1.59687	0	0	0	0	0	0	0	0	0	0	0	0	0.000000000	-1.08498	0.79794	-0.810204	-3.23806	0.829567	-1.58324	0.1	0.1	0.1	0.1	0.1	0.1	0	0	0	0	0	0	0.000000000
1504111131.514411926	-1.07839	0.762388	-0.822214	-3.23363	0.808408	-1.59534	0	0	0	0	0	0	0	0	0	0	0	0	0.000000000	-1.08498	0.79794	-0.810204	-3.23806	0.829567	-1.58324	0.1	0.1	0.1	0.1	0.1	0.1	0	0	0	0	0	0	0.000000000
1504111131.534604072	-1.07685	0.760854	-0.822214	-3.23363	0.808408	-1.59687	0	0	0	0	0	0	0	0	0	0	0	0	0.000000000	-1.08498	0.79794	-0.810204	-3.23806	0.829567	-1.58324	0.1	0.1	0.1	0.1	0.1	0.1	0	0	0	0	0	0	0.000000000
1504111131.554326057	-1.07839	0.762388	-0.822214	-3.23363	0.808408	-1.59687	0	0	0	0	0	0	0	0	0	0	0	0	0.000000000	-1.08444	0.800307	-0.815558	-3.2382	0.8298	-1.58633	0.1	0.1	0.106011	0.1	0.1	0.1	0	0	0	0	0	0	0.000000000
1504111131.578201055	-1.07685	0.762388	-0.822214	-3.23363	0.808408	-1.59687	0	0	0	0	0	0	0	0	0	0	0	0	0.000000000	-1.08444	0.800307	-0.815558	-3.2382	0.8298	-1.58633	0.1	0.1	0.106011	0.1	0.1	0.1	0	0	0	0	0	0	0.000000000
1504111131.594540119	-1.07685	0.762388	-0.822214	-3.23363	0.808408	-1.59687	0	0	0	0	0	0	0	0	0	0	0	0	0.000000000	-1.08382	0.803041	-0.821656	-3.23836	0.830074	-1.58984	0.1	0.1	0.120725	0.1	0.1	0.1	0	0	0	0	0	0	0.000000000
1504111131.614340066	-1.07685	0.762388	-0.823748	-3.23363	0.808408	-1.59534	0	0	0	0	0	0	0	0	0	0	0	0	0.000000000	-1.08382	0.803041	-0.821656	-3.23836	0.830074	-1.58984	0.1	0.1	0.120725	0.1	0.1	0.1	0	0	0	0	0	0	0.000000000
1504111131.634469985	-1.07839	0.762388	-0.825282	-3.23363	0.808408	-1.59687	0	0	0	0	0	0	0	0	0	0	0	0	0.000000000	-1.08382	0.803041	-0.821656	-3.23836	0.830074	-1.58984	0.1	0.1	0.120725	0.1	0.1	0.1	0	0	0	0	0	0	0.000000000
1504111131.659637928	-1.07839	0.762388	-0.825282	-3.23363	0.808408	-1.59687	0	0	0	0	0	0	0	0	0	0	0	0	0.000000000	-1.08313	0.80617	-0.828521	-3.23855	0.830393	-1.59377	0.1	0.1	0.135928	0.1	0.1	0.1	0	0	0	0	0	0	0.000000000
1504111131.674390077	-1.07685	0.763922	-0.82835	-3.23363	0.809942	-1.59687	0	0	0.107442	0	0	0	0	0	0	0	0	0	0.000000000	-1.08313	0.80617	-0.828521	-3.23855	0.830393	-1.59377	0.1	0.1	0.135928	0.1	0.1	0.1	0	0	0	0	0	0	0.000000000
1504111131.694856882	-1.07685	0.765456	-0.831418	-3.23363	0.808408	-1.59687	0	0	0.107442	0	0	0	0	0	0	0	0	0	0.000000000	-1.08313	0.80617	-0.828521	-3.23855	0.830393	-1.59377	0.1	0.1	0.135928	0.1	0.1	0.1	0	0	0	0	0	0	0.000000000
1504111131.718760013	-1.07685	0.76699	-0.83602	-3.23363	0.808408	-1.59841	0	0	0.155195	0	0	0	0	0	0	0	0	0	0.000000000	-1.08235	0.80972	-0.836174	-3.23876	0.830761	-1.59814	0.1	0.1	0.151538	0.1	0.1	0.1	0	0	0	0	0	0	0.000000000
1504111131.742605924	-1.07532	0.768524	-0.839087	-3.23363	0.808408	-1.60148	0	0	0.155195	0	0	0.107442	0	0	0	0	0	0	0.000000000	-1.08235	0.80972	-0.836174	-3.23876	0.830761	-1.59814	0.1	0.1	0.151538	0.1	0.1	0.1	0	0	0	0	0	0	0.000000000
1504111131.754657030	-1.07532	0.768524	-0.839087	-3.23363	0.808408	-1.60148	0	0	0.155195	0	0	0.107442	0	0	0	0	0	0	0.000000000	-1.0815	0.813721	-0.844632	-3.239	0.831182	-1.60295	0.1	0.1	0.167461	0.1	0.1	0.1	0	0	0	0	0	0	0.000000000
