DingWan/Reconbot3Ddemo/02_MATLAB_Code/sensors_data/encoders_data_3T1R_0109.txt
time_stamp	actual_pos_joint_4	actual_pos_joint_5	actual_pos_joint_3	actual_pos_joint_1	actual_pos_joint_2	actual_pos_joint_6	actual_pos_joint_7	actual_vel_joint_4	actual_vel_joint_5	actual_vel_joint_3	actual_vel_joint_1	actual_vel_joint_2	actual_vel_joint_6	actual_vel_joint_7	actual_acc_joint_4	actual_acc_joint_5	actual_acc_joint_3	actual_acc_joint_1	actual_acc_joint_2	actual_acc_joint_6	actual_acc_joint_7	actual_time_from_start	desired_pos_joint_4	desired_pos_joint_5	desired_pos_joint_3	desired_pos_joint_1	desired_pos_joint_2	desired_pos_joint_6	desired_pos_joint_7	desired_vel_joint_4	desired_vel_joint_5	desired_vel_joint_3	desired_vel_joint_1	desired_vel_joint_2	desired_vel_joint_6	desired_vel_joint_7	desired_acc_joint_4	desired_acc_joint_5	desired_acc_joint_3	desired_acc_joint_1	desired_acc_joint_2	desired_acc_joint_6	desired_acc_joint_7	desired_time_from_start
1504278037.638786077	0.00460194	0.776194	-0.811476	0.00920388	0.785398	-1.61375	0.0076699	0	0	0	0	0	0	0	0	0	0	0	0	0	0	0.000000000	1.9984e-15	0.788798	-0.788798	-1.80411e-16	0.828698	-1.5708	0	0.1	0.1	0.1	0.1	0.1	0.1	0.1	0	0	0	0	0	0	0	0.000000000
1504278037.659133911	0.00460194	0.776194	-0.811476	0.00920388	0.785398	-1.61375	0.0076699	0	0	0	0	0	0	0	0	0	0	0	0	0	0	0.000000000	1.9984e-15	0.788798	-0.788798	-1.80411e-16	0.828698	-1.5708	0	0.1	0.1	0.1	0.1	0.1	0.1	0.1	0	0	0	0	0	0	0	0.000000000
1504278037.678706884	0.00460194	0.776194	-0.811476	0.00920388	0.785398	-1.61221	0.0076699	0	0	0	0	0	0	0	0	0	0	0	0	0	0	0.000000000	1.9984e-15	0.788798	-0.788798	-1.80411e-16	0.828698	-1.5708	0	0.1	0.1	0.1	0.1	0.1	0.1	0.1	0	0	0	0	0	0	0	0.000000000
1504278037.698719978	0.00460194	0.776194	-0.811476	0.00920388	0.785398	-1.61221	0.0076699	0	0	0	0	0	0	0	0	0	0	0	0	0	0	0.000000000	1.9984e-15	0.788798	-0.788798	-1.80411e-16	0.828698	-1.5708	0	0.1	0.1	0.1	0.1	0.1	0.1	0.1	0	0	0	0	0	0	0	0.000000000
1504278037.718750000	0.00460194	0.776194	-0.811476	0.00920388	0.785398	-1.61221	0.0076699	0	0	0	0	0	0	0	0	0	0	0	0	0	0	0.000000000	1.9984e-15	0.788798	-0.788798	-1.80411e-16	0.828698	-1.5708	0	0.1	0.1	0.1	0.1	0.1	0.1	0.1	0	0	0	0	0	0	0	0.000000000
1504278037.738671064	0.00460194	0.776194	-0.811476	0.00920388	0.785398	-1.61375	0.0076699	0	0	0	0	0	0	0	0	0	0	0	0	0	0	0.000000000	1.9984e-15	0.788798	-0.788798	-1.80411e-16	0.828698	-1.5708	0	0.1	0.1	0.1	0.1	0.1	0.1	0.1	0	0	0	0	0	0	0	0.000000000
1504278037.758673906	0.00460194	0.776194	-0.811476	0.00920388	0.785398	-1.61375	0.0076699	0	0	0	0	0	0	0	0	0	0	0	0	0	0	0.000000000	1.9984e-15	0.788798	-0.788798	-1.80411e-16	0.828698	-1.5708	0	0.1	0.1	0.1	0.1	0.1	0.1	0.1	0	0	0	0	0	0	0	0.000000000
1504278037.778698921	0.00460194	0.776194	-0.811476	0.00920388	0.785398	-1.61221	0.0076699	0	0	0	0	0	0	0	0	0	0	0	0	0	0	0.000000000	1.9984e-15	0.788798	-0.788798	-1.80411e-16	0.828698	-1.5708	0	0.1	0.1	0.1	0.1	0.1	0.1	0.1	0	0	0	0	0	0	0	0.000000000
1504278037.798624038	0.00460194	0.776194	-0.811476	0.00920388	0.785398	-1.61221	0.0076699	0	0	0	0	0	0	0	0	0	0	0	0	0	0	0.000000000	1.9984e-15	0.788798	-0.788798	-1.80411e-16	0.828698	-1.5708	0	0.1	0.1	0.1	0.1	0.1	0.1	0.1	0	0	0	0	0	0	0	0.000000000
1504278037.818687915	0.00460194	0.776194	-0.811476	0.00920388	0.785398	-1.61221	0.0076699	0	0	0	0	0	0	0	0	0	0	0	0	0	0	0.000000000	1.9984e-15	0.788798	-0.788798	-1.80411e-16	0.828698	-1.5708	0	0.1	0.1	0.1	0.1	0.1	0.1	0.1	0	0	0	0	0	0	0	0.000000000
1504278037.838713884	0.00460194	0.776194	-0.811476	0.00920388	0.785398	-1.61375	0.0076699	0	0	0	0	0	0	0	0	0	0	0	0	0	0	0.000000000	1.9984e-15	0.788798	-0.788798	-1.80411e-16	0.828698	-1.5708	0	0.1	0.1	0.1	0.1	0.1	0.1	0.1	0	0	0	0	0	0	0	0.000000000
1504278037.858694076	0.00460194	0.776194	-0.811476	0.00920388	0.785398	-1.61375	0.0076699	0	0	0	0	0	0	0	0	0	0	0	0	0	0	0.000000000	1.9984e-15	0.788798	-0.788798	-1.80411e-16	0.828698	-1.5708	0	0.1	0.1	0.1	0.1	0.1	0.1	0.1	0	0	0	0	0	0	0	0.000000000
1504278037.878700971	0.00460194	0.776194	-0.811476	0.00920388	0.785398	-1.61375	0.0076699	0	0	0	0	0	0	0	0	0	0	0	0	0	0	0.000000000	1.9984e-15	0.788798	-0.788798	-1.80411e-16	0.828698	-1.5708	0	0.1	0.1	0.1	0.1	0.1	0.1	0.1	0	0	0	0	0	0	0	0.000000000
1504278037.899245977	0.00460194	0.776194	-0.811476	0.00920388	0.785398	-1.61221	0.0076699	0	0	0	0	0	0	0	0	0	0	0	0	0	0	0.000000000	1.9984e-15	0.788798	-0.788798	-1.80411e-16	0.828698	-1.5708	0	0.1	0.1	0.1	0.1	0.1	0.1	0.1	0	0	0	0	0	0	0	0.000000000
1504278037.921972990	0.00460194	0.776194	-0.811476	0.00920388	0.785398	-1.61221	0.0076699	0	0	0	0	0	0	0	0	0	0	0	0	0	0	0.000000000	1.9984e-15	0.788798	-0.788798	-1.80411e-16	0.828698	-1.5708	0	0.1	0.1	0.1	0.1	0.1	0.1	0.1	0	0	0	0	0	0	0	0.000000000
1504278037.938981056	0.00460194	0.776194	-0.811476	0.00920388	0.785398	-1.61375	0.0076699	0	0	0	0	0	0	0	0	0	0	0	0	0	0	0.000000000	1.9984e-15	0.788798	-0.788798	-1.80411e-16	0.828698	-1.5708	0	0.1	0.1	0.1	0.1	0.1	0.1	0.1	0	0	0	0	0	0	0	0.000000000
1504278037.958898067	0.00460194	0.776194	-0.811476	0.00920388	0.785398	-1.61375	0.0076699	0	0	0	0	0	0	0	0	0	0	0	0	0	0	0.000000000	1.9984e-15	0.788798	-0.788798	-1.80411e-16	0.828698	-1.5708	0	0.1	0.1	0.1	0.1	0.1	0.1	0.1	0	0	0	0	0	0	0	0.000000000
1504278037.978818893	0.00460194	0.776194	-0.811476	0.00920388	0.785398	-1.61375	0.0076699	0	0	0	0	0	0	0	0	0	0	0	0	0	0	0.000000000	1.9984e-15	0.788798	-0.788798	-1.80411e-16	0.828698	-1.5708	0	0.1	0.1	0.1	0.1	0.1	0.1	0.1	0	0	0	0	0	0	0	0.000000000
1504278037.998773097	0.00460194	0.776194	-0.811476	0.00920388	0.785398	-1.61375	0.0076699	0	0	0	0	0	0	0	0	0	0	0	0	0	0	0.000000000	1.9984e-15	0.788798	-0.788798	-1.80411e-16	0.828698	-1.5708	0	0.1	0.1	0.1	0.1	0.1	0.1	0.1	0	0	0	0	0	0	0	0.000000000
1504278038.019772052	0.00460194	0.776194	-0.811476	0.00920388	0.785398	-1.61375	0.0076699	0	0	0	0	0	0	0	0	0	0	0	0	0	0	0.000000000	1.9984e-15	0.788798	-0.788798	-1.80411e-16	0.828698	-1.5708	0	0.1	0.1	0.1	0.1	0.1	0.1	0.1	0	0	0	0	0	0	0	0.000000000
1504278038.042186021	0.00460194	0.776194	-0.811476	0.00920388	0.78233	-1.61375	0.0076699	0	0	0	0	0	0	0	0	0	0	0	0	0	0	0.000000000	1.9984e-15	0.788798	-0.788798	-1.80411e-16	0.828698	-1.5708	0	0.1	0.1	0.1	0.1	0.1	0.1	0.1	0	0	0	0	0	0	0	0.000000000
1504278038.059344053	0.00460194	0.776194	-0.811476	0.00920388	0.785398	-1.61375	0.0076699	0	0	0	0	0	0	0	0	0	0	0	0	0	0	0.000000000	1.9984e-15	0.788798	-0.788798	-1.80411e-16	0.828698	-1.5708	0	0.1	0.1	0.1	0.1	0.1	0.1	0.1	0	0	0	0	0	0	0	0.000000000
1504278038.078879117	0.00460194	0.776194	-0.811476	0.00920388	0.785398	-1.61375	0.0076699	0	0	0	0	0	0	0	0	0	0	0	0	0	0	0.000000000	1.9984e-15	0.788798	-0.788798	-1.80411e-16	0.828698	-1.5708	0	0.1	0.1	0.1	0.1	0.1	0.1	0.1	0	0	0	0	0	0	0	0.000000000
1504278038.098952054	0.00460194	0.776194	-0.811476	0.00920388	0.785398	-1.61375	0.0076699	0	0	0	0	0	0	0	0	0	0	0	0	0	0	0.000000000	1.9984e-15	0.788798	-0.788798	-1.80411e-16	0.828698	-1.5708	0	0.1	0.1	0.1	0.1	0.1	0.1	0.1	0	0	0	0	0	0	0	0.000000000
1504278038.119358062	0.00460194	0.776194	-0.811476	0.00920388	0.785398	-1.61375	0.0076699	0	0	0	0	0	0	0	0	0	0	0	0	0	0	0.000000000	1.9984e-15	0.788798	-0.788798	-1.80411e-16	0.828698	-1.5708	0	0.1	0.1	0.1	0.1	0.1	0.1	0.1	0	0	0	0	0	0	0	0.000000000
1504278038.139569044	0.00460194	0.776194	-0.811476	0.00920388	0.785398	-1.61375	0.0076699	0	0	0	0	0	0	0	0	0	0	0	0	0	0	0.000000000	1.9984e-15	0.788798	-0.788798	-1.80411e-16	0.828698	-1.5708	0	0.1	0.1	0.1	0.1	0.1	0.1	0.1	0	0	0	0	0	0	0	0.000000000
1504278038.160803079	0.00460194	0.776194	-0.811476	0.00920388	0.785398	-1.61221	0.0076699	0	0	0	0	0	0	0	0	0	0	0	0	0	0	0.000000000	1.9984e-15	0.788798	-0.788798	-1.80411e-16	0.828698	-1.5708	0	0.1	0.1	0.1	0.1	0.1	0.1	0.1	0	0	0	0	0	0	0	0.000000000
1504278038.178863048	0.00460194	0.776194	-0.811476	0.00920388	0.785398	-1.61375	0.00920388	0	0	0	0	0	0	0	0	0	0	0	0	0	0	0.000000000	1.9984e-15	0.788798	-0.788798	-1.80411e-16	0.828698	-1.5708	0	0.1	0.1	0.1	0.1	0.1	0.1	0.1	0	0	0	0	0	0	0	0.000000000
1504278038.198705911	0.00460194	0.776194	-0.811476	0.00920388	0.785398	-1.61221	0.0076699	0	0	0	0	0	0	0	0	0	0	0	0	0	0	0.000000000	1.9984e-15	0.788798	-0.788798	-1.80411e-16	0.828698	-1.5708	0	0.1	0.1	0.1	0.1	0.1	0.1	0.1	0	0	0	0	0	0	0	0.000000000
1504278038.218673944	0.00460194	0.776194	-0.811476	0.00920388	0.785398	-1.61221	0.0076699	0	0	0	0	0	0	0	0	0	0	0	0	0	0	0.000000000	1.9984e-15	0.788798	-0.788798	-1.80411e-16	0.828698	-1.5708	0	0.1	0.1	0.1	0.1	0.1	0.1	0.1	0	0	0	0	0	0	0	0.000000000
1504278038.238729953	0.00460194	0.776194	-0.811476	0.00920388	0.785398	-1.61375	0.0076699	0	0	0	0	0	0	0	0	0	0	0	0	0	0	0.000000000	1.9984e-15	0.788798	-0.788798	-1.80411e-16	0.828698	-1.5708	0	0.1	0.1	0.1	0.1	0.1	0.1	0.1	0	0	0	0	0	0	0	0.000000000
1504278038.258702039	0.00460194	0.776194	-0.811476	0.00920388	0.785398	-1.61221	0.0076699	0	0	0	0	0	0	0	0	0	0	0	0	0	0	0.000000000	1.9984e-15	0.788798	-0.788798	-1.80411e-16	0.828698	-1.5708	0	0.1	0.1	0.1	0.1	0.1	0.1	0.1	0	0	0	0	0	0	0	0.000000000
1504278038.278717994	0.00460194	0.776194	-0.811476	0.00920388	0.785398	-1.61375	0.0076699	0	0	0	0	0	0	0	0	0	0	0	0	0	0	0.000000000	1.9984e-15	0.788798	-0.788798	-1.80411e-16	0.828698	-1.5708	0	0.1	0.1	0.1	0.1	0.1	0.1	0.1	0	0	0	0	0	0	0	0.000000000
1504278038.298726081	0.00460194	0.776194	-0.811476	0.00920388	0.785398	-1.61375	0.00920388	0	0	0	0	0	0	0	0	0	0	0	0	0	0	0.000000000	1.9984e-15	0.788798	-0.788798	-1.80411e-16	0.828698	-1.5708	0	0.1	0.1	0.1	0.1	0.1	0.1	0.1	0	0	0	0	0	0	0	0.000000000
1504278038.319436073	0.00460194	0.776194	-0.811476	0.00920388	0.785398	-1.61375	0.00920388	0	0	0	0	0	0	0	0	0	0	0	0	0	0	0.000000000	1.9984e-15	0.788798	-0.788798	-1.80411e-16	0.828698	-1.5708	0	0.1	0.1	0.1	0.1	0.1	0.1	0.1	0	0	0	0	0	0	0	0.000000000
1504278038.339046001	0.00460194	0.776194	-0.811476	0.00920388	0.785398	-1.61221	0.0076699	0	0	0	0	0	0	0	0	0	0	0	0	0	0	0.000000000	1.9984e-15	0.788798	-0.788798	-1.80411e-16	0.828698	-1.5708	0	0.1	0.1	0.1	0.1	0.1	0.1	0.1	0	0	0	0	0	0	0	0.000000000
1504278038.360351085	0.00460194	0.776194	-0.811476	0.00920388	0.785398	-1.61221	0.0076699	0	0	0	0	0	0	0	0	0	0	0	0	0	0	0.000000000	1.9984e-15	0.788798	-0.788798	-1.80411e-16	0.828698	-1.5708	0	0.1	0.1	0.1	0.1	0.1	0.1	0.1	0	0	0	0	0	0	0	0.000000000
1504278038.380740880	0.00460194	0.776194	-0.811476	0.00920388	0.785398	-1.61375	0.0076699	0	0	0	0	0	0	0	0	0	0	0	0	0	0	0.000000000	1.9984e-15	0.788798	-0.788798	-1.80411e-16	0.828698	-1.5708	0	0.1	0.1	0.1	0.1	0.1	0.1	0.1	0	0	0	0	0	0	0	0.000000000
1504278038.399490118	0.00460194	0.776194	-0.811476	0.00920388	0.785398	-1.61375	0.0076699	0	0	0	0	0	0	0	0	0	0	0	0	0	0	0.000000000	1.9984e-15	0.788798	-0.788798	-1.80411e-16	0.828698	-1.5708	0	0.1	0.1	0.1	0.1	0.1	0.1	0.1	0	0	0	0	0	0	0	0.000000000
1504278038.418936967	0.00460194	0.776194	-0.811476	0.00920388	0.785398	-1.61375	0.0076699	0	0	0	0	0	0	0	0	0	0	0	0	0	0	0.000000000	1.9984e-15	0.788798	-0.788798	-1.80411e-16	0.828698	-1.5708	0	0.1	0.1	0.1	0.1	0.1	0.1	0.1	0	0	0	0	0	0	0	0.000000000
1504278038.438935995	0.00460194	0.776194	-0.811476	0.00920388	0.785398	-1.61375	0.0076699	0	0	0	0	0	0	0	0	0	0	0	0	0	0	0.000000000	1.9984e-15	0.788798	-0.788798	-1.80411e-16	0.828698	-1.5708	0	0.1	0.1	0.1	0.1	0.1	0.1	0.1	0	0	0	0	0	0	0	0.000000000
1504278038.464740991	0.00613592	0.776194	-0.811476	0.00920388	0.785398	-1.61375	0.0076699	0	0	0	0	0	0	0	0	0	0	0	0	0	0	0.000000000	1.9984e-15	0.788798	-0.788798	-1.80411e-16	0.828698	-1.5708	0	0.1	0.1	0.1	0.1	0.1	0.1	0.1	0	0	0	0	0	0	0	0.000000000
1504278038.479075908	0.00613592	0.776194	-0.811476	0.00920388	0.785398	-1.61375	0.0076699	0	0	0	0	0	0	0	0	0	0	0	0	0	0	0.000000000	1.9984e-15	0.788798	-0.788798	-1.80411e-16	0.828698	-1.5708	0	0.1	0.1	0.1	0.1	0.1	0.1	0.1	0	0	0	0	0	0	0	0.000000000
1504278038.498908042	0.00613592	0.776194	-0.811476	0.00920388	0.785398	-1.61221	0.0076699	0	0	0	0	0	0	0	0	0	0	0	0	0	0	0.000000000	1.9984e-15	0.788798	-0.788798	-1.80411e-16	0.828698	-1.5708	0	0.1	0.1	0.1	0.1	0.1	0.1	0.1	0	0	0	0	0	0	0	0.000000000
1504278038.521730899	0.00460194	0.776194	-0.811476	0.00920388	0.785398	-1.61375	0.0076699	0	0	0	0	0	0	0	0	0	0	0	0	0	0	0.000000000	1.9984e-15	0.788798	-0.788798	-1.80411e-16	0.828698	-1.5708	0	0.1	0.1	0.1	0.1	0.1	0.1	0.1	0	0	0	0	0	0	0	0.000000000
1504278038.542912006	0.00460194	0.776194	-0.811476	0.00920388	0.785398	-1.61375	0.0076699	0	0	0	0	0	0	0	0	0	0	0	0	0	0	0.000000000	1.9984e-15	0.788798	-0.788798	-1.80411e-16	0.828698	-1.5708	0	0.1	0.1	0.1	0.1	0.1	0.1	0.1	0	0	0	0	0	0	0	0.000000000
1504278038.558811902	0.00460194	0.776194	-0.811476	0.00920388	0.785398	-1.61375	0.0076699	0	0	0	0	0	0	0	0	0	0	0	0	0	0	0.000000000	1.9984e-15	0.788798	-0.788798	-1.80411e-16	0.828698	-1.5708	0	0.1	0.1	0.1	0.1	0.1	0.1	0.1	0	0	0	0	0	0	0	0.000000000
1504278038.578778982	0.00460194	0.776194	-0.811476	0.00920388	0.785398	-1.61375	0.0076699	0	0	0	0	0	0	0	0	0	0	0	0	0	0	0.000000000	1.9984e-15	0.788798	-0.788798	-1.80411e-16	0.828698	-1.5708	0	0.1	0.1	0.1	0.1	0.1	0.1	0.1	0	0	0	0	0	0	0	0.000000000
1504278038.598809003	0.00613592	0.776194	-0.811476	0.00920388	0.785398	-1.61375	0.0076699	0	0	0	0	0	0	0	0	0	0	0	0	0	0	0.000000000	1.9984e-15	0.788798	-0.788798	-1.80411e-16	0.828698	-1.5708	0	0.1	0.1	0.1	0.1	0.1	0.1	0.1	0	0	0	0	0	0	0	0.000000000
1504278038.618805885	0.00460194	0.776194	-0.811476	0.00920388	0.785398	-1.61375	0.0076699	0	0	0	0	0	0	0	0	0	0	0	0	0	0	0.000000000	1.9984e-15	0.788798	-0.788798	-1.80411e-16	0.828698	-1.5708	0	0.1	0.1	0.1	0.1	0.1	0.1	0.1	0	0	0	0	0	0	0	0.000000000
1504278038.639027118	0.00460194	0.776194	-0.811476	0.00920388	0.785398	-1.61221	0.0076699	0	0	0	0	0	0	0	0	0	0	0	0	0	0	0.000000000	1.9984e-15	0.788798	-0.788798	-1.80411e-16	0.828698	-1.5708	0	0.1	0.1	0.1	0.1	0.1	0.1	0.1	0	0	0	0	0	0	0	0.000000000
1504278038.659851074	0.00460194	0.776194	-0.811476	0.00920388	0.785398	-1.61375	0.0076699	0	0	0	0	0	0	0	0	0	0	0	0	0	0	0.000000000	1.9984e-15	0.788798	-0.788798	-1.80411e-16	0.828698	-1.5708	0	0.1	0.1	0.1	0.1	0.1	0.1	0.1	0	0	0	0	0	0	0	0.000000000
1504278038.681879997	0.00460194	0.776194	-0.811476	0.00920388	0.785398	-1.61375	0.0076699	0	0	0	0	0	0	0	0	0	0	0	0	0	0	0.000000000	1.9984e-15	0.788798	-0.788798	-1.80411e-16	0.828698	-1.5708	0	0.1	0.1	0.1	0.1	0.1	0.1	0.1	0	0	0	0	0	0	0	0.000000000
1504278038.698936939	0.00460194	0.776194	-0.811476	0.00920388	0.785398	-1.61375	0.0076699	0	0	0	0	0	0	0	0	0	0	0	0	0	0	0.000000000	1.9984e-15	0.788798	-0.788798	-1.80411e-16	0.828698	-1.5708	0	0.1	0.1	0.1	0.1	0.1	0.1	0.1	0	0	0	0	0	0	0	0.000000000
1504278038.718898057	0.00460194	0.776194	-0.811476	0.00920388	0.785398	-1.61375	0.0076699	0	0	0	0	0	0	0	0	0	0	0	0	0	0	0.000000000	1.9984e-15	0.788798	-0.788798	-1.80411e-16	0.828698	-1.5708	0	0.1	0.1	0.1	0.1	0.1	0.1	0.1	0	0	0	0	0	0	0	0.000000000
1504278038.740293025	0.00460194	0.776194	-0.811476	0.00920388	0.785398	-1.61375	0.0076699	0	0	0	0	0	0	0	0	0	0	0	0	0	0	0.000000000	1.9984e-15	0.788798	-0.788798	-1.80411e-16	0.828698	-1.5708	0	0.1	0.1	0.1	0.1	0.1	0.1	0.1	0	0	0	0	0	0	0	0.000000000
1504278038.759761095	0.00460194	0.776194	-0.811476	0.00920388	0.785398	-1.61375	0.0076699	0	0	0	0	0	0	0	0	0	0	0	0	0	0	0.000000000	1.9984e-15	0.788798	-0.788798	-1.80411e-16	0.828698	-1.5708	0	0.1	0.1	0.1	0.1	0.1	0.1	0.1	0	0	0	0	0	0	0	0.000000000
1504278038.781438112	0.00460194	0.776194	-0.811476	0.00920388	0.785398	-1.61375	0.0076699	0	0	0	0	0	0	0	0	0	0	0	0	0	0	0.000000000	1.9984e-15	0.788798	-0.788798	-1.80411e-16	0.828698	-1.5708	0	0.1	0.1	0.1	0.1	0.1	0.1	0.1	0	0	0	0	0	0	0	0.000000000
1504278038.798913955	0.00460194	0.776194	-0.811476	0.00920388	0.785398	-1.61375	0.0076699	0	0	0	0	0	0	0	0	0	0	0	0	0	0	0.000000000	1.9984e-15	0.788798	-0.788798	-1.80411e-16	0.828698	-1.5708	0	0.1	0.1	0.1	0.1	0.1	0.1	0.1	0	0	0	0	0	0	0	0.000000000
1504278038.818939924	0.00613592	0.776194	-0.811476	0.00920388	0.785398	-1.61375	0.0076699	0	0	0	0	0	0	0	0	0	0	0	0	0	0	0.000000000	1.9984e-15	0.788798	-0.788798	-1.80411e-16	0.828698	-1.5708	0	0.1	0.1	0.1	0.1	0.1	0.1	0.1	0	0	0	0	0	0	0	0.000000000
1504278038.842957019	0.00460194	0.776194	-0.811476	0.00920388	0.785398	-1.61375	0.0076699	0	0	0	0	0	0	0	0	0	0	0	0	0	0	0.000000000	1.9984e-15	0.788798	-0.788798	-1.80411e-16	0.828698	-1.5708	0	0.1	0.1	0.1	0.1	0.1	0.1	0.1	0	0	0	0	0	0	0	0.000000000
1504278038.859834909	0.00460194	0.776194	-0.811476	0.00920388	0.78233	-1.61221	0.0076699	0	0	0	0	0	0	0	0	0	0	0	0	0	0	0.000000000	1.9984e-15	0.788798	-0.788798	-1.80411e-16	0.828698	-1.5708	0	0.1	0.1	0.1	0.1	0.1	0.1	0.1	0	0	0	0	0	0	0	0.000000000
1504278038.879384994	0.00460194	0.776194	-0.811476	0.00920388	0.785398	-1.61221	0.0076699	0	0	0	0	0	0	0	0	0	0	0	0	0	0	0.000000000	1.9984e-15	0.788798	-0.788798	-1.80411e-16	0.828698	-1.5708	0	0.1	0.1	0.1	0.1	0.1	0.1	0.1	0	0	0	0	0	0	0	0.000000000
1504278038.899816036	0.00460194	0.776194	-0.811476	0.00920388	0.785398	-1.61221	0.0076699	0	0	0	0	0	0	0	0	0	0	0	0	0	0	0.000000000	1.9984e-15	0.788798	-0.788798	-1.80411e-16	0.828698	-1.5708	0	0.1	0.1	0.1	0.1	0.1	0.1	0.1	0	0	0	0	0	0	0	0.000000000
1504278038.919034957	0.00460194	0.776194	-0.811476	0.00920388	0.785398	-1.61375	0.0076699	0	0	0	0	0	0	0	0	0	0	0	0	0	0	0.000000000	1.9984e-15	0.788798	-0.788798	-1.80411e-16	0.828698	-1.5708	0	0.1	0.1	0.1	0.1	0.1	0.1	0.1	0	0	0	0	0	0	0	0.000000000
1504278038.939105033	0.00460194	0.776194	-0.811476	0.00920388	0.785398	-1.61375	0.0076699	0	0	0	0	0	0	0	0	0	0	0	0	0	0	0.000000000	1.9984e-15	0.788798	-0.788798	-1.80411e-16	0.828698	-1.5708	0	0.1	0.1	0.1	0.1	0.1	0.1	0.1	0	0	0	0	0	0	0	0.000000000
1504278038.959791898	0.00460194	0.776194	-0.811476	0.00920388	0.785398	-1.61375	0.0076699	0	0	0	0	0	0	0	0	0	0	0	0	0	0	0.000000000	1.9984e-15	0.788798	-0.788798	-1.80411e-16	0.828698	-1.5708	0	0.1	0.1	0.1	0.1	0.1	0.1	0.1	0	0	0	0	0	0	0	0.000000000
1504278038.979475975	0.00460194	0.776194	-0.811476	0.00920388	0.785398	-1.61375	0.0076699	0	0	0	0	0	0	0	0	0	0	0	0	0	0	0.000000000	1.9984e-15	0.788798	-0.788798	-1.80411e-16	0.828698	-1.5708	0	0.1	0.1	0.1	0.1	0.1	0.1	0.1	0	0	0	0	0	0	0	0.000000000
1504278038.998893976	0.00460194	0.776194	-0.811476	0.00920388	0.785398	-1.61375	0.0076699	0	0	0	0	0	0	0	0	0	0	0	0	0	0	0.000000000	1.9984e-15	0.788798	-0.788798	-1.80411e-16	0.828698	-1.5708	0	0.1	0.1	0.1	0.1	0.1	0.1	0.1	0	0	0	0	0	0	0	0.000000000
1504278039.018878936	0.00460194	0.776194	-0.811476	0.00920388	0.785398	-1.61375	0.0076699	0	0	0	0	0	0	0	0	0	0	0	0	0	0	0.000000000	1.9984e-15	0.788798	-0.788798	-1.80411e-16	0.828698	-1.5708	0	0.1	0.1	0.1	0.1	0.1	0.1	0.1	0	0	0	0	0	0	0	0.000000000
1504278039.038917064	0.00460194	0.776194	-0.811476	0.00920388	0.785398	-1.61221	0.0076699	0	0	0	0	0	0	0	0	0	0	0	0	0	0	0.000000000	1.9984e-15	0.788798	-0.788798	-1.80411e-16	0.828698	-1.5708	0	0.1	0.1	0.1	0.1	0.1	0.1	0.1	0	0	0	0	0	0	0	0.000000000
1504278039.063827991	0.00460194	0.776194	-0.811476	0.00920388	0.785398	-1.61221	0.0076699	0	0	0	0	0	0	0	0	0	0	0	0	0	0	0.000000000	1.9984e-15	0.788798	-0.788798	-1.80411e-16	0.828698	-1.5708	0	0.1	0.1	0.1	0.1	0.1	0.1	0.1	0	0	0	0	0	0	0	0.000000000
1504278039.079627037	0.00460194	0.776194	-0.811476	0.00920388	0.785398	-1.61221	0.0076699	0	0	0	0	0	0	0	0	0	0	0	0	0	0	0.000000000	1.9984e-15	0.788798	-0.788798	-1.80411e-16	0.828698	-1.5708	0	0.1	0.1	0.1	0.1	0.1	0.1	0.1	0	0	0	0	0	0	0	0.000000000
1504278039.099572896	0.00613592	0.776194	-0.811476	0.00920388	0.785398	-1.61375	0.0076699	0	0	0	0	0	0	0	0	0	0	0	0	0	0	0.000000000	1.9984e-15	0.788798	-0.788798	-1.80411e-16	0.828698	-1.5708	0	0.1	0.1	0.1	0.1	0.1	0.1	0.1	0	0	0	0	0	0	0	0.000000000
1504278039.118880033	0.00460194	0.776194	-0.811476	0.00920388	0.785398	-1.61221	0.0076699	0	0	0	0	0	0	0	0	0	0	0	0	0	0	0.000000000	1.9984e-15	0.788798	-0.788798	-1.80411e-16	0.828698	-1.5708	0	0.1	0.1	0.1	0.1	0.1	0.1	0.1	0	0	0	0	0	0	0	0.000000000
1504278039.139117002	0.00460194	0.776194	-0.811476	0.00920388	0.785398	-1.61375	0.0076699	0	0	0	0	0	0	0	0	0	0	0	0	0	0	0.000000000	1.9984e-15	0.788798	-0.788798	-1.80411e-16	0.828698	-1.5708	0	0.1	0.1	0.1	0.1	0.1	0.1	0.1	0	0	0	0	0	0	0	0.000000000
1504278039.159327030	0.00460194	0.776194	-0.811476	0.00920388	0.785398	-1.61375	0.0076699	0	0	0	0	0	0	0	0	0	0	0	0	0	0	0.000000000	1.9984e-15	0.788798	-0.788798	-1.80411e-16	0.828698	-1.5708	0	0.1	0.1	0.1	0.1	0.1	0.1	0.1	0	0	0	0	0	0	0	0.000000000
1504278039.180306911	0.00460194	0.776194	-0.811476	0.00920388	0.785398	-1.61375	0.0076699	0	0	0	0	0	0	0	0	0	0	0	0	0	0	0.000000000	1.9984e-15	0.788798	-0.788798	-1.80411e-16	0.828698	-1.5708	0	0.1	0.1	0.1	0.1	0.1	0.1	0.1	0	0	0	0	0	0	0	0.000000000
1504278039.201164007	0.00460194	0.776194	-0.811476	0.00920388	0.785398	-1.61221	0.0076699	0	0	0	0	0	0	0	0	0	0	0	0	0	0	0.000000000	1.9984e-15	0.788798	-0.788798	-1.80411e-16	0.828698	-1.5708	0	0.1	0.1	0.1	0.1	0.1	0.1	0.1	0	0	0	0	0	0	0	0.000000000
1504278039.218926906	0.00460194	0.776194	-0.811476	0.00920388	0.785398	-1.61221	0.0076699	0	0	0	0	0	0	0	0	0	0	0	0	0	0	0.000000000	1.9984e-15	0.788798	-0.788798	-1.80411e-16	0.828698	-1.5708	0	0.1	0.1	0.1	0.1	0.1	0.1	0.1	0	0	0	0	0	0	0	0.000000000
1504278039.238853931	0.00460194	0.776194	-0.811476	0.00920388	0.785398	-1.61375	0.0076699	0	0	0	0	0	0	0	0	0	0	0	0	0	0	0.000000000	1.9984e-15	0.788798	-0.788798	-1.80411e-16	0.828698	-1.5708	0	0.1	0.1	0.1	0.1	0.1	0.1	0.1	0	0	0	0	0	0	0	0.000000000
1504278039.260854959	0.00460194	0.776194	-0.811476	0.00920388	0.78233	-1.61375	0.0076699	0	0	0	0	0	0	0	0	0	0	0	0	0	0	0.000000000	1.9984e-15	0.788798	-0.788798	-1.80411e-16	0.828698	-1.5708	0	0.1	0.1	0.1	0.1	0.1	0.1	0.1	0	0	0	0	0	0	0	0.000000000
1504278039.278866052	0.00460194	0.776194	-0.811476	0.00920388	0.785398	-1.61375	0.0076699	0	0	0	0	0	0	0	0	0	0	0	0	0	0	0.000000000	1.9984e-15	0.788798	-0.788798	-1.80411e-16	0.828698	-1.5708	0	0.1	0.1	0.1	0.1	0.1	0.1	0.1	0	0	0	0	0	0	0	0.000000000
1504278039.299218893	0.00460194	0.776194	-0.811476	0.00920388	0.785398	-1.61221	0.0076699	0	0	0	0	0	0	0	0	0	0	0	0	0	0	0.000000000	1.9984e-15	0.788798	-0.788798	-1.80411e-16	0.828698	-1.5708	0	0.1	0.1	0.1	0.1	0.1	0.1	0.1	0	0	0	0	0	0	0	0.000000000
1504278039.318903923	0.00460194	0.776194	-0.811476	0.00920388	0.785398	-1.61375	0.0076699	0	0	0	0	0	0	0	0	0	0	0	0	0	0	0.000000000	1.9984e-15	0.788798	-0.788798	-1.80411e-16	0.828698	-1.5708	0	0.1	0.1	0.1	0.1	0.1	0.1	0.1	0	0	0	0	0	0	0	0.000000000
1504278039.338944911	0.00460194	0.776194	-0.811476	0.00920388	0.785398	-1.61375	0.00920388	0	0	0	0	0	0	0	0	0	0	0	0	0	0	0.000000000	1.9984e-15	0.788798	-0.788798	-1.80411e-16	0.828698	-1.5708	0	0.1	0.1	0.1	0.1	0.1	0.1	0.1	0	0	0	0	0	0	0	0.000000000
1504278039.358973979	0.00460194	0.776194	-0.811476	0.00920388	0.785398	-1.61375	0.0076699	0	0	0	0	0	0	0	0	0	0	0	0	0	0	0.000000000	1.9984e-15	0.788798	-0.788798	-1.80411e-16	0.828698	-1.5708	0	0.1	0.1	0.1	0.1	0.1	0.1	0.1	0	0	0	0	0	0	0	0.000000000
1504278039.379090070	0.00460194	0.776194	-0.811476	0.00920388	0.785398	-1.61375	0.0076699	0	0	0	0	0	0	0	0	0	0	0	0	0	0	0.000000000	1.9984e-15	0.788798	-0.788798	-1.80411e-16	0.828698	-1.5708	0	0.1	0.1	0.1	0.1	0.1	0.1	0.1	0	0	0	0	0	0	0	0.000000000
1504278039.400413036	0.00460194	0.776194	-0.811476	0.00920388	0.785398	-1.61375	0.0076699	0	0	0	0	0	0	0	0	0	0	0	0	0	0	0.000000000	1.9984e-15	0.788798	-0.788798	-1.80411e-16	0.828698	-1.5708	0	0.1	0.1	0.1	0.1	0.1	0.1	0.1	0	0	0	0	0	0	0	0.000000000
1504278039.418911933	0.00460194	0.776194	-0.811476	0.00920388	0.785398	-1.61375	0.0076699	0	0	0	0	0	0	0	0	0	0	0	0	0	0	0.000000000	1.9984e-15	0.788798	-0.788798	-1.80411e-16	0.828698	-1.5708	0	0.1	0.1	0.1	0.1	0.1	0.1	0.1	0	0	0	0	0	0	0	0.000000000
1504278039.439012050	0.00460194	0.776194	-0.811476	0.00920388	0.785398	-1.61375	0.0076699	0	0	0	0	0	0	0	0	0	0	0	0	0	0	0.000000000	1.9984e-15	0.788798	-0.788798	-1.80411e-16	0.828698	-1.5708	0	0.1	0.1	0.1	0.1	0.1	0.1	0.1	0	0	0	0	0	0	0	0.000000000
1504278039.459606885	0.00460194	0.776194	-0.811476	0.00920388	0.785398	-1.61375	0.0076699	0	0	0	0	0	0	0	0	0	0	0	0	0	0	0.000000000	1.9984e-15	0.788798	-0.788798	-1.80411e-16	0.828698	-1.5708	0	0.1	0.1	0.1	0.1	0.1	0.1	0.1	0	0	0	0	0	0	0	0.000000000
1504278039.478739023	0.00460194	0.776194	-0.811476	0.00920388	0.785398	-1.61221	0.0076699	0	0	0	0	0	0	0	0	0	0	0	0	0	0	0.000000000	1.9984e-15	0.788798	-0.788798	-1.80411e-16	0.828698	-1.5708	0	0.1	0.1	0.1	0.1	0.1	0.1	0.1	0	0	0	0	0	0	0	0.000000000
1504278039.498825073	0.00460194	0.776194	-0.811476	0.00920388	0.785398	-1.61221	0.0076699	0	0	0	0	0	0	0	0	0	0	0	0	0	0	0.000000000	1.9984e-15	0.788798	-0.788798	-1.80411e-16	0.828698	-1.5708	0	0.1	0.1	0.1	0.1	0.1	0.1	0.1	0	0	0	0	0	0	0	0.000000000
1504278039.518929004	0.00460194	0.776194	-0.811476	0.00920388	0.785398	-1.61375	0.0076699	0	0	0	0	0	0	0	0	0	0	0	0	0	0	0.000000000	1.9984e-15	0.788798	-0.788798	-1.80411e-16	0.828698	-1.5708	0	0.1	0.1	0.1	0.1	0.1	0.1	0.1	0	0	0	0	0	0	0	0.000000000
1504278039.538865089	0.00460194	0.776194	-0.811476	0.00920388	0.785398	-1.61375	0.0076699	0	0	0	0	0	0	0	0	0	0	0	0	0	0	0.000000000	1.9984e-15	0.788798	-0.788798	-1.80411e-16	0.828698	-1.5708	0	0.1	0.1	0.1	0.1	0.1	0.1	0.1	0	0	0	0	0	0	0	0.000000000
1504278039.560146093	0.00460194	0.776194	-0.811476	0.00920388	0.785398	-1.61375	0.0076699	0	0	0	0	0	0	0	0	0	0	0	0	0	0	0.000000000	1.9984e-15	0.788798	-0.788798	-1.80411e-16	0.828698	-1.5708	0	0.1	0.1	0.1	0.1	0.1	0.1	0.1	0	0	0	0	0	0	0	0.000000000
1504278039.580617904	0.00460194	0.776194	-0.811476	0.00920388	0.785398	-1.61375	0.0076699	0	0	0	0	0	0	0	0	0	0	0	0	0	0	0.000000000	1.9984e-15	0.788798	-0.788798	-1.80411e-16	0.828698	-1.5708	0	0.1	0.1	0.1	0.1	0.1	0.1	0.1	0	0	0	0	0	0	0	0.000000000
1504278039.598994016	0.00460194	0.776194	-0.811476	0.00920388	0.785398	-1.61375	0.0076699	0	0	0	0	0	0	0	0	0	0	0	0	0	0	0.000000000	1.9984e-15	0.788798	-0.788798	-1.80411e-16	0.828698	-1.5708	0	0.1	0.1	0.1	0.1	0.1	0.1	0.1	0	0	0	0	0	0	0	0.000000000
1504278039.618876934	0.00460194	0.776194	-0.811476	0.00920388	0.785398	-1.61375	0.0076699	0	0	0	0	0	0	0	0	0	0	0	0	0	0	0.000000000	1.9984e-15	0.788798	-0.788798	-1.80411e-16	0.828698	-1.5708	0	0.1	0.1	0.1	0.1	0.1	0.1	0.1	0	0	0	0	0	0	0	0.000000000
1504278039.639054059	0.00460194	0.776194	-0.811476	0.00920388	0.785398	-1.61375	0.0076699	0	0	0	0	0	0	0	0	0	0	0	0	0	0	0.000000000	1.9984e-15	0.788798	-0.788798	-1.80411e-16	0.828698	-1.5708	0	0.1	0.1	0.1	0.1	0.1	0.1	0.1	0	0	0	0	0	0	0	0.000000000
1504278039.659815073	0.00460194	0.776194	-0.811476	0.00920388	0.785398	-1.61375	0.0076699	0	0	0	0	0	0	0	0	0	0	0	0	0	0	0.000000000	1.9984e-15	0.788798	-0.788798	-1.80411e-16	0.828698	-1.5708	0	0.1	0.1	0.1	0.1	0.1	0.1	0.1	0	0	0	0	0	0	0	0.000000000
1504278039.679527997	0.00460194	0.776194	-0.811476	0.00920388	0.785398	-1.61221	0.0076699	0	0	0	0	0	0	0	0	0	0	0	0	0	0	0.000000000	1.9984e-15	0.788798	-0.788798	-1.80411e-16	0.828698	-1.5708	0	0.1	0.1	0.1	0.1	0.1	0.1	0.1	0	0	0	0	0	0	0	0.000000000
1504278039.698868989	0.00460194	0.776194	-0.811476	0.00920388	0.785398	-1.61221	0.0076699	0	0	0	0	0	0	0	0	0	0	0	0	0	0	0.000000000	1.9984e-15	0.788798	-0.788798	-1.80411e-16	0.828698	-1.5708	0	0.1	0.1	0.1	0.1	0.1	0.1	0.1	0	0	0	0	0	0	0	0.000000000
1504278039.718945980	0.00460194	0.776194	-0.811476	0.00920388	0.785398	-1.61221	0.0076699	0	0	0	0	0	0	0	0	0	0	0	0	0	0	0.000000000	1.9984e-15	0.788798	-0.788798	-1.80411e-16	0.828698	-1.5708	0	0.1	0.1	0.1	0.1	0.1	0.1	0.1	0	0	0	0	0	0	0	0.000000000
1504278039.738920927	0.00460194	0.776194	-0.811476	0.00920388	0.785398	-1.61221	0.0076699	0	0	0	0	0	0	0	0	0	0	0	0	0	0	0.000000000	1.9984e-15	0.788798	-0.788798	-1.80411e-16	0.828698	-1.5708	0	0.1	0.1	0.1	0.1	0.1	0.1	0.1	0	0	0	0	0	0	0	0.000000000
1504278039.759638071	0.00460194	0.776194	-0.811476	0.00920388	0.785398	-1.61375	0.0076699	0	0	0	0	0	0	0	0	0	0	0	0	0	0	0.000000000	1.9984e-15	0.788798	-0.788798	-1.80411e-16	0.828698	-1.5708	0	0.1	0.1	0.1	0.1	0.1	0.1	0.1	0	0	0	0	0	0	0	0.000000000
1504278039.779864072	0.00460194	0.776194	-0.811476	0.00920388	0.785398	-1.61375	0.0076699	0	0	0	0	0	0	0	0	0	0	0	0	0	0	0.000000000	1.9984e-15	0.788798	-0.788798	-1.80411e-16	0.828698	-1.5708	0	0.1	0.1	0.1	0.1	0.1	0.1	0.1	0	0	0	0	0	0	0	0.000000000
1504278039.799928903	0.00460194	0.776194	-0.811476	0.00920388	0.785398	-1.61221	0.0076699	0	0	0	0	0	0	0	0	0	0	0	0	0	0	0.000000000	1.9984e-15	0.788798	-0.788798	-1.80411e-16	0.828698	-1.5708	0	0.1	0.1	0.1	0.1	0.1	0.1	0.1	0	0	0	0	0	0	0	0.000000000
1504278039.820055007	0.00460194	0.776194	-0.811476	0.00920388	0.785398	-1.61221	0.0076699	0	0	0	0	0	0	0	0	0	0	0	0	0	0	0.000000000	1.9984e-15	0.788798	-0.788798	-1.80411e-16	0.828698	-1.5708	0	0.1	0.1	0.1	0.1	0.1	0.1	0.1	0	0	0	0	0	0	0	0.000000000
1504278039.839005947	0.00460194	0.776194	-0.811476	0.00920388	0.785398	-1.61375	0.0076699	0	0	0	0	0	0	0	0	0	0	0	0	0	0	0.000000000	1.9984e-15	0.788798	-0.788798	-1.80411e-16	0.828698	-1.5708	0	0.1	0.1	0.1	0.1	0.1	0.1	0.1	0	0	0	0	0	0	0	0.000000000
1504278039.860570907	0.00460194	0.776194	-0.811476	0.00920388	0.785398	-1.61375	0.0076699	0	0	0	0	0	0	0	0	0	0	0	0	0	0	0.000000000	1.9984e-15	0.788798	-0.788798	-1.80411e-16	0.828698	-1.5708	0	0.1	0.1	0.1	0.1	0.1	0.1	0.1	0	0	0	0	0	0	0	0.000000000
1504278039.879007101	0.00460194	0.776194	-0.811476	0.00920388	0.785398	-1.61375	0.0076699	0	0	0	0	0	0	0	0	0	0	0	0	0	0	0.000000000	1.9984e-15	0.788798	-0.788798	-1.80411e-16	0.828698	-1.5708	0	0.1	0.1	0.1	0.1	0.1	0.1	0.1	0	0	0	0	0	0	0	0.000000000
1504278039.899615049	0.00460194	0.776194	-0.811476	0.00920388	0.785398	-1.61375	0.0076699	0	0	0	0	0	0	0	0	0	0	0	0	0	0	0.000000000	1.9984e-15	0.788798	-0.788798	-1.80411e-16	0.828698	-1.5708	0	0.1	0.1	0.1	0.1	0.1	0.1	0.1	0	0	0	0	0	0	0	0.000000000
1504278039.918998003	0.00460194	0.776194	-0.811476	0.00920388	0.785398	-1.61375	0.0076699	0	0	0	0	0	0	0	0	0	0	0	0	0	0	0.000000000	1.9984e-15	0.788798	-0.788798	-1.80411e-16	0.828698	-1.5708	0	0.1	0.1	0.1	0.1	0.1	0.1	0.1	0	0	0	0	0	0	0	0.000000000
1504278039.939086914	0.00460194	0.776194	-0.811476	0.00920388	0.785398	-1.61375	0.0076699	0	0	0	0	0	0	0	0	0	0	0	0	0	0	0.000000000	1.9984e-15	0.788798	-0.788798	-1.80411e-16	0.828698	-1.5708	0	0.1	0.1	0.1	0.1	0.1	0.1	0.1	0	0	0	0	0	0	0	0.000000000
1504278039.960125923	0.00460194	0.776194	-0.811476	0.00920388	0.785398	-1.61375	0.0076699	0	0	0	0	0	0	0	0	0	0	0	0	0	0	0.000000000	1.9984e-15	0.788798	-0.788798	-1.80411e-16	0.828698	-1.5708	0	0.1	0.1	0.1	0.1	0.1	0.1	0.1	0	0	0	0	0	0	0	0.000000000
1504278039.983763933	0.00460194	0.776194	-0.811476	0.00920388	0.785398	-1.61375	0.0076699	0	0	0	0	0	0	0	0	0	0	0	0	0	0	0.000000000	1.9984e-15	0.788798	-0.788798	-1.80411e-16	0.828698	-1.5708	0	0.1	0.1	0.1	0.1	0.1	0.1	0.1	0	0	0	0	0	0	0	0.000000000
1504278039.999193906	0.00460194	0.776194	-0.811476	0.00920388	0.785398	-1.61375	0.0076699	0	0	0	0	0	0	0	0	0	0	0	0	0	0	0.000000000	1.9984e-15	0.788798	-0.788798	-1.80411e-16	0.828698	-1.5708	0	0.1	0.1	0.1	0.1	0.1	0.1	0.1	0	0	0	0	0	0	0	0.000000000
1504278040.018985033	0.00460194	0.776194	-0.811476	0.00920388	0.785398	-1.61375	0.0076699	0	0	0	0	0	0	0	0	0	0	0	0	0	0	0.000000000	1.9984e-15	0.788798	-0.788798	-1.80411e-16	0.828698	-1.5708	0	0.1	0.1	0.1	0.1	0.1	0.1	0.1	0	0	0	0	0	0	0	0.000000000
1504278040.038861989	0.00460194	0.776194	-0.811476	0.00920388	0.785398	-1.61221	0.0076699	0	0	0	0	0	0	0	0	0	0	0	0	0	0	0.000000000	1.9984e-15	0.788798	-0.788798	-1.80411e-16	0.828698	-1.5708	0	0.1	0.1	0.1	0.1	0.1	0.1	0.1	0	0	0	0	0	0	0	0.000000000
1504278040.058909893	0.00460194	0.776194	-0.811476	0.00920388	0.78233	-1.61375	0.00920388	0	0	0	0	0	0	0	0	0	0	0	0	0	0	0.000000000	1.9984e-15	0.788798	-0.788798	-1.80411e-16	0.828698	-1.5708	0	0.1	0.1	0.1	0.1	0.1	0.1	0.1	0	0	0	0	0	0	0	0.000000000
1504278040.078897953	0.00460194	0.776194	-0.811476	0.00920388	0.785398	-1.61375	0.0076699	0	0	0	0	0	0	0	0	0	0	0	0	0	0	0.000000000	1.9984e-15	0.788798	-0.788798	-1.80411e-16	0.828698	-1.5708	0	0.1	0.1	0.1	0.1	0.1	0.1	0.1	0	0	0	0	0	0	0	0.000000000
1504278040.100810050	0.00460194	0.776194	-0.811476	0.00920388	0.785398	-1.61375	0.0076699	0	0	0	0	0	0	0	0	0	0	0	0	0	0	0.000000000	1.9984e-15	0.788798	-0.788798	-1.80411e-16	0.828698	-1.5708	0	0.1	0.1	0.1	0.1	0.1	0.1	0.1	0	0	0	0	0	0	0	0.000000000
1504278040.118906974	0.00460194	0.776194	-0.811476	0.00920388	0.785398	-1.61375	0.0076699	0	0	0	0	0	0	0	0	0	0	0	0	0	0	0.000000000	1.9984e-15	0.788798	-0.788798	-1.80411e-16	0.828698	-1.5708	0	0.1	0.1	0.1	0.1	0.1	0.1	0.1	0	0	0	0	0	0	0	0.000000000
1504278040.140734910	0.00613592	0.776194	-0.811476	0.00920388	0.785398	-1.61375	0.0076699	0	0	0	0	0	0	0	0	0	0	0	0	0	0	0.000000000	1.9984e-15	0.788798	-0.788798	-1.80411e-16	0.828698	-1.5708	0	0.1	0.1	0.1	0.1	0.1	0.1	0.1	0	0	0	0	0	0	0	0.000000000
1504278040.160228013	0.00460194	0.776194	-0.811476	0.00920388	0.785398	-1.61221	0.0076699	0	0	0	0	0	0	0	0	0	0	0	0	0	0	0.000000000	1.9984e-15	0.788798	-0.788798	-1.80411e-16	0.828698	-1.5708	0	0.1	0.1	0.1	0.1	0.1	0.1	0.1	0	0	0	0	0	0	0	0.000000000
1504278040.178875923	0.00460194	0.776194	-0.811476	0.00920388	0.785398	-1.61375	0.0076699	0	0	0	0	0	0	0	0	0	0	0	0	0	0	0.000000000	1.9984e-15	0.788798	-0.788798	-1.80411e-16	0.828698	-1.5708	0	0.1	0.1	0.1	0.1	0.1	0.1	0.1	0	0	0	0	0	0	0	0.000000000
1504278040.199616909	0.00460194	0.776194	-0.811476	0.00920388	0.785398	-1.61375	0.0076699	0	0	0	0	0	0	0	0	0	0	0	0	0	0	0.000000000	1.9984e-15	0.788798	-0.788798	-1.80411e-16	0.828698	-1.5708	0	0.1	0.1	0.1	0.1	0.1	0.1	0.1	0	0	0	0	0	0	0	0.000000000
1504278040.218991041	0.00460194	0.776194	-0.811476	0.00920388	0.785398	-1.61375	0.0076699	0	0	0	0	0	0	0	0	0	0	0	0	0	0	0.000000000	1.9984e-15	0.788798	-0.788798	-1.80411e-16	0.828698	-1.5708	0	0.1	0.1	0.1	0.1	0.1	0.1	0.1	0	0	0	0	0	0	0	0.000000000
1504278040.239434957	0.00460194	0.776194	-0.81301	0.00920388	0.785398	-1.61221	0.0076699	0	0	0	0	0	0	0	0	0	0	0	0	0	0	0.000000000	1.9984e-15	0.788798	-0.788798	-1.80411e-16	0.828698	-1.5708	0	0.1	0.1	0.1	0.1	0.1	0.1	0.1	0	0	0	0	0	0	0	0.000000000
1504278040.263551950	0.00460194	0.776194	-0.811476	0.00920388	0.785398	-1.61375	0.0076699	0	0	0	0	0	0	0	0	0	0	0	0	0	0	0.000000000	1.9984e-15	0.788798	-0.788798	-1.80411e-16	0.828698	-1.5708	0	0.1	0.1	0.1	0.1	0.1	0.1	0.1	0	0	0	0	0	0	0	0.000000000
1504278040.279170989	0.00460194	0.776194	-0.811476	0.00920388	0.785398	-1.61375	0.0076699	0	0	0	0	0	0	0	0	0	0	0	0	0	0	0.000000000	1.9984e-15	0.788798	-0.788798	-1.80411e-16	0.828698	-1.5708	0	0.1	0.1	0.1	0.1	0.1	0.1	0.1	0	0	0	0	0	0	0	0.000000000
1504278040.299031972	0.00460194	0.776194	-0.811476	0.00920388	0.785398	-1.61375	0.0076699	0	0	0	0	0	0	0	0	0	0	0	0	0	0	0.000000000	1.9984e-15	0.788798	-0.788798	-1.80411e-16	0.828698	-1.5708	0	0.1	0.1	0.1	0.1	0.1	0.1	0.1	0	0	0	0	0	0	0	0.000000000
1504278040.318802118	0.00460194	0.776194	-0.811476	0.00920388	0.785398	-1.61221	0.0076699	0	0	0	0	0	0	0	0	0	0	0	0	0	0	0.000000000	1.9984e-15	0.788798	-0.788798	-1.80411e-16	0.828698	-1.5708	0	0.1	0.1	0.1	0.1	0.1	0.1	0.1	0	0	0	0	0	0	0	0.000000000
1504278040.339010953	0.00460194	0.776194	-0.811476	0.00920388	0.785398	-1.61375	0.0076699	0	0	0	0	0	0	0	0	0	0	0	0	0	0	0.000000000	1.9984e-15	0.788798	-0.788798	-1.80411e-16	0.828698	-1.5708	0	0.1	0.1	0.1	0.1	0.1	0.1	0.1	0	0	0	0	0	0	0	0.000000000
1504278040.359462022	0.00460194	0.776194	-0.811476	0.00920388	0.785398	-1.61375	0.0076699	0	0	0	0	0	0	0	0	0	0	0	0	0	0	0.000000000	1.9984e-15	0.788798	-0.788798	-1.80411e-16	0.828698	-1.5708	0	0.1	0.1	0.1	0.1	0.1	0.1	0.1	0	0	0	0	0	0	0	0.000000000
1504278040.379292964	0.00460194	0.776194	-0.811476	0.00920388	0.785398	-1.61375	0.0076699	0	0	0	0	0	0	0	0	0	0	0	0	0	0	0.000000000	1.9984e-15	0.788798	-0.788798	-1.80411e-16	0.828698	-1.5708	0	0.1	0.1	0.1	0.1	0.1	0.1	0.1	0	0	0	0	0	0	0	0.000000000
1504278040.398943901	0.00460194	0.776194	-0.811476	0.00920388	0.785398	-1.61375	0.0076699	0	0	0	0	0	0	0	0	0	0	0	0	0	0	0.000000000	1.9984e-15	0.788798	-0.788798	-1.80411e-16	0.828698	-1.5708	0	0.1	0.1	0.1	0.1	0.1	0.1	0.1	0	0	0	0	0	0	0	0.000000000
1504278040.419012069	0.00460194	0.776194	-0.811476	0.00920388	0.785398	-1.61375	0.0076699	0	0	0	0	0	0	0	0	0	0	0	0	0	0	0.000000000	1.9984e-15	0.788798	-0.788798	-1.80411e-16	0.828698	-1.5708	0	0.1	0.1	0.1	0.1	0.1	0.1	0.1	0	0	0	0	0	0	0	0.000000000
1504278040.440119028	0.00460194	0.776194	-0.811476	0.00920388	0.785398	-1.61221	0.0076699	0	0	0	0	0	0	0	0	0	0	0	0	0	0	0.000000000	1.9984e-15	0.788798	-0.788798	-1.80411e-16	0.828698	-1.5708	0	0.1	0.1	0.1	0.1	0.1	0.1	0.1	0	0	0	0	0	0	0	0.000000000
1504278040.458883047	0.00460194	0.776194	-0.811476	0.00920388	0.785398	-1.61375	0.0076699	0	0	0	0	0	0	0	0	0	0	0	0	0	0	0.000000000	1.9984e-15	0.788798	-0.788798	-1.80411e-16	0.828698	-1.5708	0	0.1	0.1	0.1	0.1	0.1	0.1	0.1	0	0	0	0	0	0	0	0.000000000
1504278040.478837966	0.00460194	0.776194	-0.811476	0.00920388	0.785398	-1.61375	0.0076699	0	0	0	0	0	0	0	0	0	0	0	0	0	0	0.000000000	1.9984e-15	0.788798	-0.788798	-1.80411e-16	0.828698	-1.5708	0	0.1	0.1	0.1	0.1	0.1	0.1	0.1	0	0	0	0	0	0	0	0.000000000
1504278040.499140024	0.00460194	0.776194	-0.811476	0.00920388	0.785398	-1.61375	0.0076699	0	0	0	0	0	0	0	0	0	0	0	0	0	0	0.000000000	1.9984e-15	0.788798	-0.788798	-1.80411e-16	0.828698	-1.5708	0	0.1	0.1	0.1	0.1	0.1	0.1	0.1	0	0	0	0	0	0	0	0.000000000
1504278040.518904924	0.00460194	0.776194	-0.811476	0.00920388	0.785398	-1.61221	0.0076699	0	0	0	0	0	0	0	0	0	0	0	0	0	0	0.000000000	1.9984e-15	0.788798	-0.788798	-1.80411e-16	0.828698	-1.5708	0	0.1	0.1	0.1	0.1	0.1	0.1	0.1	0	0	0	0	0	0	0	0.000000000
1504278040.539310932	0.00460194	0.776194	-0.811476	0.00920388	0.785398	-1.61375	0.00920388	0	0	0	0	0	0	0	0	0	0	0	0	0	0	0.000000000	1.9984e-15	0.788798	-0.788798	-1.80411e-16	0.828698	-1.5708	0	0.1	0.1	0.1	0.1	0.1	0.1	0.1	0	0	0	0	0	0	0	0.000000000
1504278040.558981895	0.00460194	0.776194	-0.811476	0.00920388	0.785398	-1.61375	0.0076699	0	0	0	0	0	0	0	0	0	0	0	0	0	0	0.000000000	1.9984e-15	0.788798	-0.788798	-1.80411e-16	0.828698	-1.5708	0	0.1	0.1	0.1	0.1	0.1	0.1	0.1	0	0	0	0	0	0	0	0.000000000
1504278040.579008102	0.00460194	0.776194	-0.811476	0.00920388	0.785398	-1.61375	0.0076699	0	0	0	0	0	0	0	0	0	0	0	0	0	0	0.000000000	1.9984e-15	0.788798	-0.788798	-1.80411e-16	0.828698	-1.5708	0	0.1	0.1	0.1	0.1	0.1	0.1	0.1	0	0	0	0	0	0	0	0.000000000
1504278040.598851919	0.00460194	0.776194	-0.811476	0.00920388	0.785398	-1.61375	0.0076699	0	0	0	0	0	0	0	0	0	0	0	0	0	0	0.000000000	1.9984e-15	0.788798	-0.788798	-1.80411e-16	0.828698	-1.5708	0	0.1	0.1	0.1	0.1	0.1	0.1	0.1	0	0	0	0	0	0	0	0.000000000
1504278040.619610071	0.00460194	0.776194	-0.811476	0.00920388	0.785398	-1.61375	0.0076699	0	0	0	0	0	0	0	0	0	0	0	0	0	0	0.000000000	1.9984e-15	0.788798	-0.788798	-1.80411e-16	0.828698	-1.5708	0	0.1	0.1	0.1	0.1	0.1	0.1	0.1	0	0	0	0	0	0	0	0.000000000
1504278040.638926982	0.00460194	0.776194	-0.811476	0.00920388	0.785398	-1.61375	0.0076699	0	0	0	0	0	0	0	0	0	0	0	0	0	0	0.000000000	1.9984e-15	0.788798	-0.788798	-1.80411e-16	0.828698	-1.5708	0	0.1	0.1	0.1	0.1	0.1	0.1	0.1	0	0	0	0	0	0	0	0.000000000
1504278040.660857915	0.00460194	0.776194	-0.811476	0.00920388	0.785398	-1.61375	0.0076699	0	0	0	0	0	0	0	0	0	0	0	0	0	0	0.000000000	1.9984e-15	0.788798	-0.788798	-1.80411e-16	0.828698	-1.5708	0	0.1	0.1	0.1	0.1	0.1	0.1	0.1	0	0	0	0	0	0	0	0.000000000
1504278040.678853988	0.00460194	0.776194	-0.811476	0.00920388	0.785398	-1.61375	0.0076699	0	0	0	0	0	0	0	0	0	0	0	0	0	0	0.000000000	1.9984e-15	0.788798	-0.788798	-1.80411e-16	0.828698	-1.5708	0	0.1	0.1	0.1	0.1	0.1	0.1	0.1	0	0	0	0	0	0	0	0.000000000
1504278040.698910951	0.00460194	0.776194	-0.811476	0.00920388	0.785398	-1.61375	0.0076699	0	0	0	0	0	0	0	0	0	0	0	0	0	0	0.000000000	1.9984e-15	0.788798	-0.788798	-1.80411e-16	0.828698	-1.5708	0	0.1	0.1	0.1	0.1	0.1	0.1	0.1	0	0	0	0	0	0	0	0.000000000
1504278040.718884944	0.00460194	0.776194	-0.811476	0.00920388	0.785398	-1.61221	0.0076699	0	0	0	0	0	0	0	0	0	0	0	0	0	0	0.000000000	1.9984e-15	0.788798	-0.788798	-1.80411e-16	0.828698	-1.5708	0	0.1	0.1	0.1	0.1	0.1	0.1	0.1	0	0	0	0	0	0	0	0.000000000
1504278040.739130973	0.00460194	0.776194	-0.811476	0.00920388	0.785398	-1.61375	0.0076699	0	0	0	0	0	0	0	0	0	0	0	0	0	0	0.000000000	1.9984e-15	0.788798	-0.788798	-1.80411e-16	0.828698	-1.5708	0	0.1	0.1	0.1	0.1	0.1	0.1	0.1	0	0	0	0	0	0	0	0.000000000
1504278040.758977890	0.00460194	0.776194	-0.811476	0.00920388	0.785398	-1.61375	0.0076699	0	0	0	0	0	0	0	0	0	0	0	0	0	0	0.000000000	1.9984e-15	0.788798	-0.788798	-1.80411e-16	0.828698	-1.5708	0	0.1	0.1	0.1	0.1	0.1	0.1	0.1	0	0	0	0	0	0	0	0.000000000
1504278040.778908967	0.00460194	0.776194	-0.811476	0.00920388	0.785398	-1.61221	0.0076699	0	0	0	0	0	0	0	0	0	0	0	0	0	0	0.000000000	1.9984e-15	0.788798	-0.788798	-1.80411e-16	0.828698	-1.5708	0	0.1	0.1	0.1	0.1	0.1	0.1	0.1	0	0	0	0	0	0	0	0.000000000
1504278040.799371004	0.00460194	0.776194	-0.811476	0.00920388	0.785398	-1.61221	0.0076699	0	0	0	0	0	0	0	0	0	0	0	0	0	0	0.000000000	1.9984e-15	0.788798	-0.788798	-1.80411e-16	0.828698	-1.5708	0	0.1	0.1	0.1	0.1	0.1	0.1	0.1	0	0	0	0	0	0	0	0.000000000
1504278040.819540977	0.00460194	0.776194	-0.811476	0.00920388	0.785398	-1.61221	0.0076699	0	0	0	0	0	0	0	0	0	0	0	0	0	0	0.000000000	1.9984e-15	0.788798	-0.788798	-1.80411e-16	0.828698	-1.5708	0	0.1	0.1	0.1	0.1	0.1	0.1	0.1	0	0	0	0	0	0	0	0.000000000
1504278040.844338893	0.00460194	0.776194	-0.811476	0.00920388	0.785398	-1.61375	0.0076699	0	0	0	0	0	0	0	0	0	0	0	0	0	0	0.000000000	1.9984e-15	0.788798	-0.788798	-1.80411e-16	0.828698	-1.5708	0	0.1	0.1	0.1	0.1	0.1	0.1	0.1	0	0	0	0	0	0	0	0.000000000
1504278040.858889102	0.00460194	0.776194	-0.811476	0.00920388	0.785398	-1.61221	0.0076699	0	0	0	0	0	0	0	0	0	0	0	0	0	0	0.000000000	1.9984e-15	0.788798	-0.788798	-1.80411e-16	0.828698	-1.5708	0	0.1	0.1	0.1	0.1	0.1	0.1	0.1	0	0	0	0	0	0	0	0.000000000
1504278040.878946065	0.00460194	0.776194	-0.811476	0.00920388	0.785398	-1.61221	0.0076699	0	0	0	0	0	0	0	0	0	0	0	0	0	0	0.000000000	1.9984e-15	0.788798	-0.788798	-1.80411e-16	0.828698	-1.5708	0	0.1	0.1	0.1	0.1	0.1	0.1	0.1	0	0	0	0	0	0	0	0.000000000
1504278040.899048089	0.00460194	0.776194	-0.811476	0.00920388	0.785398	-1.61221	0.0076699	0	0	0	0	0	0	0	0	0	0	0	0	0	0	0.000000000	1.9984e-15	0.788798	-0.788798	-1.80411e-16	0.828698	-1.5708	0	0.1	0.1	0.1	0.1	0.1	0.1	0.1	0	0	0	0	0	0	0	0.000000000
1504278040.919766902	0.00460194	0.776194	-0.811476	0.00920388	0.785398	-1.61375	0.0076699	0	0	0	0	0	0	0	0	0	0	0	0	0	0	0.000000000	1.9984e-15	0.788798	-0.788798	-1.80411e-16	0.828698	-1.5708	0	0.1	0.1	0.1	0.1	0.1	0.1	0.1	0	0	0	0	0	0	0	0.000000000
1504278040.938882112	0.00460194	0.776194	-0.811476	0.00920388	0.785398	-1.61375	0.0076699	0	0	0	0	0	0	0	0	0	0	0	0	0	0	0.000000000	1.9984e-15	0.788798	-0.788798	-1.80411e-16	0.828698	-1.5708	0	0.1	0.1	0.1	0.1	0.1	0.1	0.1	0	0	0	0	0	0	0	0.000000000
1504278040.959264039	0.00460194	0.776194	-0.811476	0.00920388	0.785398	-1.61375	0.0076699	0	0	0	0	0	0	0	0	0	0	0	0	0	0	0.000000000	1.9984e-15	0.788798	-0.788798	-1.80411e-16	0.828698	-1.5708	0	0.1	0.1	0.1	0.1	0.1	0.1	0.1	0	0	0	0	0	0	0	0.000000000
1504278040.978868961	0.00460194	0.776194	-0.811476	0.00920388	0.785398	-1.61375	0.0076699	0	0	0	0	0	0	0	0	0	0	0	0	0	0	0.000000000	1.9984e-15	0.788798	-0.788798	-1.80411e-16	0.828698	-1.5708	0	0.1	0.1	0.1	0.1	0.1	0.1	0.1	0	0	0	0	0	0	0	0.000000000
1504278040.998853921	0.00460194	0.776194	-0.811476	0.00920388	0.785398	-1.61375	0.0076699	0	0	0	0	0	0	0	0	0	0	0	0	0	0	0.000000000	1.9984e-15	0.788798	-0.788798	-1.80411e-16	0.828698	-1.5708	0	0.1	0.1	0.1	0.1	0.1	0.1	0.1	0	0	0	0	0	0	0	0.000000000
1504278041.019052028	0.00460194	0.776194	-0.811476	0.00920388	0.785398	-1.61375	0.0076699	0	0	0	0	0	0	0	0	0	0	0	0	0	0	0.000000000	1.9984e-15	0.788798	-0.788798	-1.80411e-16	0.828698	-1.5708	0	0.1	0.1	0.1	0.1	0.1	0.1	0.1	0	0	0	0	0	0	0	0.000000000
1504278041.038867950	0.00460194	0.776194	-0.811476	0.00920388	0.785398	-1.61221	0.00920388	0	0	0	0	0	0	0	0	0	0	0	0	0	0	0.000000000	1.9984e-15	0.788798	-0.788798	-1.80411e-16	0.828698	-1.5708	0	0.1	0.1	0.1	0.1	0.1	0.1	0.1	0	0	0	0	0	0	0	0.000000000
1504278041.058922052	0.00460194	0.776194	-0.811476	0.00920388	0.785398	-1.61375	0.0076699	0	0	0	0	0	0	0	0	0	0	0	0	0	0	0.000000000	1.9984e-15	0.788798	-0.788798	-1.80411e-16	0.828698	-1.5708	0	0.1	0.1	0.1	0.1	0.1	0.1	0.1	0	0	0	0	0	0	0	0.000000000
1504278041.079032897	0.00460194	0.776194	-0.811476	0.00920388	0.785398	-1.61221	0.0076699	0	0	0	0	0	0	0	0	0	0	0	0	0	0	0.000000000	1.9984e-15	0.788798	-0.788798	-1.80411e-16	0.828698	-1.5708	0	0.1	0.1	0.1	0.1	0.1	0.1	0.1	0	0	0	0	0	0	0	0.000000000
1504278041.098947048	0.00460194	0.776194	-0.811476	0.00920388	0.785398	-1.61221	0.0076699	0	0	0	0	0	0	0	0	0	0	0	0	0	0	0.000000000	1.9984e-15	0.788798	-0.788798	-1.80411e-16	0.828698	-1.5708	0	0.1	0.1	0.1	0.1	0.1	0.1	0.1	0	0	0	0	0	0	0	0.000000000
1504278041.118963956	0.00460194	0.776194	-0.811476	0.00920388	0.785398	-1.61375	0.0076699	0	0	0	0	0	0	0	0	0	0	0	0	0	0	0.000000000	1.9984e-15	0.788798	-0.788798	-1.80411e-16	0.828698	-1.5708	0	0.1	0.1	0.1	0.1	0.1	0.1	0.1	0	0	0	0	0	0	0	0.000000000
1504278041.138957023	0.00460194	0.776194	-0.811476	0.00920388	0.785398	-1.61375	0.0076699	0	0	0	0	0	0	0	0	0	0	0	0	0	0	0.000000000	1.9984e-15	0.788798	-0.788798	-1.80411e-16	0.828698	-1.5708	0	0.1	0.1	0.1	0.1	0.1	0.1	0.1	0	0	0	0	0	0	0	0.000000000
1504278041.160068988	0.00460194	0.776194	-0.811476	0.00920388	0.785398	-1.61375	0.0076699	0	0	0	0	0	0	0	0	0	0	0	0	0	0	0.000000000	1.9984e-15	0.788798	-0.788798	-1.80411e-16	0.828698	-1.5708	0	0.1	0.1	0.1	0.1	0.1	0.1	0.1	0	0	0	0	0	0	0	0.000000000
1504278041.181077957	0.00460194	0.776194	-0.811476	0.00920388	0.785398	-1.61375	0.0076699	0	0	0	0	0	0	0	0	0	0	0	0	0	0	0.000000000	1.9984e-15	0.788798	-0.788798	-1.80411e-16	0.828698	-1.5708	0	0.1	0.1	0.1	0.1	0.1	0.1	0.1	0	0	0	0	0	0	0	0.000000000
1504278041.199278116	0.00613592	0.776194	-0.811476	0.00920388	0.785398	-1.61375	0.0076699	0	0	0	0	0	0	0	0	0	0	0	0	0	0	0.000000000	1.9984e-15	0.788798	-0.788798	-1.80411e-16	0.828698	-1.5708	0	0.1	0.1	0.1	0.1	0.1	0.1	0.1	0	0	0	0	0	0	0	0.000000000
1504278041.218950033	0.00613592	0.776194	-0.811476	0.00920388	0.785398	-1.61375	0.0076699	0	0	0	0	0	0	0	0	0	0	0	0	0	0	0.000000000	1.9984e-15	0.788798	-0.788798	-1.80411e-16	0.828698	-1.5708	0	0.1	0.1	0.1	0.1	0.1	0.1	0.1	0	0	0	0	0	0	0	0.000000000
1504278041.238847017	0.00460194	0.776194	-0.811476	0.00920388	0.785398	-1.61375	0.0076699	0	0	0	0	0	0	0	0	0	0	0	0	0	0	0.000000000	1.9984e-15	0.788798	-0.788798	-1.80411e-16	0.828698	-1.5708	0	0.1	0.1	0.1	0.1	0.1	0.1	0.1	0	0	0	0	0	0	0	0.000000000
1504278041.258938074	0.00460194	0.776194	-0.811476	0.00920388	0.785398	-1.61221	0.0076699	0	0	0	0	0	0	0	0	0	0	0	0	0	0	0.000000000	1.9984e-15	0.788798	-0.788798	-1.80411e-16	0.828698	-1.5708	0	0.1	0.1	0.1	0.1	0.1	0.1	0.1	0	0	0	0	0	0	0	0.000000000
1504278041.282994985	0.00460194	0.776194	-0.811476	0.00920388	0.785398	-1.61221	0.0076699	0	0	0	0	0	0	0	0	0	0	0	0	0	0	0.000000000	1.9984e-15	0.788798	-0.788798	-1.80411e-16	0.828698	-1.5708	0	0.1	0.1	0.1	0.1	0.1	0.1	0.1	0	0	0	0	0	0	0	0.000000000
1504278041.298922061	0.00460194	0.776194	-0.811476	0.00920388	0.785398	-1.61221	0.0076699	0	0	0	0	0	0	0	0	0	0	0	0	0	0	0.000000000	1.9984e-15	0.788798	-0.788798	-1.80411e-16	0.828698	-1.5708	0	0.1	0.1	0.1	0.1	0.1	0.1	0.1	0	0	0	0	0	0	0	0.000000000
1504278041.318929910	0.00460194	0.776194	-0.811476	0.00920388	0.785398	-1.61375	0.0076699	0	0	0	0	0	0	0	0	0	0	0	0	0	0	0.000000000	1.9984e-15	0.788798	-0.788798	-1.80411e-16	0.828698	-1.5708	0	0.1	0.1	0.1	0.1	0.1	0.1	0.1	0	0	0	0	0	0	0	0.000000000
1504278041.339442014	0.00460194	0.776194	-0.811476	0.00920388	0.785398	-1.61221	0.0076699	0	0	0	0	0	0	0	0	0	0	0	0	0	0	0.000000000	1.9984e-15	0.788798	-0.788798	-1.80411e-16	0.828698	-1.5708	0	0.1	0.1	0.1	0.1	0.1	0.1	0.1	0	0	0	0	0	0	0	0.000000000
1504278041.363450050	0.00460194	0.776194	-0.811476	0.00920388	0.785398	-1.61375	0.0076699	0	0	0	0	0	0	0	0	0	0	0	0	0	0	0.000000000	1.9984e-15	0.788798	-0.788798	-1.80411e-16	0.828698	-1.5708	0	0.1	0.1	0.1	0.1	0.1	0.1	0.1	0	0	0	0	0	0	0	0.000000000
1504278041.379981040	0.00460194	0.776194	-0.811476	0.00920388	0.785398	-1.61375	0.0076699	0	0	0	0	0	0	0	0	0	0	0	0	0	0	0.000000000	1.9984e-15	0.788798	-0.788798	-1.80411e-16	0.828698	-1.5708	0	0.1	0.1	0.1	0.1	0.1	0.1	0.1	0	0	0	0	0	0	0	0.000000000
1504278041.398834943	0.00460194	0.776194	-0.811476	0.00920388	0.785398	-1.61375	0.0076699	0	0	0	0	0	0	0	0	0	0	0	0	0	0	0.000000000	1.9984e-15	0.788798	-0.788798	-1.80411e-16	0.828698	-1.5708	0	0.1	0.1	0.1	0.1	0.1	0.1	0.1	0	0	0	0	0	0	0	0.000000000
1504278041.420206069	0.00460194	0.776194	-0.811476	0.00920388	0.785398	-1.61375	0.0076699	0	0	0	0	0	0	0	0	0	0	0	0	0	0	0.000000000	1.9984e-15	0.788798	-0.788798	-1.80411e-16	0.828698	-1.5708	0	0.1	0.1	0.1	0.1	0.1	0.1	0.1	0	0	0	0	0	0	0	0.000000000
1504278041.439124107	0.00460194	0.776194	-0.811476	0.00920388	0.785398	-1.61375	0.0076699	0	0	0	0	0	0	0	0	0	0	0	0	0	0	0.000000000	1.9984e-15	0.788798	-0.788798	-1.80411e-16	0.828698	-1.5708	0	0.1	0.1	0.1	0.1	0.1	0.1	0.1	0	0	0	0	0	0	0	0.000000000
1504278041.458905935	0.00460194	0.776194	-0.811476	0.00920388	0.785398	-1.61221	0.0076699	0	0	0	0	0	0	0	0	0	0	0	0	0	0	0.000000000	1.9984e-15	0.788798	-0.788798	-1.80411e-16	0.828698	-1.5708	0	0.1	0.1	0.1	0.1	0.1	0.1	0.1	0	0	0	0	0	0	0	0.000000000
1504278041.478974103	0.00460194	0.776194	-0.811476	0.00920388	0.785398	-1.61375	0.0076699	0	0	0	0	0	0	0	0	0	0	0	0	0	0	0.000000000	1.9984e-15	0.788798	-0.788798	-1.80411e-16	0.828698	-1.5708	0	0.1	0.1	0.1	0.1	0.1	0.1	0.1	0	0	0	0	0	0	0	0.000000000
1504278041.500282049	0.00613592	0.776194	-0.811476	0.00920388	0.785398	-1.61375	0.0076699	0	0	0	0	0	0	0	0	0	0	0	0	0	0	0.000000000	1.9984e-15	0.788798	-0.788798	-1.80411e-16	0.828698	-1.5708	0	0.1	0.1	0.1	0.1	0.1	0.1	0.1	0	0	0	0	0	0	0	0.000000000
1504278041.518918991	0.00613592	0.776194	-0.811476	0.00920388	0.785398	-1.61375	0.0076699	0	0	0	0	0	0	0	0	0	0	0	0	0	0	0.000000000	1.9984e-15	0.788798	-0.788798	-1.80411e-16	0.828698	-1.5708	0	0.1	0.1	0.1	0.1	0.1	0.1	0.1	0	0	0	0	0	0	0	0.000000000
1504278041.538975000	0.00460194	0.776194	-0.811476	0.00920388	0.785398	-1.61375	0.0076699	0	0	0	0	0	0	0	0	0	0	0	0	0	0	0.000000000	1.9984e-15	0.788798	-0.788798	-1.80411e-16	0.828698	-1.5708	0	0.1	0.1	0.1	0.1	0.1	0.1	0.1	0	0	0	0	0	0	0	0.000000000
1504278041.559458017	0.00460194	0.776194	-0.811476	0.00920388	0.785398	-1.61221	0.0076699	0	0	0	0	0	0	0	0	0	0	0	0	0	0	0.000000000	1.9984e-15	0.788798	-0.788798	-1.80411e-16	0.828698	-1.5708	0	0.1	0.1	0.1	0.1	0.1	0.1	0.1	0	0	0	0	0	0	0	0.000000000
1504278041.579626083	0.00460194	0.776194	-0.811476	0.00920388	0.785398	-1.61375	0.0076699	0	0	0	0	0	0	0	0	0	0	0	0	0	0	0.000000000	1.9984e-15	0.788798	-0.788798	-1.80411e-16	0.828698	-1.5708	0	0.1	0.1	0.1	0.1	0.1	0.1	0.1	0	0	0	0	0	0	0	0.000000000
1504278041.598864078	0.00460194	0.776194	-0.811476	0.00920388	0.785398	-1.61375	0.0076699	0	0	0	0	0	0	0	0	0	0	0	0	0	0	0.000000000	1.9984e-15	0.788798	-0.788798	-1.80411e-16	0.828698	-1.5708	0	0.1	0.1	0.1	0.1	0.1	0.1	0.1	0	0	0	0	0	0	0	0.000000000
1504278041.620307922	0.00460194	0.776194	-0.811476	0.00920388	0.785398	-1.61221	0.0076699	0	0	0	0	0	0	0	0	0	0	0	0	0	0	0.000000000	1.9984e-15	0.788798	-0.788798	-1.80411e-16	0.828698	-1.5708	0	0.1	0.1	0.1	0.1	0.1	0.1	0.1	0	0	0	0	0	0	0	0.000000000
1504278041.638847112	0.00460194	0.776194	-0.811476	0.00920388	0.785398	-1.61375	0.0076699	0	0	0	0	0	0	0	0	0	0	0	0	0	0	0.000000000	1.9984e-15	0.788798	-0.788798	-1.80411e-16	0.828698	-1.5708	0	0.1	0.1	0.1	0.1	0.1	0.1	0.1	0	0	0	0	0	0	0	0.000000000
1504278041.658870935	0.00460194	0.776194	-0.811476	0.00920388	0.785398	-1.61375	0.0076699	0	0	0	0	0	0	0	0	0	0	0	0	0	0	0.000000000	1.9984e-15	0.788798	-0.788798	-1.80411e-16	0.828698	-1.5708	0	0.1	0.1	0.1	0.1	0.1	0.1	0.1	0	0	0	0	0	0	0	0.000000000
1504278041.681401014	0.00613592	0.776194	-0.811476	0.00920388	0.785398	-1.61221	0.0076699	0	0	0	0	0	0	0	0	0	0	0	0	0	0	0.000000000	1.9984e-15	0.788798	-0.788798	-1.80411e-16	0.828698	-1.5708	0	0.1	0.1	0.1	0.1	0.1	0.1	0.1	0	0	0	0	0	0	0	0.000000000
1504278041.699697971	0.00613592	0.776194	-0.811476	0.00920388	0.785398	-1.61221	0.0076699	0	0	0	0	0	0	0	0	0	0	0	0	0	0	0.000000000	1.9984e-15	0.788798	-0.788798	-1.80411e-16	0.828698	-1.5708	0	0.1	0.1	0.1	0.1	0.1	0.1	0.1	0	0	0	0	0	0	0	0.000000000
1504278041.718986034	0.00460194	0.776194	-0.811476	0.00920388	0.785398	-1.61221	0.0076699	0	0	0	0	0	0	0	0	0	0	0	0	0	0	0.000000000	1.9984e-15	0.788798	-0.788798	-1.80411e-16	0.828698	-1.5708	0	0.1	0.1	0.1	0.1	0.1	0.1	0.1	0	0	0	0	0	0	0	0.000000000
1504278041.738872051	0.00460194	0.776194	-0.811476	0.00920388	0.785398	-1.61375	0.0076699	0	0	0	0	0	0	0	0	0	0	0	0	0	0	0.000000000	1.9984e-15	0.788798	-0.788798	-1.80411e-16	0.828698	-1.5708	0	0.1	0.1	0.1	0.1	0.1	0.1	0.1	0	0	0	0	0	0	0	0.000000000
1504278041.764615058	0.00460194	0.776194	-0.811476	0.00920388	0.785398	-1.61221	0.0076699	0	0	0	0	0	0	0	0	0	0	0	0	0	0	0.000000000	1.9984e-15	0.788798	-0.788798	-1.80411e-16	0.828698	-1.5708	0	0.1	0.1	0.1	0.1	0.1	0.1	0.1	0	0	0	0	0	0	0	0.000000000
1504278041.778878927	0.00460194	0.776194	-0.811476	0.00920388	0.785398	-1.61221	0.0076699	0	0	0	0	0	0	0	0	0	0	0	0	0	0	0.000000000	1.9984e-15	0.788798	-0.788798	-1.80411e-16	0.828698	-1.5708	0	0.1	0.1	0.1	0.1	0.1	0.1	0.1	0	0	0	0	0	0	0	0.000000000
1504278041.799153089	0.00613592	0.776194	-0.811476	0.00920388	0.785398	-1.61221	0.0076699	0	0	0	0	0	0	0	0	0	0	0	0	0	0	0.000000000	1.9984e-15	0.788798	-0.788798	-1.80411e-16	0.828698	-1.5708	0	0.1	0.1	0.1	0.1	0.1	0.1	0.1	0	0	0	0	0	0	0	0.000000000
1504278041.818820953	0.00460194	0.776194	-0.811476	0.00920388	0.785398	-1.61375	0.0076699	0	0	0	0	0	0	0	0	0	0	0	0	0	0	0.000000000	1.9984e-15	0.788798	-0.788798	-1.80411e-16	0.828698	-1.5708	0	0.1	0.1	0.1	0.1	0.1	0.1	0.1	0	0	0	0	0	0	0	0.000000000
1504278041.842456102	0.00460194	0.776194	-0.811476	0.00920388	0.785398	-1.61375	0.0076699	0	0	0	0	0	0	0	0	0	0	0	0	0	0	0.000000000	1.9984e-15	0.788798	-0.788798	-1.80411e-16	0.828698	-1.5708	0	0.1	0.1	0.1	0.1	0.1	0.1	0.1	0	0	0	0	0	0	0	0.000000000
1504278041.860745906	0.00460194	0.776194	-0.811476	0.00920388	0.785398	-1.61375	0.0076699	0	0	0	0	0	0	0	0	0	0	0	0	0	0	0.000000000	1.9984e-15	0.788798	-0.788798	-1.80411e-16	0.828698	-1.5708	0	0.1	0.1	0.1	0.1	0.1	0.1	0.1	0	0	0	0	0	0	0	0.000000000
1504278041.879626035	0.00460194	0.776194	-0.811476	0.00920388	0.785398	-1.61375	0.0076699	0	0	0	0	0	0	0	0	0	0	0	0	0	0	0.000000000	1.9984e-15	0.788798	-0.788798	-1.80411e-16	0.828698	-1.5708	0	0.1	0.1	0.1	0.1	0.1	0.1	0.1	0	0	0	0	0	0	0	0.000000000
1504278041.898859024	0.00460194	0.776194	-0.811476	0.00920388	0.785398	-1.61221	0.0076699	0	0	0	0	0	0	0	0	0	0	0	0	0	0	0.000000000	1.9984e-15	0.788798	-0.788798	-1.80411e-16	0.828698	-1.5708	0	0.1	0.1	0.1	0.1	0.1	0.1	0.1	0	0	0	0	0	0	0	0.000000000
1504278041.918880939	0.00460194	0.776194	-0.811476	0.00920388	0.785398	-1.61375	0.0076699	0	0	0	0	0	0	0	0	0	0	0	0	0	0	0.000000000	1.9984e-15	0.788798	-0.788798	-1.80411e-16	0.828698	-1.5708	0	0.1	0.1	0.1	0.1	0.1	0.1	0.1	0	0	0	0	0	0	0	0.000000000
1504278041.940582036	0.00460194	0.776194	-0.811476	0.00920388	0.785398	-1.61221	0.0076699	0	0	0	0	0	0	0	0	0	0	0	0	0	0	0.000000000	1.9984e-15	0.788798	-0.788798	-1.80411e-16	0.828698	-1.5708	0	0.1	0.1	0.1	0.1	0.1	0.1	0.1	0	0	0	0	0	0	0	0.000000000
1504278041.961611032	0.00460194	0.776194	-0.811476	0.00920388	0.785398	-1.61221	0.0076699	0	0	0	0	0	0	0	0	0	0	0	0	0	0	0.000000000	1.9984e-15	0.788798	-0.788798	-1.80411e-16	0.828698	-1.5708	0	0.1	0.1	0.1	0.1	0.1	0.1	0.1	0	0	0	0	0	0	0	0.000000000
1504278041.978688001	0.00460194	0.776194	-0.811476	0.00920388	0.785398	-1.61375	0.0076699	0	0	0	0	0	0	0	0	0	0	0	0	0	0	0.000000000	1.9984e-15	0.788798	-0.788798	-1.80411e-16	0.828698	-1.5708	0	0.1	0.1	0.1	0.1	0.1	0.1	0.1	0	0	0	0	0	0	0	0.000000000
1504278041.998631000	0.00460194	0.776194	-0.811476	0.00920388	0.785398	-1.61221	0.0076699	0	0	0	0	0	0	0	0	0	0	0	0	0	0	0.000000000	1.9984e-15	0.788798	-0.788798	-1.80411e-16	0.828698	-1.5708	0	0.1	0.1	0.1	0.1	0.1	0.1	0.1	0	0	0	0	0	0	0	0.000000000
1504278042.018999099	0.00460194	0.776194	-0.811476	0.00920388	0.785398	-1.61221	0.0076699	0	0	0	0	0	0	0	0	0	0	0	0	0	0	0.000000000	1.9984e-15	0.788798	-0.788798	-1.80411e-16	0.828698	-1.5708	0	0.1	0.1	0.1	0.1	0.1	0.1	0.1	0	0	0	0	0	0	0	0.000000000
1504278042.038623094	0.00460194	0.776194	-0.811476	0.00920388	0.785398	-1.61375	0.0076699	0	0	0	0	0	0	0	0	0	0	0	0	0	0	0.000000000	1.9984e-15	0.788798	-0.788798	-1.80411e-16	0.828698	-1.5708	0	0.1	0.1	0.1	0.1	0.1	0.1	0.1	0	0	0	0	0	0	0	0.000000000
1504278042.058615922	0.00460194	0.776194	-0.811476	0.00920388	0.785398	-1.61375	0.0076699	0	0	0	0	0	0	0	0	0	0	0	0	0	0	0.000000000	1.9984e-15	0.788798	-0.788798	-1.80411e-16	0.828698	-1.5708	0	0.1	0.1	0.1	0.1	0.1	0.1	0.1	0	0	0	0	0	0	0	0.000000000
1504278042.078629970	0.00460194	0.776194	-0.811476	0.00920388	0.785398	-1.61375	0.0076699	0	0	0	0	0	0	0	0	0	0	0	0	0	0	0.000000000	1.9984e-15	0.788798	-0.788798	-1.80411e-16	0.828698	-1.5708	0	0.1	0.1	0.1	0.1	0.1	0.1	0.1	0	0	0	0	0	0	0	0.000000000
1504278042.098768949	0.00460194	0.776194	-0.811476	0.00920388	0.785398	-1.61375	0.0076699	0	0	0	0	0	0	0	0	0	0	0	0	0	0	0.000000000	1.9984e-15	0.788798	-0.788798	-1.80411e-16	0.828698	-1.5708	0	0.1	0.1	0.1	0.1	0.1	0.1	0.1	0	0	0	0	0	0	0	0.000000000
1504278042.119384050	0.00460194	0.776194	-0.811476	0.00920388	0.785398	-1.61375	0.0076699	0	0	0	0	0	0	0	0	0	0	0	0	0	0	0.000000000	1.9984e-15	0.788798	-0.788798	-1.80411e-16	0.828698	-1.5708	0	0.1	0.1	0.1	0.1	0.1	0.1	0.1	0	0	0	0	0	0	0	0.000000000
1504278042.138617992	0.00460194	0.776194	-0.811476	0.00920388	0.785398	-1.61221	0.0076699	0	0	0	0	0	0	0	0	0	0	0	0	0	0	0.000000000	1.9984e-15	0.788798	-0.788798	-1.80411e-16	0.828698	-1.5708	0	0.1	0.1	0.1	0.1	0.1	0.1	0.1	0	0	0	0	0	0	0	0.000000000
1504278042.158608913	0.00460194	0.776194	-0.811476	0.00920388	0.785398	-1.61375	0.0076699	0	0	0	0	0	0	0	0	0	0	0	0	0	0	0.000000000	1.9984e-15	0.788798	-0.788798	-1.80411e-16	0.828698	-1.5708	0	0.1	0.1	0.1	0.1	0.1	0.1	0.1	0	0	0	0	0	0	0	0.000000000
1504278042.178613901	0.00460194	0.776194	-0.811476	0.00920388	0.785398	-1.61221	0.0076699	0	0	0	0	0	0	0	0	0	0	0	0	0	0	0.000000000	1.9984e-15	0.788798	-0.788798	-1.80411e-16	0.828698	-1.5708	0	0.1	0.1	0.1	0.1	0.1	0.1	0.1	0	0	0	0	0	0	0	0.000000000
1504278042.198616981	0.00460194	0.776194	-0.811476	0.00920388	0.785398	-1.61221	0.0076699	0	0	0	0	0	0	0	0	0	0	0	0	0	0	0.000000000	1.9984e-15	0.788798	-0.788798	-1.80411e-16	0.828698	-1.5708	0	0.1	0.1	0.1	0.1	0.1	0.1	0.1	0	0	0	0	0	0	0	0.000000000
1504278042.219005107	0.00460194	0.776194	-0.811476	0.00920388	0.785398	-1.61375	0.0076699	0	0	0	0	0	0	0	0	0	0	0	0	0	0	0.000000000	1.9984e-15	0.788798	-0.788798	-1.80411e-16	0.828698	-1.5708	0	0.1	0.1	0.1	0.1	0.1	0.1	0.1	0	0	0	0	0	0	0	0.000000000
1504278042.238630056	0.00460194	0.776194	-0.811476	0.00920388	0.785398	-1.61375	0.0076699	0	0	0	0	0	0	0	0	0	0	0	0	0	0	0.000000000	1.9984e-15	0.788798	-0.788798	-1.80411e-16	0.828698	-1.5708	0	0.1	0.1	0.1	0.1	0.1	0.1	0.1	0	0	0	0	0	0	0	0.000000000
1504278042.258620977	0.00460194	0.776194	-0.811476	0.00920388	0.785398	-1.61375	0.0076699	0	0	0	0	0	0	0	0	0	0	0	0	0	0	0.000000000	1.9984e-15	0.788798	-0.788798	-1.80411e-16	0.828698	-1.5708	0	0.1	0.1	0.1	0.1	0.1	0.1	0.1	0	0	0	0	0	0	0	0.000000000
1504278042.278686046	0.00460194	0.776194	-0.811476	0.00920388	0.785398	-1.61375	0.0076699	0	0	0	0	0	0	0	0	0	0	0	0	0	0	0.000000000	1.9984e-15	0.788798	-0.788798	-1.80411e-16	0.828698	-1.5708	0	0.1	0.1	0.1	0.1	0.1	0.1	0.1	0	0	0	0	0	0	0	0.000000000
1504278042.298610925	0.00460194	0.776194	-0.811476	0.00920388	0.785398	-1.61375	0.0076699	0	0	0	0	0	0	0	0	0	0	0	0	0	0	0.000000000	1.9984e-15	0.788798	-0.788798	-1.80411e-16	0.828698	-1.5708	0	0.1	0.1	0.1	0.1	0.1	0.1	0.1	0	0	0	0	0	0	0	0.000000000
1504278042.318617105	0.00460194	0.776194	-0.811476	0.00920388	0.785398	-1.61375	0.0076699	0	0	0	0	0	0	0	0	0	0	0	0	0	0	0.000000000	1.9984e-15	0.788798	-0.788798	-1.80411e-16	0.828698	-1.5708	0	0.1	0.1	0.1	0.1	0.1	0.1	0.1	0	0	0	0	0	0	0	0.000000000
1504278042.338638067	0.00460194	0.776194	-0.811476	0.00920388	0.785398	-1.61375	0.0076699	0	0	0	0	0	0	0	0	0	0	0	0	0	0	0.000000000	1.9984e-15	0.788798	-0.788798	-1.80411e-16	0.828698	-1.5708	0	0.1	0.1	0.1	0.1	0.1	0.1	0.1	0	0	0	0	0	0	0	0.000000000
1504278042.358663082	0.00460194	0.776194	-0.811476	0.00920388	0.785398	-1.61375	0.0076699	0	0	0	0	0	0	0	0	0	0	0	0	0	0	0.000000000	1.9984e-15	0.788798	-0.788798	-1.80411e-16	0.828698	-1.5708	0	0.1	0.1	0.1	0.1	0.1	0.1	0.1	0	0	0	0	0	0	0	0.000000000
1504278042.378700971	0.00460194	0.776194	-0.811476	0.00920388	0.785398	-1.61375	0.0076699	0	0	0	0	0	0	0	0	0	0	0	0	0	0	0.000000000	1.9984e-15	0.788798	-0.788798	-1.80411e-16	0.828698	-1.5708	0	0.1	0.1	0.1	0.1	0.1	0.1	0.1	0	0	0	0	0	0	0	0.000000000
1504278042.398720026	0.00460194	0.776194	-0.811476	0.00920388	0.785398	-1.61221	0.0076699	0	0	0	0	0	0	0	0	0	0	0	0	0	0	0.000000000	1.9984e-15	0.788798	-0.788798	-1.80411e-16	0.828698	-1.5708	0	0.1	0.1	0.1	0.1	0.1	0.1	0.1	0	0	0	0	0	0	0	0.000000000
1504278042.419287919	0.00460194	0.776194	-0.811476	0.00920388	0.785398	-1.61221	0.0076699	0	0	0	0	0	0	0	0	0	0	0	0	0	0	0.000000000	1.9984e-15	0.788798	-0.788798	-1.80411e-16	0.828698	-1.5708	0	0.1	0.1	0.1	0.1	0.1	0.1	0.1	0	0	0	0	0	0	0	0.000000000
1504278042.439882040	0.00460194	0.776194	-0.811476	0.00920388	0.785398	-1.61375	0.0076699	0	0	0	0	0	0	0	0	0	0	0	0	0	0	0.000000000	1.9984e-15	0.788798	-0.788798	-1.80411e-16	0.828698	-1.5708	0	0.1	0.1	0.1	0.1	0.1	0.1	0.1	0	0	0	0	0	0	0	0.000000000
1504278042.459014892	0.00460194	0.776194	-0.811476	0.00920388	0.785398	-1.61375	0.0076699	0	0	0	0	0	0	0	0	0	0	0	0	0	0	0.000000000	1.9984e-15	0.788798	-0.788798	-1.80411e-16	0.828698	-1.5708	0	0.1	0.1	0.1	0.1	0.1	0.1	0.1	0	0	0	0	0	0	0	0.000000000
1504278042.478790998	0.00460194	0.776194	-0.811476	0.0107379	0.785398	-1.61375	0.0076699	0	0	0	0	0	0	0	0	0	0	0	0	0	0	0.000000000	1.9984e-15	0.788798	-0.788798	-1.80411e-16	0.828698	-1.5708	0	0.1	0.1	0.1	0.1	0.1	0.1	0.1	0	0	0	0	0	0	0	0.000000000
1504278042.498732089	0.00460194	0.776194	-0.811476	0.00920388	0.785398	-1.61375	0.0076699	0	0	0	0	0	0	0	0	0	0	0	0	0	0	0.000000000	1.9984e-15	0.788798	-0.788798	-1.80411e-16	0.828698	-1.5708	0	0.1	0.1	0.1	0.1	0.1	0.1	0.1	0	0	0	0	0	0	0	0.000000000
1504278042.518733978	0.00460194	0.776194	-0.811476	0.00920388	0.785398	-1.61375	0.0076699	0	0	0	0	0	0	0	0	0	0	0	0	0	0	0.000000000	1.9984e-15	0.788798	-0.788798	-1.80411e-16	0.828698	-1.5708	0	0.1	0.1	0.1	0.1	0.1	0.1	0.1	0	0	0	0	0	0	0	0.000000000
1504278042.538677930	0.00460194	0.776194	-0.811476	0.00920388	0.785398	-1.61221	0.0076699	0	0	0	0	0	0	0	0	0	0	0	0	0	0	0.000000000	1.9984e-15	0.788798	-0.788798	-1.80411e-16	0.828698	-1.5708	0	0.1	0.1	0.1	0.1	0.1	0.1	0.1	0	0	0	0	0	0	0	0.000000000
1504278042.558790922	0.00460194	0.776194	-0.811476	0.00920388	0.785398	-1.61221	0.0076699	0	0	0	0	0	0	0	0	0	0	0	0	0	0	0.000000000	1.9984e-15	0.788798	-0.788798	-1.80411e-16	0.828698	-1.5708	0	0.1	0.1	0.1	0.1	0.1	0.1	0.1	0	0	0	0	0	0	0	0.000000000
1504278042.578707933	0.00460194	0.776194	-0.811476	0.00920388	0.785398	-1.61375	0.0076699	0	0	0	0	0	0	0	0	0	0	0	0	0	0	0.000000000	1.9984e-15	0.788798	-0.788798	-1.80411e-16	0.828698	-1.5708	0	0.1	0.1	0.1	0.1	0.1	0.1	0.1	0	0	0	0	0	0	0	0.000000000
1504278042.598725080	0.00460194	0.776194	-0.811476	0.00920388	0.785398	-1.61375	0.0076699	0	0	0	0	0	0	0	0	0	0	0	0	0	0	0.000000000	1.9984e-15	0.788798	-0.788798	-1.80411e-16	0.828698	-1.5708	0	0.1	0.1	0.1	0.1	0.1	0.1	0.1	0	0	0	0	0	0	0	0.000000000
1504278042.618769884	0.00460194	0.776194	-0.811476	0.00920388	0.785398	-1.61375	0.0076699	0	0	0	0	0	0	0	0	0	0	0	0	0	0	0.000000000	1.9984e-15	0.788798	-0.788798	-1.80411e-16	0.828698	-1.5708	0	0.1	0.1	0.1	0.1	0.1	0.1	0.1	0	0	0	0	0	0	0	0.000000000
1504278042.638714075	0.00460194	0.776194	-0.811476	0.00920388	0.785398	-1.61221	0.0076699	0	0	0	0	0	0	0	0	0	0	0	0	0	0	0.000000000	1.9984e-15	0.788798	-0.788798	-1.80411e-16	0.828698	-1.5708	0	0.1	0.1	0.1	0.1	0.1	0.1	0.1	0	0	0	0	0	0	0	0.000000000
1504278042.658694982	0.00613592	0.776194	-0.811476	0.00920388	0.785398	-1.61221	0.0076699	0	0	0	0	0	0	0	0	0	0	0	0	0	0	0.000000000	1.9984e-15	0.788798	-0.788798	-1.80411e-16	0.828698	-1.5708	0	0.1	0.1	0.1	0.1	0.1	0.1	0.1	0	0	0	0	0	0	0	0.000000000
1504278042.678739070	0.00460194	0.776194	-0.811476	0.00920388	0.785398	-1.61375	0.0076699	0	0	0	0	0	0	0	0	0	0	0	0	0	0	0.000000000	1.9984e-15	0.788798	-0.788798	-1.80411e-16	0.828698	-1.5708	0	0.1	0.1	0.1	0.1	0.1	0.1	0.1	0	0	0	0	0	0	0	0.000000000
1504278042.698688030	0.00460194	0.776194	-0.811476	0.00920388	0.785398	-1.61221	0.0076699	0	0	0	0	0	0	0	0	0	0	0	0	0	0	0.000000000	1.9984e-15	0.788798	-0.788798	-1.80411e-16	0.828698	-1.5708	0	0.1	0.1	0.1	0.1	0.1	0.1	0.1	0	0	0	0	0	0	0	0.000000000
1504278042.718684911	0.00460194	0.776194	-0.811476	0.00920388	0.785398	-1.61221	0.0076699	0	0	0	0	0	0	0	0	0	0	0	0	0	0	0.000000000	1.9984e-15	0.788798	-0.788798	-1.80411e-16	0.828698	-1.5708	0	0.1	0.1	0.1	0.1	0.1	0.1	0.1	0	0	0	0	0	0	0	0.000000000
1504278042.738696098	0.00460194	0.776194	-0.81301	0.00920388	0.785398	-1.61375	0.0076699	0	0	0	0	0	0	0	0	0	0	0	0	0	0	0.000000000	1.9984e-15	0.788798	-0.788798	-1.80411e-16	0.828698	-1.5708	0	0.1	0.1	0.1	0.1	0.1	0.1	0.1	0	0	0	0	0	0	0	0.000000000
1504278042.758810997	0.00460194	0.776194	-0.811476	0.00920388	0.785398	-1.61375	0.0076699	0	0	0	0	0	0	0	0	0	0	0	0	0	0	0.000000000	1.9984e-15	0.788798	-0.788798	-1.80411e-16	0.828698	-1.5708	0	0.1	0.1	0.1	0.1	0.1	0.1	0.1	0	0	0	0	0	0	0	0.000000000
1504278042.778779029	0.00613592	0.776194	-0.811476	0.00920388	0.785398	-1.61375	0.0076699	0	0	0	0	0	0	0	0	0	0	0	0	0	0	0.000000000	1.9984e-15	0.788798	-0.788798	-1.80411e-16	0.828698	-1.5708	0	0.1	0.1	0.1	0.1	0.1	0.1	0.1	0	0	0	0	0	0	0	0.000000000
1504278042.798674106	0.00460194	0.776194	-0.811476	0.00920388	0.785398	-1.61375	0.0076699	0	0	0	0	0	0	0	0	0	0	0	0	0	0	0.000000000	1.9984e-15	0.788798	-0.788798	-1.80411e-16	0.828698	-1.5708	0	0.1	0.1	0.1	0.1	0.1	0.1	0.1	0	0	0	0	0	0	0	0.000000000
1504278042.818768024	0.00460194	0.776194	-0.811476	0.00920388	0.785398	-1.61375	0.0076699	0	0	0	0	0	0	0	0	0	0	0	0	0	0	0.000000000	1.9984e-15	0.788798	-0.788798	-1.80411e-16	0.828698	-1.5708	0	0.1	0.1	0.1	0.1	0.1	0.1	0.1	0	0	0	0	0	0	0	0.000000000
1504278042.838785886	0.00460194	0.776194	-0.811476	0.00920388	0.785398	-1.61375	0.0076699	0	0	0	0	0	0	0	0	0	0	0	0	0	0	0.000000000	1.9984e-15	0.788798	-0.788798	-1.80411e-16	0.828698	-1.5708	0	0.1	0.1	0.1	0.1	0.1	0.1	0.1	0	0	0	0	0	0	0	0.000000000
1504278042.859986066	0.00460194	0.776194	-0.811476	0.00920388	0.785398	-1.61375	0.0076699	0	0	0	0	0	0	0	0	0	0	0	0	0	0	0.000000000	1.9984e-15	0.788798	-0.788798	-1.80411e-16	0.828698	-1.5708	0	0.1	0.1	0.1	0.1	0.1	0.1	0.1	0	0	0	0	0	0	0	0.000000000
1504278042.879440069	0.00460194	0.776194	-0.811476	0.00920388	0.785398	-1.61375	0.0076699	0	0	0	0	0	0	0	0	0	0	0	0	0	0	0.000000000	1.9984e-15	0.788798	-0.788798	-1.80411e-16	0.828698	-1.5708	0	0.1	0.1	0.1	0.1	0.1	0.1	0.1	0	0	0	0	0	0	0	0.000000000
1504278042.898659944	0.00460194	0.776194	-0.811476	0.00920388	0.785398	-1.61375	0.0076699	0	0	0	0	0	0	0	0	0	0	0	0	0	0	0.000000000	1.9984e-15	0.788798	-0.788798	-1.80411e-16	0.828698	-1.5708	0	0.1	0.1	0.1	0.1	0.1	0.1	0.1	0	0	0	0	0	0	0	0.000000000
1504278042.918679952	0.00460194	0.776194	-0.811476	0.00920388	0.785398	-1.61375	0.0076699	0	0	0	0	0	0	0	0	0	0	0	0	0	0	0.000000000	1.9984e-15	0.788798	-0.788798	-1.80411e-16	0.828698	-1.5708	0	0.1	0.1	0.1	0.1	0.1	0.1	0.1	0	0	0	0	0	0	0	0.000000000
1504278042.938774108	0.00460194	0.776194	-0.811476	0.00920388	0.785398	-1.61375	0.0076699	0	0	0	0	0	0	0	0	0	0	0	0	0	0	0.000000000	1.9984e-15	0.788798	-0.788798	-1.80411e-16	0.828698	-1.5708	0	0.1	0.1	0.1	0.1	0.1	0.1	0.1	0	0	0	0	0	0	0	0.000000000
1504278042.958942890	0.00460194	0.776194	-0.811476	0.00920388	0.785398	-1.61375	0.0076699	0	0	0	0	0	0	0	0	0	0	0	0	0	0	0.000000000	1.9984e-15	0.788798	-0.788798	-1.80411e-16	0.828698	-1.5708	0	0.1	0.1	0.1	0.1	0.1	0.1	0.1	0	0	0	0	0	0	0	0.000000000
1504278042.978806018	0.00460194	0.776194	-0.811476	0.00920388	0.785398	-1.61375	0.0076699	0	0	0	0	0	0	0	0	0	0	0	0	0	0	0.000000000	1.9984e-15	0.788798	-0.788798	-1.80411e-16	0.828698	-1.5708	0	0.1	0.1	0.1	0.1	0.1	0.1	0.1	0	0	0	0	0	0	0	0.000000000
1504278042.999090909	0.00460194	0.776194	-0.811476	0.00920388	0.785398	-1.61375	0.0076699	0	0	0	0	0	0	0	0	0	0	0	0	0	0	0.000000000	1.9984e-15	0.788798	-0.788798	-1.80411e-16	0.828698	-1.5708	0	0.1	0.1	0.1	0.1	0.1	0.1	0.1	0	0	0	0	0	0	0	0.000000000
1504278043.018620967	0.00460194	0.776194	-0.811476	0.00920388	0.785398	-1.61375	0.0076699	0	0	0	0	0	0	0	0	0	0	0	0	0	0	0.000000000	-8.69384e-05	0.788798	-0.788798	-7.67326e-06	0.828698	-1.5708	0	0.1	0.1	0.1	0.1	0.1	0.1	0.1	0	0	0	0	0	0	0	0.000000000
1504278043.038640022	0.00460194	0.776194	-0.811476	0.00920388	0.785398	-1.61221	0.0076699	0	0	0	0	0	0	0	0	0	0	0	0	0	0	0.000000000	-8.69384e-05	0.788798	-0.788798	-7.67326e-06	0.828698	-1.5708	0	0.1	0.1	0.1	0.1	0.1	0.1	0.1	0	0	0	0	0	0	0	0.000000000
1504278043.058665990	0.00460194	0.776194	-0.811476	0.00920388	0.785398	-1.61221	0.0076699	0	0	0	0	0	0	0	0	0	0	0	0	0	0	0.000000000	-8.69384e-05	0.788798	-0.788798	-7.67326e-06	0.828698	-1.5708	0	0.1	0.1	0.1	0.1	0.1	0.1	0.1	0	0	0	0	0	0	0	0.000000000
1504278043.078701019	0.00460194	0.776194	-0.811476	0.00920388	0.785398	-1.61375	0.0076699	0	0	0	0	0	0	0	0	0	0	0	0	0	0	0.000000000	-0.000288926	0.788798	-0.788798	-2.55009e-05	0.828698	-1.5708	0	0.1	0.1	0.1	0.1	0.1	0.1	0.1	0	0	0	0	0	0	0	0.000000000
1504278043.098759889	0.00460194	0.776194	-0.811476	0.00920388	0.785398	-1.61375	0.0076699	0	0	0	0	0	0	0	0	0	0	0	0	0	0	0.000000000	-0.000288926	0.788798	-0.788798	-2.55009e-05	0.828698	-1.5708	0	0.1	0.1	0.1	0.1	0.1	0.1	0.1	0	0	0	0	0	0	0	0.000000000
1504278043.118693113	0.00460194	0.776194	-0.811476	0.00920388	0.785398	-1.61375	0.0076699	0	0	0	0	0	0	0	0	0	0	0	0	0	0	0.000000000	-0.000674305	0.788798	-0.788798	-5.95147e-05	0.828698	-1.5708	0	0.1	0.1	0.1	0.1	0.1	0.1	0.1	0	0	0	0	0	0	0	0.000000000
1504278043.138860940	0.00460194	0.776194	-0.811476	0.00920388	0.785398	-1.61221	0.0076699	0	0	0	0	0	0	0	0	0	0	0	0	0	0	0.000000000	-0.000674305	0.788798	-0.788798	-5.95147e-05	0.828698	-1.5708	0	0.1	0.1	0.1	0.1	0.1	0.1	0.1	0	0	0	0	0	0	0	0.000000000
1504278043.158678054	0.00460194	0.776194	-0.811476	0.00920388	0.785398	-1.61375	0.0076699	0	0	0	0	0	0	0	0	0	0	0	0	0	0	0.000000000	-0.000674305	0.788798	-0.788798	-5.95147e-05	0.828698	-1.5708	0	0.1	0.1	0.1	0.1	0.1	0.1	0.1	0	0	0	0	0	0	0	0.000000000
1504278043.178776025	0.00460194	0.776194	-0.811476	0.00920388	0.785398	-1.61375	0.0076699	0	0	0	0	0	0	0	0	0	0	0	0	0	0	0.000000000	-0.00129655	0.788798	-0.788798	-0.000114435	0.828698	-1.5708	0	0.1	0.1	0.1	0.1	0.1	0.1	0.1	0	0	0	0	0	0	0	0.000000000
1504278043.198820114	0.00460194	0.776194	-0.811476	0.00920388	0.785398	-1.61375	0.0076699	0	0	0	0	0	0	0	0	0	0	0	0	0	0	0.000000000	-0.00129655	0.788798	-0.788798	-0.000114435	0.828698	-1.5708	0	0.1	0.1	0.1	0.1	0.1	0.1	0.1	0	0	0	0	0	0	0	0.000000000
1504278043.218766927	0.00460194	0.776194	-0.811476	0.00920388	0.785398	-1.61375	0.0076699	0	0	0	0	0	0	0	0	0	0	0	0	0	0	0.000000000	-0.00220541	0.788798	-0.788798	-0.000194651	0.828698	-1.5708	0	0.1	0.1	0.1	0.1	0.1	0.1	0.1	0	0	0	0	0	0	0	0.000000000
1504278043.238701105	0.00460194	0.776194	-0.811476	0.00920388	0.785398	-1.61375	0.0076699	0	0	0	0	0	0	0	0	0	0	0	0	0	0	0.000000000	-0.00220541	0.788798	-0.788798	-0.000194651	0.828698	-1.5708	0	0.1	0.1	0.1	0.1	0.1	0.1	0.1	0	0	0	0	0	0	0	0.000000000
1504278043.259185075	0.00613592	0.776194	-0.811476	0.00920388	0.785398	-1.61375	0.0076699	0	0	0	0	0	0	0	0	0	0	0	0	0	0	0.000000000	-0.00220541	0.788798	-0.788798	-0.000194651	0.828698	-1.5708	0	0.1	0.1	0.1	0.1	0.1	0.1	0.1	0	0	0	0	0	0	0	0.000000000
1504278043.278789997	0.00460194	0.776194	-0.811476	0.00920388	0.785398	-1.61221	0.0076699	0	0	0	0	0	0	0	0	0	0	0	0	0	0	0.000000000	-0.00344693	0.788798	-0.788798	-0.000304229	0.828698	-1.5708	0	0.1	0.1	0.1	0.1	0.1	0.1	0.1	0	0	0	0	0	0	0	0.000000000
1504278043.298718929	0.00460194	0.776194	-0.811476	0.00920388	0.785398	-1.61221	0.0076699	0	0	0	0	0	0	0	0	0	0	0	0	0	0	0.000000000	-0.00344693	0.788798	-0.788798	-0.000304229	0.828698	-1.5708	0	0.1	0.1	0.1	0.1	0.1	0.1	0.1	0	0	0	0	0	0	0	0.000000000
1504278043.318692922	0.00460194	0.776194	-0.811476	0.00920388	0.785398	-1.61221	0.0076699	0	0	0	0	0	0	0	0	0	0	0	0	0	0	0.000000000	-0.00506363	0.788798	-0.788798	-0.00044692	0.828698	-1.5708	0	0.1	0.1	0.1	0.1	0.1	0.1	0.1	0	0	0	0	0	0	0	0.000000000
1504278043.339551925	0.00460194	0.776194	-0.811476	0.00920388	0.785398	-1.61375	0.0076699	0	0	0	0	0	0	0	0	0	0	0	0	0	0	0.000000000	-0.00506363	0.788798	-0.788798	-0.00044692	0.828698	-1.5708	0	0.1	0.1	0.1	0.1	0.1	0.1	0.1	0	0	0	0	0	0	0	0.000000000
1504278043.363085031	0.00460194	0.776194	-0.811476	0.00920388	0.785398	-1.61375	0.0076699	0	0	0	0	0	0	0	0	0	0	0	0	0	0	0.000000000	-0.00506363	0.788798	-0.788798	-0.00044692	0.828698	-1.5708	0	0.1	0.1	0.1	0.1	0.1	0.1	0.1	0	0	0	0	0	0	0	0.000000000
1504278043.378837108	0.00460194	0.776194	-0.811476	0.00920388	0.785398	-1.61221	0.0076699	0	0	0	0	0	0	0	0	0	0	0	0	0	0	0.000000000	-0.00709448	0.788798	-0.788798	-0.000626165	0.828698	-1.5708	0	0.1	0.1	0.1	0.1	0.1	0.1	0.1	0	0	0	0	0	0	0	0.000000000
1504278043.399594068	0.00460194	0.776194	-0.811476	0.00920388	0.785398	-1.61375	0.0076699	0	0	0	0	0	0	0	0	0	0	0	0	0	0	0.000000000	-0.00709448	0.788798	-0.788798	-0.000626165	0.828698	-1.5708	0	0.1	0.1	0.1	0.1	0.1	0.1	0.1	0	0	0	0	0	0	0	0.000000000
1504278043.420327901	0.00153398	0.776194	-0.811476	0.00920388	0.785398	-1.61375	0.0076699	0.107442	0	0	0	0	0	0	0	0	0	0	0	0	0	0.000000000	-0.00957507	0.788798	-0.788798	-0.000845105	0.828698	-1.5708	0	0.1	0.1	0.1	0.1	0.1	0.1	0.1	0	0	0	0	0	0	0	0.000000000
1504278043.439054965	-0.00306796	0.776194	-0.811476	0.00920388	0.785398	-1.61375	0.0076699	0.155195	0	0	0	0	0	0	0	0	0	0	0	0	0	0.000000000	-0.00957507	0.788798	-0.788798	-0.000845105	0.828698	-1.5708	0	0.1	0.1	0.1	0.1	0.1	0.1	0.1	0	0	0	0	0	0	0	0.000000000
1504278043.458807945	-0.00306796	0.776194	-0.811476	0.00920388	0.785398	-1.61375	0.0076699	0.155195	0	0	0	0	0	0	0	0	0	0	0	0	0	0.000000000	-0.00957507	0.788798	-0.788798	-0.000845105	0.828698	-1.5708	0	0.1	0.1	0.1	0.1	0.1	0.1	0.1	0	0	0	0	0	0	0	0.000000000
1504278043.478893995	-0.0076699	0.776194	-0.811476	0.00920388	0.785398	-1.61375	0.0076699	0.107442	0	0	0	0	0	0	0	0	0	0	0	0	0	0.000000000	-0.0125376	0.788798	-0.788798	-0.00110658	0.828698	-1.5708	0	0.1	0.1	0.1	0.1	0.1	0.1	0.1	0	0	0	0	0	0	0	0.000000000
1504278043.498678922	-0.00920388	0.776194	-0.811476	0.00920388	0.785398	-1.61375	0.0076699	0	0	0	0	0	0	0	0	0	0	0	0	0	0	0.000000000	-0.0125376	0.788798	-0.788798	-0.00110658	0.828698	-1.5708	0	0.1	0.1	0.1	0.1	0.1	0.1	0.1	0	0	0	0	0	0	0	0.000000000
1504278043.519733905	-0.00920388	0.776194	-0.811476	0.00920388	0.785398	-1.61375	0.0076699	0	0	0	0	0	0	0	0	0	0	0	0	0	0	0.000000000	-0.0160112	0.788798	-0.788798	-0.00141316	0.828698	-1.5708	0	0.1	0.1	0.1	0.1	0.1	0.1	0.1	0	0	0	0	0	0	0	0.000000000
1504278043.538727998	-0.00920388	0.776194	-0.811476	0.00920388	0.785398	-1.61375	0.0076699	0	0	0	0	0	0	0	0	0	0	0	0	0	0	0.000000000	-0.0160112	0.788798	-0.788798	-0.00141316	0.828698	-1.5708	0	0.1	0.1	0.1	0.1	0.1	0.1	0.1	0	0	0	0	0	0	0	0.000000000
1504278043.558918952	-0.00920388	0.776194	-0.811476	0.00920388	0.785398	-1.61375	0.0076699	0	0	0	0	0	0	0	0	0	0	0	0	0	0	0.000000000	-0.0160112	0.788798	-0.788798	-0.00141316	0.828698	-1.5708	0	0.1	0.1	0.1	0.1	0.1	0.1	0.1	0	0	0	0	0	0	0	0.000000000
1504278043.578707933	-0.00920388	0.776194	-0.811476	0.00920388	0.785398	-1.61375	0.0076699	0	0	0	0	0	0	0	0	0	0	0	0	0	0	0.000000000	-0.0200215	0.788798	-0.788798	-0.00176712	0.828698	-1.5708	0	0.1	0.1	0.1	0.1	0.1	0.1	0.1	0	0	0	0	0	0	0	0.000000000
1504278043.598743915	-0.0107379	0.776194	-0.811476	0.00920388	0.785398	-1.61375	0.0076699	0	0	0	0	0	0	0	0	0	0	0	0	0	0	0.000000000	-0.0200215	0.788798	-0.788798	-0.00176712	0.828698	-1.5708	0	0.1	0.1	0.1	0.1	0.1	0.1	0.1	0	0	0	0	0	0	0	0.000000000
1504278043.618726015	-0.0107379	0.776194	-0.811476	0.00920388	0.785398	-1.61375	0.0076699	0	0	0	0	0	0	0	0	0	0	0	0	0	0	0.000000000	-0.0245914	0.788798	-0.788798	-0.00217046	0.828698	-1.5708	0	0.1	0.1	0.1	0.1	0.1	0.1	0.1	0	0	0	0	0	0	0	0.000000000
1504278043.638670921	-0.0122718	0.776194	-0.811476	0.00920388	0.785398	-1.61375	0.0076699	0.107442	0	0	0	0	0	0	0	0	0	0	0	0	0	0.000000000	-0.0245914	0.788798	-0.788798	-0.00217046	0.828698	-1.5708	0	0.1	0.1	0.1	0.1	0.1	0.1	0.1	0	0	0	0	0	0	0	0.000000000
1504278043.658721923	-0.0153398	0.776194	-0.811476	0.00920388	0.785398	-1.61221	0.0076699	0.107442	0	0	0	0	0	0	0	0	0	0	0	0	0	0.000000000	-0.0245914	0.788798	-0.788798	-0.00217046	0.828698	-1.5708	0	0.1	0.1	0.1	0.1	0.1	0.1	0.1	0	0	0	0	0	0	0	0.000000000
1504278043.678992986	-0.0184078	0.776194	-0.811476	0.00920388	0.785398	-1.61375	0.0076699	0.155195	0	0	0	0	0	0	0	0	0	0	0	0	0	0.000000000	-0.0297406	0.788798	-0.788798	-0.00262493	0.828698	-1.5708	0	0.101953	0.1	0.1	0.1	0.1	0.1	0.1	0	0	0	0	0	0	0	0.000000000
1504278043.698770999	-0.0199418	0.776194	-0.811476	0.00920388	0.785398	-1.61375	0.0076699	0.107442	0	0	0	0	0	0	0	0	0	0	0	0	0	0.000000000	-0.0297406	0.788798	-0.788798	-0.00262493	0.828698	-1.5708	0	0.101953	0.1	0.1	0.1	0.1	0.1	0.1	0	0	0	0	0	0	0	0.000000000
1504278043.718739986	-0.0199418	0.776194	-0.811476	0.00920388	0.785398	-1.61375	0.0076699	0.107442	0	0	0	0	0	0	0	0	0	0	0	0	0	0.000000000	-0.0297406	0.788798	-0.788798	-0.00262493	0.828698	-1.5708	0	0.101953	0.1	0.1	0.1	0.1	0.1	0.1	0	0	0	0	0	0	0	0.000000000
1504278043.738708019	-0.0214757	0.776194	-0.811476	0.00920388	0.785398	-1.61221	0.0076699	0	0	0	0	0	0	0	0	0	0	0	0	0	0	0.000000000	-0.0354858	0.788798	-0.788798	-0.00313201	0.828698	-1.5708	0	0.113756	0.1	0.1	0.1	0.1	0.1	0.1	0	0	0	0	0	0	0	0.000000000
1504278043.758768081	-0.0230097	0.776194	-0.811476	0.00920388	0.785398	-1.61221	0.0076699	0	0	0	0	0	0	0	0	0	0	0	0	0	0	0.000000000	-0.0354858	0.788798	-0.788798	-0.00313201	0.828698	-1.5708	0	0.113756	0.1	0.1	0.1	0.1	0.1	0.1	0	0	0	0	0	0	0	0.000000000
1504278043.778762102	-0.0260777	0.776194	-0.811476	0.0076699	0.785398	-1.61221	0.0076699	0	0	0	0	0	0	0	0	0	0	0	0	0	0	0.000000000	-0.0418411	0.788798	-0.788798	-0.00369293	0.828698	-1.5708	0	0.125834	0.1	0.1	0.1	0.1	0.1	0.1	0	0	0	0	0	0	0	0.000000000
1504278043.798728942	-0.0306796	0.776194	-0.811476	0.0076699	0.785398	-1.61375	0.0076699	0.155195	0	0	0	0	0	0	0	0	0	0	0	0	0	0.000000000	-0.0418411	0.788798	-0.788798	-0.00369293	0.828698	-1.5708	0	0.125834	0.1	0.1	0.1	0.1	0.1	0.1	0	0	0	0	0	0	0	0.000000000
1504278043.818725109	-0.0306796	0.776194	-0.811476	0.0076699	0.785398	-1.61375	0.0076699	0.155195	0	0	0	0	0	0	0	0	0	0	0	0	0	0.000000000	-0.0418411	0.788798	-0.788798	-0.00369293	0.828698	-1.5708	0	0.125834	0.1	0.1	0.1	0.1	0.1	0.1	0	0	0	0	0	0	0	0.000000000
1504278043.838814973	-0.0352816	0.776194	-0.811476	0.00613592	0.785398	-1.61375	0.0076699	0.202947	0	0	0	0	0	0	0	0	0	0	0	0	0	0.000000000	-0.0488176	0.788798	-0.788798	-0.00430869	0.828698	-1.5708	0	0.138135	0.1	0.1	0.1	0.1	0.1	0.1	0	0	0	0	0	0	0	0.000000000
1504278043.858741044	-0.0383495	0.776194	-0.811476	0.00613592	0.785398	-1.61375	0.0076699	0.155195	0	0	0	0	0	0	0	0	0	0	0	0	0	0.000000000	-0.0488176	0.788798	-0.788798	-0.00430869	0.828698	-1.5708	0	0.138135	0.1	0.1	0.1	0.1	0.1	0.1	0	0	0	0	0	0	0	0.000000000
1504278043.878760099	-0.0414175	0.776194	-0.811476	0.00460194	0.785398	-1.61221	0.0076699	0.107442	0	0	0	0	0	0	0	0	0	0	0	0	0	0.000000000	-0.0564239	0.788798	-0.788798	-0.00498003	0.828698	-1.5708	0	0.150606	0.1	0.1	0.1	0.1	0.1	0.1	0	0	0	0	0	0	0	0.000000000
1504278043.898715972	-0.0444854	0.776194	-0.811476	0.00460194	0.785398	-1.61375	0.0076699	0.107442	0	0	0	0	0	0	0	0	0	0	0	0	0	0.000000000	-0.0564239	0.788798	-0.788798	-0.00498003	0.828698	-1.5708	0	0.150606	0.1	0.1	0.1	0.1	0.1	0.1	0	0	0	0	0	0	0	0.000000000
1504278043.918709039	-0.0444854	0.776194	-0.811476	0.00460194	0.785398	-1.61375	0.0076699	0.107442	0	0	0	0	0	0	0	0	0	0	0	0	0	0.000000000	-0.0564239	0.788798	-0.788798	-0.00498003	0.828698	-1.5708	0	0.150606	0.1	0.1	0.1	0.1	0.1	0.1	0	0	0	0	0	0	0	0.000000000
1504278043.938707113	-0.0475534	0.776194	-0.811476	0.00306796	0.785398	-1.61375	0.0076699	0.107442	0	0	0	0	0	0	0	0	0	0	0	0	0	0.000000000	-0.064666	0.788798	-0.788798	-0.00570748	0.828698	-1.5708	0	0.163194	0.1	0.1	0.1	0.1	0.1	0.1	0	0	0	0	0	0	0	0.000000000
1504278043.958889961	-0.0521553	0.776194	-0.811476	0.00306796	0.785398	-1.61375	0.0076699	0.155195	0	0	0	0	0	0	0	0	0	0	0	0	0	0.000000000	-0.064666	0.788798	-0.788798	-0.00570748	0.828698	-1.5708	0	0.163194	0.1	0.1	0.1	0.1	0.1	0.1	0	0	0	0	0	0	0	0.000000000
1504278043.978724002	-0.0567573	0.776194	-0.811476	0.00306796	0.785398	-1.61375	0.0076699	0.202947	0	0	0	0	0	0	0	0	0	0	0	0	0	0.000000000	-0.0735473	0.788798	-0.788798	-0.00649135	0.828698	-1.5708	0	0.175849	0.1	0.1	0.1	0.1	0.1	0.1	0	0	0	0	0	0	0	0.000000000
1504278043.998687982	-0.0598253	0.776194	-0.811476	0.00306796	0.785398	-1.61375	0.0076699	0.202947	0	0	0	0	0	0	0	0	0	0	0	0	0	0.000000000	-0.0735473	0.788798	-0.788798	-0.00649135	0.828698	-1.5708	0	0.175849	0.1	0.1	0.1	0.1	0.1	0.1	0	0	0	0	0	0	0	0.000000000
1504278044.018763065	-0.0598253	0.776194	-0.811476	0.00306796	0.785398	-1.61375	0.0076699	0.202947	0	0	0	0	0	0	0	0	0	0	0	0	0	0.000000000	-0.0735473	0.788798	-0.788798	-0.00649135	0.828698	-1.5708	0	0.175849	0.1	0.1	0.1	0.1	0.1	0.1	0	0	0	0	0	0	0	0.000000000
1504278044.038712978	-0.0644272	0.776194	-0.811476	0.00306796	0.785398	-1.61375	0.0076699	0.155195	0	0	0	0	0	0	0	0	0	0	0	0	0	0.000000000	-0.0830688	0.788798	-0.788798	-0.00733173	0.828698	-1.5708	0	0.188525	0.1	0.1	0.1	0.1	0.1	0.1	0	0	0	0	0	0	0	0.000000000
1504278044.058696031	-0.0674952	0.776194	-0.811476	0.00153398	0.785398	-1.61375	0.0076699	0.155195	0	0	0	0	0	0	0	0	0	0	0	0	0	0.000000000	-0.0830688	0.788798	-0.788798	-0.00733173	0.828698	-1.5708	0	0.188525	0.1	0.1	0.1	0.1	0.1	0.1	0	0	0	0	0	0	0	0.000000000
1504278044.078773021	-0.0736311	0.776194	-0.811476	0.00153398	0.785398	-1.61375	0.0076699	0.202947	0	0	0	0	0	0	0	0	0	0	0	0	0	0.000000000	-0.0932292	0.788798	-0.788798	-0.00822849	0.828698	-1.5708	0	0.201175	0.1	0.1	0.1	0.1	0.1	0.1	0	0	0	0	0	0	0	0.000000000
1504278044.098948955	-0.0736311	0.776194	-0.811476	0.00153398	0.785398	-1.61375	0.0076699	0.202947	0	0	0	0	0	0	0	0	0	0	0	0	0	0.000000000	-0.0932292	0.788798	-0.788798	-0.00822849	0.828698	-1.5708	0	0.201175	0.1	0.1	0.1	0.1	0.1	0.1	0	0	0	0	0	0	0	0.000000000
1504278044.119019031	-0.078233	0.776194	-0.811476	0	0.785398	-1.61221	0.0076699	0.202947	0	0	0	0	0	0	0	0	0	0	0	0	0	0.000000000	-0.0932292	0.788798	-0.788798	-0.00822849	0.828698	-1.5708	0	0.201175	0.1	0.1	0.1	0.1	0.1	0.1	0	0	0	0	0	0	0	0.000000000
1504278044.138794898	-0.0843689	0.776194	-0.811476	0	0.785398	-1.61375	0.0076699	0.202947	0	0	0	0	0	0	0	0	0	0	0	0	0	0.000000000	-0.104025	0.788798	-0.788798	-0.00918132	0.828698	-1.5708	0	0.213753	0.1	0.1	0.1	0.1	0.1	0.1	0	0	0	0	0	0	0	0.000000000
1504278044.158966064	-0.0889709	0.776194	-0.811476	0	0.785398	-1.61221	0.0076699	0.202947	0	0	0	0	0	0	0	0	0	0	0	0	0	0.000000000	-0.104025	0.788798	-0.788798	-0.00918132	0.828698	-1.5708	0	0.213753	0.1	0.1	0.1	0.1	0.1	0.1	0	0	0	0	0	0	0	0.000000000
1504278044.183934926	-0.0920388	0.776194	-0.811476	0	0.785398	-1.61375	0.0076699	0.107442	0	0	0	0	0	0	0	0	0	0	0	0	0	0.000000000	-0.11545	0.788798	-0.788798	-0.0101897	0.828698	-1.5708	0	0.226216	0.1	0.1	0.1	0.1	0.1	0.1	0	0	0	0	0	0	0	0.000000000
1504278044.198829889	-0.0920388	0.776194	-0.811476	0	0.785398	-1.61375	0.0076699	0.107442	0	0	0	0	0	0	0	0	0	0	0	0	0	0.000000000	-0.11545	0.788798	-0.788798	-0.0101897	0.828698	-1.5708	0	0.226216	0.1	0.1	0.1	0.1	0.1	0.1	0	0	0	0	0	0	0	0.000000000
1504278044.219130992	-0.0951068	0.776194	-0.811476	0	0.785398	-1.61375	0.0076699	0.107442	0	0	0	0	0	0	0	0	0	0	0	0	0	0.000000000	-0.11545	0.788798	-0.788798	-0.0101897	0.828698	-1.5708	0	0.226216	0.1	0.1	0.1	0.1	0.1	0.1	0	0	0	0	0	0	0	0.000000000
1504278044.238867998	-0.0951068	0.776194	-0.811476	0	0.785398	-1.61375	0.0076699	0.107442	0	0	0	0	0	0	0	0	0	0	0	0	0	0.000000000	-0.127496	0.788798	-0.788798	-0.011253	0.828698	-1.5708	0	0.238524	0.1	0.1	0.1	0.1	0.1	0.1	0	0	0	0	0	0	0	0.000000000
1504278044.259226083	-0.101243	0.776194	-0.811476	-0.00153398	0.785398	-1.61375	0.0076699	0.202947	0	0	0	0	0	0	0	0	0	0	0	0	0	0.000000000	-0.127496	0.788798	-0.788798	-0.011253	0.828698	-1.5708	0	0.238524	0.1	0.1	0.1	0.1	0.1	0.1	0	0	0	0	0	0	0	0.000000000
1504278044.278736114	-0.111981	0.776194	-0.811476	-0.00306796	0.785398	-1.61375	0.0076699	0.298451	0	0	0	0	0	0	0	0	0	0	0	0	0	0.000000000	-0.140155	0.788798	-0.788798	-0.0123702	0.828698	-1.5708	0	0.250636	0.1	0.1	0.1	0.1	0.1	0.1	0	0	0	0	0	0	0	0.000000000
1504278044.298808097	-0.118117	0.776194	-0.811476	-0.00460194	0.785398	-1.61375	0.0076699	0.202947	0	0	0	0	0	0	0	0	0	0	0	0	0	0.000000000	-0.140155	0.788798	-0.788798	-0.0123702	0.828698	-1.5708	0	0.250636	0.1	0.1	0.1	0.1	0.1	0.1	0	0	0	0	0	0	0	0.000000000
1504278044.318778038	-0.121184	0.776194	-0.811476	-0.00460194	0.785398	-1.61375	0.0076699	0.155195	0	0	0	0	0	0	0	0	0	0	0	0	0	0.000000000	-0.140155	0.788798	-0.788798	-0.0123702	0.828698	-1.5708	0	0.250636	0.1	0.1	0.1	0.1	0.1	0.1	0	0	0	0	0	0	0	0.000000000
1504278044.338880062	-0.121184	0.776194	-0.811476	-0.00460194	0.785398	-1.61375	0.0076699	0.155195	0	0	0	0	0	0	0	0	0	0	0	0	0	0.000000000	-0.153413	0.788798	-0.788798	-0.0135404	0.828698	-1.5708	0	0.262513	0.1	0.1	0.1	0.1	0.1	0.1	0	0	0	0	0	0	0	0.000000000
1504278044.359515905	-0.124252	0.776194	-0.811476	-0.00460194	0.785398	-1.61221	0.0076699	0.155195	0	0	0	0	0	0	0	0	0	0	0	0	0	0.000000000	-0.153413	0.788798	-0.788798	-0.0135404	0.828698	-1.5708	0	0.262513	0.1	0.1	0.1	0.1	0.1	0.1	0	0	0	0	0	0	0	0.000000000
1504278044.379591941	-0.124252	0.776194	-0.811476	-0.00460194	0.785398	-1.61221	0.0076699	0.155195	0	0	0	0	0	0	0	0	0	0	0	0	0	0.000000000	-0.167257	0.788798	-0.788798	-0.0147623	0.828698	-1.5708	0	0.274119	0.1	0.1	0.1	0.1	0.1	0.1	0	0	0	0	0	0	0	0.000000000
1504278044.399163007	-0.141126	0.776194	-0.811476	-0.00613592	0.785398	-1.61375	0.0076699	0.346204	0	0	0	0	0	0	0	0	0	0	0	0	0	0.000000000	-0.167257	0.788798	-0.788798	-0.0147623	0.828698	-1.5708	0	0.274119	0.1	0.1	0.1	0.1	0.1	0.1	0	0	0	0	0	0	0	0.000000000
1504278044.418859004	-0.151864	0.776194	-0.811476	-0.00613592	0.785398	-1.61375	0.0076699	0.346204	0	0	0	0	0	0	0	0	0	0	0	0	0	0.000000000	-0.167257	0.788798	-0.788798	-0.0147623	0.828698	-1.5708	0	0.274119	0.1	0.1	0.1	0.1	0.1	0.1	0	0	0	0	0	0	0	0.000000000
1504278044.445617914	-0.154932	0.776194	-0.811476	-0.0076699	0.785398	-1.61375	0.0076699	0.250699	0	0	0	0	0	0	0	0	0	0	0	0	0	0.000000000	-0.181673	0.788798	-0.788798	-0.0160346	0.828698	-1.5708	0	0.28542	0.1	0.1	0.1	0.1	0.1	0.1	0	0	0	0	0	0	0	0.000000000
1504278044.460277080	-0.154932	0.776194	-0.811476	-0.0076699	0.785398	-1.61375	0.0076699	0.250699	0	0	0	0	0	0	0	0	0	0	0	0	0	0.000000000	-0.181673	0.788798	-0.788798	-0.0160346	0.828698	-1.5708	0	0.28542	0.1	0.1	0.1	0.1	0.1	0.1	0	0	0	0	0	0	0	0.000000000
1504278044.478820085	-0.158	0.776194	-0.811476	-0.00920388	0.785398	-1.61375	0.0076699	0.107442	0	0	0	0	0	0	0	0	0	0	0	0	0	0.000000000	-0.196641	0.788798	-0.788798	-0.0173557	0.828698	-1.5708	0	0.296381	0.1	0.1	0.1	0.1	0.1	0.1	0	0	0	0	0	0	0	0.000000000
1504278044.498867034	-0.16567	0.776194	-0.811476	-0.00920388	0.785398	-1.61375	0.0076699	0.298451	0	0	0	0	0	0	0	0	0	0	0	0	0	0.000000000	-0.196641	0.788798	-0.788798	-0.0173557	0.828698	-1.5708	0	0.296381	0.1	0.1	0.1	0.1	0.1	0.1	0	0	0	0	0	0	0	0.000000000
1504278044.518861055	-0.174874	0.776194	-0.811476	-0.00920388	0.785398	-1.61375	0.0076699	0.346204	0	0	0	0	0	0	0	0	0	0	0	0	0	0.000000000	-0.196641	0.788798	-0.788798	-0.0173557	0.828698	-1.5708	0	0.296381	0.1	0.1	0.1	0.1	0.1	0.1	0	0	0	0	0	0	0	0.000000000
1504278044.538846015	-0.18101	0.776194	-0.811476	-0.00920388	0.785398	-1.61375	0.0076699	0.298451	0	0	0	0	0	0	0	0	0	0	0	0	0	0.000000000	-0.212145	0.788798	-0.788798	-0.0187241	0.828698	-1.5708	0	0.306971	0.1	0.1	0.1	0.1	0.1	0.1	0	0	0	0	0	0	0	0.000000000
1504278044.559622049	-0.187146	0.776194	-0.811476	-0.00920388	0.785398	-1.61375	0.0076699	0.250699	0	0	0	0	0	0	0	0	0	0	0	0	0	0.000000000	-0.212145	0.788798	-0.788798	-0.0187241	0.828698	-1.5708	0	0.306971	0.1	0.1	0.1	0.1	0.1	0.1	0	0	0	0	0	0	0	0.000000000
1504278044.582113981	-0.187146	0.776194	-0.811476	-0.00920388	0.785398	-1.61375	0.0076699	0.250699	0	0	0	0	0	0	0	0	0	0	0	0	0	0.000000000	-0.228163	0.788798	-0.788798	-0.0201379	0.828698	-1.5708	0	0.317159	0.1	0.1	0.1	0.1	0.1	0.1	0	0	0	0	0	0	0	0.000000000
1504278044.600697040	-0.194816	0.776194	-0.811476	-0.00920388	0.785398	-1.61375	0.0076699	0.250699	0	0	0	0	0	0	0	0	0	0	0	0	0	0.000000000	-0.228163	0.788798	-0.788798	-0.0201379	0.828698	-1.5708	0	0.317159	0.1	0.1	0.1	0.1	0.1	0.1	0	0	0	0	0	0	0	0.000000000
1504278044.618834018	-0.202485	0.776194	-0.811476	-0.0107379	0.785398	-1.61375	0.0076699	0.346204	0	0	0	0	0	0	0	0	0	0	0	0	0	0.000000000	-0.228163	0.788798	-0.788798	-0.0201379	0.828698	-1.5708	0	0.317159	0.1	0.1	0.1	0.1	0.1	0.1	0	0	0	0	0	0	0	0.000000000
1504278044.639100074	-0.210155	0.776194	-0.811476	-0.0107379	0.785398	-1.61221	0.0076699	0.393956	0	0	0	0	0	0	0	0	0	0	0	0	0	0.000000000	-0.244674	0.788798	-0.788798	-0.0215952	0.828698	-1.5708	0	0.326918	0.1	0.1	0.1	0.1	0.1	0.1	0	0	0	0	0	0	0	0.000000000
1504278044.658993005	-0.219359	0.776194	-0.811476	-0.0122718	0.785398	-1.61375	0.0076699	0.393956	0	0	0	0	0	0	0	0	0	0	0	0	0	0.000000000	-0.244674	0.788798	-0.788798	-0.0215952	0.828698	-1.5708	0	0.326918	0.1	0.1	0.1	0.1	0.1	0.1	0	0	0	0	0	0	0	0.000000000
1504278044.679445981	-0.223961	0.776194	-0.811476	-0.0138058	0.785398	-1.61375	0.0076699	0.298451	0	0	0	0	0	0	0	0	0	0	0	0	0	0.000000000	-0.261655	0.788798	-0.788798	-0.0230939	0.828698	-1.5708	0	0.33622	0.1	0.1	0.1	0.1	0.1	0.1	0	0	0	0	0	0	0	0.000000000
1504278044.700028896	-0.230097	0.776194	-0.811476	-0.0138058	0.785398	-1.61221	0.0076699	0.298451	0	0	0	0	0	0	0	0	0	0	0	0	0	0.000000000	-0.261655	0.788798	-0.788798	-0.0230939	0.828698	-1.5708	0	0.33622	0.1	0.1	0.1	0.1	0.1	0.1	0	0	0	0	0	0	0	0.000000000
1504278044.718770027	-0.239301	0.776194	-0.811476	-0.0138058	0.785398	-1.61375	0.0076699	0.298451	0	0	0	0	0	0	0	0	0	0	0	0	0	0.000000000	-0.261655	0.788798	-0.788798	-0.0230939	0.828698	-1.5708	0	0.33622	0.1	0.1	0.1	0.1	0.1	0.1	0	0	0	0	0	0	0	0.000000000
1504278044.739345073	-0.245437	0.776194	-0.811476	-0.0153398	0.785398	-1.61375	0.0076699	0.250699	0	0	0	0	0	0	0	0	0	0	0	0	0	0.000000000	-0.279081	0.788798	-0.788798	-0.024632	0.828698	-1.5708	0	0.34504	0.1	0.1	0.1	0.1	0.1	0.1	0	0	0	0	0	0	0	0.000000000
1504278044.759769916	-0.245437	0.776194	-0.811476	-0.0153398	0.785398	-1.61375	0.0076699	0.250699	0	0	0	0	0	0	0	0	0	0	0	0	0	0.000000000	-0.279081	0.788798	-0.788798	-0.024632	0.828698	-1.5708	0	0.34504	0.1	0.1	0.1	0.1	0.1	0.1	0	0	0	0	0	0	0	0.000000000
1504278044.780034065	-0.254641	0.776194	-0.811476	-0.0153398	0.785398	-1.61375	0.0076699	0.346204	0	0	0	0	0	0	0	0	0	0	0	0	0	0.000000000	-0.296927	0.788798	-0.788798	-0.0262071	0.828698	-1.5708	0	0.353354	0.1	0.1	0.1	0.1	0.1	0.1	0	0	0	0	0	0	0	0.000000000
1504278044.799468994	-0.263845	0.776194	-0.811476	-0.0153398	0.785398	-1.61375	0.0076699	0.393956	0	0	0	0	0	0	0	0	0	0	0	0	0	0.000000000	-0.296927	0.788798	-0.788798	-0.0262071	0.828698	-1.5708	0	0.353354	0.1	0.1	0.1	0.1	0.1	0.1	0	0	0	0	0	0	0	0.000000000
1504278044.818846940	-0.274583	0.776194	-0.811476	-0.0168738	0.785398	-1.61375	0.0076699	0.346204	0	0	0	0	0	0	0	0	0	0	0	0	0	0.000000000	-0.296927	0.788798	-0.788798	-0.0262071	0.828698	-1.5708	0	0.353354	0.1	0.1	0.1	0.1	0.1	0.1	0	0	0	0	0	0	0	0.000000000
1504278044.838977098	-0.280718	0.776194	-0.811476	-0.0184078	0.785398	-1.61375	0.0076699	0.346204	0	0	0	0	0	0	0	0	0	0	0	0	0	0.000000000	-0.315167	0.788798	-0.788798	-0.0278169	0.828698	-1.5708	0	0.361142	0.1	0.1	0.1	0.1	0.1	0.1	0	0	0	0	0	0	0	0.000000000
1504278044.859776020	-0.289922	0.776194	-0.811476	-0.0184078	0.785398	-1.61375	0.0076699	0.346204	0	0	0	0	0	0	0	0	0	0	0	0	0	0.000000000	-0.315167	0.788798	-0.788798	-0.0278169	0.828698	-1.5708	0	0.361142	0.1	0.1	0.1	0.1	0.1	0.1	0	0	0	0	0	0	0	0.000000000
1504278044.879184961	-0.294524	0.776194	-0.811476	-0.0184078	0.785398	-1.61375	0.0076699	0.250699	0	0	0	0	0	0	0	0	0	0	0	0	0	0.000000000	-0.315167	0.788798	-0.788798	-0.0278169	0.828698	-1.5708	0	0.361142	0.1	0.1	0.1	0.1	0.1	0.1	0	0	0	0	0	0	0	0.000000000
1504278044.898813962	-0.294524	0.776194	-0.811476	-0.0199418	0.785398	-1.61375	0.0076699	0.250699	0	0	0	0	0	0	0	0	0	0	0	0	0	0.000000000	-0.333772	0.788798	-0.788798	-0.029459	0.828698	-1.5708	0	0.36838	0.1	0.1	0.1	0.1	0.1	0.1	0	0	0	0	0	0	0	0.000000000
1504278044.918773889	-0.306796	0.776194	-0.811476	-0.0214757	0.785398	-1.61221	0.0076699	0.346204	0	0	0	0	0	0	0	0	0	0	0	0	0	0.000000000	-0.333772	0.788798	-0.788798	-0.029459	0.828698	-1.5708	0	0.36838	0.1	0.1	0.1	0.1	0.1	0.1	0	0	0	0	0	0	0	0.000000000
1504278044.939151048	-0.316	0.776194	-0.811476	-0.0214757	0.785398	-1.61221	0.0076699	0.441708	0	0	0	0	0	0	0	0	0	0	0	0	0	0.000000000	-0.352714	0.788798	-0.788798	-0.0311308	0.828698	-1.5708	0	0.375054	0.1	0.1	0.1	0.1	0.1	0.1	0	0	0	0	0	0	0	0.000000000
1504278044.959579944	-0.326738	0.776194	-0.811476	-0.0230097	0.785398	-1.61375	0.0076699	0.393956	0	0	0	0	0	0	0	0	0	0	0	0	0	0.000000000	-0.352714	0.788798	-0.788798	-0.0311308	0.828698	-1.5708	0	0.375054	0.1	0.1	0.1	0.1	0.1	0.1	0	0	0	0	0	0	0	0.000000000
1504278044.978991985	-0.33901	0.776194	-0.811476	-0.0230097	0.785398	-1.61375	0.0076699	0.441708	0	0	0	0	0	0	0	0	0	0	0	0	0	0.000000000	-0.352714	0.788798	-0.788798	-0.0311308	0.828698	-1.5708	0	0.375054	0.1	0.1	0.1	0.1	0.1	0.1	0	0	0	0	0	0	0	0.000000000
1504278044.999785900	-0.33901	0.776194	-0.811476	-0.0245437	0.785398	-1.61375	0.0076699	0.441708	0	0	0	0	0	0	0	0	0	0	0	0	0	0.000000000	-0.371963	0.788798	-0.788798	-0.0328298	0.828698	-1.5708	0	0.38114	0.1	0.1	0.1	0.1	0.1	0.1	0	0	0	0	0	0	0	0.000000000
1504278045.018908977	-0.34668	0.776194	-0.811476	-0.0245437	0.785398	-1.61375	0.0076699	0.393956	0	0	0	0	0	0	0	0	0	0	0	0	0	0.000000000	-0.371963	0.788798	-0.788798	-0.0328298	0.828698	-1.5708	0	0.38114	0.1	0.1	0.1	0.1	0.1	0.1	0	0	0	0	0	0	0	0.000000000
1504278045.038988113	-0.35435	0.776194	-0.811476	-0.0245437	0.785398	-1.61375	0.0076699	0.250699	0	0	0	0	0	0	0	0	0	0	0	0	0	0.000000000	-0.39149	0.788798	-0.788798	-0.0345533	0.828698	-1.5708	0	0.386631	0.1	0.1	0.1	0.1	0.1	0.1	0	0	0	0	0	0	0	0.000000000
1504278045.058839082	-0.362019	0.776194	-0.811476	-0.0260777	0.785398	-1.61375	0.0076699	0.250699	0	0	0	0	0	0	0	0	0	0	0	0	0	0.000000000	-0.39149	0.788798	-0.788798	-0.0345533	0.828698	-1.5708	0	0.386631	0.1	0.1	0.1	0.1	0.1	0.1	0	0	0	0	0	0	0	0.000000000
1504278045.079291105	-0.371223	0.776194	-0.81301	-0.0260777	0.785398	-1.61375	0.0076699	0.346204	0	0	0	0	0	0	0	0	0	0	0	0	0	0.000000000	-0.39149	0.788798	-0.788798	-0.0345533	0.828698	-1.5708	0	0.386631	0.1	0.1	0.1	0.1	0.1	0.1	0	0	0	0	0	0	0	0.000000000
1504278045.100877046	-0.371223	0.776194	-0.81301	-0.0260777	0.785398	-1.61375	0.0076699	0.346204	0	0	0	0	0	0	0	0	0	0	0	0	0	0.000000000	-0.411263	0.788798	-0.788798	-0.0362985	0.828698	-1.5708	0	0.391504	0.1	0.1	0.1	0.1	0.1	0.1	0	0	0	0	0	0	0	0.000000000
1504278045.118870973	-0.381961	0.776194	-0.811476	-0.0276117	0.785398	-1.61375	0.0076699	0.346204	0	0	0	0	0	0	0	0	0	0	0	0	0	0.000000000	-0.411263	0.788798	-0.788798	-0.0362985	0.828698	-1.5708	0	0.391504	0.1	0.1	0.1	0.1	0.1	0.1	0	0	0	0	0	0	0	0.000000000
1504278045.138756036	-0.391165	0.776194	-0.811476	-0.0291456	0.785398	-1.61375	0.0076699	0.346204	0	0	0	0	0	0	0	0	0	0	0	0	0	0.000000000	-0.431251	0.788798	-0.788798	-0.0380626	0.828698	-1.5708	0	0.395755	0.1	0.1	0.1	0.1	0.1	0.1	0	0	0	0	0	0	0	0.000000000
1504278045.159718990	-0.403437	0.776194	-0.811476	-0.0306796	0.786932	-1.61375	0.0076699	0.393956	0	0	0	0	0	0	0	0	0	0	0	0	0	0.000000000	-0.431251	0.788798	-0.788798	-0.0380626	0.828698	-1.5708	0	0.395755	0.1	0.1	0.1	0.1	0.1	0.1	0	0	0	0	0	0	0	0.000000000
1504278045.178809881	-0.411107	0.776194	-0.811476	-0.0306796	0.786932	-1.61375	0.0076699	0.346204	0	0	0	0	0	0	0	0	0	0	0	0	0	0.000000000	-0.431251	0.788798	-0.788798	-0.0380626	0.828698	-1.5708	0	0.395755	0.1	0.1	0.1	0.1	0.1	0.1	0	0	0	0	0	0	0	0.000000000
1504278045.198743104	-0.411107	0.776194	-0.811476	-0.0306796	0.786932	-1.61221	0.0076699	0.346204	0	0	0	0	0	0	0	0	0	0	0	0	0	0.000000000	-0.451421	0.788798	-0.788798	-0.0398428	0.828698	-1.5708	0	0.399371	0.1	0.1	0.1	0.1	0.1	0.1	0	0	0	0	0	0	0	0.000000000
1504278045.218843936	-0.418777	0.776194	-0.811476	-0.0322136	0.786932	-1.61375	0.0076699	0.298451	0	0	0	0	0	0	0	0	0	0	0	0	0	0.000000000	-0.451421	0.788798	-0.788798	-0.0398428	0.828698	-1.5708	0	0.399371	0.1	0.1	0.1	0.1	0.1	0.1	0	0	0	0	0	0	0	0.000000000
1504278045.239805936	-0.429515	0.776194	-0.811476	-0.0322136	0.786932	-1.61375	0.0076699	0.393956	0	0	0	0	0	0	0	0	0	0	0	0	0	0.000000000	-0.471741	0.788798	-0.788798	-0.0416363	0.828698	-1.5708	0	0.402339	0.1	0.1	0.1	0.1	0.1	0.1	0	0	0	0	0	0	0	0.000000000
1504278045.259910106	-0.440252	0.776194	-0.811476	-0.0337476	0.786932	-1.61375	0.0076699	0.346204	0	0	0	0	0	0	0	0	0	0	0	0	0	0.000000000	-0.471741	0.788798	-0.788798	-0.0416363	0.828698	-1.5708	0	0.402339	0.1	0.1	0.1	0.1	0.1	0.1	0	0	0	0	0	0	0	0.000000000
1504278045.278784036	-0.449456	0.776194	-0.811476	-0.0337476	0.786932	-1.61375	0.0076699	0.346204	0	0	0	0	0	0	0	0	0	0	0	0	0	0.000000000	-0.471741	0.788798	-0.788798	-0.0416363	0.828698	-1.5708	0	0.402339	0.1	0.1	0.1	0.1	0.1	0.1	0	0	0	0	0	0	0	0.000000000
1504278045.298779010	-0.449456	0.776194	-0.811476	-0.0337476	0.786932	-1.61375	0.0076699	0.346204	0	0	0	0	0	0	0	0	0	0	0	0	0	0.000000000	-0.492178	0.788798	-0.788798	-0.0434401	0.828698	-1.5708	0	0.404658	0.1	0.1	0.1	0.1	0.1	0.1	0	0	0	0	0	0	0	0.000000000
1504278045.318816900	-0.461728	0.776194	-0.811476	-0.0352816	0.786932	-1.61375	0.0076699	0.393956	0	0	0	0	0	0	0	0	0	0	0	0	0	0.000000000	-0.492178	0.788798	-0.788798	-0.0434401	0.828698	-1.5708	0	0.404658	0.1	0.1	0.1	0.1	0.1	0.1	0	0	0	0	0	0	0	0.000000000
1504278045.338805913	-0.470932	0.776194	-0.811476	-0.0368155	0.786932	-1.61221	0.0076699	0.346204	0	0	0	0	0	0	0	0	0	0	0	0	0	0.000000000	-0.512699	0.788798	-0.788798	-0.0452513	0.828698	-1.5708	0	0.406315	0.1	0.1	0.1	0.1	0.1	0.1	0	0	0	0	0	0	0	0.000000000
1504278045.359091997	-0.48167	0.776194	-0.811476	-0.0368155	0.786932	-1.61375	0.0076699	0.346204	0	0	0	0	0	0	0	0	0	0	0	0	0	0.000000000	-0.512699	0.788798	-0.788798	-0.0452513	0.828698	-1.5708	0	0.406315	0.1	0.1	0.1	0.1	0.1	0.1	0	0	0	0	0	0	0	0.000000000
1504278045.378834009	-0.490874	0.776194	-0.811476	-0.0383495	0.785398	-1.61375	0.0076699	0.393956	0	0	0	0	0	0	0	0	0	0	0	0	0	0.000000000	-0.512699	0.788798	-0.788798	-0.0452513	0.828698	-1.5708	0	0.406315	0.1	0.1	0.1	0.1	0.1	0.1	0	0	0	0	0	0	0	0.000000000
1504278045.400172948	-0.501612	0.776194	-0.811476	-0.0383495	0.785398	-1.61375	0.0076699	0.393956	0	0	0	0	0	0	0	0	0	0	0	0	0	0.000000000	-0.533271	0.788798	-0.788798	-0.047067	0.828698	-1.5708	0	0.407315	0.1	0.1	0.1	0.1	0.1	0.1	0	0	0	0	0	0	0	0.000000000
1504278045.420429944	-0.501612	0.776194	-0.811476	-0.0383495	0.786932	-1.61375	0.0076699	0.393956	0	0	0	0	0	0	0	0	0	0	0	0	0	0.000000000	-0.533271	0.788798	-0.788798	-0.047067	0.828698	-1.5708	0	0.407315	0.1	0.1	0.1	0.1	0.1	0.1	0	0	0	0	0	0	0	0.000000000
1504278045.439074039	-0.51235	0.776194	-0.811476	-0.0383495	0.786932	-1.61375	0.0076699	0.393956	0	0	0	0	0	0	0	0	0	0	0	0	0	0.000000000	-0.553859	0.788798	-0.788798	-0.0488841	0.828698	-1.5708	0	0.407645	0.1	0.1	0.1	0.1	0.1	0.1	0	0	0	0	0	0	0	0.000000000
1504278045.460021018	-0.523087	0.776194	-0.811476	-0.0414175	0.786932	-1.61375	0.0076699	0.346204	0	0	0.107442	0	0	0	0	0	0	0	0	0	0	0.000000000	-0.553859	0.788798	-0.788798	-0.0488841	0.828698	-1.5708	0	0.407645	0.1	0.1	0.1	0.1	0.1	0.1	0	0	0	0	0	0	0	0.000000000
1504278045.478815078	-0.530757	0.776194	-0.811476	-0.0414175	0.786932	-1.61221	0.0076699	0.346204	0	0	0	0	0	0	0	0	0	0	0	0	0	0.000000000	-0.553859	0.788798	-0.788798	-0.0488841	0.828698	-1.5708	0	0.407645	0.1	0.1	0.1	0.1	0.1	0.1	0	0	0	0	0	0	0	0.000000000
1504278045.499474048	-0.530757	0.776194	-0.811476	-0.0414175	0.786932	-1.61221	0.0076699	0.346204	0	0	0	0	0	0	0	0	0	0	0	0	0	0.000000000	-0.57443	0.788798	-0.788798	-0.0506997	0.828698	-1.5708	0	0.407314	0.1	0.1	0.1	0.1	0.1	0.1	0	0	0	0	0	0	0	0.000000000
1504278045.518935918	-0.536893	0.776194	-0.811476	-0.0429515	0.786932	-1.61375	0.0076699	0.250699	0	0	0	0	0	0	0	0	0	0	0	0	0	0.000000000	-0.57443	0.788798	-0.788798	-0.0506997	0.828698	-1.5708	0	0.407314	0.1	0.1	0.1	0.1	0.1	0.1	0	0	0	0	0	0	0	0.000000000
1504278045.538836002	-0.550699	0.776194	-0.811476	-0.0429515	0.786932	-1.61375	0.0076699	0.441708	0	0	0	0	0	0	0	0	0	0	0	0	0	0.000000000	-0.594951	0.788798	-0.788798	-0.0525109	0.828698	-1.5708	0	0.406316	0.1	0.1	0.1	0.1	0.1	0.1	0	0	0	0	0	0	0	0.000000000
1504278045.560858011	-0.562971	0.776194	-0.811476	-0.0429515	0.786932	-1.61375	0.0076699	0.441708	0	0	0	0	0	0	0	0	0	0	0	0	0	0.000000000	-0.594951	0.788798	-0.788798	-0.0525109	0.828698	-1.5708	0	0.406316	0.1	0.1	0.1	0.1	0.1	0.1	0	0	0	0	0	0	0	0.000000000
1504278045.578778982	-0.572175	0.776194	-0.811476	-0.0429515	0.786932	-1.61375	0.0076699	0.393956	0	0	0	0	0	0	0	0	0	0	0	0	0	0.000000000	-0.594951	0.788798	-0.788798	-0.0525109	0.828698	-1.5708	0	0.406316	0.1	0.1	0.1	0.1	0.1	0.1	0	0	0	0	0	0	0	0.000000000
1504278045.598989009	-0.579845	0.776194	-0.811476	-0.0444854	0.786932	-1.61375	0.0076699	0.346204	0	0	0	0	0	0	0	0	0	0	0	0	0	0.000000000	-0.615389	0.788798	-0.788798	-0.0543148	0.828698	-1.5708	0	0.404658	0.1	0.1	0.1	0.1	0.1	0.1	0	0	0	0	0	0	0	0.000000000
