DingWan/Reconbot3Ddemo/02_MATLAB_Code/sensors_data/encoders_data.txt
time_stamp	actual_pos_joint_4	actual_pos_joint_5	actual_pos_joint_3	actual_pos_joint_1	actual_pos_joint_2	actual_pos_joint_6	actual_pos_joint_7	actual_vel_joint_4	actual_vel_joint_5	actual_vel_joint_3	actual_vel_joint_1	actual_vel_joint_2	actual_vel_joint_6	actual_vel_joint_7	actual_acc_joint_4	actual_acc_joint_5	actual_acc_joint_3	actual_acc_joint_1	actual_acc_joint_2	actual_acc_joint_6	actual_acc_joint_7	actual_time_from_start	desired_pos_joint_4	desired_pos_joint_5	desired_pos_joint_3	desired_pos_joint_1	desired_pos_joint_2	desired_pos_joint_6	desired_pos_joint_7	desired_vel_joint_4	desired_vel_joint_5	desired_vel_joint_3	desired_vel_joint_1	desired_vel_joint_2	desired_vel_joint_6	desired_vel_joint_7	desired_acc_joint_4	desired_acc_joint_5	desired_acc_joint_3	desired_acc_joint_1	desired_acc_joint_2	desired_acc_joint_6	desired_acc_joint_7	desired_time_from_start
1504279683.201117038	0.00460194	0.777728	-0.81301	0.00920388	0.78233	-1.61221	0.0076699	0	0	0	0	0	0	0	0	0	0	0	0	0	0	0.000000000	0	0	0	0	0	0	0	0	0	0	0	0	0	0	0	0	0	0	0	0	0	0.000000000
1504279683.221580982	0.00460194	0.776194	-0.81301	0.00920388	0.785398	-1.61221	0.0076699	0	0	0	0	0	0	0	0	0	0	0	0	0	0	0.000000000	0	0	0	0	0	0	0	0	0	0	0	0	0	0	0	0	0	0	0	0	0	0.000000000
1504279683.241240978	0.00460194	0.776194	-0.81301	0.00920388	0.785398	-1.61221	0.0076699	0	0	0	0	0	0	0	0	0	0	0	0	0	0	0.000000000	0	0	0	0	0	0	0	0	0	0	0	0	0	0	0	0	0	0	0	0	0	0.000000000
1504279683.261280059	0.00460194	0.776194	-0.81301	0.00920388	0.785398	-1.61221	0.0076699	0	0	0	0	0	0	0	0	0	0	0	0	0	0	0.000000000	0	0	0	0	0	0	0	0	0	0	0	0	0	0	0	0	0	0	0	0	0	0.000000000
1504279683.281162977	0.00460194	0.776194	-0.81301	0.00920388	0.78233	-1.61221	0.0076699	0	0	0	0	0	0	0	0	0	0	0	0	0	0	0.000000000	0	0	0	0	0	0	0	0	0	0	0	0	0	0	0	0	0	0	0	0	0	0.000000000
1504279683.301471948	0.00460194	0.776194	-0.81301	0.00920388	0.78233	-1.61221	0.0076699	0	0	0	0	0	0	0	0	0	0	0	0	0	0	0.000000000	0	0	0	0	0	0	0	0	0	0	0	0	0	0	0	0	0	0	0	0	0	0.000000000
1504279683.321508884	0.00460194	0.776194	-0.81301	0.00920388	0.785398	-1.61221	0.0076699	0	0	0	0	0	0	0	0	0	0	0	0	0	0	0.000000000	0	0	0	0	0	0	0	0	0	0	0	0	0	0	0	0	0	0	0	0	0	0.000000000
1504279683.341109991	0.00460194	0.776194	-0.81301	0.00920388	0.785398	-1.61221	0.0076699	0	0	0	0	0	0	0	0	0	0	0	0	0	0	0.000000000	0	0	0	0	0	0	0	0	0	0	0	0	0	0	0	0	0	0	0	0	0	0.000000000
1504279683.361193895	0.00460194	0.776194	-0.81301	0.00920388	0.78233	-1.61221	0.0076699	0	0	0	0	0	0	0	0	0	0	0	0	0	0	0.000000000	0	0	0	0	0	0	0	0	0	0	0	0	0	0	0	0	0	0	0	0	0	0.000000000
1504279683.381129026	0.00460194	0.776194	-0.81301	0.00920388	0.78233	-1.61221	0.0076699	0	0	0	0	0	0	0	0	0	0	0	0	0	0	0.000000000	0	0	0	0	0	0	0	0	0	0	0	0	0	0	0	0	0	0	0	0	0	0.000000000
1504279683.401154994	0.00460194	0.776194	-0.81301	0.00920388	0.78233	-1.61221	0.0076699	0	0	0	0	0	0	0	0	0	0	0	0	0	0	0.000000000	0	0	0	0	0	0	0	0	0	0	0	0	0	0	0	0	0	0	0	0	0	0.000000000
1504279683.421092033	0.00460194	0.776194	-0.81301	0.00920388	0.78233	-1.61221	0.0076699	0	0	0	0	0	0	0	0	0	0	0	0	0	0	0.000000000	0	0	0	0	0	0	0	0	0	0	0	0	0	0	0	0	0	0	0	0	0	0.000000000
1504279683.441132068	0.00460194	0.776194	-0.81301	0.00920388	0.78233	-1.61221	0.0076699	0	0	0	0	0	0	0	0	0	0	0	0	0	0	0.000000000	0	0	0	0	0	0	0	0	0	0	0	0	0	0	0	0	0	0	0	0	0	0.000000000
1504279683.461071968	0.00460194	0.776194	-0.81301	0.00920388	0.78233	-1.61221	0.0076699	0	0	0	0	0	0	0	0	0	0	0	0	0	0	0.000000000	0	0	0	0	0	0	0	0	0	0	0	0	0	0	0	0	0	0	0	0	0	0.000000000
1504279683.481090068	0.00460194	0.776194	-0.81301	0.00920388	0.78233	-1.61221	0.0076699	0	0	0	0	0	0	0	0	0	0	0	0	0	0	0.000000000	0	0	0	0	0	0	0	0	0	0	0	0	0	0	0	0	0	0	0	0	0	0.000000000
1504279683.501285076	0.00460194	0.776194	-0.81301	0.00920388	0.785398	-1.61221	0.0076699	0	0	0	0	0	0	0	0	0	0	0	0	0	0	0.000000000	0	0	0	0	0	0	0	0	0	0	0	0	0	0	0	0	0	0	0	0	0	0.000000000
1504279683.521079063	0.00460194	0.776194	-0.81301	0.00920388	0.785398	-1.61221	0.0076699	0	0	0	0	0	0	0	0	0	0	0	0	0	0	0.000000000	0	0	0	0	0	0	0	0	0	0	0	0	0	0	0	0	0	0	0	0	0	0.000000000
1504279683.541040897	0.00460194	0.776194	-0.81301	0.00920388	0.785398	-1.61221	0.0076699	0	0	0	0	0	0	0	0	0	0	0	0	0	0	0.000000000	0	0	0	0	0	0	0	0	0	0	0	0	0	0	0	0	0	0	0	0	0	0.000000000
1504279683.561089992	0.00460194	0.776194	-0.81301	0.00920388	0.785398	-1.61221	0.0076699	0	0	0	0	0	0	0	0	0	0	0	0	0	0	0.000000000	0	0	0	0	0	0	0	0	0	0	0	0	0	0	0	0	0	0	0	0	0	0.000000000
1504279683.581077098	0.00460194	0.776194	-0.81301	0.00920388	0.78233	-1.61221	0.0076699	0	0	0	0	0	0	0	0	0	0	0	0	0	0	0.000000000	0	0	0	0	0	0	0	0	0	0	0	0	0	0	0	0	0	0	0	0	0	0.000000000
1504279683.601049900	0.00460194	0.776194	-0.81301	0.00920388	0.785398	-1.61375	0.0076699	0	0	0	0	0	0	0	0	0	0	0	0	0	0	0.000000000	0	0	0	0	0	0	0	0	0	0	0	0	0	0	0	0	0	0	0	0	0	0.000000000
1504279683.621045112	0.00460194	0.776194	-0.81301	0.00920388	0.78233	-1.61221	0.0076699	0	0	0	0	0	0	0	0	0	0	0	0	0	0	0.000000000	0	0	0	0	0	0	0	0	0	0	0	0	0	0	0	0	0	0	0	0	0	0.000000000
1504279683.641108989	0.00460194	0.776194	-0.81301	0.00920388	0.78233	-1.61221	0.0076699	0	0	0	0	0	0	0	0	0	0	0	0	0	0	0.000000000	0	0	0	0	0	0	0	0	0	0	0	0	0	0	0	0	0	0	0	0	0	0.000000000
1504279683.661107063	0.00460194	0.776194	-0.81301	0.00920388	0.78233	-1.61375	0.0076699	0	0	0	0	0	0	0	0	0	0	0	0	0	0	0.000000000	0	0	0	0	0	0	0	0	0	0	0	0	0	0	0	0	0	0	0	0	0	0.000000000
1504279683.681124925	0.00460194	0.776194	-0.81301	0.00920388	0.785398	-1.61221	0.0076699	0	0	0	0	0	0	0	0	0	0	0	0	0	0	0.000000000	0	0	0	0	0	0	0	0	0	0	0	0	0	0	0	0	0	0	0	0	0	0.000000000
1504279683.701208114	0.00460194	0.776194	-0.81301	0.00920388	0.78233	-1.61221	0.0076699	0	0	0	0	0	0	0	0	0	0	0	0	0	0	0.000000000	0	0	0	0	0	0	0	0	0	0	0	0	0	0	0	0	0	0	0	0	0	0.000000000
1504279683.721081018	0.00460194	0.776194	-0.811476	0.00920388	0.78233	-1.61221	0.0076699	0	0	0	0	0	0	0	0	0	0	0	0	0	0	0.000000000	0	0	0	0	0	0	0	0	0	0	0	0	0	0	0	0	0	0	0	0	0	0.000000000
1504279683.741120100	0.00460194	0.776194	-0.811476	0.00920388	0.78233	-1.61221	0.0076699	0	0	0	0	0	0	0	0	0	0	0	0	0	0	0.000000000	0	0	0	0	0	0	0	0	0	0	0	0	0	0	0	0	0	0	0	0	0	0.000000000
1504279683.761198043	0.00460194	0.776194	-0.81301	0.00920388	0.785398	-1.61221	0.0076699	0	0	0	0	0	0	0	0	0	0	0	0	0	0	0.000000000	0	0	0	0	0	0	0	0	0	0	0	0	0	0	0	0	0	0	0	0	0	0.000000000
1504279683.781058073	0.00460194	0.776194	-0.81301	0.00920388	0.78233	-1.61221	0.0076699	0	0	0	0	0	0	0	0	0	0	0	0	0	0	0.000000000	0	0	0	0	0	0	0	0	0	0	0	0	0	0	0	0	0	0	0	0	0	0.000000000
1504279683.801356077	0.00460194	0.777728	-0.81301	0.00920388	0.785398	-1.61221	0.0076699	0	0	0	0	0	0	0	0	0	0	0	0	0	0	0.000000000	0	0	0	0	0	0	0	0	0	0	0	0	0	0	0	0	0	0	0	0	0	0.000000000
1504279683.821265935	0.00460194	0.776194	-0.81301	0.00920388	0.785398	-1.61221	0.0076699	0	0	0	0	0	0	0	0	0	0	0	0	0	0	0.000000000	0	0	0	0	0	0	0	0	0	0	0	0	0	0	0	0	0	0	0	0	0	0.000000000
1504279683.841403007	0.00460194	0.776194	-0.81301	0.00920388	0.785398	-1.61221	0.0076699	0	0	0	0	0	0	0	0	0	0	0	0	0	0	0.000000000	0	0	0	0	0	0	0	0	0	0	0	0	0	0	0	0	0	0	0	0	0	0.000000000
1504279683.861501932	0.00460194	0.776194	-0.81301	0.00920388	0.785398	-1.61221	0.0076699	0	0	0	0	0	0	0	0	0	0	0	0	0	0	0.000000000	0	0	0	0	0	0	0	0	0	0	0	0	0	0	0	0	0	0	0	0	0	0.000000000
1504279683.881113052	0.00460194	0.776194	-0.81301	0.00920388	0.78233	-1.61221	0.0076699	0	0	0	0	0	0	0	0	0	0	0	0	0	0	0.000000000	0	0	0	0	0	0	0	0	0	0	0	0	0	0	0	0	0	0	0	0	0	0.000000000
1504279683.900995969	0.00460194	0.776194	-0.81301	0.00920388	0.78233	-1.61221	0.0076699	0	0	0	0	0	0	0	0	0	0	0	0	0	0	0.000000000	0	0	0	0	0	0	0	0	0	0	0	0	0	0	0	0	0	0	0	0	0	0.000000000
1504279683.920989036	0.00460194	0.776194	-0.81301	0.00920388	0.78233	-1.61221	0.0076699	0	0	0	0	0	0	0	0	0	0	0	0	0	0	0.000000000	0	0	0	0	0	0	0	0	0	0	0	0	0	0	0	0	0	0	0	0	0	0.000000000
1504279683.941207885	0.00460194	0.776194	-0.81301	0.00920388	0.785398	-1.61221	0.0076699	0	0	0	0	0	0	0	0	0	0	0	0	0	0	0.000000000	0	0	0	0	0	0	0	0	0	0	0	0	0	0	0	0	0	0	0	0	0	0.000000000
1504279683.961014032	0.00460194	0.776194	-0.81301	0.00920388	0.785398	-1.61221	0.0076699	0	0	0	0	0	0	0	0	0	0	0	0	0	0	0.000000000	0	0	0	0	0	0	0	0	0	0	0	0	0	0	0	0	0	0	0	0	0	0.000000000
1504279683.980976104	0.00460194	0.776194	-0.81301	0.00920388	0.78233	-1.61221	0.0076699	0	0	0	0	0	0	0	0	0	0	0	0	0	0	0.000000000	0	0	0	0	0	0	0	0	0	0	0	0	0	0	0	0	0	0	0	0	0	0.000000000
1504279684.000963926	0.00460194	0.776194	-0.81301	0.00920388	0.78233	-1.61221	0.0076699	0	0	0	0	0	0	0	0	0	0	0	0	0	0	0.000000000	0	0	0	0	0	0	0	0	0	0	0	0	0	0	0	0	0	0	0	0	0	0.000000000
1504279684.020962953	0.00460194	0.776194	-0.81301	0.00920388	0.785398	-1.61221	0.0076699	0	0	0	0	0	0	0	0	0	0	0	0	0	0	0.000000000	0	0	0	0	0	0	0	0	0	0	0	0	0	0	0	0	0	0	0	0	0	0.000000000
1504279684.041316986	0.00460194	0.776194	-0.81301	0.00920388	0.78233	-1.61221	0.0076699	0	0	0	0	0	0	0	0	0	0	0	0	0	0	0.000000000	0	0	0	0	0	0	0	0	0	0	0	0	0	0	0	0	0	0	0	0	0	0.000000000
1504279684.061935901	0.00460194	0.776194	-0.81301	0.00920388	0.78233	-1.61221	0.0076699	0	0	0	0	0	0	0	0	0	0	0	0	0	0	0.000000000	0	0	0	0	0	0	0	0	0	0	0	0	0	0	0	0	0	0	0	0	0	0.000000000
1504279684.081701993	0.00460194	0.776194	-0.81301	0.00920388	0.78233	-1.61375	0.0076699	0	0	0	0	0	0	0	0	0	0	0	0	0	0	0.000000000	0	0	0	0	0	0	0	0	0	0	0	0	0	0	0	0	0	0	0	0	0	0.000000000
1504279684.101881027	0.00460194	0.776194	-0.81301	0.00920388	0.785398	-1.61221	0.0076699	0	0	0	0	0	0	0	0	0	0	0	0	0	0	0.000000000	0	0	0	0	0	0	0	0	0	0	0	0	0	0	0	0	0	0	0	0	0	0.000000000
1504279684.121241092	0.00460194	0.776194	-0.81301	0.00920388	0.785398	-1.61221	0.0076699	0	0	0	0	0	0	0	0	0	0	0	0	0	0	0.000000000	0	0	0	0	0	0	0	0	0	0	0	0	0	0	0	0	0	0	0	0	0	0.000000000
1504279684.141607999	0.00460194	0.776194	-0.81301	0.00920388	0.78233	-1.61221	0.0076699	0	0	0	0	0	0	0	0	0	0	0	0	0	0	0.000000000	0	0	0	0	0	0	0	0	0	0	0	0	0	0	0	0	0	0	0	0	0	0.000000000
1504279684.161525011	0.00460194	0.776194	-0.81301	0.00920388	0.78233	-1.61221	0.0076699	0	0	0	0	0	0	0	0	0	0	0	0	0	0	0.000000000	0	0	0	0	0	0	0	0	0	0	0	0	0	0	0	0	0	0	0	0	0	0.000000000
1504279684.181155920	0.00460194	0.776194	-0.81301	0.00920388	0.78233	-1.61221	0.0076699	0	0	0	0	0	0	0	0	0	0	0	0	0	0	0.000000000	0	0	0	0	0	0	0	0	0	0	0	0	0	0	0	0	0	0	0	0	0	0.000000000
1504279684.201334953	0.00460194	0.776194	-0.81301	0.00920388	0.78233	-1.61221	0.0076699	0	0	0	0	0	0	0	0	0	0	0	0	0	0	0.000000000	0	0	0	0	0	0	0	0	0	0	0	0	0	0	0	0	0	0	0	0	0	0.000000000
1504279684.221374988	0.00460194	0.776194	-0.81301	0.00920388	0.785398	-1.61221	0.0076699	0	0	0	0	0	0	0	0	0	0	0	0	0	0	0.000000000	0	0	0	0	0	0	0	0	0	0	0	0	0	0	0	0	0	0	0	0	0	0.000000000
1504279684.241182088	0.00460194	0.776194	-0.81301	0.00920388	0.785398	-1.61221	0.0076699	0	0	0	0	0	0	0	0	0	0	0	0	0	0	0.000000000	0	0	0	0	0	0	0	0	0	0	0	0	0	0	0	0	0	0	0	0	0	0.000000000
1504279684.261321067	0.00460194	0.777728	-0.81301	0.00920388	0.78233	-1.61221	0.0076699	0	0	0	0	0	0	0	0	0	0	0	0	0	0	0.000000000	0	0	0	0	0	0	0	0	0	0	0	0	0	0	0	0	0	0	0	0	0	0.000000000
1504279684.281254053	0.00460194	0.776194	-0.81301	0.00920388	0.78233	-1.61221	0.0076699	0	0	0	0	0	0	0	0	0	0	0	0	0	0	0.000000000	0	0	0	0	0	0	0	0	0	0	0	0	0	0	0	0	0	0	0	0	0	0.000000000
1504279684.301372051	0.00460194	0.776194	-0.81301	0.00920388	0.785398	-1.61221	0.0076699	0	0	0	0	0	0	0	0	0	0	0	0	0	0	0.000000000	0	0	0	0	0	0	0	0	0	0	0	0	0	0	0	0	0	0	0	0	0	0.000000000
1504279684.321224927	0.00460194	0.776194	-0.81301	0.00920388	0.785398	-1.61221	0.0076699	0	0	0	0	0	0	0	0	0	0	0	0	0	0	0.000000000	0	0	0	0	0	0	0	0	0	0	0	0	0	0	0	0	0	0	0	0	0	0.000000000
1504279684.341165065	0.00460194	0.776194	-0.81301	0.00920388	0.785398	-1.61221	0.0076699	0	0	0	0	0	0	0	0	0	0	0	0	0	0	0.000000000	0	0	0	0	0	0	0	0	0	0	0	0	0	0	0	0	0	0	0	0	0	0.000000000
1504279684.361187934	0.00460194	0.776194	-0.81301	0.00920388	0.78233	-1.61221	0.0076699	0	0	0	0	0	0	0	0	0	0	0	0	0	0	0.000000000	0	0	0	0	0	0	0	0	0	0	0	0	0	0	0	0	0	0	0	0	0	0.000000000
1504279684.381166934	0.00460194	0.776194	-0.811476	0.00920388	0.78233	-1.61221	0.0076699	0	0	0	0	0	0	0	0	0	0	0	0	0	0	0.000000000	0	0	0	0	0	0	0	0	0	0	0	0	0	0	0	0	0	0	0	0	0	0.000000000
1504279684.401060104	0.00460194	0.776194	-0.81301	0.00920388	0.785398	-1.61221	0.0076699	0	0	0	0	0	0	0	0	0	0	0	0	0	0	0.000000000	0	0	0	0	0	0	0	0	0	0	0	0	0	0	0	0	0	0	0	0	0	0.000000000
1504279684.421171903	0.00460194	0.776194	-0.81301	0.00920388	0.78233	-1.61221	0.0076699	0	0	0	0	0	0	0	0	0	0	0	0	0	0	0.000000000	0	0	0	0	0	0	0	0	0	0	0	0	0	0	0	0	0	0	0	0	0	0.000000000
1504279684.441030979	0.00460194	0.776194	-0.81301	0.00920388	0.78233	-1.61221	0.0076699	0	0	0	0	0	0	0	0	0	0	0	0	0	0	0.000000000	0	0	0	0	0	0	0	0	0	0	0	0	0	0	0	0	0	0	0	0	0	0.000000000
1504279684.461523056	0.00460194	0.776194	-0.81301	0.00920388	0.78233	-1.61221	0.0076699	0	0	0	0	0	0	0	0	0	0	0	0	0	0	0.000000000	0	0	0	0	0	0	0	0	0	0	0	0	0	0	0	0	0	0	0	0	0	0.000000000
1504279684.481502056	0.00460194	0.776194	-0.81301	0.00920388	0.785398	-1.61221	0.0076699	0	0	0	0	0	0	0	0	0	0	0	0	0	0	0.000000000	0	0	0	0	0	0	0	0	0	0	0	0	0	0	0	0	0	0	0	0	0	0.000000000
1504279684.503072977	0.00460194	0.776194	-0.81301	0.00920388	0.785398	-1.61221	0.0076699	0	0	0	0	0	0	0	0	0	0	0	0	0	0	0.000000000	0	0	0	0	0	0	0	0	0	0	0	0	0	0	0	0	0	0	0	0	0	0.000000000
1504279684.521393060	0.00460194	0.776194	-0.81301	0.00920388	0.785398	-1.61221	0.0076699	0	0	0	0	0	0	0	0	0	0	0	0	0	0	0.000000000	0	0	0	0	0	0	0	0	0	0	0	0	0	0	0	0	0	0	0	0	0	0.000000000
1504279684.543265104	0.00460194	0.776194	-0.81301	0.00920388	0.785398	-1.61221	0.0076699	0	0	0	0	0	0	0	0	0	0	0	0	0	0	0.000000000	0	0	0	0	0	0	0	0	0	0	0	0	0	0	0	0	0	0	0	0	0	0.000000000
1504279684.561815023	0.00460194	0.776194	-0.81301	0.00920388	0.785398	-1.61221	0.0076699	0	0	0	0	0	0	0	0	0	0	0	0	0	0	0.000000000	0	0	0	0	0	0	0	0	0	0	0	0	0	0	0	0	0	0	0	0	0	0.000000000
1504279684.583184003	0.00460194	0.776194	-0.81301	0.00920388	0.785398	-1.61221	0.0076699	0	0	0	0	0	0	0	0	0	0	0	0	0	0	0.000000000	0	0	0	0	0	0	0	0	0	0	0	0	0	0	0	0	0	0	0	0	0	0.000000000
1504279684.606870889	0.00460194	0.776194	-0.81301	0.00920388	0.785398	-1.61221	0.0076699	0	0	0	0	0	0	0	0	0	0	0	0	0	0	0.000000000	0	0	0	0	0	0	0	0	0	0	0	0	0	0	0	0	0	0	0	0	0	0.000000000
1504279684.621258020	0.00460194	0.776194	-0.81301	0.00920388	0.785398	-1.61221	0.0076699	0	0	0	0	0	0	0	0	0	0	0	0	0	0	0.000000000	0	0	0	0	0	0	0	0	0	0	0	0	0	0	0	0	0	0	0	0	0	0.000000000
1504279684.641012907	0.00460194	0.776194	-0.81301	0.00920388	0.785398	-1.61221	0.0076699	0	0	0	0	0	0	0	0	0	0	0	0	0	0	0.000000000	0	0	0	0	0	0	0	0	0	0	0	0	0	0	0	0	0	0	0	0	0	0.000000000
1504279684.661019086	0.00460194	0.776194	-0.81301	0.00920388	0.785398	-1.61221	0.0076699	0	0	0	0	0	0	0	0	0	0	0	0	0	0	0.000000000	0	0	0	0	0	0	0	0	0	0	0	0	0	0	0	0	0	0	0	0	0	0.000000000
1504279684.681030988	0.00460194	0.776194	-0.81301	0.00920388	0.785398	-1.61221	0.0076699	0	0	0	0	0	0	0	0	0	0	0	0	0	0	0.000000000	0	0	0	0	0	0	0	0	0	0	0	0	0	0	0	0	0	0	0	0	0	0.000000000
1504279684.701214075	0.00460194	0.776194	-0.81301	0.00920388	0.785398	-1.61221	0.0076699	0	0	0	0	0	0	0	0	0	0	0	0	0	0	0.000000000	0	0	0	0	0	0	0	0	0	0	0	0	0	0	0	0	0	0	0	0	0	0.000000000
1504279684.721349954	0.00460194	0.776194	-0.81301	0.00920388	0.785398	-1.61221	0.0076699	0	0	0	0	0	0	0	0	0	0	0	0	0	0	0.000000000	0	0	0	0	0	0	0	0	0	0	0	0	0	0	0	0	0	0	0	0	0	0.000000000
1504279684.741467952	0.00460194	0.776194	-0.81301	0.00920388	0.785398	-1.61221	0.0076699	0	0	0	0	0	0	0	0	0	0	0	0	0	0	0.000000000	0	0	0	0	0	0	0	0	0	0	0	0	0	0	0	0	0	0	0	0	0	0.000000000
1504279684.761344909	0.00460194	0.776194	-0.81301	0.00920388	0.785398	-1.61221	0.0076699	0	0	0	0	0	0	0	0	0	0	0	0	0	0	0.000000000	0	0	0	0	0	0	0	0	0	0	0	0	0	0	0	0	0	0	0	0	0	0.000000000
1504279684.781548976	0.00460194	0.776194	-0.81301	0.00920388	0.785398	-1.61221	0.0076699	0	0	0	0	0	0	0	0	0	0	0	0	0	0	0.000000000	0	0	0	0	0	0	0	0	0	0	0	0	0	0	0	0	0	0	0	0	0	0.000000000
1504279684.801378965	0.00460194	0.776194	-0.81301	0.00920388	0.785398	-1.61221	0.0076699	0	0	0	0	0	0	0	0	0	0	0	0	0	0	0.000000000	0	0	0	0	0	0	0	0	0	0	0	0	0	0	0	0	0	0	0	0	0	0.000000000
1504279684.821587085	0.00460194	0.776194	-0.81301	0.00920388	0.785398	-1.61221	0.0076699	0	0	0	0	0	0	0	0	0	0	0	0	0	0	0.000000000	0	0	0	0	0	0	0	0	0	0	0	0	0	0	0	0	0	0	0	0	0	0.000000000
1504279684.841377973	0.00460194	0.776194	-0.81301	0.00920388	0.785398	-1.61221	0.0076699	0	0	0	0	0	0	0	0	0	0	0	0	0	0	0.000000000	0	0	0	0	0	0	0	0	0	0	0	0	0	0	0	0	0	0	0	0	0	0.000000000
1504279684.861285924	0.00460194	0.776194	-0.81301	0.00920388	0.785398	-1.61221	0.0076699	0	0	0	0	0	0	0	0	0	0	0	0	0	0	0.000000000	0	0	0	0	0	0	0	0	0	0	0	0	0	0	0	0	0	0	0	0	0	0.000000000
1504279684.882009983	0.00306796	0.776194	-0.81301	0.00920388	0.785398	-1.61221	0.0076699	0	0	0	0	0	0	0	0	0	0	0	0	0	0	0.000000000	0	0	0	0	0	0	0	0	0	0	0	0	0	0	0	0	0	0	0	0	0	0.000000000
1504279684.901901006	0.00460194	0.776194	-0.81301	0.00920388	0.785398	-1.61221	0.0076699	0	0	0	0	0	0	0	0	0	0	0	0	0	0	0.000000000	0	0	0	0	0	0	0	0	0	0	0	0	0	0	0	0	0	0	0	0	0	0.000000000
1504279684.921705961	0.00460194	0.776194	-0.81301	0.00920388	0.785398	-1.61221	0.0076699	0	0	0	0	0	0	0	0	0	0	0	0	0	0	0.000000000	0	0	0	0	0	0	0	0	0	0	0	0	0	0	0	0	0	0	0	0	0	0.000000000
1504279684.941700935	0.00460194	0.776194	-0.81301	0.00920388	0.785398	-1.61221	0.0076699	0	0	0	0	0	0	0	0	0	0	0	0	0	0	0.000000000	0	0	0	0	0	0	0	0	0	0	0	0	0	0	0	0	0	0	0	0	0	0.000000000
1504279684.961405992	0.00460194	0.776194	-0.81301	0.00920388	0.785398	-1.61221	0.0076699	0	0	0	0	0	0	0	0	0	0	0	0	0	0	0.000000000	0	0	0	0	0	0	0	0	0	0	0	0	0	0	0	0	0	0	0	0	0	0.000000000
1504279684.981626987	0.00460194	0.776194	-0.81301	0.00920388	0.78233	-1.61221	0.0076699	0	0	0	0	0	0	0	0	0	0	0	0	0	0	0.000000000	0	0	0	0	0	0	0	0	0	0	0	0	0	0	0	0	0	0	0	0	0	0.000000000
1504279685.001454114	0.00460194	0.777728	-0.81301	0.00920388	0.785398	-1.61221	0.0076699	0	0	0	0	0	0	0	0	0	0	0	0	0	0	0.000000000	0	0	0	0	0	0	0	0	0	0	0	0	0	0	0	0	0	0	0	0	0	0.000000000
1504279685.022093057	0.00460194	0.776194	-0.81301	0.00920388	0.78233	-1.61375	0.0076699	0	0	0	0	0	0	0	0	0	0	0	0	0	0	0.000000000	0	0	0	0	0	0	0	0	0	0	0	0	0	0	0	0	0	0	0	0	0	0.000000000
1504279685.041755914	0.00460194	0.776194	-0.81301	0.00920388	0.78233	-1.61375	0.0076699	0	0	0	0	0	0	0	0	0	0	0	0	0	0	0.000000000	0	0	0	0	0	0	0	0	0	0	0	0	0	0	0	0	0	0	0	0	0	0.000000000
1504279685.061192035	0.00460194	0.776194	-0.81301	0.00920388	0.785398	-1.61221	0.0076699	0	0	0	0	0	0	0	0	0	0	0	0	0	0	0.000000000	0	0	0	0	0	0	0	0	0	0	0	0	0	0	0	0	0	0	0	0	0	0.000000000
1504279685.082093954	0.00460194	0.776194	-0.81301	0.00920388	0.78233	-1.61221	0.0076699	0	0	0	0	0	0	0	0	0	0	0	0	0	0	0.000000000	0	0	0	0	0	0	0	0	0	0	0	0	0	0	0	0	0	0	0	0	0	0.000000000
1504279685.103549957	0.00460194	0.776194	-0.81301	0.00920388	0.78233	-1.61221	0.0076699	0	0	0	0	0	0	0	0	0	0	0	0	0	0	0.000000000	0	0	0	0	0	0	0	0	0	0	0	0	0	0	0	0	0	0	0	0	0	0.000000000
1504279685.121565103	0.00460194	0.776194	-0.81301	0.00920388	0.78233	-1.61221	0.0076699	0	0	0	0	0	0	0	0	0	0	0	0	0	0	0.000000000	0	0	0	0	0	0	0	0	0	0	0	0	0	0	0	0	0	0	0	0	0	0.000000000
1504279685.142498016	0.00460194	0.776194	-0.81301	0.00920388	0.78233	-1.61221	0.0076699	0	0	0	0	0	0	0	0	0	0	0	0	0	0	0.000000000	0	0	0	0	0	0	0	0	0	0	0	0	0	0	0	0	0	0	0	0	0	0.000000000
1504279685.161787033	0.00460194	0.776194	-0.81301	0.00920388	0.78233	-1.61221	0.0076699	0	0	0	0	0	0	0	0	0	0	0	0	0	0	0.000000000	0	0	0	0	0	0	0	0	0	0	0	0	0	0	0	0	0	0	0	0	0	0.000000000
1504279685.181580066	0.00460194	0.776194	-0.81301	0.00920388	0.785398	-1.61221	0.00920388	0	0	0	0	0	0	0	0	0	0	0	0	0	0	0.000000000	0	0	0	0	0	0	0	0	0	0	0	0	0	0	0	0	0	0	0	0	0	0.000000000
1504279685.201649904	0.00460194	0.776194	-0.81301	0.00920388	0.785398	-1.61221	0.0076699	0	0	0	0	0	0	0	0	0	0	0	0	0	0	0.000000000	0	0	0	0	0	0	0	0	0	0	0	0	0	0	0	0	0	0	0	0	0	0.000000000
1504279685.223448991	0.00460194	0.776194	-0.81301	0.00920388	0.785398	-1.61221	0.0076699	0	0	0	0	0	0	0	0	0	0	0	0	0	0	0.000000000	0	0	0	0	0	0	0	0	0	0	0	0	0	0	0	0	0	0	0	0	0	0.000000000
1504279685.241681098	0.00460194	0.776194	-0.81301	0.00920388	0.785398	-1.61221	0.0076699	0	0	0	0	0	0	0	0	0	0	0	0	0	0	0.000000000	0	0	0	0	0	0	0	0	0	0	0	0	0	0	0	0	0	0	0	0	0	0.000000000
1504279685.261636018	0.00460194	0.776194	-0.81301	0.00920388	0.785398	-1.61221	0.0076699	0	0	0	0	0	0	0	0	0	0	0	0	0	0	0.000000000	0	0	0	0	0	0	0	0	0	0	0	0	0	0	0	0	0	0	0	0	0	0.000000000
1504279685.282433986	0.00460194	0.776194	-0.81301	0.00920388	0.78233	-1.61221	0.0076699	0	0	0	0	0	0	0	0	0	0	0	0	0	0	0.000000000	0	0	0	0	0	0	0	0	0	0	0	0	0	0	0	0	0	0	0	0	0	0.000000000
1504279685.302145004	0.00460194	0.776194	-0.81301	0.00920388	0.78233	-1.61221	0.0076699	0	0	0	0	0	0	0	0	0	0	0	0	0	0	0.000000000	0	0	0	0	0	0	0	0	0	0	0	0	0	0	0	0	0	0	0	0	0	0.000000000
1504279685.321701049	0.00460194	0.776194	-0.81301	0.00920388	0.78233	-1.61221	0.0076699	0	0	0	0	0	0	0	0	0	0	0	0	0	0	0.000000000	0	0	0	0	0	0	0	0	0	0	0	0	0	0	0	0	0	0	0	0	0	0.000000000
1504279685.341336965	0.00460194	0.776194	-0.81301	0.00920388	0.785398	-1.61221	0.0076699	0	0	0	0	0	0	0	0	0	0	0	0	0	0	0.000000000	0	0	0	0	0	0	0	0	0	0	0	0	0	0	0	0	0	0	0	0	0	0.000000000
1504279685.361314058	0.00460194	0.776194	-0.81301	0.00920388	0.78233	-1.61221	0.0076699	0	0	0	0	0	0	0	0	0	0	0	0	0	0	0.000000000	0	0	0	0	0	0	0	0	0	0	0	0	0	0	0	0	0	0	0	0	0	0.000000000
1504279685.381860017	0.00460194	0.776194	-0.81301	0.00920388	0.78233	-1.61221	0.0076699	0	0	0	0	0	0	0	0	0	0	0	0	0	0	0.000000000	0	0	0	0	0	0	0	0	0	0	0	0	0	0	0	0	0	0	0	0	0	0.000000000
1504279685.401808977	0.00460194	0.776194	-0.81301	0.00920388	0.78233	-1.61221	0.0076699	0	0	0	0	0	0	0	0	0	0	0	0	0	0	0.000000000	0	0	0	0	0	0	0	0	0	0	0	0	0	0	0	0	0	0	0	0	0	0.000000000
1504279685.421583890	0.00460194	0.776194	-0.81301	0.00920388	0.78233	-1.61221	0.0076699	0	0	0	0	0	0	0	0	0	0	0	0	0	0	0.000000000	0	0	0	0	0	0	0	0	0	0	0	0	0	0	0	0	0	0	0	0	0	0.000000000
1504279685.441795110	0.00460194	0.776194	-0.81301	0.00920388	0.785398	-1.61221	0.0076699	0	0	0	0	0	0	0	0	0	0	0	0	0	0	0.000000000	0	0	0	0	0	0	0	0	0	0	0	0	0	0	0	0	0	0	0	0	0	0.000000000
1504279685.461715936	0.00460194	0.776194	-0.81301	0.00920388	0.785398	-1.61221	0.0076699	0	0	0	0	0	0	0	0	0	0	0	0	0	0	0.000000000	0	0	0	0	0	0	0	0	0	0	0	0	0	0	0	0	0	0	0	0	0	0.000000000
1504279685.481303930	0.00460194	0.776194	-0.81301	0.00920388	0.78233	-1.61221	0.0076699	0	0	0	0	0	0	0	0	0	0	0	0	0	0	0.000000000	0	0	0	0	0	0	0	0	0	0	0	0	0	0	0	0	0	0	0	0	0	0.000000000
1504279685.503364086	0.00460194	0.776194	-0.81301	0.00920388	0.78233	-1.61221	0.0076699	0	0	0	0	0	0	0	0	0	0	0	0	0	0	0.000000000	0	0	0	0	0	0	0	0	0	0	0	0	0	0	0	0	0	0	0	0	0	0.000000000
1504279685.521462917	0.00460194	0.776194	-0.81301	0.00920388	0.78233	-1.61221	0.0076699	0	0	0	0	0	0	0	0	0	0	0	0	0	0	0.000000000	0	0	0	0	0	0	0	0	0	0	0	0	0	0	0	0	0	0	0	0	0	0.000000000
1504279685.541524887	0.00460194	0.776194	-0.81301	0.00920388	0.78233	-1.61221	0.0076699	0	0	0	0	0	0	0	0	0	0	0	0	0	0	0.000000000	0	0	0	0	0	0	0	0	0	0	0	0	0	0	0	0	0	0	0	0	0	0.000000000
1504279685.561981916	0.00460194	0.776194	-0.81301	0.00920388	0.785398	-1.61221	0.0076699	0	0	0	0	0	0	0	0	0	0	0	0	0	0	0.000000000	0	0	0	0	0	0	0	0	0	0	0	0	0	0	0	0	0	0	0	0	0	0.000000000
1504279685.581522941	0.00460194	0.776194	-0.81301	0.00920388	0.785398	-1.61221	0.0076699	0	0	0	0	0	0	0	0	0	0	0	0	0	0	0.000000000	0	0	0	0	0	0	0	0	0	0	0	0	0	0	0	0	0	0	0	0	0	0.000000000
1504279685.601377010	0.00460194	0.776194	-0.81301	0.00920388	0.78233	-1.61375	0.0076699	0	0	0	0	0	0	0	0	0	0	0	0	0	0	0.000000000	0	0	0	0	0	0	0	0	0	0	0	0	0	0	0	0	0	0	0	0	0	0.000000000
1504279685.623960971	0.00460194	0.776194	-0.81301	0.00920388	0.78233	-1.61375	0.0076699	0	0	0	0	0	0	0	0	0	0	0	0	0	0	0.000000000	0	0	0	0	0	0	0	0	0	0	0	0	0	0	0	0	0	0	0	0	0	0.000000000
1504279685.641359090	0.00460194	0.776194	-0.81301	0.00920388	0.785398	-1.61221	0.0076699	0	0	0	0	0	0	0	0	0	0	0	0	0	0	0.000000000	0	0	0	0	0	0	0	0	0	0	0	0	0	0	0	0	0	0	0	0	0	0.000000000
1504279685.663100957	0.00460194	0.776194	-0.81301	0.00920388	0.78233	-1.61221	0.0076699	0	0	0	0	0	0	0	0	0	0	0	0	0	0	0.000000000	0	0	0	0	0	0	0	0	0	0	0	0	0	0	0	0	0	0	0	0	0	0.000000000
1504279685.681469917	0.00460194	0.776194	-0.81301	0.00920388	0.785398	-1.61221	0.0076699	0	0	0	0	0	0	0	0	0	0	0	0	0	0	0.000000000	0	0	0	0	0	0	0	0	0	0	0	0	0	0	0	0	0	0	0	0	0	0.000000000
1504279685.702738046	0.00460194	0.776194	-0.81301	0.00920388	0.785398	-1.61221	0.0076699	0	0	0	0	0	0	0	0	0	0	0	0	0	0	0.000000000	0	0	0	0	0	0	0	0	0	0	0	0	0	0	0	0	0	0	0	0	0	0.000000000
1504279685.723798036	0.00460194	0.776194	-0.81301	0.00920388	0.785398	-1.61221	0.0076699	0	0	0	0	0	0	0	0	0	0	0	0	0	0	0.000000000	0	0	0	0	0	0	0	0	0	0	0	0	0	0	0	0	0	0	0	0	0	0.000000000
1504279685.742242097	0.00460194	0.776194	-0.81301	0.00920388	0.785398	-1.61221	0.0076699	0	0	0	0	0	0	0	0	0	0	0	0	0	0	0.000000000	0	0	0	0	0	0	0	0	0	0	0	0	0	0	0	0	0	0	0	0	0	0.000000000
1504279685.761442899	0.00460194	0.776194	-0.81301	0.00920388	0.785398	-1.61221	0.0076699	0	0	0	0	0	0	0	0	0	0	0	0	0	0	0.000000000	0	0	0	0	0	0	0	0	0	0	0	0	0	0	0	0	0	0	0	0	0	0.000000000
1504279685.781441926	0.00460194	0.776194	-0.81301	0.00920388	0.785398	-1.61221	0.0076699	0	0	0	0	0	0	0	0	0	0	0	0	0	0	0.000000000	0	0	0	0	0	0	0	0	0	0	0	0	0	0	0	0	0	0	0	0	0	0.000000000
1504279685.802177906	0.00460194	0.776194	-0.81301	0.00920388	0.785398	-1.61221	0.0076699	0	0	0	0	0	0	0	0	0	0	0	0	0	0	0.000000000	0	0	0	0	0	0	0	0	0	0	0	0	0	0	0	0	0	0	0	0	0	0.000000000
1504279685.821337938	0.00460194	0.776194	-0.81301	0.00920388	0.785398	-1.61221	0.0076699	0	0	0	0	0	0	0	0	0	0	0	0	0	0	0.000000000	0	0	0	0	0	0	0	0	0	0	0	0	0	0	0	0	0	0	0	0	0	0.000000000
1504279685.841368913	0.00460194	0.776194	-0.81301	0.00920388	0.78233	-1.61221	0.0076699	0	0	0	0	0	0	0	0	0	0	0	0	0	0	0.000000000	0	0	0	0	0	0	0	0	0	0	0	0	0	0	0	0	0	0	0	0	0	0.000000000
1504279685.861236095	0.00460194	0.776194	-0.81301	0.00920388	0.78233	-1.61221	0.0076699	0	0	0	0	0	0	0	0	0	0	0	0	0	0	0.000000000	0	0	0	0	0	0	0	0	0	0	0	0	0	0	0	0	0	0	0	0	0	0.000000000
1504279685.883074998	0.00460194	0.776194	-0.81301	0.00920388	0.785398	-1.61221	0.0076699	0	0	0	0	0	0	0	0	0	0	0	0	0	0	0.000000000	0	0	0	0	0	0	0	0	0	0	0	0	0	0	0	0	0	0	0	0	0	0.000000000
1504279685.901349067	0.00460194	0.776194	-0.81301	0.00920388	0.785398	-1.61221	0.0076699	0	0	0	0	0	0	0	0	0	0	0	0	0	0	0.000000000	0	0	0	0	0	0	0	0	0	0	0	0	0	0	0	0	0	0	0	0	0	0.000000000
1504279685.922410011	0.00460194	0.776194	-0.81301	0.00920388	0.785398	-1.61221	0.0076699	0	0	0	0	0	0	0	0	0	0	0	0	0	0	0.000000000	0	0	0	0	0	0	0	0	0	0	0	0	0	0	0	0	0	0	0	0	0	0.000000000
1504279685.941397905	0.00460194	0.776194	-0.81301	0.00920388	0.785398	-1.61221	0.0076699	0	0	0	0	0	0	0	0	0	0	0	0	0	0	0.000000000	0	0	0	0	0	0	0	0	0	0	0	0	0	0	0	0	0	0	0	0	0	0.000000000
1504279685.961405038	0.00460194	0.776194	-0.811476	0.00920388	0.785398	-1.61221	0.0076699	0	0	0	0	0	0	0	0	0	0	0	0	0	0	0.000000000	0	0	0	0	0	0	0	0	0	0	0	0	0	0	0	0	0	0	0	0	0	0.000000000
1504279685.981218099	0.00460194	0.776194	-0.81301	0.00920388	0.785398	-1.61221	0.0076699	0	0	0	0	0	0	0	0	0	0	0	0	0	0	0.000000000	0	0	0	0	0	0	0	0	0	0	0	0	0	0	0	0	0	0	0	0	0	0.000000000
1504279686.001374006	0.00460194	0.776194	-0.81301	0.00920388	0.785398	-1.61375	0.0076699	0	0	0	0	0	0	0	0	0	0	0	0	0	0	0.000000000	0	0	0	0	0	0	0	0	0	0	0	0	0	0	0	0	0	0	0	0	0	0.000000000
1504279686.023184061	0.00460194	0.776194	-0.81301	0.00920388	0.785398	-1.61221	0.0076699	0	0	0	0	0	0	0	0	0	0	0	0	0	0	0.000000000	0	0	0	0	0	0	0	0	0	0	0	0	0	0	0	0	0	0	0	0	0	0.000000000
1504279686.041276931	0.00460194	0.776194	-0.81301	0.00920388	0.785398	-1.61221	0.0076699	0	0	0	0	0	0	0	0	0	0	0	0	0	0	0.000000000	0	0	0	0	0	0	0	0	0	0	0	0	0	0	0	0	0	0	0	0	0	0.000000000
1504279686.061614036	0.00460194	0.776194	-0.81301	0.00920388	0.785398	-1.61221	0.0076699	0	0	0	0	0	0	0	0	0	0	0	0	0	0	0.000000000	0	0	0	0	0	0	0	0	0	0	0	0	0	0	0	0	0	0	0	0	0	0.000000000
1504279686.081558942	0.00460194	0.776194	-0.81301	0.00920388	0.785398	-1.61221	0.0076699	0	0	0	0	0	0	0	0	0	0	0	0	0	0	0.000000000	0	0	0	0	0	0	0	0	0	0	0	0	0	0	0	0	0	0	0	0	0	0.000000000
1504279686.101386070	0.00460194	0.776194	-0.81301	0.00920388	0.785398	-1.61221	0.0076699	0	0	0	0	0	0	0	0	0	0	0	0	0	0	0.000000000	0	0	0	0	0	0	0	0	0	0	0	0	0	0	0	0	0	0	0	0	0	0.000000000
1504279686.123156070	0.00460194	0.776194	-0.81301	0.00920388	0.78233	-1.61221	0.0076699	0	0	0	0	0	0	0	0	0	0	0	0	0	0	0.000000000	0	0	0	0	0	0	0	0	0	0	0	0	0	0	0	0	0	0	0	0	0	0.000000000
1504279686.141684055	0.00460194	0.776194	-0.81301	0.00920388	0.78233	-1.61221	0.0076699	0	0	0	0	0	0	0	0	0	0	0	0	0	0	0.000000000	0	0	0	0	0	0	0	0	0	0	0	0	0	0	0	0	0	0	0	0	0	0.000000000
1504279686.161370038	0.00460194	0.776194	-0.81301	0.00920388	0.78233	-1.61221	0.0076699	0	0	0	0	0	0	0	0	0	0	0	0	0	0	0.000000000	0	0	0	0	0	0	0	0	0	0	0	0	0	0	0	0	0	0	0	0	0	0.000000000
1504279686.181539058	0.00460194	0.776194	-0.81301	0.00920388	0.78233	-1.61221	0.0076699	0	0	0	0	0	0	0	0	0	0	0	0	0	0	0.000000000	0	0	0	0	0	0	0	0	0	0	0	0	0	0	0	0	0	0	0	0	0	0.000000000
1504279686.202090024	0.00460194	0.776194	-0.81301	0.00920388	0.785398	-1.61221	0.0076699	0	0	0	0	0	0	0	0	0	0	0	0	0	0	0.000000000	0	0	0	0	0	0	0	0	0	0	0	0	0	0	0	0	0	0	0	0	0	0.000000000
1504279686.223105907	0.00460194	0.776194	-0.81301	0.00920388	0.785398	-1.61221	0.0076699	0	0	0	0	0	0	0	0	0	0	0	0	0	0	0.000000000	0	0	0	0	0	0	0	0	0	0	0	0	0	0	0	0	0	0	0	0	0	0.000000000
1504279686.241431951	0.00460194	0.776194	-0.81301	0.00920388	0.78233	-1.61221	0.0076699	0	0	0	0	0	0	0	0	0	0	0	0	0	0	0.000000000	0	0	0	0	0	0	0	0	0	0	0	0	0	0	0	0	0	0	0	0	0	0.000000000
1504279686.261702060	0.00460194	0.776194	-0.81301	0.00920388	0.785398	-1.61221	0.0076699	0	0	0	0	0	0	0	0	0	0	0	0	0	0	0.000000000	0	0	0	0	0	0	0	0	0	0	0	0	0	0	0	0	0	0	0	0	0	0.000000000
1504279686.281542062	0.00460194	0.776194	-0.81301	0.00920388	0.785398	-1.61221	0.0076699	0	0	0	0	0	0	0	0	0	0	0	0	0	0	0.000000000	0	0	0	0	0	0	0	0	0	0	0	0	0	0	0	0	0	0	0	0	0	0.000000000
1504279686.302181005	0.00460194	0.776194	-0.81301	0.00920388	0.785398	-1.61221	0.0076699	0	0	0	0	0	0	0	0	0	0	0	0	0	0	0.000000000	0	0	0	0	0	0	0	0	0	0	0	0	0	0	0	0	0	0	0	0	0	0.000000000
1504279686.321212053	0.00460194	0.776194	-0.81301	0.00920388	0.785398	-1.61221	0.0076699	0	0	0	0	0	0	0	0	0	0	0	0	0	0	0.000000000	0	0	0	0	0	0	0	0	0	0	0	0	0	0	0	0	0	0	0	0	0	0.000000000
1504279686.342466115	0.00460194	0.776194	-0.81301	0.00920388	0.78233	-1.61221	0.0076699	0	0	0	0	0	0	0	0	0	0	0	0	0	0	0.000000000	0	0	0	0	0	0	0	0	0	0	0	0	0	0	0	0	0	0	0	0	0	0.000000000
1504279686.361371994	0.00306796	0.776194	-0.81301	0.00920388	0.785398	-1.61221	0.0076699	0	0	0	0	0	0	0	0	0	0	0	0	0	0	0.000000000	0	0	0	0	0	0	0	0	0	0	0	0	0	0	0	0	0	0	0	0	0	0.000000000
1504279686.381577014	0.00460194	0.776194	-0.81301	0.00920388	0.785398	-1.61221	0.0076699	0	0	0	0	0	0	0	0	0	0	0	0	0	0	0.000000000	0	0	0	0	0	0	0	0	0	0	0	0	0	0	0	0	0	0	0	0	0	0.000000000
1504279686.401984930	0.00460194	0.776194	-0.81301	0.00920388	0.785398	-1.61221	0.0076699	0	0	0	0	0	0	0	0	0	0	0	0	0	0	0.000000000	0	0	0	0	0	0	0	0	0	0	0	0	0	0	0	0	0	0	0	0	0	0.000000000
1504279686.421248912	0.00460194	0.776194	-0.81301	0.00920388	0.785398	-1.61221	0.0076699	0	0	0	0	0	0	0	0	0	0	0	0	0	0	0.000000000	0	0	0	0	0	0	0	0	0	0	0	0	0	0	0	0	0	0	0	0	0	0.000000000
1504279686.441557884	0.00460194	0.776194	-0.81301	0.00920388	0.785398	-1.61221	0.0076699	0	0	0	0	0	0	0	0	0	0	0	0	0	0	0.000000000	0	0	0	0	0	0	0	0	0	0	0	0	0	0	0	0	0	0	0	0	0	0.000000000
1504279686.463963031	0.00460194	0.776194	-0.81301	0.00920388	0.785398	-1.61221	0.0076699	0	0	0	0	0	0	0	0	0	0	0	0	0	0	0.000000000	0	0	0	0	0	0	0	0	0	0	0	0	0	0	0	0	0	0	0	0	0	0.000000000
1504279686.481626033	0.00460194	0.776194	-0.81301	0.00920388	0.785398	-1.61221	0.0076699	0	0	0	0	0	0	0	0	0	0	0	0	0	0	0.000000000	0	0	0	0	0	0	0	0	0	0	0	0	0	0	0	0	0	0	0	0	0	0.000000000
1504279686.502172946	0.00460194	0.776194	-0.81301	0.00920388	0.785398	-1.61221	0.0076699	0	0	0	0	0	0	0	0	0	0	0	0	0	0	0.000000000	0	0	0	0	0	0	0	0	0	0	0	0	0	0	0	0	0	0	0	0	0	0.000000000
1504279686.523195028	0.00460194	0.776194	-0.81301	0.00920388	0.785398	-1.61221	0.0076699	0	0	0	0	0	0	0	0	0	0	0	0	0	0	0.000000000	0	0	0	0	0	0	0	0	0	0	0	0	0	0	0	0	0	0	0	0	0	0.000000000
1504279686.543207883	0.00460194	0.776194	-0.81301	0.00920388	0.785398	-1.61221	0.0076699	0	0	0	0	0	0	0	0	0	0	0	0	0	0	0.000000000	0	0	0	0	0	0	0	0	0	0	0	0	0	0	0	0	0	0	0	0	0	0.000000000
1504279686.561319112	0.00460194	0.776194	-0.81301	0.00920388	0.785398	-1.61221	0.0076699	0	0	0	0	0	0	0	0	0	0	0	0	0	0	0.000000000	0	0	0	0	0	0	0	0	0	0	0	0	0	0	0	0	0	0	0	0	0	0.000000000
1504279686.581621885	0.00460194	0.776194	-0.81301	0.00920388	0.785398	-1.61221	0.0076699	0	0	0	0	0	0	0	0	0	0	0	0	0	0	0.000000000	0	0	0	0	0	0	0	0	0	0	0	0	0	0	0	0	0	0	0	0	0	0.000000000
1504279686.603394985	0.00306796	0.776194	-0.81301	0.00920388	0.785398	-1.61221	0.0076699	0	0	0	0	0	0	0	0	0	0	0	0	0	0	0.000000000	0	0	0	0	0	0	0	0	0	0	0	0	0	0	0	0	0	0	0	0	0	0.000000000
1504279686.622390985	0.00460194	0.776194	-0.81301	0.00920388	0.785398	-1.61221	0.0076699	0	0	0	0	0	0	0	0	0	0	0	0	0	0	0.000000000	0	0	0	0	0	0	0	0	0	0	0	0	0	0	0	0	0	0	0	0	0	0.000000000
1504279686.642380952	0.00460194	0.776194	-0.81301	0.00920388	0.78233	-1.61221	0.0076699	0	0	0	0	0	0	0	0	0	0	0	0	0	0	0.000000000	0	0	0	0	0	0	0	0	0	0	0	0	0	0	0	0	0	0	0	0	0	0.000000000
1504279686.661308050	0.00460194	0.776194	-0.81301	0.00920388	0.78233	-1.61221	0.0076699	0	0	0	0	0	0	0	0	0	0	0	0	0	0	0.000000000	0	0	0	0	0	0	0	0	0	0	0	0	0	0	0	0	0	0	0	0	0	0.000000000
1504279686.681631088	0.00460194	0.776194	-0.81301	0.00920388	0.785398	-1.61221	0.0076699	0	0	0	0	0	0	0	0	0	0	0	0	0	0	0.000000000	0	0	0	0	0	0	0	0	0	0	0	0	0	0	0	0	0	0	0	0	0	0.000000000
1504279686.701489925	0.00460194	0.776194	-0.81301	0.00920388	0.785398	-1.61221	0.0076699	0	0	0	0	0	0	0	0	0	0	0	0	0	0	0.000000000	0	0	0	0	0	0	0	0	0	0	0	0	0	0	0	0	0	0	0	0	0	0.000000000
1504279686.723340988	0.00460194	0.776194	-0.81301	0.00920388	0.78233	-1.61221	0.0076699	0	0	0	0	0	0	0	0	0	0	0	0	0	0	0.000000000	0	0	0	0	0	0	0	0	0	0	0	0	0	0	0	0	0	0	0	0	0	0.000000000
1504279686.741338014	0.00460194	0.776194	-0.81301	0.00920388	0.78233	-1.61221	0.0076699	0	0	0	0	0	0	0	0	0	0	0	0	0	0	0.000000000	0	0	0	0	0	0	0	0	0	0	0	0	0	0	0	0	0	0	0	0	0	0.000000000
1504279686.761058092	0.00460194	0.776194	-0.81301	0.00920388	0.78233	-1.61221	0.0076699	0	0	0	0	0	0	0	0	0	0	0	0	0	0	0.000000000	0	0	0	0	0	0	0	0	0	0	0	0	0	0	0	0	0	0	0	0	0	0.000000000
1504279686.781013011	0.00460194	0.776194	-0.81301	0.00920388	0.78233	-1.61221	0.0076699	0	0	0	0	0	0	0	0	0	0	0	0	0	0	0.000000000	0	0	0	0	0	0	0	0	0	0	0	0	0	0	0	0	0	0	0	0	0	0.000000000
1504279686.801028966	0.00460194	0.776194	-0.81301	0.00920388	0.78233	-1.61221	0.0076699	0	0	0	0	0	0	0	0	0	0	0	0	0	0	0.000000000	0	0	0	0	0	0	0	0	0	0	0	0	0	0	0	0	0	0	0	0	0	0.000000000
1504279686.820986986	0.00460194	0.776194	-0.81301	0.00920388	0.785398	-1.61221	0.0076699	0	0	0	0	0	0	0	0	0	0	0	0	0	0	0.000000000	0	0	0	0	0	0	0	0	0	0	0	0	0	0	0	0	0	0	0	0	0	0.000000000
1504279686.840980052	0.00460194	0.776194	-0.81301	0.00920388	0.78233	-1.61221	0.0076699	0	0	0	0	0	0	0	0	0	0	0	0	0	0	0.000000000	0	0	0	0	0	0	0	0	0	0	0	0	0	0	0	0	0	0	0	0	0	0.000000000
1504279686.860980987	0.00460194	0.776194	-0.81301	0.00920388	0.78233	-1.61221	0.0076699	0	0	0	0	0	0	0	0	0	0	0	0	0	0	0.000000000	0	0	0	0	0	0	0	0	0	0	0	0	0	0	0	0	0	0	0	0	0	0.000000000
1504279686.880985975	0.00460194	0.776194	-0.81301	0.00920388	0.78233	-1.61221	0.0076699	0	0	0	0	0	0	0	0	0	0	0	0	0	0	0.000000000	0	0	0	0	0	0	0	0	0	0	0	0	0	0	0	0	0	0	0	0	0	0.000000000
1504279686.901058912	0.00460194	0.776194	-0.81301	0.00920388	0.785398	-1.61221	0.0076699	0	0	0	0	0	0	0	0	0	0	0	0	0	0	0.000000000	0	0	0	0	0	0	0	0	0	0	0	0	0	0	0	0	0	0	0	0	0	0.000000000
1504279686.921019077	0.00460194	0.776194	-0.81301	0.00920388	0.78233	-1.61221	0.0076699	0	0	0	0	0	0	0	0	0	0	0	0	0	0	0.000000000	0	0	0	0	0	0	0	0	0	0	0	0	0	0	0	0	0	0	0	0	0	0.000000000
1504279686.940980911	0.00460194	0.776194	-0.81301	0.00920388	0.78233	-1.61221	0.0076699	0	0	0	0	0	0	0	0	0	0	0	0	0	0	0.000000000	0	0	0	0	0	0	0	0	0	0	0	0	0	0	0	0	0	0	0	0	0	0.000000000
1504279686.960983037	0.00460194	0.776194	-0.81301	0.00920388	0.78233	-1.61221	0.0076699	0	0	0	0	0	0	0	0	0	0	0	0	0	0	0.000000000	0	0	0	0	0	0	0	0	0	0	0	0	0	0	0	0	0	0	0	0	0	0.000000000
1504279686.981009960	0.00460194	0.776194	-0.81301	0.00920388	0.78233	-1.61221	0.0076699	0	0	0	0	0	0	0	0	0	0	0	0	0	0	0.000000000	0	0	0	0	0	0	0	0	0	0	0	0	0	0	0	0	0	0	0	0	0	0.000000000
1504279687.000982999	0.00460194	0.776194	-0.81301	0.00920388	0.78233	-1.61221	0.0076699	0	0	0	0	0	0	0	0	0	0	0	0	0	0	0.000000000	0	0	0	0	0	0	0	0	0	0	0	0	0	0	0	0	0	0	0	0	0	0.000000000
1504279687.021042108	0.00460194	0.776194	-0.81301	0.00920388	0.785398	-1.61221	0.0076699	0	0	0	0	0	0	0	0	0	0	0	0	0	0	0.000000000	0	0	0	0	0	0	0	0	0	0	0	0	0	0	0	0	0	0	0	0	0	0.000000000
1504279687.041012048	0.00460194	0.776194	-0.81301	0.00920388	0.785398	-1.61221	0.0076699	0	0	0	0	0	0	0	0	0	0	0	0	0	0	0.000000000	0	0	0	0	0	0	0	0	0	0	0	0	0	0	0	0	0	0	0	0	0	0.000000000
1504279687.061037063	0.00460194	0.776194	-0.81301	0.00920388	0.785398	-1.61221	0.0076699	0	0	0	0	0	0	0	0	0	0	0	0	0	0	0.000000000	0	0	0	0	0	0	0	0	0	0	0	0	0	0	0	0	0	0	0	0	0	0.000000000
1504279687.081043958	0.00460194	0.776194	-0.81301	0.00920388	0.785398	-1.61221	0.0076699	0	0	0	0	0	0	0	0	0	0	0	0	0	0	0.000000000	0	0	0	0	0	0	0	0	0	0	0	0	0	0	0	0	0	0	0	0	0	0.000000000
1504279687.101047992	0.00460194	0.776194	-0.81301	0.00920388	0.78233	-1.61221	0.0076699	0	0	0	0	0	0	0	0	0	0	0	0	0	0	0.000000000	0	0	0	0	0	0	0	0	0	0	0	0	0	0	0	0	0	0	0	0	0	0.000000000
1504279687.120987892	0.00460194	0.777728	-0.81301	0.00920388	0.785398	-1.61221	0.0076699	0	0	0	0	0	0	0	0	0	0	0	0	0	0	0.000000000	0	0	0	0	0	0	0	0	0	0	0	0	0	0	0	0	0	0	0	0	0	0.000000000
1504279687.141046047	0.00460194	0.776194	-0.81301	0.00920388	0.78233	-1.61221	0.0076699	0	0	0	0	0	0	0	0	0	0	0	0	0	0	0.000000000	0	0	0	0	0	0	0	0	0	0	0	0	0	0	0	0	0	0	0	0	0	0.000000000
1504279687.160964012	0.00460194	0.776194	-0.81301	0.00920388	0.78233	-1.61221	0.0076699	0	0	0	0	0	0	0	0	0	0	0	0	0	0	0.000000000	0	0	0	0	0	0	0	0	0	0	0	0	0	0	0	0	0	0	0	0	0	0.000000000
1504279687.180982112	0.00460194	0.776194	-0.81301	0.00920388	0.785398	-1.61221	0.0076699	0	0	0	0	0	0	0	0	0	0	0	0	0	0	0.000000000	0	0	0	0	0	0	0	0	0	0	0	0	0	0	0	0	0	0	0	0	0	0.000000000
1504279687.200989007	0.00460194	0.777728	-0.81301	0.00920388	0.785398	-1.61221	0.0076699	0	0	0	0	0	0	0	0	0	0	0	0	0	0	0.000000000	0	0	0	0	0	0	0	0	0	0	0	0	0	0	0	0	0	0	0	0	0	0.000000000
1504279687.226437091	0.00460194	0.777728	-0.81301	0.00920388	0.785398	-1.61221	0.0076699	0	0	0	0	0	0	0	0	0	0	0	0	0	0	0.000000000	0	0	0	0	0	0	0	0	0	0	0	0	0	0	0	0	0	0	0	0	0	0.000000000
1504279687.241914987	0.00460194	0.776194	-0.81301	0.00920388	0.78233	-1.61221	0.0076699	0	0	0	0	0	0	0	0	0	0	0	0	0	0	0.000000000	0	0	0	0	0	0	0	0	0	0	0	0	0	0	0	0	0	0	0	0	0	0.000000000
1504279687.261157989	0.00460194	0.776194	-0.81301	0.00920388	0.78233	-1.61221	0.0076699	0	0	0	0	0	0	0	0	0	0	0	0	0	0	0.000000000	0	0	0	0	0	0	0	0	0	0	0	0	0	0	0	0	0	0	0	0	0	0.000000000
1504279687.281177997	0.00460194	0.776194	-0.81301	0.00920388	0.78233	-1.61221	0.0076699	0	0	0	0	0	0	0	0	0	0	0	0	0	0	0.000000000	0	0	0	0	0	0	0	0	0	0	0	0	0	0	0	0	0	0	0	0	0	0.000000000
1504279687.304330110	0.00460194	0.776194	-0.81301	0.00920388	0.785398	-1.61221	0.0076699	0	0	0	0	0	0	0	0	0	0	0	0	0	0	0.000000000	0	0	0	0	0	0	0	0	0	0	0	0	0	0	0	0	0	0	0	0	0	0.000000000
1504279687.321933031	0.00460194	0.776194	-0.81301	0.00920388	0.785398	-1.61221	0.0076699	0	0	0	0	0	0	0	0	0	0	0	0	0	0	0.000000000	0	0	0	0	0	0	0	0	0	0	0	0	0	0	0	0	0	0	0	0	0	0.000000000
1504279687.341667890	0.00460194	0.776194	-0.81301	0.00920388	0.785398	-1.61221	0.0076699	0	0	0	0	0	0	0	0	0	0	0	0	0	0	0.000000000	0	0	0	0	0	0	0	0	0	0	0	0	0	0	0	0	0	0	0	0	0	0.000000000
1504279687.361187934	0.00460194	0.776194	-0.81301	0.00920388	0.785398	-1.61375	0.0076699	0	0	0	0	0	0	0	0	0	0	0	0	0	0	0.000000000	0	0	0	0	0	0	0	0	0	0	0	0	0	0	0	0	0	0	0	0	0	0.000000000
1504279687.383315086	0.00460194	0.776194	-0.81301	0.00920388	0.785398	-1.61221	0.00920388	0	0	0	0	0	0	0	0	0	0	0	0	0	0	0.000000000	0	0	0	0	0	0	0	0	0	0	0	0	0	0	0	0	0	0	0	0	0	0.000000000
1504279687.401103973	0.00460194	0.776194	-0.81301	0.00920388	0.785398	-1.61221	0.0076699	0	0	0	0	0	0	0	0	0	0	0	0	0	0	0.000000000	0	0	0	0	0	0	0	0	0	0	0	0	0	0	0	0	0	0	0	0	0	0.000000000
1504279687.421039104	0.00460194	0.776194	-0.81301	0.00920388	0.785398	-1.61221	0.0076699	0	0	0	0	0	0	0	0	0	0	0	0	0	0	0.000000000	0	0	0	0	0	0	0	0	0	0	0	0	0	0	0	0	0	0	0	0	0	0.000000000
1504279687.441374063	0.00460194	0.776194	-0.81301	0.00920388	0.785398	-1.61221	0.0076699	0	0	0	0	0	0	0	0	0	0	0	0	0	0	0.000000000	0	0	0	0	0	0	0	0	0	0	0	0	0	0	0	0	0	0	0	0	0	0.000000000
1504279687.461041927	0.00460194	0.776194	-0.81301	0.00920388	0.785398	-1.61221	0.0076699	0	0	0	0	0	0	0	0	0	0	0	0	0	0	0.000000000	0	0	0	0	0	0	0	0	0	0	0	0	0	0	0	0	0	0	0	0	0	0.000000000
1504279687.481101989	0.00460194	0.776194	-0.81301	0.00920388	0.785398	-1.61221	0.0076699	0	0	0	0	0	0	0	0	0	0	0	0	0	0	0.000000000	0	0	0	0	0	0	0	0	0	0	0	0	0	0	0	0	0	0	0	0	0	0.000000000
1504279687.502090930	0.00460194	0.776194	-0.81301	0.00920388	0.78233	-1.61221	0.0076699	0	0	0	0	0	0	0	0	0	0	0	0	0	0	0.000000000	0	0	0	0	0	0	0	0	0	0	0	0	0	0	0	0	0	0	0	0	0	0.000000000
1504279687.521599054	0.00460194	0.776194	-0.81301	0.00920388	0.78233	-1.61221	0.0076699	0	0	0	0	0	0	0	0	0	0	0	0	0	0	0.000000000	0	0	0	0	0	0	0	0	0	0	0	0	0	0	0	0	0	0	0	0	0	0.000000000
1504279687.541418075	0.00460194	0.776194	-0.81301	0.00920388	0.78233	-1.61221	0.0076699	0	0	0	0	0	0	0	0	0	0	0	0	0	0	0.000000000	0	0	0	0	0	0	0	0	0	0	0	0	0	0	0	0	0	0	0	0	0	0.000000000
1504279687.562724113	0.00460194	0.776194	-0.81301	0.00920388	0.785398	-1.61221	0.0076699	0	0	0	0	0	0	0	0	0	0	0	0	0	0	0.000000000	0	0	0	0	0	0	0	0	0	0	0	0	0	0	0	0	0	0	0	0	0	0.000000000
1504279687.581273078	0.00460194	0.776194	-0.81301	0.00920388	0.785398	-1.61221	0.0076699	0	0	0	0	0	0	0	0	0	0	0	0	0	0	0.000000000	0	0	0	0	0	0	0	0	0	0	0	0	0	0	0	0	0	0	0	0	0	0.000000000
1504279687.603930950	0.00460194	0.776194	-0.81301	0.00920388	0.785398	-1.61221	0.0076699	0	0	0	0	0	0	0	0	0	0	0	0	0	0	0.000000000	0	0	0	0	0	0	0	0	0	0	0	0	0	0	0	0	0	0	0	0	0	0.000000000
1504279687.622819900	0.00460194	0.776194	-0.81301	0.00920388	0.785398	-1.61221	0.0076699	0	0	0	0	0	0	0	0	0	0	0	0	0	0	0.000000000	0	0	0	0	0	0	0	0	0	0	0	0	0	0	0	0	0	0	0	0	0	0.000000000
1504279687.642935037	0.00460194	0.776194	-0.81301	0.00920388	0.78233	-1.61221	0.0076699	0	0	0	0	0	0	0	0	0	0	0	0	0	0	0.000000000	0	0	0	0	0	0	0	0	0	0	0	0	0	0	0	0	0	0	0	0	0	0.000000000
1504279687.661140918	0.00460194	0.776194	-0.81301	0.00920388	0.785398	-1.61221	0.0076699	0	0	0	0	0	0	0	0	0	0	0	0	0	0	0.000000000	0	0	0	0	0	0	0	0	0	0	0	0	0	0	0	0	0	0	0	0	0	0.000000000
1504279687.681119918	0.00460194	0.776194	-0.81301	0.00920388	0.78233	-1.61221	0.0076699	0	0	0	0	0	0	0	0	0	0	0	0	0	0	0.000000000	0	0	0	0	0	0	0	0	0	0	0	0	0	0	0	0	0	0	0	0	0	0.000000000
1504279687.701802968	0.00460194	0.776194	-0.81301	0.00920388	0.785398	-1.61221	0.0076699	0	0	0	0	0	0	0	0	0	0	0	0	0	0	0.000000000	0	0	0	0	0	0	0	0	0	0	0	0	0	0	0	0	0	0	0	0	0	0.000000000
1504279687.721148967	0.00460194	0.776194	-0.81301	0.00920388	0.785398	-1.61221	0.0076699	0	0	0	0	0	0	0	0	0	0	0	0	0	0	0.000000000	0	0	0	0	0	0	0	0	0	0	0	0	0	0	0	0	0	0	0	0	0	0.000000000
1504279687.742552042	0.00460194	0.776194	-0.81301	0.00920388	0.78233	-1.61221	0.0076699	0	0	0	0	0	0	0	0	0	0	0	0	0	0	0.000000000	0	0	0	0	0	0	0	0	0	0	0	0	0	0	0	0	0	0	0	0	0	0.000000000
1504279687.761497974	0.00460194	0.776194	-0.81301	0.00920388	0.78233	-1.61221	0.0076699	0	0	0	0	0	0	0	0	0	0	0	0	0	0	0.000000000	0	0	0	0	0	0	0	0	0	0	0	0	0	0	0	0	0	0	0	0	0	0.000000000
1504279687.781245946	0.00460194	0.776194	-0.81301	0.00920388	0.78233	-1.61221	0.0076699	0	0	0	0	0	0	0	0	0	0	0	0	0	0	0.000000000	0	0	0	0	0	0	0	0	0	0	0	0	0	0	0	0	0	0	0	0	0	0.000000000
1504279687.802892923	0.00460194	0.776194	-0.81301	0.00920388	0.78233	-1.61221	0.0076699	0	0	0	0	0	0	0	0	0	0	0	0	0	0	0.000000000	0	0	0	0	0	0	0	0	0	0	0	0	0	0	0	0	0	0	0	0	0	0.000000000
1504279687.822787046	0.00460194	0.776194	-0.81301	0.00920388	0.785398	-1.61221	0.0076699	0	0	0	0	0	0	0	0	0	0	0	0	0	0	0.000000000	0	0	0	0	0	0	0	0	0	0	0	0	0	0	0	0	0	0	0	0	0	0.000000000
1504279687.842884063	0.00460194	0.776194	-0.81301	0.00920388	0.785398	-1.61221	0.0076699	0	0	0	0	0	0	0	0	0	0	0	0	0	0	0.000000000	0	0	0	0	0	0	0	0	0	0	0	0	0	0	0	0	0	0	0	0	0	0.000000000
1504279687.861691951	0.00460194	0.776194	-0.81301	0.00920388	0.78233	-1.61221	0.0076699	0	0	0	0	0	0	0	0	0	0	0	0	0	0	0.000000000	0	0	0	0	0	0	0	0	0	0	0	0	0	0	0	0	0	0	0	0	0	0.000000000
1504279687.884676933	0.00460194	0.776194	-0.81301	0.00920388	0.78233	-1.61221	0.0076699	0	0	0	0	0	0	0	0	0	0	0	0	0	0	0.000000000	0	0	0	0	0	0	0	0	0	0	0	0	0	0	0	0	0	0	0	0	0	0.000000000
1504279687.901303052	0.00460194	0.776194	-0.81301	0.00920388	0.785398	-1.61221	0.0076699	0	0	0	0	0	0	0	0	0	0	0	0	0	0	0.000000000	0	0	0	0	0	0	0	0	0	0	0	0	0	0	0	0	0	0	0	0	0	0.000000000
1504279687.921304941	0.00460194	0.776194	-0.81301	0.00920388	0.785398	-1.61221	0.0076699	0	0	0	0	0	0	0	0	0	0	0	0	0	0	0.000000000	0	0	0	0	0	0	0	0	0	0	0	0	0	0	0	0	0	0	0	0	0	0.000000000
1504279687.941133975	0.00460194	0.776194	-0.81301	0.00920388	0.785398	-1.61221	0.0076699	0	0	0	0	0	0	0	0	0	0	0	0	0	0	0.000000000	0	0	0	0	0	0	0	0	0	0	0	0	0	0	0	0	0	0	0	0	0	0.000000000
1504279687.961133003	0.00460194	0.776194	-0.81301	0.00920388	0.78233	-1.61221	0.0076699	0	0	0	0	0	0	0	0	0	0	0	0	0	0	0.000000000	0	0	0	0	0	0	0	0	0	0	0	0	0	0	0	0	0	0	0	0	0	0.000000000
1504279687.981112003	0.00460194	0.776194	-0.81301	0.00920388	0.78233	-1.61221	0.0076699	0	0	0	0	0	0	0	0	0	0	0	0	0	0	0.000000000	0	0	0	0	0	0	0	0	0	0	0	0	0	0	0	0	0	0	0	0	0	0.000000000
1504279688.001418113	0.00460194	0.776194	-0.81301	0.00920388	0.785398	-1.61221	0.0076699	0	0	0	0	0	0	0	0	0	0	0	0	0	0	0.000000000	0	0	0	0	0	0	0	0	0	0	0	0	0	0	0	0	0	0	0	0	0	0.000000000
1504279688.022034883	0.00460194	0.776194	-0.81301	0.00920388	0.785398	-1.61221	0.0076699	0	0	0	0	0	0	0	0	0	0	0	0	0	0	0.000000000	0	0	0	0	0	0	0	0	0	0	0	0	0	0	0	0	0	0	0	0	0	0.000000000
1504279688.041877031	0.00460194	0.776194	-0.81301	0.00920388	0.785398	-1.61221	0.0076699	0	0	0	0	0	0	0	0	0	0	0	0	0	0	0.000000000	0	0	0	0	0	0	0	0	0	0	0	0	0	0	0	0	0	0	0	0	0	0.000000000
1504279688.064786911	0.00460194	0.776194	-0.81301	0.00920388	0.785398	-1.61221	0.0076699	0	0	0	0	0	0	0	0	0	0	0	0	0	0	0.000000000	0	0	0	0	0	0	0	0	0	0	0	0	0	0	0	0	0	0	0	0	0	0.000000000
1504279688.081533908	0.00460194	0.776194	-0.81301	0.00920388	0.785398	-1.61221	0.0076699	0	0	0	0	0	0	0	0	0	0	0	0	0	0	0.000000000	0	0	0	0	0	0	0	0	0	0	0	0	0	0	0	0	0	0	0	0	0	0.000000000
1504279688.108100891	0.00460194	0.776194	-0.81301	0.00920388	0.78233	-1.61221	0.0076699	0	0	0	0	0	0	0	0	0	0	0	0	0	0	0.000000000	0	0	0	0	0	0	0	0	0	0	0	0	0	0	0	0	0	0	0	0	0	0.000000000
1504279688.122549057	0.00460194	0.776194	-0.81301	0.00920388	0.78233	-1.61221	0.0076699	0	0	0	0	0	0	0	0	0	0	0	0	0	0	0.000000000	0	0	0	0	0	0	0	0	0	0	0	0	0	0	0	0	0	0	0	0	0	0.000000000
1504279688.141415119	0.00460194	0.776194	-0.81301	0.00920388	0.785398	-1.61221	0.0076699	0	0	0	0	0	0	0	0	0	0	0	0	0	0	0.000000000	0	0	0	0	0	0	0	0	0	0	0	0	0	0	0	0	0	0	0	0	0	0.000000000
1504279688.161086082	0.00460194	0.776194	-0.81301	0.00920388	0.78233	-1.61375	0.0076699	0	0	0	0	0	0	0	0	0	0	0	0	0	0	0.000000000	0	0	0	0	0	0	0	0	0	0	0	0	0	0	0	0	0	0	0	0	0	0.000000000
1504279688.181040048	0.00460194	0.776194	-0.81301	0.00920388	0.785398	-1.61221	0.0076699	0	0	0	0	0	0	0	0	0	0	0	0	0	0	0.000000000	0	0	0	0	0	0	0	0	0	0	0	0	0	0	0	0	0	0	0	0	0	0.000000000
1504279688.201111078	0.00460194	0.776194	-0.81301	0.00920388	0.785398	-1.61221	0.0076699	0	0	0	0	0	0	0	0	0	0	0	0	0	0	0.000000000	0	0	0	0	0	0	0	0	0	0	0	0	0	0	0	0	0	0	0	0	0	0.000000000
1504279688.221229076	0.00460194	0.776194	-0.81301	0.00920388	0.785398	-1.61221	0.0076699	0	0	0	0	0	0	0	0	0	0	0	0	0	0	0.000000000	0	0	0	0	0	0	0	0	0	0	0	0	0	0	0	0	0	0	0	0	0	0.000000000
1504279688.241162061	0.00460194	0.776194	-0.81301	0.00920388	0.78233	-1.61221	0.0076699	0	0	0	0	0	0	0	0	0	0	0	0	0	0	0.000000000	0	0	0	0	0	0	0	0	0	0	0	0	0	0	0	0	0	0	0	0	0	0.000000000
1504279688.261626958	0.00460194	0.776194	-0.81301	0.00920388	0.78233	-1.61221	0.0076699	0	0	0	0	0	0	0	0	0	0	0	0	0	0	0.000000000	0	0	0	0	0	0	0	0	0	0	0	0	0	0	0	0	0	0	0	0	0	0.000000000
1504279688.281579971	0.00460194	0.776194	-0.81301	0.00920388	0.78233	-1.61221	0.0076699	0	0	0	0	0	0	0	0	0	0	0	0	0	0	0.000000000	0	0	0	0	0	0	0	0	0	0	0	0	0	0	0	0	0	0	0	0	0	0.000000000
1504279688.304631948	0.00460194	0.776194	-0.81301	0.00920388	0.785398	-1.61221	0.0076699	0	0	0	0	0	0	0	0	0	0	0	0	0	0	0.000000000	0	0	0	0	0	0	0	0	0	0	0	0	0	0	0	0	0	0	0	0	0	0.000000000
1504279688.321525096	0.00460194	0.776194	-0.81301	0.00920388	0.785398	-1.61221	0.0076699	0	0	0	0	0	0	0	0	0	0	0	0	0	0	0.000000000	0	0	0	0	0	0	0	0	0	0	0	0	0	0	0	0	0	0	0	0	0	0.000000000
1504279688.342448949	0.00460194	0.776194	-0.81301	0.00920388	0.785398	-1.61221	0.0076699	0	0	0	0	0	0	0	0	0	0	0	0	0	0	0.000000000	0	0	0	0	0	0	0	0	0	0	0	0	0	0	0	0	0	0	0	0	0	0.000000000
1504279688.362394094	0.00460194	0.776194	-0.81301	0.00920388	0.785398	-1.61221	0.0076699	0	0	0	0	0	0	0	0	0	0	0	0	0	0	0.000000000	0	0	0	0	0	0	0	0	0	0	0	0	0	0	0	0	0	0	0	0	0	0.000000000
1504279688.381366968	0.00460194	0.776194	-0.81301	0.00920388	0.785398	-1.61221	0.0076699	0	0	0	0	0	0	0	0	0	0	0	0	0	0	0.000000000	0	0	0	0	0	0	0	0	0	0	0	0	0	0	0	0	0	0	0	0	0	0.000000000
1504279688.401037931	0.00460194	0.776194	-0.81301	0.00920388	0.78233	-1.61221	0.0076699	0	0	0	0	0	0	0	0	0	0	0	0	0	0	0.000000000	0	0	0	0	0	0	0	0	0	0	0	0	0	0	0	0	0	0	0	0	0	0.000000000
1504279688.421075105	0.00460194	0.776194	-0.81301	0.00920388	0.785398	-1.61221	0.0076699	0	0	0	0	0	0	0	0	0	0	0	0	0	0	0.000000000	0	0	0	0	0	0	0	0	0	0	0	0	0	0	0	0	0	0	0	0	0	0.000000000
1504279688.441370010	0.00460194	0.776194	-0.81301	0.00920388	0.785398	-1.61221	0.0076699	0	0	0	0	0	0	0	0	0	0	0	0	0	0	0.000000000	0	0	0	0	0	0	0	0	0	0	0	0	0	0	0	0	0	0	0	0	0	0.000000000
1504279688.461523056	0.00460194	0.776194	-0.81301	0.00920388	0.785398	-1.61221	0.0076699	0	0	0	0	0	0	0	0	0	0	0	0	0	0	0.000000000	0	0	0	0	0	0	0	0	0	0	0	0	0	0	0	0	0	0	0	0	0	0.000000000
1504279688.485096931	0.00460194	0.776194	-0.81301	0.00920388	0.785398	-1.61221	0.0076699	0	0	0	0	0	0	0	0	0	0	0	0	0	0	0.000000000	0	0	0	0	0	0	0	0	0	0	0	0	0	0	0	0	0	0	0	0	0	0.000000000
1504279688.501420021	0.00460194	0.776194	-0.81301	0.00920388	0.785398	-1.61221	0.0076699	0	0	0	0	0	0	0	0	0	0	0	0	0	0	0.000000000	0	0	0	0	0	0	0	0	0	0	0	0	0	0	0	0	0	0	0	0	0	0.000000000
1504279688.521864891	0.00460194	0.776194	-0.81301	0.00920388	0.785398	-1.61221	0.0076699	0	0	0	0	0	0	0	0	0	0	0	0	0	0	0.000000000	0	0	0	0	0	0	0	0	0	0	0	0	0	0	0	0	0	0	0	0	0	0.000000000
1504279688.541368961	0.00460194	0.776194	-0.81301	0.00920388	0.78233	-1.61221	0.0076699	0	0	0	0	0	0	0	0	0	0	0	0	0	0	0.000000000	0	0	0	0	0	0	0	0	0	0	0	0	0	0	0	0	0	0	0	0	0	0.000000000
1504279688.563920974	0.00460194	0.776194	-0.81301	0.00920388	0.78233	-1.61221	0.0076699	0	0	0	0	0	0	0	0	0	0	0	0	0	0	0.000000000	0	0	0	0	0	0	0	0	0	0	0	0	0	0	0	0	0	0	0	0	0	0.000000000
1504279688.583422899	0.00460194	0.776194	-0.81301	0.00920388	0.78233	-1.61221	0.0076699	0	0	0	0	0	0	0	0	0	0	0	0	0	0	0.000000000	0	0	0	0	0	0	0	0	0	0	0	0	0	0	0	0	0	0	0	0	0	0.000000000
1504279688.602591991	0.00460194	0.776194	-0.81301	0.00920388	0.785398	-1.61221	0.0076699	0	0	0	0	0	0	0	0	0	0	0	0	0	0	0.000000000	0	0	0	0	0	0	0	0	0	0	0	0	0	0	0	0	0	0	0	0	0	0.000000000
1504279688.621146917	0.00460194	0.776194	-0.81301	0.00920388	0.785398	-1.61221	0.0076699	0	0	0	0	0	0	0	0	0	0	0	0	0	0	0.000000000	0	0	0	0	0	0	0	0	0	0	0	0	0	0	0	0	0	0	0	0	0	0.000000000
1504279688.640949010	0.00460194	0.776194	-0.81301	0.00920388	0.78233	-1.61221	0.0076699	0	0	0	0	0	0	0	0	0	0	0	0	0	0	0.000000000	0	0	0	0	0	0	0	0	0	0	0	0	0	0	0	0	0	0	0	0	0	0.000000000
1504279688.661020994	0.00460194	0.776194	-0.81301	0.00920388	0.78233	-1.61221	0.0076699	0	0	0	0	0	0	0	0	0	0	0	0	0	0	0.000000000	0	0	0	0	0	0	0	0	0	0	0	0	0	0	0	0	0	0	0	0	0	0.000000000
1504279688.680999994	0.00460194	0.776194	-0.81301	0.00920388	0.78233	-1.61221	0.00920388	0	0	0	0	0	0	0	0	0	0	0	0	0	0	0.000000000	0	0	0	0	0	0	0	0	0	0	0	0	0	0	0	0	0	0	0	0	0	0.000000000
1504279688.700978994	0.00460194	0.776194	-0.81301	0.00920388	0.78233	-1.61221	0.0076699	0	0	0	0	0	0	0	0	0	0	0	0	0	0	0.000000000	0	0	0	0	0	0	0	0	0	0	0	0	0	0	0	0	0	0	0	0	0	0.000000000
1504279688.721115112	0.00460194	0.776194	-0.81301	0.00920388	0.78233	-1.61221	0.0076699	0	0	0	0	0	0	0	0	0	0	0	0	0	0	0.000000000	0	0	0	0	0	0	0	0	0	0	0	0	0	0	0	0	0	0	0	0	0	0.000000000
1504279688.741120100	0.00460194	0.776194	-0.81301	0.00920388	0.78233	-1.61221	0.0076699	0	0	0	0	0	0	0	0	0	0	0	0	0	0	0.000000000	0	0	0	0	0	0	0	0	0	0	0	0	0	0	0	0	0	0	0	0	0	0.000000000
1504279688.760983943	0.00460194	0.776194	-0.81301	0.00920388	0.78233	-1.61221	0.0076699	0	0	0	0	0	0	0	0	0	0	0	0	0	0	0.000000000	0	0	0	0	0	0	0	0	0	0	0	0	0	0	0	0	0	0	0	0	0	0.000000000
1504279688.780981063	0.00460194	0.776194	-0.81301	0.00920388	0.785398	-1.61221	0.0076699	0	0	0	0	0	0	0	0	0	0	0	0	0	0	0.000000000	0	0	0	0	0	0	0	0	0	0	0	0	0	0	0	0	0	0	0	0	0	0.000000000
1504279688.801008939	0.00460194	0.776194	-0.81301	0.00920388	0.785398	-1.61221	0.0076699	0	0	0	0	0	0	0	0	0	0	0	0	0	0	0.000000000	0	0	0	0	0	0	0	0	0	0	0	0	0	0	0	0	0	0	0	0	0	0.000000000
1504279688.821253061	0.00460194	0.776194	-0.81301	0.00920388	0.785398	-1.61221	0.0076699	0	0	0	0	0	0	0	0	0	0	0	0	0	0	0.000000000	0	0	0	0	0	0	0	0	0	0	0	0	0	0	0	0	0	0	0	0	0	0.000000000
1504279688.841316938	0.00460194	0.776194	-0.81301	0.00920388	0.785398	-1.61221	0.0076699	0	0	0	0	0	0	0	0	0	0	0	0	0	0	0.000000000	0	0	0	0	0	0	0	0	0	0	0	0	0	0	0	0	0	0	0	0	0	0.000000000
1504279688.861443996	0.00460194	0.776194	-0.81301	0.00920388	0.785398	-1.61221	0.0076699	0	0	0	0	0	0	0	0	0	0	0	0	0	0	0.000000000	0	0	0	0	0	0	0	0	0	0	0	0	0	0	0	0	0	0	0	0	0	0.000000000
1504279688.881402015	0.00460194	0.776194	-0.81301	0.00920388	0.785398	-1.61221	0.0076699	0	0	0	0	0	0	0	0	0	0	0	0	0	0	0.000000000	0	0	0	0	0	0	0	0	0	0	0	0	0	0	0	0	0	0	0	0	0	0.000000000
1504279688.902127981	0.00460194	0.777728	-0.81301	0.00920388	0.785398	-1.61221	0.0076699	0	0	0	0	0	0	0	0	0	0	0	0	0	0	0.000000000	0	0	0	0	0	0	0	0	0	0	0	0	0	0	0	0	0	0	0	0	0	0.000000000
1504279688.921215057	0.00460194	0.776194	-0.81301	0.00920388	0.785398	-1.61221	0.0076699	0	0	0	0	0	0	0	0	0	0	0	0	0	0	0.000000000	0	0	0	0	0	0	0	0	0	0	0	0	0	0	0	0	0	0	0	0	0	0.000000000
1504279688.941287994	0.00460194	0.776194	-0.81301	0.00920388	0.785398	-1.61221	0.0076699	0	0	0	0	0	0	0	0	0	0	0	0	0	0	0.000000000	0	0	0	0	0	0	0	0	0	0	0	0	0	0	0	0	0	0	0	0	0	0.000000000
1504279688.961357116	0.00460194	0.776194	-0.81301	0.00920388	0.785398	-1.61221	0.0076699	0	0	0	0	0	0	0	0	0	0	0	0	0	0	0.000000000	0	0	0	0	0	0	0	0	0	0	0	0	0	0	0	0	0	0	0	0	0	0.000000000
1504279688.981307983	0.00460194	0.776194	-0.81301	0.00920388	0.785398	-1.61221	0.0076699	0	0	0	0	0	0	0	0	0	0	0	0	0	0	0.000000000	0	0	0	0	0	0	0	0	0	0	0	0	0	0	0	0	0	0	0	0	0	0.000000000
1504279689.001252889	0.00460194	0.776194	-0.81301	0.00920388	0.78233	-1.61221	0.0076699	0	0	0	0	0	0	0	0	0	0	0	0	0	0	0.000000000	0	0	0	0	0	0	0	0	0	0	0	0	0	0	0	0	0	0	0	0	0	0.000000000
1504279689.022202968	0.00460194	0.776194	-0.81301	0.00920388	0.785398	-1.61221	0.0076699	0	0	0	0	0	0	0	0	0	0	0	0	0	0	0.000000000	0	0	0	0	0	0	0	0	0	0	0	0	0	0	0	0	0	0	0	0	0	0.000000000
1504279689.041460037	0.00460194	0.776194	-0.81301	0.00920388	0.785398	-1.61221	0.0076699	0	0	0	0	0	0	0	0	0	0	0	0	0	0	0.000000000	0	0	0	0	0	0	0	0	0	0	0	0	0	0	0	0	0	0	0	0	0	0.000000000
1504279689.061254024	0.00460194	0.776194	-0.81301	0.00920388	0.785398	-1.61221	0.0076699	0	0	0	0	0	0	0	0	0	0	0	0	0	0	0.000000000	0	0	0	0	0	0	0	0	0	0	0	0	0	0	0	0	0	0	0	0	0	0.000000000
1504279689.081584930	0.00460194	0.776194	-0.81301	0.00920388	0.785398	-1.61221	0.0076699	0	0	0	0	0	0	0	0	0	0	0	0	0	0	0.000000000	0	0	0	0	0	0	0	0	0	0	0	0	0	0	0	0	0	0	0	0	0	0.000000000
1504279689.101914882	0.00460194	0.776194	-0.81301	0.00920388	0.785398	-1.61221	0.0076699	0	0	0	0	0	0	0	0	0	0	0	0	0	0	0.000000000	0	0	0	0	0	0	0	0	0	0	0	0	0	0	0	0	0	0	0	0	0	0.000000000
1504279689.121412992	0.00460194	0.776194	-0.81301	0.00920388	0.785398	-1.61221	0.0076699	0	0	0	0	0	0	0	0	0	0	0	0	0	0	0.000000000	0	0	0	0	0	0	0	0	0	0	0	0	0	0	0	0	0	0	0	0	0	0.000000000
1504279689.141385078	0.00460194	0.776194	-0.81301	0.00920388	0.78233	-1.61221	0.0076699	0	0	0	0	0	0	0	0	0	0	0	0	0	0	0.000000000	0	0	0	0	0	0	0	0	0	0	0	0	0	0	0	0	0	0	0	0	0	0.000000000
1504279689.161473989	0.00460194	0.776194	-0.81301	0.00920388	0.785398	-1.61221	0.0076699	0	0	0	0	0	0	0	0	0	0	0	0	0	0	0.000000000	0	0	0	0	0	0	0	0	0	0	0	0	0	0	0	0	0	0	0	0	0	0.000000000
1504279689.181804895	0.00460194	0.776194	-0.81301	0.00920388	0.785398	-1.61221	0.0076699	0	0	0	0	0	0	0	0	0	0	0	0	0	0	0.000000000	0	0	0	0	0	0	0	0	0	0	0	0	0	0	0	0	0	0	0	0	0	0.000000000
1504279689.201437950	0.00460194	0.776194	-0.81301	0.00920388	0.78233	-1.61221	0.0076699	0	0	0	0	0	0	0	0	0	0	0	0	0	0	0.000000000	0	0	0	0	0	0	0	0	0	0	0	0	0	0	0	0	0	0	0	0	0	0.000000000
1504279689.222198963	0.00460194	0.776194	-0.81301	0.00920388	0.78233	-1.61221	0.0076699	0	0	0	0	0	0	0	0	0	0	0	0	0	0	0.000000000	0	0	0	0	0	0	0	0	0	0	0	0	0	0	0	0	0	0	0	0	0	0.000000000
1504279689.241508007	0.00460194	0.776194	-0.81301	0.00920388	0.785398	-1.61221	0.0076699	0	0	0	0	0	0	0	0	0	0	0	0	0	0	0.000000000	0	0	0	0	0	0	0	0	0	0	0	0	0	0	0	0	0	0	0	0	0	0.000000000
1504279689.261461973	0.00460194	0.776194	-0.81301	0.00920388	0.785398	-1.61221	0.0076699	0	0	0	0	0	0	0	0	0	0	0	0	0	0	0.000000000	0	0	0	0	0	0	0	0	0	0	0	0	0	0	0	0	0	0	0	0	0	0.000000000
1504279689.281694889	0.00460194	0.776194	-0.81301	0.00920388	0.785398	-1.61221	0.0076699	0	0	0	0	0	0	0	0	0	0	0	0	0	0	0.000000000	0	0	0	0	0	0	0	0	0	0	0	0	0	0	0	0	0	0	0	0	0	0.000000000
1504279689.302225112	0.00460194	0.776194	-0.81301	0.00920388	0.785398	-1.61221	0.0076699	0	0	0	0	0	0	0	0	0	0	0	0	0	0	0.000000000	0	0	0	0	0	0	0	0	0	0	0	0	0	0	0	0	0	0	0	0	0	0.000000000
1504279689.321391105	0.00460194	0.776194	-0.81301	0.00920388	0.785398	-1.61221	0.0076699	0	0	0	0	0	0	0	0	0	0	0	0	0	0	0.000000000	0	0	0	0	0	0	0	0	0	0	0	0	0	0	0	0	0	0	0	0	0	0.000000000
1504279689.341388940	0.00460194	0.776194	-0.81301	0.00920388	0.785398	-1.61221	0.0076699	0	0	0	0	0	0	0	0	0	0	0	0	0	0	0.000000000	0	0	0	0	0	0	0	0	0	0	0	0	0	0	0	0	0	0	0	0	0	0.000000000
1504279689.361526966	0.00460194	0.776194	-0.81301	0.00920388	0.785398	-1.61221	0.0076699	0	0	0	0	0	0	0	0	0	0	0	0	0	0	0.000000000	0	0	0	0	0	0	0	0	0	0	0	0	0	0	0	0	0	0	0	0	0	0.000000000
1504279689.381519079	0.00460194	0.776194	-0.81301	0.00920388	0.785398	-1.61221	0.0076699	0	0	0	0	0	0	0	0	0	0	0	0	0	0	0.000000000	0	0	0	0	0	0	0	0	0	0	0	0	0	0	0	0	0	0	0	0	0	0.000000000
1504279689.401838064	0.00460194	0.776194	-0.81301	0.00920388	0.78233	-1.61221	0.0076699	0	0	0	0	0	0	0	0	0	0	0	0	0	0	0.000000000	0	0	0	0	0	0	0	0	0	0	0	0	0	0	0	0	0	0	0	0	0	0.000000000
1504279689.423177003	0.00460194	0.776194	-0.81301	0.00920388	0.78233	-1.61221	0.0076699	0	0	0	0	0	0	0	0	0	0	0	0	0	0	0.000000000	0	0	0	0	0	0	0	0	0	0	0	0	0	0	0	0	0	0	0	0	0	0.000000000
1504279689.441389083	0.00460194	0.776194	-0.81301	0.00920388	0.78233	-1.61221	0.0076699	0	0	0	0	0	0	0	0	0	0	0	0	0	0	0.000000000	0	0	0	0	0	0	0	0	0	0	0	0	0	0	0	0	0	0	0	0	0	0.000000000
1504279689.461626052	0.00460194	0.776194	-0.81301	0.00920388	0.78233	-1.61221	0.0076699	0	0	0	0	0	0	0	0	0	0	0	0	0	0	0.000000000	0	0	0	0	0	0	0	0	0	0	0	0	0	0	0	0	0	0	0	0	0	0.000000000
1504279689.481230974	0.00460194	0.776194	-0.81301	0.00920388	0.78233	-1.61221	0.0076699	0	0	0	0	0	0	0	0	0	0	0	0	0	0	0.000000000	0	0	0	0	0	0	0	0	0	0	0	0	0	0	0	0	0	0	0	0	0	0.000000000
1504279689.501408100	0.00460194	0.776194	-0.81301	0.00920388	0.78233	-1.61221	0.0076699	0	0	0	0	0	0	0	0	0	0	0	0	0	0	0.000000000	0	0	0	0	0	0	0	0	0	0	0	0	0	0	0	0	0	0	0	0	0	0.000000000
1504279689.523854970	0.00460194	0.776194	-0.81301	0.00920388	0.78233	-1.61221	0.0076699	0	0	0	0	0	0	0	0	0	0	0	0	0	0	0.000000000	0	0	0	0	0	0	0	0	0	0	0	0	0	0	0	0	0	0	0	0	0	0.000000000
1504279689.541676998	0.00460194	0.776194	-0.81301	0.00920388	0.78233	-1.61221	0.0076699	0	0	0	0	0	0	0	0	0	0	0	0	0	0	0.000000000	0	0	0	0	0	0	0	0	0	0	0	0	0	0	0	0	0	0	0	0	0	0.000000000
1504279689.561475992	0.00460194	0.776194	-0.81301	0.00920388	0.785398	-1.61221	0.0076699	0	0	0	0	0	0	0	0	0	0	0	0	0	0	0.000000000	0	0	0	0	0	0	0	0	0	0	0	0	0	0	0	0	0	0	0	0	0	0.000000000
1504279689.581470966	0.00460194	0.776194	-0.81301	0.00920388	0.78233	-1.61221	0.0076699	0	0	0	0	0	0	0	0	0	0	0	0	0	0	0.000000000	0	0	0	0	0	0	0	0	0	0	0	0	0	0	0	0	0	0	0	0	0	0.000000000
1504279689.601996898	0.00460194	0.776194	-0.81301	0.00920388	0.785398	-1.61221	0.0076699	0	0	0	0	0	0	0	0	0	0	0	0	0	0	0.000000000	0	0	0	0	0	0	0	0	0	0	0	0	0	0	0	0	0	0	0	0	0	0.000000000
1504279689.622205972	0.00460194	0.776194	-0.81301	0.00920388	0.785398	-1.61221	0.0076699	0	0	0	0	0	0	0	0	0	0	0	0	0	0	0.000000000	0	0	0	0	0	0	0	0	0	0	0	0	0	0	0	0	0	0	0	0	0	0.000000000
1504279689.641448020	0.00460194	0.776194	-0.81301	0.00920388	0.78233	-1.61221	0.0076699	0	0	0	0	0	0	0	0	0	0	0	0	0	0	0.000000000	0	0	0	0	0	0	0	0	0	0	0	0	0	0	0	0	0	0	0	0	0	0.000000000
1504279689.661350965	0.00460194	0.776194	-0.81301	0.00920388	0.785398	-1.61221	0.0076699	0	0	0	0	0	0	0	0	0	0	0	0	0	0	0.000000000	0	0	0	0	0	0	0	0	0	0	0	0	0	0	0	0	0	0	0	0	0	0.000000000
1504279689.681582927	0.00460194	0.776194	-0.81301	0.00920388	0.785398	-1.61221	0.0076699	0	0	0	0	0	0	0	0	0	0	0	0	0	0	0.000000000	0	0	0	0	0	0	0	0	0	0	0	0	0	0	0	0	0	0	0	0	0	0.000000000
1504279689.702682018	0.00460194	0.776194	-0.81301	0.00920388	0.78233	-1.61221	0.0076699	0	0	0	0	0	0	0	0	0	0	0	0	0	0	0.000000000	0	0	0	0	0	0	0	0	0	0	0	0	0	0	0	0	0	0	0	0	0	0.000000000
1504279689.721563100	0.00460194	0.776194	-0.81301	0.00920388	0.78233	-1.61221	0.0076699	0	0	0	0	0	0	0	0	0	0	0	0	0	0	0.000000000	0	0	0	0	0	0	0	0	0	0	0	0	0	0	0	0	0	0	0	0	0	0.000000000
1504279689.742775917	0.00460194	0.776194	-0.81301	0.00920388	0.785398	-1.61221	0.0076699	0	0	0	0	0	0	0	0	0	0	0	0	0	0	0.000000000	0	0	0	0	0	0	0	0	0	0	0	0	0	0	0	0	0	0	0	0	0	0.000000000
1504279689.761540889	0.00460194	0.776194	-0.81301	0.00920388	0.785398	-1.61221	0.0076699	0	0	0	0	0	0	0	0	0	0	0	0	0	0	0.000000000	0	0	0	0	0	0	0	0	0	0	0	0	0	0	0	0	0	0	0	0	0	0.000000000
1504279689.783210039	0.00460194	0.776194	-0.81301	0.00920388	0.785398	-1.61221	0.0076699	0	0	0	0	0	0	0	0	0	0	0	0	0	0	0.000000000	0	0	0	0	0	0	0	0	0	0	0	0	0	0	0	0	0	0	0	0	0	0.000000000
1504279689.802627086	0.00460194	0.776194	-0.81301	0.00920388	0.785398	-1.61221	0.0076699	0	0	0	0	0	0	0	0	0	0	0	0	0	0	0.000000000	0	0	0	0	0	0	0	0	0	0	0	0	0	0	0	0	0	0	0	0	0	0.000000000
1504279689.823586940	0.00460194	0.776194	-0.81301	0.00920388	0.78233	-1.61221	0.0076699	0	0	0	0	0	0	0	0	0	0	0	0	0	0	0.000000000	0	0	0	0	0	0	0	0	0	0	0	0	0	0	0	0	0	0	0	0	0	0.000000000
1504279689.841583967	0.00460194	0.776194	-0.81301	0.00920388	0.78233	-1.61221	0.0076699	0	0	0	0	0	0	0	0	0	0	0	0	0	0	0.000000000	0	0	0	0	0	0	0	0	0	0	0	0	0	0	0	0	0	0	0	0	0	0.000000000
1504279689.863260030	0.00460194	0.776194	-0.81301	0.00920388	0.78233	-1.61221	0.0076699	0	0	0	0	0	0	0	0	0	0	0	0	0	0	0.000000000	0	0	0	0	0	0	0	0	0	0	0	0	0	0	0	0	0	0	0	0	0	0.000000000
1504279689.881444931	0.00460194	0.776194	-0.81301	0.00920388	0.78233	-1.61221	0.0076699	0	0	0	0	0	0	0	0	0	0	0	0	0	0	0.000000000	0	0	0	0	0	0	0	0	0	0	0	0	0	0	0	0	0	0	0	0	0	0.000000000
1504279689.904591083	0.00460194	0.776194	-0.81301	0.00920388	0.78233	-1.61221	0.0076699	0	0	0	0	0	0	0	0	0	0	0	0	0	0	0.000000000	0	0	0	0	0	0	0	0	0	0	0	0	0	0	0	0	0	0	0	0	0	0.000000000
1504279689.921468973	0.00460194	0.776194	-0.81301	0.00920388	0.785398	-1.61221	0.0076699	0	0	0	0	0	0	0	0	0	0	0	0	0	0	0.000000000	0	0	0	0	0	0	0	0	0	0	0	0	0	0	0	0	0	0	0	0	0	0.000000000
1504279689.944259881	0.00460194	0.776194	-0.81301	0.00920388	0.78233	-1.61221	0.0076699	0	0	0	0	0	0	0	0	0	0	0	0	0	0	0.000000000	0	0	0	0	0	0	0	0	0	0	0	0	0	0	0	0	0	0	0	0	0	0.000000000
1504279689.961388111	0.00460194	0.776194	-0.81301	0.00920388	0.78233	-1.61221	0.0076699	0	0	0	0	0	0	0	0	0	0	0	0	0	0	0.000000000	0	0	0	0	0	0	0	0	0	0	0	0	0	0	0	0	0	0	0	0	0	0.000000000
1504279689.981487035	0.00460194	0.776194	-0.81301	0.00920388	0.785398	-1.61221	0.0076699	0	0	0	0	0	0	0	0	0	0	0	0	0	0	0.000000000	0	0	0	0	0	0	0	0	0	0	0	0	0	0	0	0	0	0	0	0	0	0.000000000
1504279690.001569032	0.00460194	0.776194	-0.81301	0.00920388	0.785398	-1.61221	0.0076699	0	0	0	0	0	0	0	0	0	0	0	0	0	0	0.000000000	0	0	0	0	0	0	0	0	0	0	0	0	0	0	0	0	0	0	0	0	0	0.000000000
1504279690.022696018	0.00460194	0.776194	-0.81301	0.00920388	0.785398	-1.61221	0.0076699	0	0	0	0	0	0	0	0	0	0	0	0	0	0	0.000000000	0	0	0	0	0	0	0	0	0	0	0	0	0	0	0	0	0	0	0	0	0	0.000000000
1504279690.041639089	0.00460194	0.776194	-0.81301	0.00920388	0.78233	-1.61221	0.0076699	0	0	0	0	0	0	0	0	0	0	0	0	0	0	0.000000000	0	0	0	0	0	0	0	0	0	0	0	0	0	0	0	0	0	0	0	0	0	0.000000000
1504279690.061630010	0.00460194	0.776194	-0.81301	0.00920388	0.785398	-1.61221	0.0076699	0	0	0	0	0	0	0	0	0	0	0	0	0	0	0.000000000	0	0	0	0	0	0	0	0	0	0	0	0	0	0	0	0	0	0	0	0	0	0.000000000
1504279690.082093000	0.00460194	0.776194	-0.81301	0.00920388	0.785398	-1.61221	0.0076699	0	0	0	0	0	0	0	0	0	0	0	0	0	0	0.000000000	0	0	0	0	0	0	0	0	0	0	0	0	0	0	0	0	0	0	0	0	0	0.000000000
1504279690.101764917	0.00460194	0.776194	-0.81301	0.00920388	0.78233	-1.61221	0.0076699	0	0	0	0	0	0	0	0	0	0	0	0	0	0	0.000000000	0	0	0	0	0	0	0	0	0	0	0	0	0	0	0	0	0	0	0	0	0	0.000000000
1504279690.121324062	0.00460194	0.776194	-0.81301	0.00920388	0.78233	-1.61221	0.0076699	0	0	0	0	0	0	0	0	0	0	0	0	0	0	0.000000000	0	0	0	0	0	0	0	0	0	0	0	0	0	0	0	0	0	0	0	0	0	0.000000000
1504279690.141484975	0.00460194	0.776194	-0.81301	0.00920388	0.78233	-1.61221	0.0076699	0	0	0	0	0	0	0	0	0	0	0	0	0	0	0.000000000	0	0	0	0	0	0	0	0	0	0	0	0	0	0	0	0	0	0	0	0	0	0.000000000
1504279690.161724090	0.00460194	0.776194	-0.81301	0.00920388	0.78233	-1.61221	0.0076699	0	0	0	0	0	0	0	0	0	0	0	0	0	0	0.000000000	0	0	0	0	0	0	0	0	0	0	0	0	0	0	0	0	0	0	0	0	0	0.000000000
1504279690.181431055	0.00460194	0.776194	-0.81301	0.00920388	0.78233	-1.61221	0.0076699	0	0	0	0	0	0	0	0	0	0	0	0	0	0	0.000000000	0	0	0	0	0	0	0	0	0	0	0	0	0	0	0	0	0	0	0	0	0	0.000000000
1504279690.202157020	0.00460194	0.776194	-0.81301	0.00920388	0.785398	-1.61221	0.0076699	0	0	0	0	0	0	0	0	0	0	0	0	0	0	0.000000000	0	0	0	0	0	0	0	0	0	0	0	0	0	0	0	0	0	0	0	0	0	0.000000000
1504279690.222549915	0.00460194	0.776194	-0.81301	0.00920388	0.785398	-1.61221	0.0076699	0	0	0	0	0	0	0	0	0	0	0	0	0	0	0.000000000	0	0	0	0	0	0	0	0	0	0	0	0	0	0	0	0	0	0	0	0	0	0.000000000
1504279690.241496086	0.00460194	0.776194	-0.81301	0.00920388	0.785398	-1.61221	0.0076699	0	0	0	0	0	0	0	0	0	0	0	0	0	0	0.000000000	0	0	0	0	0	0	0	0	0	0	0	0	0	0	0	0	0	0	0	0	0	0.000000000
1504279690.262409925	0.00460194	0.776194	-0.81301	0.00920388	0.785398	-1.61221	0.0076699	0	0	0	0	0	0	0	0	0	0	0	0	0	0	0.000000000	0	0	0	0	0	0	0	0	0	0	0	0	0	0	0	0	0	0	0	0	0	0.000000000
1504279690.281677007	0.00460194	0.776194	-0.81301	0.00920388	0.785398	-1.61221	0.0076699	0	0	0	0	0	0	0	0	0	0	0	0	0	0	0.000000000	0	0	0	0	0	0	0	0	0	0	0	0	0	0	0	0	0	0	0	0	0	0.000000000
1504279690.302370071	0.00460194	0.776194	-0.81301	0.00920388	0.785398	-1.61221	0.0076699	0	0	0	0	0	0	0	0	0	0	0	0	0	0	0.000000000	0	0	0	0	0	0	0	0	0	0	0	0	0	0	0	0	0	0	0	0	0	0.000000000
1504279690.322021961	0.00460194	0.776194	-0.81301	0.00920388	0.785398	-1.61221	0.0076699	0	0	0	0	0	0	0	0	0	0	0	0	0	0	0.000000000	0	0	0	0	0	0	0	0	0	0	0	0	0	0	0	0	0	0	0	0	0	0.000000000
1504279690.341823101	0.00460194	0.776194	-0.81301	0.00920388	0.78233	-1.61221	0.0076699	0	0	0	0	0	0	0	0	0	0	0	0	0	0	0.000000000	0	0	0	0	0	0	0	0	0	0	0	0	0	0	0	0	0	0	0	0	0	0.000000000
1504279690.361215114	0.00460194	0.776194	-0.81301	0.00920388	0.78233	-1.61221	0.0076699	0	0	0	0	0	0	0	0	0	0	0	0	0	0	0.000000000	0	0	0	0	0	0	0	0	0	0	0	0	0	0	0	0	0	0	0	0	0	0.000000000
1504279690.382215976	0.00460194	0.776194	-0.81301	0.00920388	0.785398	-1.61221	0.0076699	0	0	0	0	0	0	0	0	0	0	0	0	0	0	0.000000000	0	0	0	0	0	0	0	0	0	0	0	0	0	0	0	0	0	0	0	0	0	0.000000000
1504279690.401947975	0.00460194	0.776194	-0.81301	0.00920388	0.78233	-1.61221	0.0076699	0	0	0	0	0	0	0	0	0	0	0	0	0	0	0.000000000	0	0	0	0	0	0	0	0	0	0	0	0	0	0	0	0	0	0	0	0	0	0.000000000
1504279690.422317028	0.00460194	0.776194	-0.81301	0.00920388	0.78233	-1.61221	0.0076699	0	0	0	0	0	0	0	0	0	0	0	0	0	0	0.000000000	0	0	0	0	0	0	0	0	0	0	0	0	0	0	0	0	0	0	0	0	0	0.000000000
1504279690.441375970	0.00460194	0.776194	-0.81301	0.00920388	0.78233	-1.61221	0.0076699	0	0	0	0	0	0	0	0	0	0	0	0	0	0	0.000000000	0	0	0	0	0	0	0	0	0	0	0	0	0	0	0	0	0	0	0	0	0	0.000000000
1504279690.461445093	0.00460194	0.776194	-0.81301	0.00920388	0.785398	-1.61221	0.0076699	0	0	0	0	0	0	0	0	0	0	0	0	0	0	0.000000000	0	0	0	0	0	0	0	0	0	0	0	0	0	0	0	0	0	0	0	0	0	0.000000000
1504279690.481364965	0.00460194	0.776194	-0.81301	0.00920388	0.785398	-1.61221	0.0076699	0	0	0	0	0	0	0	0	0	0	0	0	0	0	0.000000000	0	0	0	0	0	0	0	0	0	0	0	0	0	0	0	0	0	0	0	0	0	0.000000000
1504279690.503309011	0.00460194	0.776194	-0.81301	0.00920388	0.785398	-1.61221	0.0076699	0	0	0	0	0	0	0	0	0	0	0	0	0	0	0.000000000	0	0	0	0	0	0	0	0	0	0	0	0	0	0	0	0	0	0	0	0	0	0.000000000
1504279690.527829885	0.00460194	0.776194	-0.81301	0.00920388	0.785398	-1.61221	0.0076699	0	0	0	0	0	0	0	0	0	0	0	0	0	0	0.000000000	0	0	0	0	0	0	0	0	0	0	0	0	0	0	0	0	0	0	0	0	0	0.000000000
1504279690.542918920	0.00460194	0.776194	-0.81301	0.00920388	0.785398	-1.61221	0.0076699	0	0	0	0	0	0	0	0	0	0	0	0	0	0	0.000000000	0	0	0	0	0	0	0	0	0	0	0	0	0	0	0	0	0	0	0	0	0	0.000000000
1504279690.561328887	0.00460194	0.776194	-0.81301	0.00920388	0.785398	-1.61221	0.0076699	0	0	0	0	0	0	0	0	0	0	0	0	0	0	0.000000000	0	0	0	0	0	0	0	0	0	0	0	0	0	0	0	0	0	0	0	0	0	0.000000000
1504279690.584470987	0.00460194	0.776194	-0.81301	0.00920388	0.78233	-1.61221	0.0076699	0	0	0	0	0	0	0	0	0	0	0	0	0	0	0.000000000	0	0	0	0	0	0	0	0	0	0	0	0	0	0	0	0	0	0	0	0	0	0.000000000
1504279690.601347923	0.00460194	0.776194	-0.81301	0.00920388	0.78233	-1.61221	0.0076699	0	0	0	0	0	0	0	0	0	0	0	0	0	0	0.000000000	0	0	0	0	0	0	0	0	0	0	0	0	0	0	0	0	0	0	0	0	0	0.000000000
1504279690.626128911	0.00460194	0.776194	-0.81301	0.00920388	0.78233	-1.61221	0.0076699	0	0	0	0	0	0	0	0	0	0	0	0	0	0	0.000000000	0	0	0	0	0	0	0	0	0	0	0	0	0	0	0	0	0	0	0	0	0	0.000000000
1504279690.642160892	0.00460194	0.776194	-0.81301	0.00920388	0.785398	-1.61375	0.0076699	0	0	0	0	0	0	0	0	0	0	0	0	0	0	0.000000000	0	0	0	0	0	0	0	0	0	0	0	0	0	0	0	0	0	0	0	0	0	0.000000000
1504279690.661518096	0.00460194	0.776194	-0.81301	0.00920388	0.785398	-1.61221	0.0076699	0	0	0	0	0	0	0	0	0	0	0	0	0	0	0.000000000	0	0	0	0	0	0	0	0	0	0	0	0	0	0	0	0	0	0	0	0	0	0.000000000
1504279690.681535959	0.00460194	0.776194	-0.81301	0.00920388	0.785398	-1.61221	0.0076699	0	0	0	0	0	0	0	0	0	0	0	0	0	0	0.000000000	0	0	0	0	0	0	0	0	0	0	0	0	0	0	0	0	0	0	0	0	0	0.000000000
1504279690.702425003	0.00460194	0.776194	-0.81301	0.00920388	0.78233	-1.61221	0.0076699	0	0	0	0	0	0	0	0	0	0	0	0	0	0	0.000000000	0	0	0	0	0	0	0	0	0	0	0	0	0	0	0	0	0	0	0	0	0	0.000000000
1504279690.721237897	0.00460194	0.776194	-0.81301	0.00920388	0.78233	-1.61221	0.0076699	0	0	0	0	0	0	0	0	0	0	0	0	0	0	0.000000000	0	0	0	0	0	0	0	0	0	0	0	0	0	0	0	0	0	0	0	0	0	0.000000000
1504279690.741645097	0.00460194	0.776194	-0.81301	0.00920388	0.78233	-1.61221	0.0076699	0	0	0	0	0	0	0	0	0	0	0	0	0	0	0.000000000	0	0	0	0	0	0	0	0	0	0	0	0	0	0	0	0	0	0	0	0	0	0.000000000
1504279690.761406898	0.00460194	0.776194	-0.81301	0.00920388	0.785398	-1.61221	0.0076699	0	0	0	0	0	0	0	0	0	0	0	0	0	0	0.000000000	0	0	0	0	0	0	0	0	0	0	0	0	0	0	0	0	0	0	0	0	0	0.000000000
1504279690.783706903	0.00460194	0.776194	-0.81301	0.00920388	0.785398	-1.61375	0.0076699	0	0	0	0	0	0	0	0	0	0	0	0	0	0	0.000000000	0	0	0	0	0	0	0	0	0	0	0	0	0	0	0	0	0	0	0	0	0	0.000000000
1504279690.801632881	0.00460194	0.776194	-0.81301	0.00920388	0.785398	-1.61221	0.0076699	0	0	0	0	0	0	0	0	0	0	0	0	0	0	0.000000000	0	0	0	0	0	0	0	0	0	0	0	0	0	0	0	0	0	0	0	0	0	0.000000000
1504279690.822053909	0.00460194	0.776194	-0.81301	0.00920388	0.785398	-1.61221	0.0076699	0	0	0	0	0	0	0	0	0	0	0	0	0	0	0.000000000	0	0	0	0	0	0	0	0	0	0	0	0	0	0	0	0	0	0	0	0	0	0.000000000
1504279690.841542005	0.00460194	0.776194	-0.81301	0.00920388	0.785398	-1.61221	0.0076699	0	0	0	0	0	0	0	0	0	0	0	0	0	0	0.000000000	0	0	0	0	0	0	0	0	0	0	0	0	0	0	0	0	0	0	0	0	0	0.000000000
1504279690.861337900	0.00460194	0.776194	-0.81301	0.00920388	0.785398	-1.61221	0.0076699	0	0	0	0	0	0	0	0	0	0	0	0	0	0	0.000000000	0	0	0	0	0	0	0	0	0	0	0	0	0	0	0	0	0	0	0	0	0	0.000000000
1504279690.881340026	0.00460194	0.776194	-0.81301	0.00920388	0.78233	-1.61221	0.0076699	0	0	0	0	0	0	0	0	0	0	0	0	0	0	0.000000000	0	0	0	0	0	0	0	0	0	0	0	0	0	0	0	0	0	0	0	0	0	0.000000000
1504279690.902823925	0.00460194	0.776194	-0.81301	0.00920388	0.785398	-1.61221	0.0076699	0	0	0	0	0	0	0	0	0	0	0	0	0	0	0.000000000	0	0	0	0	0	0	0	0	0	0	0	0	0	0	0	0	0	0	0	0	0	0.000000000
1504279690.921782970	0.00460194	0.776194	-0.81301	0.00920388	0.78233	-1.61221	0.0076699	0	0	0	0	0	0	0	0	0	0	0	0	0	0	0.000000000	0	0	0	0	0	0	0	0	0	0	0	0	0	0	0	0	0	0	0	0	0	0.000000000
1504279690.941194057	0.00460194	0.776194	-0.81301	0.00920388	0.78233	-1.61221	0.0076699	0	0	0	0	0	0	0	0	0	0	0	0	0	0	0.000000000	0	0	0	0	0	0	0	0	0	0	0	0	0	0	0	0	0	0	0	0	0	0.000000000
1504279690.961834907	0.00460194	0.776194	-0.81301	0.00920388	0.785398	-1.61221	0.0076699	0	0	0	0	0	0	0	0	0	0	0	0	0	0	0.000000000	0	0	0	0	0	0	0	0	0	0	0	0	0	0	0	0	0	0	0	0	0	0.000000000
1504279690.981618881	0.00460194	0.776194	-0.81301	0.00920388	0.78233	-1.61221	0.0076699	0	0	0	0	0	0	0	0	0	0	0	0	0	0	0.000000000	0	0	0	0	0	0	0	0	0	0	0	0	0	0	0	0	0	0	0	0	0	0.000000000
1504279691.002815961	0.00460194	0.776194	-0.81301	0.00920388	0.785398	-1.61221	0.0076699	0	0	0	0	0	0	0	0	0	0	0	0	0	0	0.000000000	0	0	0	0	0	0	0	0	0	0	0	0	0	0	0	0	0	0	0	0	0	0.000000000
1504279691.021619081	0.00460194	0.776194	-0.81301	0.00920388	0.78233	-1.61375	0.0076699	0	0	0	0	0	0	0	0	0	0	0	0	0	0	0.000000000	0	0	0	0	0	0	0	0	0	0	0	0	0	0	0	0	0	0	0	0	0	0.000000000
1504279691.041558027	0.00460194	0.776194	-0.81301	0.00920388	0.78233	-1.61375	0.0076699	0	0	0	0	0	0	0	0	0	0	0	0	0	0	0.000000000	0	0	0	0	0	0	0	0	0	0	0	0	0	0	0	0	0	0	0	0	0	0.000000000
1504279691.061527967	0.00460194	0.776194	-0.81301	0.00920388	0.78233	-1.61221	0.0076699	0	0	0	0	0	0	0	0	0	0	0	0	0	0	0.000000000	0	0	0	0	0	0	0	0	0	0	0	0	0	0	0	0	0	0	0	0	0	0.000000000
1504279691.081631898	0.00460194	0.776194	-0.81301	0.00920388	0.785398	-1.61221	0.0076699	0	0	0	0	0	0	0	0	0	0	0	0	0	0	0.000000000	0	0	0	0	0	0	0	0	0	0	0	0	0	0	0	0	0	0	0	0	0	0.000000000
1504279691.101660966	0.00460194	0.776194	-0.81301	0.00920388	0.78233	-1.61221	0.0076699	0	0	0	0	0	0	0	0	0	0	0	0	0	0	0.000000000	0	0	0	0	0	0	0	0	0	0	0	0	0	0	0	0	0	0	0	0	0	0.000000000
1504279691.121304988	0.00460194	0.776194	-0.81301	0.00920388	0.78233	-1.61221	0.0076699	0	0	0	0	0	0	0	0	0	0	0	0	0	0	0.000000000	0	0	0	0	0	0	0	0	0	0	0	0	0	0	0	0	0	0	0	0	0	0.000000000
1504279691.141279935	0.00460194	0.776194	-0.81301	0.00920388	0.785398	-1.61221	0.0076699	0	0	0	0	0	0	0	0	0	0	0	0	0	0	0.000000000	0	0	0	0	0	0	0	0	0	0	0	0	0	0	0	0	0	0	0	0	0	0.000000000
1504279691.161425113	0.00460194	0.776194	-0.81301	0.00920388	0.78233	-1.61375	0.0076699	0	0	0	0	0	0	0	0	0	0	0	0	0	0	0.000000000	0	0	0	0	0	0	0	0	0	0	0	0	0	0	0	0	0	0	0	0	0	0.000000000
1504279691.181579113	0.00460194	0.776194	-0.81301	0.00920388	0.78233	-1.61221	0.0076699	0	0	0	0	0	0	0	0	0	0	0	0	0	0	0.000000000	0	0	0	0	0	0	0	0	0	0	0	0	0	0	0	0	0	0	0	0	0	0.000000000
1504279691.201611995	0.00460194	0.776194	-0.81301	0.00920388	0.785398	-1.61221	0.0076699	0	0	0	0	0	0	0	0	0	0	0	0	0	0	0.000000000	0	0	0	0	0	0	0	0	0	0	0	0	0	0	0	0	0	0	0	0	0	0.000000000
1504279691.221586942	0.00460194	0.776194	-0.81301	0.00920388	0.785398	-1.61221	0.0076699	0	0	0	0	0	0	0	0	0	0	0	0	0	0	0.000000000	0	0	0	0	0	0	0	0	0	0	0	0	0	0	0	0	0	0	0	0	0	0.000000000
1504279691.241573095	0.00460194	0.776194	-0.81301	0.00920388	0.785398	-1.61221	0.0076699	0	0	0	0	0	0	0	0	0	0	0	0	0	0	0.000000000	0	0	0	0	0	0	0	0	0	0	0	0	0	0	0	0	0	0	0	0	0	0.000000000
1504279691.261277914	0.00460194	0.776194	-0.81301	0.00920388	0.785398	-1.61221	0.0076699	0	0	0	0	0	0	0	0	0	0	0	0	0	0	0.000000000	0	0	0	0	0	0	0	0	0	0	0	0	0	0	0	0	0	0	0	0	0	0.000000000
1504279691.281471967	0.00460194	0.776194	-0.81301	0.00920388	0.78233	-1.61221	0.0076699	0	0	0	0	0	0	0	0	0	0	0	0	0	0	0.000000000	0	0	0	0	0	0	0	0	0	0	0	0	0	0	0	0	0	0	0	0	0	0.000000000
1504279691.301800966	0.00460194	0.776194	-0.81301	0.00920388	0.78233	-1.61221	0.0076699	0	0	0	0	0	0	0	0	0	0	0	0	0	0	0.000000000	0	0	0	0	0	0	0	0	0	0	0	0	0	0	0	0	0	0	0	0	0	0.000000000
1504279691.323934078	0.00460194	0.776194	-0.81301	0.00920388	0.785398	-1.61221	0.0076699	0	0	0	0	0	0	0	0	0	0	0	0	0	0	0.000000000	0	0	0	0	0	0	0	0	0	0	0	0	0	0	0	0	0	0	0	0	0	0.000000000
1504279691.341419935	0.00460194	0.776194	-0.81301	0.00920388	0.785398	-1.61221	0.0076699	0	0	0	0	0	0	0	0	0	0	0	0	0	0	0.000000000	0	0	0	0	0	0	0	0	0	0	0	0	0	0	0	0	0	0	0	0	0	0.000000000
1504279691.361934900	0.00460194	0.776194	-0.81301	0.00920388	0.78233	-1.61221	0.0076699	0	0	0	0	0	0	0	0	0	0	0	0	0	0	0.000000000	0	0	0	0	0	0	0	0	0	0	0	0	0	0	0	0	0	0	0	0	0	0.000000000
1504279691.381458044	0.00460194	0.776194	-0.81301	0.00920388	0.78233	-1.61221	0.0076699	0	0	0	0	0	0	0	0	0	0	0	0	0	0	0.000000000	0	0	0	0	0	0	0	0	0	0	0	0	0	0	0	0	0	0	0	0	0	0.000000000
1504279691.401442050	0.00460194	0.776194	-0.81301	0.00920388	0.785398	-1.61221	0.0076699	0	0	0	0	0	0	0	0	0	0	0	0	0	0	0.000000000	0	0	0	0	0	0	0	0	0	0	0	0	0	0	0	0	0	0	0	0	0	0.000000000
1504279691.423163890	0.00460194	0.776194	-0.81301	0.00920388	0.78233	-1.61221	0.0076699	0	0	0	0	0	0	0	0	0	0	0	0	0	0	0.000000000	0	0	0	0	0	0	0	0	0	0	0	0	0	0	0	0	0	0	0	0	0	0.000000000
1504279691.441423892	0.00460194	0.776194	-0.81301	0.00920388	0.78233	-1.61221	0.0076699	0	0	0	0	0	0	0	0	0	0	0	0	0	0	0.000000000	0	0	0	0	0	0	0	0	0	0	0	0	0	0	0	0	0	0	0	0	0	0.000000000
1504279691.461429119	0.00460194	0.776194	-0.81301	0.00920388	0.785398	-1.61221	0.0076699	0	0	0	0	0	0	0	0	0	0	0	0	0	0	0.000000000	0	0	0	0	0	0	0	0	0	0	0	0	0	0	0	0	0	0	0	0	0	0.000000000
1504279691.481379032	0.00460194	0.776194	-0.811476	0.00920388	0.785398	-1.61221	0.0076699	0	0	0	0	0	0	0	0	0	0	0	0	0	0	0.000000000	0	0	0	0	0	0	0	0	0	0	0	0	0	0	0	0	0	0	0	0	0	0.000000000
1504279691.501446008	0.00460194	0.776194	-0.81301	0.00920388	0.78233	-1.61221	0.0076699	0	0	0	0	0	0	0	0	0	0	0	0	0	0	0.000000000	0	0	0	0	0	0	0	0	0	0	0	0	0	0	0	0	0	0	0	0	0	0.000000000
1504279691.521249055	0.00460194	0.776194	-0.81301	0.00920388	0.78233	-1.61221	0.0076699	0	0	0	0	0	0	0	0	0	0	0	0	0	0	0.000000000	0	0	0	0	0	0	0	0	0	0	0	0	0	0	0	0	0	0	0	0	0	0.000000000
1504279691.541999101	0.00306796	0.776194	-0.81301	0.00920388	0.785398	-1.61375	0.0076699	0	0	0	0	0	0	0	0	0	0	0	0	0	0	0.000000000	0	0	0	0	0	0	0	0	0	0	0	0	0	0	0	0	0	0	0	0	0	0.000000000
1504279691.561232089	0.00460194	0.776194	-0.81301	0.00920388	0.78233	-1.61221	0.0076699	0	0	0	0	0	0	0	0	0	0	0	0	0	0	0.000000000	0	0	0	0	0	0	0	0	0	0	0	0	0	0	0	0	0	0	0	0	0	0.000000000
1504279691.581415891	0.00460194	0.776194	-0.81301	0.00920388	0.785398	-1.61221	0.0076699	0	0	0	0	0	0	0	0	0	0	0	0	0	0	0.000000000	0	0	0	0	0	0	0	0	0	0	0	0	0	0	0	0	0	0	0	0	0	0.000000000
1504279691.602034091	0.00460194	0.776194	-0.81301	0.00920388	0.785398	-1.61221	0.0076699	0	0	0	0	0	0	0	0	0	0	0	0	0	0	0.000000000	0	0	0	0	0	0	0	0	0	0	0	0	0	0	0	0	0	0	0	0	0	0.000000000
1504279691.622217893	0.00460194	0.776194	-0.81301	0.00920388	0.785398	-1.61221	0.0076699	0	0	0	0	0	0	0	0	0	0	0	0	0	0	0.000000000	0	0	0	0	0	0	0	0	0	0	0	0	0	0	0	0	0	0	0	0	0	0.000000000
1504279691.641498088	0.00460194	0.776194	-0.81301	0.00920388	0.785398	-1.61221	0.0076699	0	0	0	0	0	0	0	0	0	0	0	0	0	0	0.000000000	0	0	0	0	0	0	0	0	0	0	0	0	0	0	0	0	0	0	0	0	0	0.000000000
1504279691.661259889	0.00460194	0.776194	-0.81301	0.00920388	0.785398	-1.61221	0.0076699	0	0	0	0	0	0	0	0	0	0	0	0	0	0	0.000000000	0	0	0	0	0	0	0	0	0	0	0	0	0	0	0	0	0	0	0	0	0	0.000000000
1504279691.681401968	0.00460194	0.776194	-0.81301	0.00920388	0.785398	-1.61221	0.0076699	0	0	0	0	0	0	0	0	0	0	0	0	0	0	0.000000000	0	0	0	0	0	0	0	0	0	0	0	0	0	0	0	0	0	0	0	0	0	0.000000000
1504279691.701581954	0.00460194	0.776194	-0.81301	0.00920388	0.785398	-1.61221	0.0076699	0	0	0	0	0	0	0	0	0	0	0	0	0	0	0.000000000	0	0	0	0	0	0	0	0	0	0	0	0	0	0	0	0	0	0	0	0	0	0.000000000
1504279691.722152948	0.00460194	0.776194	-0.81301	0.00920388	0.785398	-1.61221	0.0076699	0	0	0	0	0	0	0	0	0	0	0	0	0	0	0.000000000	0	0	0	0	0	0	0	0	0	0	0	0	0	0	0	0	0	0	0	0	0	0.000000000
1504279691.741509914	0.00460194	0.776194	-0.81301	0.00920388	0.78233	-1.61221	0.0076699	0	0	0	0	0	0	0	0	0	0	0	0	0	0	0.000000000	0	0	0	0	0	0	0	0	0	0	0	0	0	0	0	0	0	0	0	0	0	0.000000000
1504279691.761605024	0.00460194	0.776194	-0.81301	0.00920388	0.78233	-1.61221	0.0076699	0	0	0	0	0	0	0	0	0	0	0	0	0	0	0.000000000	0	0	0	0	0	0	0	0	0	0	0	0	0	0	0	0	0	0	0	0	0	0.000000000
1504279691.782543897	0.00460194	0.776194	-0.81301	0.00920388	0.78233	-1.61221	0.0076699	0	0	0	0	0	0	0	0	0	0	0	0	0	0	0.000000000	0	0	0	0	0	0	0	0	0	0	0	0	0	0	0	0	0	0	0	0	0	0.000000000
1504279691.801579952	0.00460194	0.776194	-0.81301	0.00920388	0.785398	-1.61221	0.0076699	0	0	0	0	0	0	0	0	0	0	0	0	0	0	0.000000000	0	0	0	0	0	0	0	0	0	0	0	0	0	0	0	0	0	0	0	0	0	0.000000000
1504279691.827966928	0.00460194	0.776194	-0.81301	0.00920388	0.78233	-1.61221	0.0076699	0	0	0	0	0	0	0	0	0	0	0	0	0	0	0.000000000	0	0	0	0	0	0	0	0	0	0	0	0	0	0	0	0	0	0	0	0	0	0.000000000
1504279691.841474056	0.00460194	0.776194	-0.81301	0.00920388	0.78233	-1.61221	0.0076699	0	0	0	0	0	0	0	0	0	0	0	0	0	0	0.000000000	0	0	0	0	0	0	0	0	0	0	0	0	0	0	0	0	0	0	0	0	0	0.000000000
1504279691.861370086	0.00460194	0.776194	-0.81301	0.00920388	0.78233	-1.61221	0.0076699	0	0	0	0	0	0	0	0	0	0	0	0	0	0	0.000000000	0	0	0	0	0	0	0	0	0	0	0	0	0	0	0	0	0	0	0	0	0	0.000000000
1504279691.881310939	0.00460194	0.776194	-0.81301	0.0107379	0.785398	-1.61221	0.0076699	0	0	0	0	0	0	0	0	0	0	0	0	0	0	0.000000000	0	0	0	0	0	0	0	0	0	0	0	0	0	0	0	0	0	0	0	0	0	0.000000000
1504279691.902182102	0.00460194	0.776194	-0.81301	0.00920388	0.785398	-1.61221	0.0076699	0	0	0	0	0	0	0	0	0	0	0	0	0	0	0.000000000	0	0	0	0	0	0	0	0	0	0	0	0	0	0	0	0	0	0	0	0	0	0.000000000
1504279691.921407938	0.00460194	0.776194	-0.81301	0.00920388	0.785398	-1.61221	0.0076699	0	0	0	0	0	0	0	0	0	0	0	0	0	0	0.000000000	0	0	0	0	0	0	0	0	0	0	0	0	0	0	0	0	0	0	0	0	0	0.000000000
1504279691.941531896	0.00460194	0.776194	-0.81301	0.00920388	0.785398	-1.61221	0.0076699	0	0	0	0	0	0	0	0	0	0	0	0	0	0	0.000000000	0	0	0	0	0	0	0	0	0	0	0	0	0	0	0	0	0	0	0	0	0	0.000000000
1504279691.961318969	0.00460194	0.776194	-0.81301	0.00920388	0.785398	-1.61221	0.0076699	0	0	0	0	0	0	0	0	0	0	0	0	0	0	0.000000000	0	0	0	0	0	0	0	0	0	0	0	0	0	0	0	0	0	0	0	0	0	0.000000000
1504279691.981656074	0.00460194	0.776194	-0.81301	0.00920388	0.785398	-1.61221	0.0076699	0	0	0	0	0	0	0	0	0	0	0	0	0	0	0.000000000	0	0	0	0	0	0	0	0	0	0	0	0	0	0	0	0	0	0	0	0	0	0.000000000
1504279692.002312898	0.00460194	0.776194	-0.81301	0.00920388	0.78233	-1.61221	0.0076699	0	0	0	0	0	0	0	0	0	0	0	0	0	0	0.000000000	0	0	0	0	0	0	0	0	0	0	0	0	0	0	0	0	0	0	0	0	0	0.000000000
1504279692.021338939	0.00460194	0.776194	-0.81301	0.00920388	0.78233	-1.61221	0.0076699	0	0	0	0	0	0	0	0	0	0	0	0	0	0	0.000000000	0	0	0	0	0	0	0	0	0	0	0	0	0	0	0	0	0	0	0	0	0	0.000000000
1504279692.041649103	0.00460194	0.776194	-0.81301	0.00920388	0.78233	-1.61221	0.0076699	0	0	0	0	0	0	0	0	0	0	0	0	0	0	0.000000000	0	0	0	0	0	0	0	0	0	0	0	0	0	0	0	0	0	0	0	0	0	0.000000000
1504279692.061757087	0.00460194	0.776194	-0.81301	0.00920388	0.785398	-1.61221	0.0076699	0	0	0	0	0	0	0	0	0	0	0	0	0	0	0.000000000	0	0	0	0	0	0	0	0	0	0	0	0	0	0	0	0	0	0	0	0	0	0.000000000
1504279692.082218885	0.00460194	0.776194	-0.81301	0.00920388	0.785398	-1.61221	0.0076699	0	0	0	0	0	0	0	0	0	0	0	0	0	0	0.000000000	0	0	0	0	0	0	0	0	0	0	0	0	0	0	0	0	0	0	0	0	0	0.000000000
1504279692.102051019	0.00460194	0.776194	-0.81301	0.00920388	0.785398	-1.61221	0.0076699	0	0	0	0	0	0	0	0	0	0	0	0	0	0	0.000000000	0	0	0	0	0	0	0	0	0	0	0	0	0	0	0	0	0	0	0	0	0	0.000000000
1504279692.121445894	0.00460194	0.776194	-0.81301	0.00920388	0.78233	-1.61221	0.0076699	0	0	0	0	0	0	0	0	0	0	0	0	0	0	0.000000000	0	0	0	0	0	0	0	0	0	0	0	0	0	0	0	0	0	0	0	0	0	0.000000000
1504279692.141710996	0.00460194	0.776194	-0.81301	0.00920388	0.78233	-1.61221	0.0076699	0	0	0	0	0	0	0	0	0	0	0	0	0	0	0.000000000	0	0	0	0	0	0	0	0	0	0	0	0	0	0	0	0	0	0	0	0	0	0.000000000
1504279692.161238908	0.00460194	0.776194	-0.81301	0.00920388	0.78233	-1.61221	0.0076699	0	0	0	0	0	0	0	0	0	0	0	0	0	0	0.000000000	0	0	0	0	0	0	0	0	0	0	0	0	0	0	0	0	0	0	0	0	0	0.000000000
1504279692.181260108	0.00460194	0.776194	-0.81301	0.00920388	0.785398	-1.61221	0.0076699	0	0	0	0	0	0	0	0	0	0	0	0	0	0	0.000000000	0	0	0	0	0	0	0	0	0	0	0	0	0	0	0	0	0	0	0	0	0	0.000000000
1504279692.201373100	0.00460194	0.776194	-0.81301	0.00920388	0.78233	-1.61221	0.0076699	0	0	0	0	0	0	0	0	0	0	0	0	0	0	0.000000000	0	0	0	0	0	0	0	0	0	0	0	0	0	0	0	0	0	0	0	0	0	0.000000000
1504279692.221250057	0.00460194	0.776194	-0.81301	0.00920388	0.78233	-1.61221	0.0076699	0	0	0	0	0	0	0	0	0	0	0	0	0	0	0.000000000	0	0	0	0	0	0	0	0	0	0	0	0	0	0	0	0	0	0	0	0	0	0.000000000
1504279692.241600990	0.00460194	0.776194	-0.81301	0.00920388	0.78233	-1.61221	0.0076699	0	0	0	0	0	0	0	0	0	0	0	0	0	0	0.000000000	0	0	0	0	0	0	0	0	0	0	0	0	0	0	0	0	0	0	0	0	0	0.000000000
1504279692.262228965	0.00460194	0.776194	-0.81301	0.00920388	0.785398	-1.61221	0.0076699	0	0	0	0	0	0	0	0	0	0	0	0	0	0	0.000000000	0	0	0	0	0	0	0	0	0	0	0	0	0	0	0	0	0	0	0	0	0	0.000000000
1504279692.281416893	0.00460194	0.776194	-0.81301	0.00920388	0.78233	-1.61221	0.0076699	0	0	0	0	0	0	0	0	0	0	0	0	0	0	0.000000000	0	0	0	0	0	0	0	0	0	0	0	0	0	0	0	0	0	0	0	0	0	0.000000000
1504279692.301556110	0.00460194	0.776194	-0.81301	0.00920388	0.78233	-1.61221	0.0076699	0	0	0	0	0	0	0	0	0	0	0	0	0	0	0.000000000	0	0	0	0	0	0	0	0	0	0	0	0	0	0	0	0	0	0	0	0	0	0.000000000
1504279692.321455001	0.00460194	0.776194	-0.81301	0.00920388	0.78233	-1.61221	0.0076699	0	0	0	0	0	0	0	0	0	0	0	0	0	0	0.000000000	0	0	0	0	0	0	0	0	0	0	0	0	0	0	0	0	0	0	0	0	0	0.000000000
1504279692.341639041	0.00460194	0.776194	-0.81301	0.00920388	0.785398	-1.61221	0.0076699	0	0	0	0	0	0	0	0	0	0	0	0	0	0	0.000000000	0	0	0	0	0	0	0	0	0	0	0	0	0	0	0	0	0	0	0	0	0	0.000000000
1504279692.361444950	0.00460194	0.776194	-0.81301	0.00920388	0.78233	-1.61221	0.0076699	0	0	0	0	0	0	0	0	0	0	0	0	0	0	0.000000000	0	0	0	0	0	0	0	0	0	0	0	0	0	0	0	0	0	0	0	0	0	0.000000000
1504279692.384120941	0.00460194	0.776194	-0.81301	0.00920388	0.78233	-1.61221	0.0076699	0	0	0	0	0	0	0	0	0	0	0	0	0	0	0.000000000	0	0	0	0	0	0	0	0	0	0	0	0	0	0	0	0	0	0	0	0	0	0.000000000
1504279692.402736902	0.00460194	0.776194	-0.81301	0.00920388	0.785398	-1.61221	0.0076699	0	0	0	0	0	0	0	0	0	0	0	0	0	0	0.000000000	0	0	0	0	0	0	0	0	0	0	0	0	0	0	0	0	0	0	0	0	0	0.000000000
1504279692.422271013	0.00460194	0.776194	-0.81301	0.00920388	0.785398	-1.61221	0.0076699	0	0	0	0	0	0	0	0	0	0	0	0	0	0	0.000000000	0	0	0	0	0	0	0	0	0	0	0	0	0	0	0	0	0	0	0	0	0	0.000000000
1504279692.441332101	0.00460194	0.776194	-0.81301	0.00920388	0.785398	-1.61221	0.0076699	0	0	0	0	0	0	0	0	0	0	0	0	0	0	0.000000000	0	0	0	0	0	0	0	0	0	0	0	0	0	0	0	0	0	0	0	0	0	0.000000000
1504279692.461450099	0.00460194	0.776194	-0.81301	0.00920388	0.785398	-1.61221	0.0076699	0	0	0	0	0	0	0	0	0	0	0	0	0	0	0.000000000	0	0	0	0	0	0	0	0	0	0	0	0	0	0	0	0	0	0	0	0	0	0.000000000
1504279692.481805086	0.00460194	0.776194	-0.81301	0.00920388	0.78233	-1.61221	0.0076699	0	0	0	0	0	0	0	0	0	0	0	0	0	0	0.000000000	0	0	0	0	0	0	0	0	0	0	0	0	0	0	0	0	0	0	0	0	0	0.000000000
1504279692.503068923	0.00460194	0.776194	-0.81301	0.00920388	0.78233	-1.61221	0.0076699	0	0	0	0	0	0	0	0	0	0	0	0	0	0	0.000000000	0	0	0	0	0	0	0	0	0	0	0	0	0	0	0	0	0	0	0	0	0	0.000000000
1504279692.523318052	0.00460194	0.776194	-0.81301	0.00920388	0.78233	-1.61221	0.0076699	0	0	0	0	0	0	0	0	0	0	0	0	0	0	0.000000000	0	0	0	0	0	0	0	0	0	0	0	0	0	0	0	0	0	0	0	0	0	0.000000000
1504279692.541883945	0.00460194	0.776194	-0.81301	0.00920388	0.78233	-1.61221	0.0076699	0	0	0	0	0	0	0	0	0	0	0	0	0	0	0.000000000	0	0	0	0	0	0	0	0	0	0	0	0	0	0	0	0	0	0	0	0	0	0.000000000
1504279692.561579942	0.00460194	0.776194	-0.81301	0.00920388	0.785398	-1.61221	0.0076699	0	0	0	0	0	0	0	0	0	0	0	0	0	0	0.000000000	0	0	0	0	0	0	0	0	0	0	0	0	0	0	0	0	0	0	0	0	0	0.000000000
1504279692.581537961	0.00460194	0.776194	-0.81301	0.00920388	0.78233	-1.61221	0.0076699	0	0	0	0	0	0	0	0	0	0	0	0	0	0	0.000000000	0	0	0	0	0	0	0	0	0	0	0	0	0	0	0	0	0	0	0	0	0	0.000000000
1504279692.601413011	0.00460194	0.776194	-0.81301	0.00920388	0.785398	-1.61221	0.0076699	0	0	0	0	0	0	0	0	0	0	0	0	0	0	0.000000000	0	0	0	0	0	0	0	0	0	0	0	0	0	0	0	0	0	0	0	0	0	0.000000000
1504279692.621757984	0.00460194	0.776194	-0.81301	0.00920388	0.785398	-1.61221	0.0076699	0	0	0	0	0	0	0	0	0	0	0	0	0	0	0.000000000	0	0	0	0	0	0	0	0	0	0	0	0	0	0	0	0	0	0	0	0	0	0.000000000
1504279692.641345024	0.00460194	0.776194	-0.81301	0.00920388	0.785398	-1.61221	0.0076699	0	0	0	0	0	0	0	0	0	0	0	0	0	0	0.000000000	0	0	0	0	0	0	0	0	0	0	0	0	0	0	0	0	0	0	0	0	0	0.000000000
1504279692.661514997	0.00460194	0.776194	-0.81301	0.00920388	0.785398	-1.61375	0.0076699	0	0	0	0	0	0	0	0	0	0	0	0	0	0	0.000000000	0	0	0	0	0	0	0	0	0	0	0	0	0	0	0	0	0	0	0	0	0	0.000000000
1504279692.681473970	0.00460194	0.776194	-0.81301	0.00920388	0.785398	-1.61221	0.0076699	0	0	0	0	0	0	0	0	0	0	0	0	0	0	0.000000000	0	0	0	0	0	0	0	0	0	0	0	0	0	0	0	0	0	0	0	0	0	0.000000000
1504279692.703164100	0.00460194	0.776194	-0.81301	0.00920388	0.78233	-1.61221	0.0076699	0	0	0	0	0	0	0	0	0	0	0	0	0	0	0.000000000	0	0	0	0	0	0	0	0	0	0	0	0	0	0	0	0	0	0	0	0	0	0.000000000
1504279692.722115993	0.00460194	0.776194	-0.81301	0.00920388	0.78233	-1.61221	0.0076699	0	0	0	0	0	0	0	0	0	0	0	0	0	0	0.000000000	0	0	0	0	0	0	0	0	0	0	0	0	0	0	0	0	0	0	0	0	0	0.000000000
1504279692.742871046	0.00460194	0.776194	-0.81301	0.00920388	0.78233	-1.61221	0.0076699	0	0	0	0	0	0	0	0	0	0	0	0	0	0	0.000000000	0	0	0	0	0	0	0	0	0	0	0	0	0	0	0	0	0	0	0	0	0	0.000000000
1504279692.761317968	0.00460194	0.776194	-0.81301	0.00920388	0.785398	-1.61221	0.0076699	0	0	0	0	0	0	0	0	0	0	0	0	0	0	0.000000000	0	0	0	0	0	0	0	0	0	0	0	0	0	0	0	0	0	0	0	0	0	0.000000000
1504279692.781286954	0.00460194	0.776194	-0.81301	0.00920388	0.785398	-1.61221	0.0076699	0	0	0	0	0	0	0	0	0	0	0	0	0	0	0.000000000	0	0	0	0	0	0	0	0	0	0	0	0	0	0	0	0	0	0	0	0	0	0.000000000
1504279692.803196907	0.00460194	0.776194	-0.81301	0.00920388	0.785398	-1.61375	0.0076699	0	0	0	0	0	0	0	0	0	0	0	0	0	0	0.000000000	0	0	0	0	0	0	0	0	0	0	0	0	0	0	0	0	0	0	0	0	0	0.000000000
1504279692.823205947	0.00460194	0.776194	-0.81301	0.00920388	0.785398	-1.61375	0.0076699	0	0	0	0	0	0	0	0	0	0	0	0	0	0	0.000000000	0	0	0	0	0	0	0	0	0	0	0	0	0	0	0	0	0	0	0	0	0	0.000000000
1504279692.841456890	0.00460194	0.776194	-0.81301	0.00920388	0.785398	-1.61221	0.0076699	0	0	0	0	0	0	0	0	0	0	0	0	0	0	0.000000000	0	0	0	0	0	0	0	0	0	0	0	0	0	0	0	0	0	0	0	0	0	0.000000000
1504279692.861599922	0.00460194	0.776194	-0.81301	0.00920388	0.785398	-1.61221	0.0076699	0	0	0	0	0	0	0	0	0	0	0	0	0	0	0.000000000	0	0	0	0	0	0	0	0	0	0	0	0	0	0	0	0	0	0	0	0	0	0.000000000
1504279692.881598949	0.00460194	0.776194	-0.81301	0.00920388	0.785398	-1.61221	0.0076699	0	0	0	0	0	0	0	0	0	0	0	0	0	0	0.000000000	0	0	0	0	0	0	0	0	0	0	0	0	0	0	0	0	0	0	0	0	0	0.000000000
1504279692.902206897	0.00460194	0.776194	-0.81301	0.00920388	0.785398	-1.61221	0.0076699	0	0	0	0	0	0	0	0	0	0	0	0	0	0	0.000000000	0	0	0	0	0	0	0	0	0	0	0	0	0	0	0	0	0	0	0	0	0	0.000000000
1504279692.921838045	0.00460194	0.776194	-0.81301	0.00920388	0.78233	-1.61221	0.0076699	0	0	0	0	0	0	0	0	0	0	0	0	0	0	0.000000000	0	0	0	0	0	0	0	0	0	0	0	0	0	0	0	0	0	0	0	0	0	0.000000000
1504279692.941746950	0.00460194	0.776194	-0.81301	0.00920388	0.78233	-1.61221	0.0076699	0	0	0	0	0	0	0	0	0	0	0	0	0	0	0.000000000	0	0	0	0	0	0	0	0	0	0	0	0	0	0	0	0	0	0	0	0	0	0.000000000
1504279692.961236953	0.00460194	0.776194	-0.81301	0.00920388	0.785398	-1.61221	0.0076699	0	0	0	0	0	0	0	0	0	0	0	0	0	0	0.000000000	0	0	0	0	0	0	0	0	0	0	0	0	0	0	0	0	0	0	0	0	0	0.000000000
1504279692.981507062	0.00460194	0.776194	-0.81301	0.00920388	0.78233	-1.61221	0.0076699	0	0	0	0	0	0	0	0	0	0	0	0	0	0	0.000000000	0	0	0	0	0	0	0	0	0	0	0	0	0	0	0	0	0	0	0	0	0	0.000000000
1504279693.002229928	0.00460194	0.776194	-0.81301	0.00920388	0.785398	-1.61221	0.0076699	0	0	0	0	0	0	0	0	0	0	0	0	0	0	0.000000000	0	0	0	0	0	0	0	0	0	0	0	0	0	0	0	0	0	0	0	0	0	0.000000000
1504279693.021421909	0.00460194	0.776194	-0.81301	0.00920388	0.78233	-1.61221	0.0076699	0	0	0	0	0	0	0	0	0	0	0	0	0	0	0.000000000	0	0	0	0	0	0	0	0	0	0	0	0	0	0	0	0	0	0	0	0	0	0.000000000
1504279693.041583061	0.00460194	0.776194	-0.81301	0.00920388	0.78233	-1.61221	0.0076699	0	0	0	0	0	0	0	0	0	0	0	0	0	0	0.000000000	0	0	0	0	0	0	0	0	0	0	0	0	0	0	0	0	0	0	0	0	0	0.000000000
1504279693.061542987	0.00460194	0.776194	-0.81301	0.00920388	0.785398	-1.61221	0.0076699	0	0	0	0	0	0	0	0	0	0	0	0	0	0	0.000000000	0	0	0	0	0	0	0	0	0	0	0	0	0	0	0	0	0	0	0	0	0	0.000000000
1504279693.081518888	0.00460194	0.776194	-0.81301	0.00920388	0.785398	-1.61221	0.0076699	0	0	0	0	0	0	0	0	0	0	0	0	0	0	0.000000000	0	0	0	0	0	0	0	0	0	0	0	0	0	0	0	0	0	0	0	0	0	0.000000000
1504279693.101284980	0.00460194	0.776194	-0.81301	0.00920388	0.78233	-1.61221	0.0076699	0	0	0	0	0	0	0	0	0	0	0	0	0	0	0.000000000	0	0	0	0	0	0	0	0	0	0	0	0	0	0	0	0	0	0	0	0	0	0.000000000
1504279693.121727943	0.00460194	0.776194	-0.81301	0.00920388	0.78233	-1.61221	0.0076699	0	0	0	0	0	0	0	0	0	0	0	0	0	0	0.000000000	0	0	0	0	0	0	0	0	0	0	0	0	0	0	0	0	0	0	0	0	0	0.000000000
1504279693.143238067	0.00460194	0.776194	-0.81301	0.00920388	0.78233	-1.61221	0.0076699	0	0	0	0	0	0	0	0	0	0	0	0	0	0	0.000000000	0	0	0	0	0	0	0	0	0	0	0	0	0	0	0	0	0	0	0	0	0	0.000000000
1504279693.161474943	0.00460194	0.776194	-0.81301	0.00920388	0.78233	-1.61221	0.0076699	0	0	0	0	0	0	0	0	0	0	0	0	0	0	0.000000000	0	0	0	0	0	0	0	0	0	0	0	0	0	0	0	0	0	0	0	0	0	0.000000000
1504279693.182041883	0.00460194	0.776194	-0.81301	0.00920388	0.78233	-1.61221	0.0076699	0	0	0	0	0	0	0	0	0	0	0	0	0	0	0.000000000	0	0	0	0	0	0	0	0	0	0	0	0	0	0	0	0	0	0	0	0	0	0.000000000
1504279693.202030897	0.00460194	0.776194	-0.81301	0.00920388	0.785398	-1.61221	0.0076699	0	0	0	0	0	0	0	0	0	0	0	0	0	0	0.000000000	0	0	0	0	0	0	0	0	0	0	0	0	0	0	0	0	0	0	0	0	0	0.000000000
1504279693.221266984	0.00460194	0.776194	-0.81301	0.00920388	0.785398	-1.61221	0.0076699	0	0	0	0	0	0	0	0	0	0	0	0	0	0	0.000000000	0	0	0	0	0	0	0	0	0	0	0	0	0	0	0	0	0	0	0	0	0	0.000000000
1504279693.241334915	0.00460194	0.776194	-0.81301	0.00920388	0.785398	-1.61221	0.0076699	0	0	0	0	0	0	0	0	0	0	0	0	0	0	0.000000000	0	0	0	0	0	0	0	0	0	0	0	0	0	0	0	0	0	0	0	0	0	0.000000000
1504279693.262304067	0.00460194	0.776194	-0.81301	0.00920388	0.78233	-1.61221	0.0076699	0	0	0	0	0	0	0	0	0	0	0	0	0	0	0.000000000	0	0	0	0	0	0	0	0	0	0	0	0	0	0	0	0	0	0	0	0	0	0.000000000
1504279693.281579017	0.00460194	0.776194	-0.81301	0.00920388	0.785398	-1.61221	0.0076699	0	0	0	0	0	0	0	0	0	0	0	0	0	0	0.000000000	0	0	0	0	0	0	0	0	0	0	0	0	0	0	0	0	0	0	0	0	0	0.000000000
1504279693.301404953	0.00460194	0.776194	-0.81301	0.00920388	0.785398	-1.61221	0.0076699	0	0	0	0	0	0	0	0	0	0	0	0	0	0	0.000000000	0	0	0	0	0	0	0	0	0	0	0	0	0	0	0	0	0	0	0	0	0	0.000000000
1504279693.321422100	0.00460194	0.776194	-0.81301	0.00920388	0.78233	-1.61221	0.0076699	0	0	0	0	0	0	0	0	0	0	0	0	0	0	0.000000000	0	0	0	0	0	0	0	0	0	0	0	0	0	0	0	0	0	0	0	0	0	0.000000000
1504279693.341938972	0.00460194	0.776194	-0.81301	0.00920388	0.78233	-1.61221	0.0076699	0	0	0	0	0	0	0	0	0	0	0	0	0	0	0.000000000	0	0	0	0	0	0	0	0	0	0	0	0	0	0	0	0	0	0	0	0	0	0.000000000
1504279693.361294031	0.00460194	0.776194	-0.81301	0.00920388	0.785398	-1.61221	0.0076699	0	0	0	0	0	0	0	0	0	0	0	0	0	0	0.000000000	0	0	0	0	0	0	0	0	0	0	0	0	0	0	0	0	0	0	0	0	0	0.000000000
1504279693.384138107	0.00460194	0.776194	-0.81301	0.00920388	0.785398	-1.61221	0.0076699	0	0	0	0	0	0	0	0	0	0	0	0	0	0	0.000000000	0	0	0	0	0	0	0	0	0	0	0	0	0	0	0	0	0	0	0	0	0	0.000000000
1504279693.401892900	0.00460194	0.776194	-0.81301	0.00920388	0.785398	-1.61221	0.0076699	0	0	0	0	0	0	0	0	0	0	0	0	0	0	0.000000000	0	0	0	0	0	0	0	0	0	0	0	0	0	0	0	0	0	0	0	0	0	0.000000000
1504279693.421224117	0.00460194	0.776194	-0.81301	0.00920388	0.785398	-1.61221	0.0076699	0	0	0	0	0	0	0	0	0	0	0	0	0	0	0.000000000	0	0	0	0	0	0	0	0	0	0	0	0	0	0	0	0	0	0	0	0	0	0.000000000
1504279693.442423105	0.00460194	0.776194	-0.81301	0.00920388	0.78233	-1.61221	0.0076699	0	0	0	0	0	0	0	0	0	0	0	0	0	0	0.000000000	0	0	0	0	0	0	0	0	0	0	0	0	0	0	0	0	0	0	0	0	0	0.000000000
1504279693.461644887	0.00460194	0.776194	-0.81301	0.00920388	0.78233	-1.61221	0.0076699	0	0	0	0	0	0	0	0	0	0	0	0	0	0	0.000000000	0	0	0	0	0	0	0	0	0	0	0	0	0	0	0	0	0	0	0	0	0	0.000000000
1504279693.481545925	0.00460194	0.776194	-0.81301	0.00920388	0.785398	-1.61221	0.0076699	0	0	0	0	0	0	0	0	0	0	0	0	0	0	0.000000000	0	0	0	0	0	0	0	0	0	0	0	0	0	0	0	0	0	0	0	0	0	0.000000000
1504279693.501698970	0.00460194	0.776194	-0.81301	0.00920388	0.785398	-1.61221	0.0076699	0	0	0	0	0	0	0	0	0	0	0	0	0	0	0.000000000	0	0	0	0	0	0	0	0	0	0	0	0	0	0	0	0	0	0	0	0	0	0.000000000
1504279693.523123979	0.00460194	0.776194	-0.81301	0.00920388	0.785398	-1.61221	0.0076699	0	0	0	0	0	0	0	0	0	0	0	0	0	0	0.000000000	0	0	0	0	0	0	0	0	0	0	0	0	0	0	0	0	0	0	0	0	0	0.000000000
1504279693.542229890	0.00460194	0.776194	-0.81301	0.00920388	0.785398	-1.61221	0.0076699	0	0	0	0	0	0	0	0	0	0	0	0	0	0	0.000000000	0	0	0	0	0	0	0	0	0	0	0	0	0	0	0	0	0	0	0	0	0	0.000000000
1504279693.561373949	0.00460194	0.776194	-0.81301	0.00920388	0.785398	-1.61221	0.0076699	0	0	0	0	0	0	0	0	0	0	0	0	0	0	0.000000000	0	0	0	0	0	0	0	0	0	0	0	0	0	0	0	0	0	0	0	0	0	0.000000000
1504279693.582591056	0.00460194	0.776194	-0.81301	0.00920388	0.78233	-1.61221	0.0076699	0	0	0	0	0	0	0	0	0	0	0	0	0	0	0.000000000	0	0	0	0	0	0	0	0	0	0	0	0	0	0	0	0	0	0	0	0	0	0.000000000
1504279693.601898908	0.00460194	0.776194	-0.81301	0.00920388	0.785398	-1.61375	0.0076699	0	0	0	0	0	0	0	0	0	0	0	0	0	0	0.000000000	0	0	0	0	0	0	0	0	0	0	0	0	0	0	0	0	0	0	0	0	0	0.000000000
1504279693.623511075	0.00460194	0.776194	-0.81301	0.00920388	0.785398	-1.61375	0.0076699	0	0	0	0	0	0	0	0	0	0	0	0	0	0	0.000000000	0	0	0	0	0	0	0	0	0	0	0	0	0	0	0	0	0	0	0	0	0	0.000000000
1504279693.641727924	0.00460194	0.776194	-0.81301	0.00920388	0.785398	-1.61221	0.00920388	0	0	0	0	0	0	0	0	0	0	0	0	0	0	0.000000000	0	0	0	0	0	0	0	0	0	0	0	0	0	0	0	0	0	0	0	0	0	0.000000000
1504279693.661506891	0.00460194	0.776194	-0.81301	0.00920388	0.785398	-1.61221	0.0076699	0	0	0	0	0	0	0	0	0	0	0	0	0	0	0.000000000	0	0	0	0	0	0	0	0	0	0	0	0	0	0	0	0	0	0	0	0	0	0.000000000
1504279693.681655883	0.00460194	0.776194	-0.81301	0.00920388	0.78233	-1.61221	0.0076699	0	0	0	0	0	0	0	0	0	0	0	0	0	0	0.000000000	0	0	0	0	0	0	0	0	0	0	0	0	0	0	0	0	0	0	0	0	0	0.000000000
1504279693.701921939	0.00460194	0.776194	-0.81301	0.00920388	0.785398	-1.61221	0.0076699	0	0	0	0	0	0	0	0	0	0	0	0	0	0	0.000000000	0	0	0	0	0	0	0	0	0	0	0	0	0	0	0	0	0	0	0	0	0	0.000000000
1504279693.721463918	0.00460194	0.776194	-0.81301	0.00920388	0.78233	-1.61221	0.0076699	0	0	0	0	0	0	0	0	0	0	0	0	0	0	0.000000000	0	0	0	0	0	0	0	0	0	0	0	0	0	0	0	0	0	0	0	0	0	0.000000000
1504279693.742250919	0.00460194	0.776194	-0.81301	0.00920388	0.78233	-1.61221	0.0076699	0	0	0	0	0	0	0	0	0	0	0	0	0	0	0.000000000	0	0	0	0	0	0	0	0	0	0	0	0	0	0	0	0	0	0	0	0	0	0.000000000
1504279693.761492967	0.00460194	0.776194	-0.81301	0.00920388	0.78233	-1.61221	0.0076699	0	0	0	0	0	0	0	0	0	0	0	0	0	0	0.000000000	0	0	0	0	0	0	0	0	0	0	0	0	0	0	0	0	0	0	0	0	0	0.000000000
1504279693.781234979	0.00460194	0.776194	-0.81301	0.00920388	0.785398	-1.61375	0.0076699	0	0	0	0	0	0	0	0	0	0	0	0	0	0	0.000000000	0	0	0	0	0	0	0	0	0	0	0	0	0	0	0	0	0	0	0	0	0	0.000000000
1504279693.804260969	0.00460194	0.776194	-0.81301	0.00920388	0.785398	-1.61221	0.0076699	0	0	0	0	0	0	0	0	0	0	0	0	0	0	0.000000000	0	0	0	0	0	0	0	0	0	0	0	0	0	0	0	0	0	0	0	0	0	0.000000000
1504279693.823559999	0.00460194	0.776194	-0.81301	0.00920388	0.785398	-1.61221	0.0076699	0	0	0	0	0	0	0	0	0	0	0	0	0	0	0.000000000	0	0	0	0	0	0	0	0	0	0	0	0	0	0	0	0	0	0	0	0	0	0.000000000
1504279693.841569900	0.00460194	0.776194	-0.81301	0.00920388	0.78233	-1.61221	0.0076699	0	0	0	0	0	0	0	0	0	0	0	0	0	0	0.000000000	0	0	0	0	0	0	0	0	0	0	0	0	0	0	0	0	0	0	0	0	0	0.000000000
1504279693.861613035	0.00460194	0.776194	-0.81301	0.00920388	0.785398	-1.61221	0.0076699	0	0	0	0	0	0	0	0	0	0	0	0	0	0	0.000000000	0	0	0	0	0	0	0	0	0	0	0	0	0	0	0	0	0	0	0	0	0	0.000000000
1504279693.881544113	0.00460194	0.776194	-0.81301	0.00920388	0.785398	-1.61221	0.0076699	0	0	0	0	0	0	0	0	0	0	0	0	0	0	0.000000000	0	0	0	0	0	0	0	0	0	0	0	0	0	0	0	0	0	0	0	0	0	0.000000000
1504279693.903492927	0.00460194	0.776194	-0.81301	0.00920388	0.785398	-1.61221	0.0076699	0	0	0	0	0	0	0	0	0	0	0	0	0	0	0.000000000	0	0	0	0	0	0	0	0	0	0	0	0	0	0	0	0	0	0	0	0	0	0.000000000
1504279693.922626018	0.00460194	0.777728	-0.81301	0.00920388	0.78233	-1.61221	0.0076699	0	0	0	0	0	0	0	0	0	0	0	0	0	0	0.000000000	0	0	0	0	0	0	0	0	0	0	0	0	0	0	0	0	0	0	0	0	0	0.000000000
1504279693.941293001	0.00460194	0.777728	-0.81301	0.00920388	0.78233	-1.61221	0.0076699	0	0	0	0	0	0	0	0	0	0	0	0	0	0	0.000000000	0	0	0	0	0	0	0	0	0	0	0	0	0	0	0	0	0	0	0	0	0	0.000000000
1504279693.961599111	0.00460194	0.776194	-0.81301	0.00920388	0.78233	-1.61221	0.0076699	0	0	0	0	0	0	0	0	0	0	0	0	0	0	0.000000000	0	0	0	0	0	0	0	0	0	0	0	0	0	0	0	0	0	0	0	0	0	0.000000000
1504279693.981704950	0.00460194	0.776194	-0.81301	0.00920388	0.785398	-1.61221	0.0076699	0	0	0	0	0	0	0	0	0	0	0	0	0	0	0.000000000	0	0	0	0	0	0	0	0	0	0	0	0	0	0	0	0	0	0	0	0	0	0.000000000
1504279694.001303911	0.00460194	0.776194	-0.81301	0.00920388	0.78233	-1.61221	0.0076699	0	0	0	0	0	0	0	0	0	0	0	0	0	0	0.000000000	0	0	0	0	0	0	0	0	0	0	0	0	0	0	0	0	0	0	0	0	0	0.000000000
1504279694.021971940	0.00460194	0.777728	-0.81301	0.00920388	0.78233	-1.61221	0.0076699	0	0	0	0	0	0	0	0	0	0	0	0	0	0	0.000000000	0	0	0	0	0	0	0	0	0	0	0	0	0	0	0	0	0	0	0	0	0	0.000000000
