DingWan/Reconbot3Ddemo/02_MATLAB_Code/sensors_data/encoders_data.txt
time_stamp	actual_pos_joint_4	actual_pos_joint_5	actual_pos_joint_3	actual_pos_joint_1	actual_pos_joint_2	actual_pos_joint_6	actual_vel_joint_4	actual_vel_joint_5	actual_vel_joint_3	actual_vel_joint_1	actual_vel_joint_2	actual_vel_joint_6	actual_acc_joint_4	actual_acc_joint_5	actual_acc_joint_3	actual_acc_joint_1	actual_acc_joint_2	actual_acc_joint_6	actual_time_from_start	desired_pos_joint_4	desired_pos_joint_5	desired_pos_joint_3	desired_pos_joint_1	desired_pos_joint_2	desired_pos_joint_6	desired_vel_joint_4	desired_vel_joint_5	desired_vel_joint_3	desired_vel_joint_1	desired_vel_joint_2	desired_vel_joint_6	desired_acc_joint_4	desired_acc_joint_5	desired_acc_joint_3	desired_acc_joint_1	desired_acc_joint_2	desired_acc_joint_6	desired_time_from_start
1504015795.637953996	-0.0076699	0.77466	-0.811476	-0.00613592	0.788466	-1.60915	0	0	0	0	0	0	0	0	0	0	0	0	0.000000000	-1.9984e-15	0.788798	-0.788798	1.80411e-16	0.828698	-1.5708	0.1	0.1	0.1	0.1	0.1	0.1	0	0	0	0	0	0	0.000000000
1504015795.657919883	-0.0076699	0.77466	-0.811476	-0.00613592	0.788466	-1.60915	0	0	0	0	0	0	0	0	0	0	0	0	0.000000000	-1.9984e-15	0.788798	-0.788798	1.80411e-16	0.828698	-1.5708	0.1	0.1	0.1	0.1	0.1	0.1	0	0	0	0	0	0	0.000000000
1504015795.677936077	-0.0076699	0.77466	-0.811476	-0.00613592	0.79	-1.60915	0	0	0	0	0	0	0	0	0	0	0	0	0.000000000	-1.9984e-15	0.788798	-0.788798	1.80411e-16	0.828698	-1.5708	0.1	0.1	0.1	0.1	0.1	0.1	0	0	0	0	0	0	0.000000000
1504015795.697952032	-0.0076699	0.77466	-0.811476	-0.00613592	0.788466	-1.60915	0	0	0	0	0	0	0	0	0	0	0	0	0.000000000	-1.9984e-15	0.788798	-0.788798	1.80411e-16	0.828698	-1.5708	0.1	0.1	0.1	0.1	0.1	0.1	0	0	0	0	0	0	0.000000000
1504015795.717940092	-0.0076699	0.77466	-0.811476	-0.00613592	0.79	-1.60915	0	0	0	0	0	0	0	0	0	0	0	0	0.000000000	-1.9984e-15	0.788798	-0.788798	1.80411e-16	0.828698	-1.5708	0.1	0.1	0.1	0.1	0.1	0.1	0	0	0	0	0	0	0.000000000
1504015795.737920999	-0.0076699	0.77466	-0.811476	-0.00613592	0.79	-1.60915	0	0	0	0	0	0	0	0	0	0	0	0	0.000000000	-1.9984e-15	0.788798	-0.788798	1.80411e-16	0.828698	-1.5708	0.1	0.1	0.1	0.1	0.1	0.1	0	0	0	0	0	0	0.000000000
1504015795.757915973	-0.0076699	0.77466	-0.811476	-0.00613592	0.79	-1.60915	0	0	0	0	0	0	0	0	0	0	0	0	0.000000000	-1.9984e-15	0.788798	-0.788798	1.80411e-16	0.828698	-1.5708	0.1	0.1	0.1	0.1	0.1	0.1	0	0	0	0	0	0	0.000000000
1504015795.777935981	-0.0076699	0.776194	-0.811476	-0.00613592	0.788466	-1.60915	0	0	0	0	0	0	0	0	0	0	0	0	0.000000000	-1.9984e-15	0.788798	-0.788798	1.80411e-16	0.828698	-1.5708	0.1	0.1	0.1	0.1	0.1	0.1	0	0	0	0	0	0	0.000000000
1504015795.797920942	-0.0076699	0.77466	-0.811476	-0.00613592	0.788466	-1.60915	0	0	0	0	0	0	0	0	0	0	0	0	0.000000000	-1.9984e-15	0.788798	-0.788798	1.80411e-16	0.828698	-1.5708	0.1	0.1	0.1	0.1	0.1	0.1	0	0	0	0	0	0	0.000000000
1504015795.817953109	-0.0076699	0.77466	-0.811476	-0.00613592	0.788466	-1.60915	0	0	0	0	0	0	0	0	0	0	0	0	0.000000000	-1.9984e-15	0.788798	-0.788798	1.80411e-16	0.828698	-1.5708	0.1	0.1	0.1	0.1	0.1	0.1	0	0	0	0	0	0	0.000000000
1504015795.837918996	-0.0076699	0.77466	-0.811476	-0.00613592	0.788466	-1.60915	0	0	0	0	0	0	0	0	0	0	0	0	0.000000000	-1.9984e-15	0.788798	-0.788798	1.80411e-16	0.828698	-1.5708	0.1	0.1	0.1	0.1	0.1	0.1	0	0	0	0	0	0	0.000000000
1504015795.857917070	-0.0076699	0.77466	-0.811476	-0.00613592	0.788466	-1.60915	0	0	0	0	0	0	0	0	0	0	0	0	0.000000000	-1.9984e-15	0.788798	-0.788798	1.80411e-16	0.828698	-1.5708	0.1	0.1	0.1	0.1	0.1	0.1	0	0	0	0	0	0	0.000000000
1504015795.877954006	-0.0076699	0.77466	-0.811476	-0.00613592	0.79	-1.60915	0	0	0	0	0	0	0	0	0	0	0	0	0.000000000	-1.9984e-15	0.788798	-0.788798	1.80411e-16	0.828698	-1.5708	0.1	0.1	0.1	0.1	0.1	0.1	0	0	0	0	0	0	0.000000000
1504015795.897922992	-0.0076699	0.77466	-0.811476	-0.00613592	0.79	-1.60915	0	0	0	0	0	0	0	0	0	0	0	0	0.000000000	-1.9984e-15	0.788798	-0.788798	1.80411e-16	0.828698	-1.5708	0.1	0.1	0.1	0.1	0.1	0.1	0	0	0	0	0	0	0.000000000
1504015795.917964935	-0.0076699	0.776194	-0.811476	-0.00613592	0.788466	-1.60915	0	0	0	0	0	0	0	0	0	0	0	0	0.000000000	-1.9984e-15	0.788798	-0.788798	1.80411e-16	0.828698	-1.5708	0.1	0.1	0.1	0.1	0.1	0.1	0	0	0	0	0	0	0.000000000
1504015795.937910079	-0.0076699	0.776194	-0.811476	-0.00613592	0.788466	-1.60915	0	0	0	0	0	0	0	0	0	0	0	0	0.000000000	-1.9984e-15	0.788798	-0.788798	1.80411e-16	0.828698	-1.5708	0.1	0.1	0.1	0.1	0.1	0.1	0	0	0	0	0	0	0.000000000
1504015795.957932949	-0.0076699	0.776194	-0.811476	-0.00613592	0.788466	-1.60915	0	0	0	0	0	0	0	0	0	0	0	0	0.000000000	-1.9984e-15	0.788798	-0.788798	1.80411e-16	0.828698	-1.5708	0.1	0.1	0.1	0.1	0.1	0.1	0	0	0	0	0	0	0.000000000
1504015795.977971076	-0.0076699	0.77466	-0.811476	-0.00613592	0.788466	-1.60915	0	0	0	0	0	0	0	0	0	0	0	0	0.000000000	-1.9984e-15	0.788798	-0.788798	1.80411e-16	0.828698	-1.5708	0.1	0.1	0.1	0.1	0.1	0.1	0	0	0	0	0	0	0.000000000
1504015795.998013973	-0.0076699	0.77466	-0.811476	-0.00613592	0.79	-1.60915	0	0	0	0	0	0	0	0	0	0	0	0	0.000000000	-1.9984e-15	0.788798	-0.788798	1.80411e-16	0.828698	-1.5708	0.1	0.1	0.1	0.1	0.1	0.1	0	0	0	0	0	0	0.000000000
1504015796.018172025	-0.0076699	0.77466	-0.811476	-0.00613592	0.788466	-1.60915	0	0	0	0	0	0	0	0	0	0	0	0	0.000000000	-1.9984e-15	0.788798	-0.788798	1.80411e-16	0.828698	-1.5708	0.1	0.1	0.1	0.1	0.1	0.1	0	0	0	0	0	0	0.000000000
1504015796.038134098	-0.0076699	0.77466	-0.811476	-0.00613592	0.788466	-1.60915	0	0	0	0	0	0	0	0	0	0	0	0	0.000000000	-1.9984e-15	0.788798	-0.788798	1.80411e-16	0.828698	-1.5708	0.1	0.1	0.1	0.1	0.1	0.1	0	0	0	0	0	0	0.000000000
1504015796.058130025	-0.0076699	0.77466	-0.811476	-0.00613592	0.788466	-1.60915	0	0	0	0	0	0	0	0	0	0	0	0	0.000000000	-1.9984e-15	0.788798	-0.788798	1.80411e-16	0.828698	-1.5708	0.1	0.1	0.1	0.1	0.1	0.1	0	0	0	0	0	0	0.000000000
1504015796.078198909	-0.0076699	0.77466	-0.811476	-0.00613592	0.788466	-1.60915	0	0	0	0	0	0	0	0	0	0	0	0	0.000000000	-1.9984e-15	0.788798	-0.788798	1.80411e-16	0.828698	-1.5708	0.1	0.1	0.1	0.1	0.1	0.1	0	0	0	0	0	0	0.000000000
1504015796.098102092	-0.0076699	0.77466	-0.811476	-0.00460194	0.788466	-1.60915	0	0	0	0	0	0	0	0	0	0	0	0	0.000000000	-1.9984e-15	0.788798	-0.788798	1.80411e-16	0.828698	-1.5708	0.1	0.1	0.1	0.1	0.1	0.1	0	0	0	0	0	0	0.000000000
1504015796.122083902	-0.0076699	0.776194	-0.811476	-0.00613592	0.788466	-1.60915	0	0	0	0	0	0	0	0	0	0	0	0	0.000000000	-1.9984e-15	0.788798	-0.788798	1.80411e-16	0.828698	-1.5708	0.1	0.1	0.1	0.1	0.1	0.1	0	0	0	0	0	0	0.000000000
1504015796.138101100	-0.0076699	0.776194	-0.811476	-0.00613592	0.788466	-1.60915	0	0	0	0	0	0	0	0	0	0	0	0	0.000000000	-1.9984e-15	0.788798	-0.788798	1.80411e-16	0.828698	-1.5708	0.1	0.1	0.1	0.1	0.1	0.1	0	0	0	0	0	0	0.000000000
1504015796.158006906	-0.0076699	0.77466	-0.811476	-0.00613592	0.788466	-1.60915	0	0	0	0	0	0	0	0	0	0	0	0	0.000000000	-1.9984e-15	0.788798	-0.788798	1.80411e-16	0.828698	-1.5708	0.1	0.1	0.1	0.1	0.1	0.1	0	0	0	0	0	0	0.000000000
1504015796.178028106	-0.0076699	0.77466	-0.811476	-0.00613592	0.788466	-1.60915	0	0	0	0	0	0	0	0	0	0	0	0	0.000000000	-1.9984e-15	0.788798	-0.788798	1.80411e-16	0.828698	-1.5708	0.1	0.1	0.1	0.1	0.1	0.1	0	0	0	0	0	0	0.000000000
1504015796.198273897	-0.0076699	0.77466	-0.811476	-0.00613592	0.788466	-1.60915	0	0	0	0	0	0	0	0	0	0	0	0	0.000000000	-1.9984e-15	0.788798	-0.788798	1.80411e-16	0.828698	-1.5708	0.1	0.1	0.1	0.1	0.1	0.1	0	0	0	0	0	0	0.000000000
1504015796.219929933	-0.0076699	0.77466	-0.811476	-0.00613592	0.788466	-1.60915	0	0	0	0	0	0	0	0	0	0	0	0	0.000000000	-1.9984e-15	0.788798	-0.788798	1.80411e-16	0.828698	-1.5708	0.1	0.1	0.1	0.1	0.1	0.1	0	0	0	0	0	0	0.000000000
1504015796.238208055	-0.0076699	0.77466	-0.811476	-0.00613592	0.788466	-1.60915	0	0	0	0	0	0	0	0	0	0	0	0	0.000000000	-1.9984e-15	0.788798	-0.788798	1.80411e-16	0.828698	-1.5708	0.1	0.1	0.1	0.1	0.1	0.1	0	0	0	0	0	0	0.000000000
1504015796.258196115	-0.0076699	0.77466	-0.811476	-0.00613592	0.788466	-1.60915	0	0	0	0	0	0	0	0	0	0	0	0	0.000000000	-1.9984e-15	0.788798	-0.788798	1.80411e-16	0.828698	-1.5708	0.1	0.1	0.1	0.1	0.1	0.1	0	0	0	0	0	0	0.000000000
1504015796.278253078	-0.0076699	0.77466	-0.811476	-0.00613592	0.788466	-1.60915	0	0	0	0	0	0	0	0	0	0	0	0	0.000000000	-1.9984e-15	0.788798	-0.788798	1.80411e-16	0.828698	-1.5708	0.1	0.1	0.1	0.1	0.1	0.1	0	0	0	0	0	0	0.000000000
1504015796.298186063	-0.0076699	0.77466	-0.811476	-0.00613592	0.788466	-1.60915	0	0	0	0	0	0	0	0	0	0	0	0	0.000000000	-1.9984e-15	0.788798	-0.788798	1.80411e-16	0.828698	-1.5708	0.1	0.1	0.1	0.1	0.1	0.1	0	0	0	0	0	0	0.000000000
1504015796.319677114	-0.0076699	0.77466	-0.811476	-0.00613592	0.788466	-1.60915	0	0	0	0	0	0	0	0	0	0	0	0	0.000000000	-1.9984e-15	0.788798	-0.788798	1.80411e-16	0.828698	-1.5708	0.1	0.1	0.1	0.1	0.1	0.1	0	0	0	0	0	0	0.000000000
1504015796.338350057	-0.0076699	0.77466	-0.811476	-0.00613592	0.788466	-1.60915	0	0	0	0	0	0	0	0	0	0	0	0	0.000000000	-1.9984e-15	0.788798	-0.788798	1.80411e-16	0.828698	-1.5708	0.1	0.1	0.1	0.1	0.1	0.1	0	0	0	0	0	0	0.000000000
1504015796.360402107	-0.0076699	0.776194	-0.811476	-0.00613592	0.788466	-1.60915	0	0	0	0	0	0	0	0	0	0	0	0	0.000000000	-1.9984e-15	0.788798	-0.788798	1.80411e-16	0.828698	-1.5708	0.1	0.1	0.1	0.1	0.1	0.1	0	0	0	0	0	0	0.000000000
1504015796.378242015	-0.0076699	0.77466	-0.811476	-0.00613592	0.788466	-1.60915	0	0	0	0	0	0	0	0	0	0	0	0	0.000000000	-1.9984e-15	0.788798	-0.788798	1.80411e-16	0.828698	-1.5708	0.1	0.1	0.1	0.1	0.1	0.1	0	0	0	0	0	0	0.000000000
1504015796.398389101	-0.0076699	0.77466	-0.811476	-0.00613592	0.788466	-1.60915	0	0	0	0	0	0	0	0	0	0	0	0	0.000000000	-1.9984e-15	0.788798	-0.788798	1.80411e-16	0.828698	-1.5708	0.1	0.1	0.1	0.1	0.1	0.1	0	0	0	0	0	0	0.000000000
1504015796.418385982	-0.0076699	0.77466	-0.811476	-0.00613592	0.788466	-1.60915	0	0	0	0	0	0	0	0	0	0	0	0	0.000000000	-1.9984e-15	0.788798	-0.788798	1.80411e-16	0.828698	-1.5708	0.1	0.1	0.1	0.1	0.1	0.1	0	0	0	0	0	0	0.000000000
1504015796.438189983	-0.0076699	0.77466	-0.811476	-0.00613592	0.788466	-1.60915	0	0	0	0	0	0	0	0	0	0	0	0	0.000000000	-1.9984e-15	0.788798	-0.788798	1.80411e-16	0.828698	-1.5708	0.1	0.1	0.1	0.1	0.1	0.1	0	0	0	0	0	0	0.000000000
1504015796.458133935	-0.0076699	0.77466	-0.811476	-0.00460194	0.788466	-1.60915	0	0	0	0	0	0	0	0	0	0	0	0	0.000000000	-1.9984e-15	0.788798	-0.788798	1.80411e-16	0.828698	-1.5708	0.1	0.1	0.1	0.1	0.1	0.1	0	0	0	0	0	0	0.000000000
1504015796.478120088	-0.0076699	0.77466	-0.811476	-0.00613592	0.788466	-1.60915	0	0	0	0	0	0	0	0	0	0	0	0	0.000000000	-1.9984e-15	0.788798	-0.788798	1.80411e-16	0.828698	-1.5708	0.1	0.1	0.1	0.1	0.1	0.1	0	0	0	0	0	0	0.000000000
1504015796.497988939	-0.0076699	0.77466	-0.811476	-0.00613592	0.788466	-1.60915	0	0	0	0	0	0	0	0	0	0	0	0	0.000000000	-1.9984e-15	0.788798	-0.788798	1.80411e-16	0.828698	-1.5708	0.1	0.1	0.1	0.1	0.1	0.1	0	0	0	0	0	0	0.000000000
1504015796.519026041	-0.0076699	0.77466	-0.811476	-0.00613592	0.788466	-1.60915	0	0	0	0	0	0	0	0	0	0	0	0	0.000000000	-1.9984e-15	0.788798	-0.788798	1.80411e-16	0.828698	-1.5708	0.1	0.1	0.1	0.1	0.1	0.1	0	0	0	0	0	0	0.000000000
1504015796.539414882	-0.0076699	0.77466	-0.811476	-0.00613592	0.788466	-1.60915	0	0	0	0	0	0	0	0	0	0	0	0	0.000000000	-1.9984e-15	0.788798	-0.788798	1.80411e-16	0.828698	-1.5708	0.1	0.1	0.1	0.1	0.1	0.1	0	0	0	0	0	0	0.000000000
1504015796.558075904	-0.0076699	0.77466	-0.811476	-0.00613592	0.788466	-1.60915	0	0	0	0	0	0	0	0	0	0	0	0	0.000000000	-1.9984e-15	0.788798	-0.788798	1.80411e-16	0.828698	-1.5708	0.1	0.1	0.1	0.1	0.1	0.1	0	0	0	0	0	0	0.000000000
1504015796.578115940	-0.0076699	0.77466	-0.811476	-0.00613592	0.788466	-1.60915	0	0	0	0	0	0	0	0	0	0	0	0	0.000000000	-1.9984e-15	0.788798	-0.788798	1.80411e-16	0.828698	-1.5708	0.1	0.1	0.1	0.1	0.1	0.1	0	0	0	0	0	0	0.000000000
1504015796.598164081	-0.0076699	0.77466	-0.811476	-0.00613592	0.788466	-1.60915	0	0	0	0	0	0	0	0	0	0	0	0	0.000000000	-1.9984e-15	0.788798	-0.788798	1.80411e-16	0.828698	-1.5708	0.1	0.1	0.1	0.1	0.1	0.1	0	0	0	0	0	0	0.000000000
1504015796.618155002	-0.0076699	0.77466	-0.811476	-0.00613592	0.788466	-1.60915	0	0	0	0	0	0	0	0	0	0	0	0	0.000000000	-1.9984e-15	0.788798	-0.788798	1.80411e-16	0.828698	-1.5708	0.1	0.1	0.1	0.1	0.1	0.1	0	0	0	0	0	0	0.000000000
1504015796.638215065	-0.0076699	0.77466	-0.811476	-0.00613592	0.788466	-1.60915	0	0	0	0	0	0	0	0	0	0	0	0	0.000000000	-1.9984e-15	0.788798	-0.788798	1.80411e-16	0.828698	-1.5708	0.1	0.1	0.1	0.1	0.1	0.1	0	0	0	0	0	0	0.000000000
1504015796.658107042	-0.0076699	0.77466	-0.811476	-0.00613592	0.788466	-1.60915	0	0	0	0	0	0	0	0	0	0	0	0	0.000000000	-1.9984e-15	0.788798	-0.788798	1.80411e-16	0.828698	-1.5708	0.1	0.1	0.1	0.1	0.1	0.1	0	0	0	0	0	0	0.000000000
1504015796.678114891	-0.0076699	0.77466	-0.811476	-0.00613592	0.788466	-1.60915	0	0	0	0	0	0	0	0	0	0	0	0	0.000000000	-1.9984e-15	0.788798	-0.788798	1.80411e-16	0.828698	-1.5708	0.1	0.1	0.1	0.1	0.1	0.1	0	0	0	0	0	0	0.000000000
1504015796.698108911	-0.0076699	0.77466	-0.811476	-0.00613592	0.79	-1.60915	0	0	0	0	0	0	0	0	0	0	0	0	0.000000000	-1.9984e-15	0.788798	-0.788798	1.80411e-16	0.828698	-1.5708	0.1	0.1	0.1	0.1	0.1	0.1	0	0	0	0	0	0	0.000000000
1504015796.718472957	-0.0076699	0.776194	-0.811476	-0.00613592	0.788466	-1.60915	0	0	0	0	0	0	0	0	0	0	0	0	0.000000000	-1.9984e-15	0.788798	-0.788798	1.80411e-16	0.828698	-1.5708	0.1	0.1	0.1	0.1	0.1	0.1	0	0	0	0	0	0	0.000000000
1504015796.738231897	-0.0076699	0.776194	-0.811476	-0.00613592	0.788466	-1.60915	0	0	0	0	0	0	0	0	0	0	0	0	0.000000000	-1.9984e-15	0.788798	-0.788798	1.80411e-16	0.828698	-1.5708	0.1	0.1	0.1	0.1	0.1	0.1	0	0	0	0	0	0	0.000000000
1504015796.758181095	-0.0076699	0.77466	-0.811476	-0.00613592	0.788466	-1.60915	0	0	0	0	0	0	0	0	0	0	0	0	0.000000000	-1.9984e-15	0.788798	-0.788798	1.80411e-16	0.828698	-1.5708	0.1	0.1	0.1	0.1	0.1	0.1	0	0	0	0	0	0	0.000000000
1504015796.778230905	-0.0076699	0.77466	-0.811476	-0.00613592	0.788466	-1.60915	0	0	0	0	0	0	0	0	0	0	0	0	0.000000000	-1.9984e-15	0.788798	-0.788798	1.80411e-16	0.828698	-1.5708	0.1	0.1	0.1	0.1	0.1	0.1	0	0	0	0	0	0	0.000000000
1504015796.798214912	-0.0076699	0.77466	-0.811476	-0.00613592	0.788466	-1.60915	0	0	0	0	0	0	0	0	0	0	0	0	0.000000000	-1.9984e-15	0.788798	-0.788798	1.80411e-16	0.828698	-1.5708	0.1	0.1	0.1	0.1	0.1	0.1	0	0	0	0	0	0	0.000000000
1504015796.818294048	-0.0076699	0.776194	-0.811476	-0.00613592	0.788466	-1.60915	0	0	0	0	0	0	0	0	0	0	0	0	0.000000000	-1.9984e-15	0.788798	-0.788798	1.80411e-16	0.828698	-1.5708	0.1	0.1	0.1	0.1	0.1	0.1	0	0	0	0	0	0	0.000000000
1504015796.838164091	-0.0076699	0.776194	-0.811476	-0.00613592	0.788466	-1.60915	0	0	0	0	0	0	0	0	0	0	0	0	0.000000000	-1.9984e-15	0.788798	-0.788798	1.80411e-16	0.828698	-1.5708	0.1	0.1	0.1	0.1	0.1	0.1	0	0	0	0	0	0	0.000000000
1504015796.858129978	-0.0076699	0.776194	-0.811476	-0.00613592	0.79	-1.60915	0	0	0	0	0	0	0	0	0	0	0	0	0.000000000	-1.9984e-15	0.788798	-0.788798	1.80411e-16	0.828698	-1.5708	0.1	0.1	0.1	0.1	0.1	0.1	0	0	0	0	0	0	0.000000000
1504015796.878158092	-0.0076699	0.77466	-0.811476	-0.00613592	0.79	-1.60915	0	0	0	0	0	0	0	0	0	0	0	0	0.000000000	-1.9984e-15	0.788798	-0.788798	1.80411e-16	0.828698	-1.5708	0.1	0.1	0.1	0.1	0.1	0.1	0	0	0	0	0	0	0.000000000
1504015796.898135900	-0.0076699	0.776194	-0.811476	-0.00613592	0.788466	-1.60915	0	0	0	0	0	0	0	0	0	0	0	0	0.000000000	-1.9984e-15	0.788798	-0.788798	1.80411e-16	0.828698	-1.5708	0.1	0.1	0.1	0.1	0.1	0.1	0	0	0	0	0	0	0.000000000
1504015796.922167062	-0.0076699	0.776194	-0.811476	-0.00613592	0.788466	-1.60915	0	0	0	0	0	0	0	0	0	0	0	0	0.000000000	-1.9984e-15	0.788798	-0.788798	1.80411e-16	0.828698	-1.5708	0.1	0.1	0.1	0.1	0.1	0.1	0	0	0	0	0	0	0.000000000
1504015796.938091039	-0.0076699	0.776194	-0.811476	-0.00613592	0.788466	-1.60915	0	0	0	0	0	0	0	0	0	0	0	0	0.000000000	-1.9984e-15	0.788798	-0.788798	1.80411e-16	0.828698	-1.5708	0.1	0.1	0.1	0.1	0.1	0.1	0	0	0	0	0	0	0.000000000
1504015796.958475112	-0.0076699	0.776194	-0.811476	-0.00460194	0.788466	-1.60915	0	0	0	0	0	0	0	0	0	0	0	0	0.000000000	-1.9984e-15	0.788798	-0.788798	1.80411e-16	0.828698	-1.5708	0.1	0.1	0.1	0.1	0.1	0.1	0	0	0	0	0	0	0.000000000
1504015796.980048894	-0.0076699	0.776194	-0.811476	-0.00460194	0.788466	-1.60915	0	0	0	0	0	0	0	0	0	0	0	0	0.000000000	-1.9984e-15	0.788798	-0.788798	1.80411e-16	0.828698	-1.5708	0.1	0.1	0.1	0.1	0.1	0.1	0	0	0	0	0	0	0.000000000
1504015796.998153924	-0.0076699	0.776194	-0.811476	-0.00460194	0.788466	-1.60915	0	0	0	0	0	0	0	0	0	0	0	0	0.000000000	-1.9984e-15	0.788798	-0.788798	1.80411e-16	0.828698	-1.5708	0.1	0.1	0.1	0.1	0.1	0.1	0	0	0	0	0	0	0.000000000
1504015797.018570899	-0.0076699	0.776194	-0.811476	-0.00460194	0.788466	-1.60915	0	0	0	0	0	0	0	0	0	0	0	0	0.000000000	-8.69384e-05	0.788798	-0.788798	-7.67326e-06	0.828698	-1.5708	0.1	0.1	0.1	0.1	0.1	0.1	0	0	0	0	0	0	0.000000000
1504015797.038197994	-0.0076699	0.77466	-0.811476	-0.00613592	0.788466	-1.60915	0	0	0	0	0	0	0	0	0	0	0	0	0.000000000	-0.000288926	0.788798	-0.788798	-2.55009e-05	0.828698	-1.5708	0.1	0.1	0.1	0.1	0.1	0.1	0	0	0	0	0	0	0.000000000
1504015797.058372020	-0.0076699	0.776194	-0.811476	-0.00613592	0.788466	-1.60915	0	0	0	0	0	0	0	0	0	0	0	0	0.000000000	-0.000288926	0.788798	-0.788798	-2.55009e-05	0.828698	-1.5708	0.1	0.1	0.1	0.1	0.1	0.1	0	0	0	0	0	0	0.000000000
1504015797.078331947	-0.0076699	0.77466	-0.811476	-0.00613592	0.79	-1.60915	0	0	0	0	0	0	0	0	0	0	0	0	0.000000000	-0.000674305	0.788798	-0.788798	-5.95147e-05	0.828698	-1.5708	0.1	0.1	0.1	0.1	0.1	0.1	0	0	0	0	0	0	0.000000000
1504015797.098244905	-0.0076699	0.77466	-0.811476	-0.00460194	0.79	-1.60915	0	0	0	0	0	0	0	0	0	0	0	0	0.000000000	-0.000674305	0.788798	-0.788798	-5.95147e-05	0.828698	-1.5708	0.1	0.1	0.1	0.1	0.1	0.1	0	0	0	0	0	0	0.000000000
1504015797.118292093	-0.0076699	0.776194	-0.811476	-0.00613592	0.788466	-1.60915	0	0	0	0	0	0	0	0	0	0	0	0	0.000000000	-0.00129655	0.788798	-0.788798	-0.000114435	0.828698	-1.5708	0.1	0.1	0.1	0.1	0.1	0.1	0	0	0	0	0	0	0.000000000
1504015797.138530969	-0.0076699	0.776194	-0.811476	-0.00613592	0.788466	-1.60915	0	0	0	0	0	0	0	0	0	0	0	0	0.000000000	-0.00129655	0.788798	-0.788798	-0.000114435	0.828698	-1.5708	0.1	0.1	0.1	0.1	0.1	0.1	0	0	0	0	0	0	0.000000000
1504015797.158047914	-0.0076699	0.77466	-0.811476	-0.00613592	0.79	-1.60915	0	0	0	0	0	0	0	0	0	0	0	0	0.000000000	-0.00129655	0.788798	-0.788798	-0.000114435	0.828698	-1.5708	0.1	0.1	0.1	0.1	0.1	0.1	0	0	0	0	0	0	0.000000000
1504015797.178091049	-0.0076699	0.77466	-0.811476	-0.00460194	0.788466	-1.60915	0	0	0	0	0	0	0	0	0	0	0	0	0.000000000	-0.00220541	0.788798	-0.788798	-0.000194651	0.828698	-1.5708	0.1	0.1	0.1	0.1	0.1	0.1	0	0	0	0	0	0	0.000000000
1504015797.198332071	-0.0076699	0.776194	-0.811476	-0.00613592	0.79	-1.60915	0	0	0	0	0	0	0	0	0	0	0	0	0.000000000	-0.00220541	0.788798	-0.788798	-0.000194651	0.828698	-1.5708	0.1	0.1	0.1	0.1	0.1	0.1	0	0	0	0	0	0	0.000000000
1504015797.218391895	-0.0076699	0.77466	-0.811476	-0.00613592	0.79	-1.60915	0	0	0	0	0	0	0	0	0	0	0	0	0.000000000	-0.00344693	0.788798	-0.788798	-0.000304229	0.828698	-1.5708	0.1	0.1	0.1	0.1	0.1	0.1	0	0	0	0	0	0	0.000000000
1504015797.238099098	-0.0076699	0.77466	-0.811476	-0.00613592	0.79	-1.60915	0	0	0	0	0	0	0	0	0	0	0	0	0.000000000	-0.00344693	0.788798	-0.788798	-0.000304229	0.828698	-1.5708	0.1	0.1	0.1	0.1	0.1	0.1	0	0	0	0	0	0	0.000000000
1504015797.258263111	-0.0076699	0.77466	-0.811476	-0.00613592	0.788466	-1.60915	0	0	0	0	0	0	0	0	0	0	0	0	0.000000000	-0.00344693	0.788798	-0.788798	-0.000304229	0.828698	-1.5708	0.1	0.1	0.1	0.1	0.1	0.1	0	0	0	0	0	0	0.000000000
1504015797.278131008	-0.0076699	0.77466	-0.811476	-0.00613592	0.788466	-1.60915	0	0	0	0	0	0	0	0	0	0	0	0	0.000000000	-0.00506363	0.788798	-0.788798	-0.00044692	0.828698	-1.5708	0.1	0.1	0.1	0.1	0.1	0.1	0	0	0	0	0	0	0.000000000
1504015797.298353910	-0.0076699	0.77466	-0.811476	-0.00613592	0.79	-1.60915	0	0	0	0	0	0	0	0	0	0	0	0	0.000000000	-0.00506363	0.788798	-0.788798	-0.00044692	0.828698	-1.5708	0.1	0.1	0.1	0.1	0.1	0.1	0	0	0	0	0	0	0.000000000
1504015797.318830013	-0.0076699	0.77466	-0.811476	-0.00613592	0.788466	-1.60915	0	0	0	0	0	0	0	0	0	0	0	0	0.000000000	-0.00506363	0.788798	-0.788798	-0.00044692	0.828698	-1.5708	0.1	0.1	0.1	0.1	0.1	0.1	0	0	0	0	0	0	0.000000000
1504015797.338221073	-0.0076699	0.77466	-0.811476	-0.00613592	0.788466	-1.60915	0	0	0	0	0	0	0	0	0	0	0	0	0.000000000	-0.00709448	0.788798	-0.788798	-0.000626165	0.828698	-1.5708	0.1	0.1	0.1	0.1	0.1	0.1	0	0	0	0	0	0	0.000000000
1504015797.358266115	-0.0076699	0.776194	-0.811476	-0.00613592	0.788466	-1.60915	0	0	0	0	0	0	0	0	0	0	0	0	0.000000000	-0.00709448	0.788798	-0.788798	-0.000626165	0.828698	-1.5708	0.1	0.1	0.1	0.1	0.1	0.1	0	0	0	0	0	0	0.000000000
1504015797.378151893	-0.0076699	0.77466	-0.811476	-0.00613592	0.788466	-1.60915	0	0	0	0	0	0	0	0	0	0	0	0	0.000000000	-0.00957507	0.788798	-0.788798	-0.000845105	0.828698	-1.5708	0.1	0.1	0.1	0.1	0.1	0.1	0	0	0	0	0	0	0.000000000
1504015797.398161888	-0.0076699	0.776194	-0.811476	-0.00613592	0.79	-1.60915	0	0	0	0	0	0	0	0	0	0	0	0	0.000000000	-0.00957507	0.788798	-0.788798	-0.000845105	0.828698	-1.5708	0.1	0.1	0.1	0.1	0.1	0.1	0	0	0	0	0	0	0.000000000
1504015797.418190002	-0.0076699	0.776194	-0.811476	-0.00613592	0.79	-1.60915	0	0	0	0	0	0	0	0	0	0	0	0	0.000000000	-0.00957507	0.788798	-0.788798	-0.000845105	0.828698	-1.5708	0.1	0.1	0.1	0.1	0.1	0.1	0	0	0	0	0	0	0.000000000
1504015797.438565969	-0.0076699	0.77466	-0.811476	-0.00613592	0.788466	-1.60915	0	0	0	0	0	0	0	0	0	0	0	0	0.000000000	-0.0125376	0.788798	-0.788798	-0.00110658	0.828698	-1.5708	0.1	0.1	0.1	0.1	0.1	0.1	0	0	0	0	0	0	0.000000000
1504015797.458089113	-0.0076699	0.776194	-0.811476	-0.00613592	0.788466	-1.60915	0	0	0	0	0	0	0	0	0	0	0	0	0.000000000	-0.0125376	0.788798	-0.788798	-0.00110658	0.828698	-1.5708	0.1	0.1	0.1	0.1	0.1	0.1	0	0	0	0	0	0	0.000000000
1504015797.478058099	-0.0076699	0.77466	-0.811476	-0.00613592	0.788466	-1.60915	0	0	0	0	0	0	0	0	0	0	0	0	0.000000000	-0.0160112	0.788798	-0.788798	-0.00141316	0.828698	-1.5708	0.1	0.1	0.1	0.1	0.1	0.1	0	0	0	0	0	0	0.000000000
1504015797.498042106	-0.0076699	0.77466	-0.811476	-0.00613592	0.788466	-1.60915	0	0	0	0	0	0	0	0	0	0	0	0	0.000000000	-0.0160112	0.788798	-0.788798	-0.00141316	0.828698	-1.5708	0.1	0.1	0.1	0.1	0.1	0.1	0	0	0	0	0	0	0.000000000
1504015797.520828962	-0.00920388	0.77466	-0.811476	-0.00613592	0.788466	-1.60915	0	0	0	0	0	0	0	0	0	0	0	0	0.000000000	-0.0160112	0.788798	-0.788798	-0.00141316	0.828698	-1.5708	0.1	0.1	0.1	0.1	0.1	0.1	0	0	0	0	0	0	0.000000000
1504015797.538568019	-0.00920388	0.77466	-0.811476	-0.00613592	0.788466	-1.60915	0	0	0	0	0	0	0	0	0	0	0	0	0.000000000	-0.0200215	0.788798	-0.788798	-0.00176712	0.828698	-1.5708	0.1	0.1	0.1	0.1	0.1	0.1	0	0	0	0	0	0	0.000000000
1504015797.558499097	-0.0107379	0.776194	-0.811476	-0.00613592	0.788466	-1.60915	0.107442	0	0	0	0	0	0	0	0	0	0	0	0.000000000	-0.0200215	0.788798	-0.788798	-0.00176712	0.828698	-1.5708	0.1	0.1	0.1	0.1	0.1	0.1	0	0	0	0	0	0	0.000000000
1504015797.578114986	-0.0138058	0.77466	-0.811476	-0.00613592	0.788466	-1.60915	0.107442	0	0	0	0	0	0	0	0	0	0	0	0.000000000	-0.0245914	0.788798	-0.788798	-0.00217046	0.828698	-1.5708	0.1	0.1	0.1	0.1	0.1	0.1	0	0	0	0	0	0	0.000000000
1504015797.598140954	-0.0153398	0.77466	-0.811476	-0.00460194	0.788466	-1.60915	0.107442	0	0	0	0	0	0	0	0	0	0	0	0.000000000	-0.0245914	0.788798	-0.788798	-0.00217046	0.828698	-1.5708	0.1	0.1	0.1	0.1	0.1	0.1	0	0	0	0	0	0	0.000000000
1504015797.618439912	-0.0153398	0.77466	-0.811476	-0.00460194	0.788466	-1.60915	0.107442	0	0	0	0	0	0	0	0	0	0	0	0.000000000	-0.0245914	0.788798	-0.788798	-0.00217046	0.828698	-1.5708	0.1	0.1	0.1	0.1	0.1	0.1	0	0	0	0	0	0	0.000000000
1504015797.638115882	-0.0184078	0.77466	-0.811476	-0.00460194	0.788466	-1.60915	0.107442	0	0	0	0	0	0	0	0	0	0	0	0.000000000	-0.0297406	0.788798	-0.788798	-0.00262493	0.828698	-1.5708	0.101953	0.1	0.1	0.1	0.1	0.1	0	0	0	0	0	0	0.000000000
1504015797.658129930	-0.0199418	0.77466	-0.811476	-0.00460194	0.788466	-1.60915	0	0	0	0	0	0	0	0	0	0	0	0	0.000000000	-0.0297406	0.788798	-0.788798	-0.00262493	0.828698	-1.5708	0.101953	0.1	0.1	0.1	0.1	0.1	0	0	0	0	0	0	0.000000000
1504015797.678512096	-0.0199418	0.77466	-0.811476	-0.00613592	0.79	-1.60915	0	0	0	0	0	0	0	0	0	0	0	0	0.000000000	-0.0354858	0.788798	-0.788798	-0.00313201	0.828698	-1.5708	0.113756	0.1	0.1	0.1	0.1	0.1	0	0	0	0	0	0	0.000000000
1504015797.698055982	-0.0230097	0.77466	-0.811476	-0.00613592	0.79	-1.60915	0.107442	0	0	0	0	0	0	0	0	0	0	0	0.000000000	-0.0354858	0.788798	-0.788798	-0.00313201	0.828698	-1.5708	0.113756	0.1	0.1	0.1	0.1	0.1	0	0	0	0	0	0	0.000000000
1504015797.719181060	-0.0245437	0.77466	-0.811476	-0.00613592	0.79	-1.60915	0	0	0	0	0	0	0	0	0	0	0	0	0.000000000	-0.0354858	0.788798	-0.788798	-0.00313201	0.828698	-1.5708	0.113756	0.1	0.1	0.1	0.1	0.1	0	0	0	0	0	0	0.000000000
1504015797.739177942	-0.0276117	0.77466	-0.811476	-0.00613592	0.79	-1.60915	0.107442	0	0	0	0	0	0	0	0	0	0	0	0.000000000	-0.0418411	0.788798	-0.788798	-0.00369293	0.828698	-1.5708	0.125834	0.1	0.1	0.1	0.1	0.1	0	0	0	0	0	0	0.000000000
1504015797.758127927	-0.0276117	0.77466	-0.811476	-0.00613592	0.788466	-1.60915	0.107442	0	0	0	0	0	0	0	0	0	0	0	0.000000000	-0.0418411	0.788798	-0.788798	-0.00369293	0.828698	-1.5708	0.125834	0.1	0.1	0.1	0.1	0.1	0	0	0	0	0	0	0.000000000
1504015797.778156042	-0.0352816	0.776194	-0.811476	-0.00460194	0.788466	-1.60915	0.298451	0	0	0	0	0	0	0	0	0	0	0	0.000000000	-0.0488176	0.788798	-0.788798	-0.00430869	0.828698	-1.5708	0.138135	0.1	0.1	0.1	0.1	0.1	0	0	0	0	0	0	0.000000000
1504015797.798345088	-0.0398835	0.77466	-0.811476	-0.00460194	0.788466	-1.60915	0.155195	0	0	0	0	0	0	0	0	0	0	0	0.000000000	-0.0488176	0.788798	-0.788798	-0.00430869	0.828698	-1.5708	0.138135	0.1	0.1	0.1	0.1	0.1	0	0	0	0	0	0	0.000000000
1504015797.820524930	-0.0398835	0.77466	-0.811476	-0.00460194	0.788466	-1.60915	0.155195	0	0	0	0	0	0	0	0	0	0	0	0.000000000	-0.0488176	0.788798	-0.788798	-0.00430869	0.828698	-1.5708	0.138135	0.1	0.1	0.1	0.1	0.1	0	0	0	0	0	0	0.000000000
1504015797.838237047	-0.0398835	0.77466	-0.811476	-0.00613592	0.788466	-1.60915	0	0	0	0	0	0	0	0	0	0	0	0	0.000000000	-0.0564239	0.788798	-0.788798	-0.00498003	0.828698	-1.5708	0.150606	0.1	0.1	0.1	0.1	0.1	0	0	0	0	0	0	0.000000000
1504015797.858422040	-0.0414175	0.77466	-0.811476	-0.00613592	0.788466	-1.60915	0	0	0	0	0	0	0	0	0	0	0	0	0.000000000	-0.0564239	0.788798	-0.788798	-0.00498003	0.828698	-1.5708	0.150606	0.1	0.1	0.1	0.1	0.1	0	0	0	0	0	0	0.000000000
1504015797.878196001	-0.0460194	0.77466	-0.811476	-0.00613592	0.788466	-1.60915	0.202947	0	0	0	0	0	0	0	0	0	0	0	0.000000000	-0.064666	0.788798	-0.788798	-0.00570748	0.828698	-1.5708	0.163194	0.1	0.1	0.1	0.1	0.1	0	0	0	0	0	0	0.000000000
1504015797.899833917	-0.0521553	0.776194	-0.811476	-0.00460194	0.788466	-1.60915	0.202947	0	0	0	0	0	0	0	0	0	0	0	0.000000000	-0.064666	0.788798	-0.788798	-0.00570748	0.828698	-1.5708	0.163194	0.1	0.1	0.1	0.1	0.1	0	0	0	0	0	0	0.000000000
1504015797.918423891	-0.0567573	0.77466	-0.811476	-0.00460194	0.788466	-1.60915	0.202947	0	0	0	0	0	0	0	0	0	0	0	0.000000000	-0.064666	0.788798	-0.788798	-0.00570748	0.828698	-1.5708	0.163194	0.1	0.1	0.1	0.1	0.1	0	0	0	0	0	0	0.000000000
1504015797.938710927	-0.0567573	0.77466	-0.811476	-0.00613592	0.79	-1.60915	0.202947	0	0	0	0	0	0	0	0	0	0	0	0.000000000	-0.0735473	0.788798	-0.788798	-0.00649135	0.828698	-1.5708	0.175849	0.1	0.1	0.1	0.1	0.1	0	0	0	0	0	0	0.000000000
1504015797.958106994	-0.0598253	0.77466	-0.811476	-0.00613592	0.79	-1.60915	0.107442	0	0	0	0	0	0	0	0	0	0	0	0.000000000	-0.0735473	0.788798	-0.788798	-0.00649135	0.828698	-1.5708	0.175849	0.1	0.1	0.1	0.1	0.1	0	0	0	0	0	0	0.000000000
1504015797.978099107	-0.0613592	0.77466	-0.811476	-0.00613592	0.788466	-1.60915	0	0	0	0	0	0	0	0	0	0	0	0	0.000000000	-0.0830688	0.788798	-0.788798	-0.00733173	0.828698	-1.5708	0.188525	0.1	0.1	0.1	0.1	0.1	0	0	0	0	0	0	0.000000000
1504015797.998133897	-0.0644272	0.77466	-0.811476	-0.00460194	0.788466	-1.60915	0.107442	0	0	0	0	0	0	0	0	0	0	0	0.000000000	-0.0830688	0.788798	-0.788798	-0.00733173	0.828698	-1.5708	0.188525	0.1	0.1	0.1	0.1	0.1	0	0	0	0	0	0	0.000000000
1504015798.018698930	-0.0644272	0.77466	-0.811476	-0.00460194	0.788466	-1.60915	0.107442	0	0	0	0	0	0	0	0	0	0	0	0.000000000	-0.0830688	0.788798	-0.788798	-0.00733173	0.828698	-1.5708	0.188525	0.1	0.1	0.1	0.1	0.1	0	0	0	0	0	0	0.000000000
1504015798.038158893	-0.0720971	0.77466	-0.811476	-0.00460194	0.788466	-1.60915	0.250699	0	0	0	0	0	0	0	0	0	0	0	0.000000000	-0.0932292	0.788798	-0.788798	-0.00822849	0.828698	-1.5708	0.201175	0.1	0.1	0.1	0.1	0.1	0	0	0	0	0	0	0.000000000
1504015798.058073997	-0.079767	0.77466	-0.811476	-0.00613592	0.79	-1.60915	0.298451	0	0	0	0	0	0	0	0	0	0	0	0.000000000	-0.0932292	0.788798	-0.788798	-0.00822849	0.828698	-1.5708	0.201175	0.1	0.1	0.1	0.1	0.1	0	0	0	0	0	0	0.000000000
1504015798.078789949	-0.081301	0.77466	-0.811476	-0.00613592	0.788466	-1.60915	0	0	0	0	0	0	0	0	0	0	0	0	0.000000000	-0.104025	0.788798	-0.788798	-0.00918132	0.828698	-1.5708	0.213753	0.1	0.1	0.1	0.1	0.1	0	0	0	0	0	0	0.000000000
1504015798.098444938	-0.081301	0.77466	-0.811476	-0.00613592	0.788466	-1.60915	0	0	0	0	0	0	0	0	0	0	0	0	0.000000000	-0.104025	0.788798	-0.788798	-0.00918132	0.828698	-1.5708	0.213753	0.1	0.1	0.1	0.1	0.1	0	0	0	0	0	0	0.000000000
1504015798.118177890	-0.082835	0.77466	-0.811476	-0.00613592	0.79	-1.60915	0	0	0	0	0	0	0	0	0	0	0	0	0.000000000	-0.104025	0.788798	-0.788798	-0.00918132	0.828698	-1.5708	0.213753	0.1	0.1	0.1	0.1	0.1	0	0	0	0	0	0	0.000000000
1504015798.138453006	-0.0889709	0.77466	-0.811476	-0.00613592	0.788466	-1.60915	0.250699	0	0	0	0	0	0	0	0	0	0	0	0.000000000	-0.11545	0.788798	-0.788798	-0.0101897	0.828698	-1.5708	0.226216	0.1	0.1	0.1	0.1	0.1	0	0	0	0	0	0	0.000000000
1504015798.158654928	-0.0966408	0.77466	-0.811476	-0.00460194	0.788466	-1.60915	0.250699	0	0	0	0	0	0	0	0	0	0	0	0.000000000	-0.11545	0.788798	-0.788798	-0.0101897	0.828698	-1.5708	0.226216	0.1	0.1	0.1	0.1	0.1	0	0	0	0	0	0	0.000000000
1504015798.178684949	-0.102777	0.77466	-0.811476	-0.00613592	0.79	-1.60915	0.250699	0	0	0	0	0	0	0	0	0	0	0	0.000000000	-0.127496	0.788798	-0.788798	-0.011253	0.828698	-1.5708	0.238524	0.1	0.1	0.1	0.1	0.1	0	0	0	0	0	0	0.000000000
1504015798.198112964	-0.107379	0.77466	-0.811476	-0.00613592	0.788466	-1.60915	0.250699	0	0	0	0	0	0	0	0	0	0	0	0.000000000	-0.127496	0.788798	-0.788798	-0.011253	0.828698	-1.5708	0.238524	0.1	0.1	0.1	0.1	0.1	0	0	0	0	0	0	0.000000000
1504015798.218861103	-0.107379	0.77466	-0.811476	-0.00613592	0.788466	-1.60915	0.250699	0	0	0	0	0	0	0	0	0	0	0	0.000000000	-0.127496	0.788798	-0.788798	-0.011253	0.828698	-1.5708	0.238524	0.1	0.1	0.1	0.1	0.1	0	0	0	0	0	0	0.000000000
1504015798.238184928	-0.110447	0.77466	-0.811476	-0.00460194	0.788466	-1.60915	0.107442	0	0	0	0	0	0	0	0	0	0	0	0.000000000	-0.140155	0.788798	-0.788798	-0.0123702	0.828698	-1.5708	0.250636	0.1	0.1	0.1	0.1	0.1	0	0	0	0	0	0	0.000000000
1504015798.258141040	-0.113515	0.77466	-0.811476	-0.00460194	0.788466	-1.60915	0.107442	0	0	0	0	0	0	0	0	0	0	0	0.000000000	-0.140155	0.788798	-0.788798	-0.0123702	0.828698	-1.5708	0.250636	0.1	0.1	0.1	0.1	0.1	0	0	0	0	0	0	0.000000000
1504015798.278189897	-0.119651	0.77466	-0.811476	-0.00613592	0.79	-1.60915	0.250699	0	0	0	0	0	0	0	0	0	0	0	0.000000000	-0.140155	0.788798	-0.788798	-0.0123702	0.828698	-1.5708	0.250636	0.1	0.1	0.1	0.1	0.1	0	0	0	0	0	0	0.000000000
1504015798.301007986	-0.12732	0.77466	-0.811476	-0.00613592	0.79	-1.60915	0.250699	0	0	0	0	0	0	0	0	0	0	0	0.000000000	-0.153413	0.788798	-0.788798	-0.0135404	0.828698	-1.5708	0.262513	0.1	0.1	0.1	0.1	0.1	0	0	0	0	0	0	0.000000000
1504015798.322599887	-0.13499	0.77466	-0.811476	-0.00613592	0.788466	-1.60915	0.250699	0	0	0	0	0	0	0	0	0	0	0	0.000000000	-0.153413	0.788798	-0.788798	-0.0135404	0.828698	-1.5708	0.262513	0.1	0.1	0.1	0.1	0.1	0	0	0	0	0	0	0.000000000
1504015798.339209079	-0.13499	0.77466	-0.811476	-0.00613592	0.788466	-1.60915	0.250699	0	0	0	0	0	0	0	0	0	0	0	0.000000000	-0.167257	0.788798	-0.788798	-0.0147623	0.828698	-1.5708	0.274119	0.1	0.1	0.1	0.1	0.1	0	0	0	0	0	0	0.000000000
1504015798.358120918	-0.144194	0.77466	-0.811476	-0.00613592	0.788466	-1.60915	0.298451	0	0	0	0	0	0	0	0	0	0	0	0.000000000	-0.167257	0.788798	-0.788798	-0.0147623	0.828698	-1.5708	0.274119	0.1	0.1	0.1	0.1	0.1	0	0	0	0	0	0	0.000000000
1504015798.378355026	-0.151864	0.77466	-0.811476	-0.0076699	0.788466	-1.60915	0.298451	0	0	0	0	0	0	0	0	0	0	0	0.000000000	-0.167257	0.788798	-0.788798	-0.0147623	0.828698	-1.5708	0.274119	0.1	0.1	0.1	0.1	0.1	0	0	0	0	0	0	0.000000000
1504015798.398437976	-0.154932	0.77466	-0.811476	-0.0076699	0.788466	-1.60915	0.155195	0	0	0	0	0	0	0	0	0	0	0	0.000000000	-0.181673	0.788798	-0.788798	-0.0160346	0.828698	-1.5708	0.28542	0.1	0.1	0.1	0.1	0.1	0	0	0	0	0	0	0.000000000
1504015798.418054103	-0.154932	0.77466	-0.811476	-0.0076699	0.788466	-1.60915	0.155195	0	0	0	0	0	0	0	0	0	0	0	0.000000000	-0.181673	0.788798	-0.788798	-0.0160346	0.828698	-1.5708	0.28542	0.1	0.1	0.1	0.1	0.1	0	0	0	0	0	0	0.000000000
1504015798.438143014	-0.159534	0.77466	-0.811476	-0.0076699	0.79	-1.60915	0.155195	0	0	0	0	0	0	0	0	0	0	0	0.000000000	-0.196641	0.788798	-0.788798	-0.0173557	0.828698	-1.5708	0.296381	0.1	0.1	0.1	0.1	0.1	0	0	0	0	0	0	0.000000000
1504015798.458105087	-0.16567	0.77466	-0.811476	-0.00920388	0.788466	-1.60915	0.202947	0	0	0	0	0	0	0	0	0	0	0	0.000000000	-0.196641	0.788798	-0.788798	-0.0173557	0.828698	-1.5708	0.296381	0.1	0.1	0.1	0.1	0.1	0	0	0	0	0	0	0.000000000
1504015798.478378057	-0.17334	0.77466	-0.811476	-0.00920388	0.79	-1.60915	0.298451	0	0	0	0	0	0	0	0	0	0	0	0.000000000	-0.196641	0.788798	-0.788798	-0.0173557	0.828698	-1.5708	0.296381	0.1	0.1	0.1	0.1	0.1	0	0	0	0	0	0	0.000000000
1504015798.498528957	-0.182544	0.77466	-0.811476	-0.00920388	0.79	-1.60915	0.298451	0	0	0	0	0	0	0	0	0	0	0	0.000000000	-0.212145	0.788798	-0.788798	-0.0187241	0.828698	-1.5708	0.306971	0.1	0.1	0.1	0.1	0.1	0	0	0	0	0	0	0.000000000
1504015798.518161058	-0.190214	0.77466	-0.811476	-0.00920388	0.79	-1.60915	0.346204	0	0	0	0	0	0	0	0	0	0	0	0.000000000	-0.212145	0.788798	-0.788798	-0.0187241	0.828698	-1.5708	0.306971	0.1	0.1	0.1	0.1	0.1	0	0	0	0	0	0	0.000000000
1504015798.538443088	-0.190214	0.77466	-0.811476	-0.00920388	0.79	-1.60915	0.346204	0	0	0	0	0	0	0	0	0	0	0	0.000000000	-0.228163	0.788798	-0.788798	-0.0201379	0.828698	-1.5708	0.317159	0.1	0.1	0.1	0.1	0.1	0	0	0	0	0	0	0.000000000
1504015798.558298110	-0.197884	0.77466	-0.811476	-0.0107379	0.788466	-1.60915	0.298451	0	0	0	0	0	0	0	0	0	0	0	0.000000000	-0.228163	0.788798	-0.788798	-0.0201379	0.828698	-1.5708	0.317159	0.1	0.1	0.1	0.1	0.1	0	0	0	0	0	0	0.000000000
1504015798.578056097	-0.205553	0.77466	-0.811476	-0.0107379	0.79	-1.60915	0.250699	0	0	0	0	0	0	0	0	0	0	0	0.000000000	-0.228163	0.788798	-0.788798	-0.0201379	0.828698	-1.5708	0.317159	0.1	0.1	0.1	0.1	0.1	0	0	0	0	0	0	0.000000000
1504015798.598097085	-0.213223	0.77466	-0.811476	-0.0107379	0.79	-1.60915	0.346204	0	0	0	0	0	0	0	0	0	0	0	0.000000000	-0.244674	0.788798	-0.788798	-0.0215952	0.828698	-1.5708	0.326918	0.1	0.1	0.1	0.1	0.1	0	0	0	0	0	0	0.000000000
1504015798.618105888	-0.213223	0.77466	-0.811476	-0.0107379	0.79	-1.60915	0.346204	0	0	0	0	0	0	0	0	0	0	0	0.000000000	-0.244674	0.788798	-0.788798	-0.0215952	0.828698	-1.5708	0.326918	0.1	0.1	0.1	0.1	0.1	0	0	0	0	0	0	0.000000000
1504015798.638190984	-0.228563	0.77466	-0.811476	-0.0107379	0.79	-1.60915	0.441708	0	0	0	0	0	0	0	0	0	0	0	0.000000000	-0.261655	0.788798	-0.788798	-0.0230939	0.828698	-1.5708	0.33622	0.1	0.1	0.1	0.1	0.1	0	0	0	0	0	0	0.000000000
1504015798.658181905	-0.236233	0.77466	-0.811476	-0.0122718	0.79	-1.60915	0.346204	0	0	0	0	0	0	0	0	0	0	0	0.000000000	-0.261655	0.788798	-0.788798	-0.0230939	0.828698	-1.5708	0.33622	0.1	0.1	0.1	0.1	0.1	0	0	0	0	0	0	0.000000000
1504015798.678313970	-0.240835	0.77466	-0.811476	-0.0138058	0.79	-1.60915	0.202947	0	0	0	0	0	0	0	0	0	0	0	0.000000000	-0.261655	0.788798	-0.788798	-0.0230939	0.828698	-1.5708	0.33622	0.1	0.1	0.1	0.1	0.1	0	0	0	0	0	0	0.000000000
1504015798.698054075	-0.245437	0.776194	-0.811476	-0.0138058	0.788466	-1.60915	0.202947	0	0	0	0	0	0	0	0	0	0	0	0.000000000	-0.279081	0.788798	-0.788798	-0.024632	0.828698	-1.5708	0.34504	0.1	0.1	0.1	0.1	0.1	0	0	0	0	0	0	0.000000000
1504015798.718242883	-0.257709	0.77466	-0.811476	-0.0138058	0.788466	-1.60915	0.441708	0	0	0	0	0	0	0	0	0	0	0	0.000000000	-0.279081	0.788798	-0.788798	-0.024632	0.828698	-1.5708	0.34504	0.1	0.1	0.1	0.1	0.1	0	0	0	0	0	0	0.000000000
1504015798.738913059	-0.257709	0.77466	-0.811476	-0.0153398	0.79	-1.60915	0.441708	0	0	0	0	0	0	0	0	0	0	0	0.000000000	-0.296927	0.788798	-0.788798	-0.0262071	0.828698	-1.5708	0.353354	0.1	0.1	0.1	0.1	0.1	0	0	0	0	0	0	0.000000000
1504015798.758991956	-0.269981	0.77466	-0.811476	-0.0168738	0.79	-1.60915	0.393956	0	0	0	0	0	0	0	0	0	0	0	0.000000000	-0.296927	0.788798	-0.788798	-0.0262071	0.828698	-1.5708	0.353354	0.1	0.1	0.1	0.1	0.1	0	0	0	0	0	0	0.000000000
1504015798.778129100	-0.277651	0.77466	-0.811476	-0.0168738	0.79	-1.60915	0.250699	0	0	0	0	0	0	0	0	0	0	0	0.000000000	-0.296927	0.788798	-0.788798	-0.0262071	0.828698	-1.5708	0.353354	0.1	0.1	0.1	0.1	0.1	0	0	0	0	0	0	0.000000000
1504015798.798990011	-0.282252	0.77466	-0.811476	-0.0168738	0.788466	-1.60915	0.250699	0	0	0	0	0	0	0	0	0	0	0	0.000000000	-0.315167	0.788798	-0.788798	-0.0278169	0.828698	-1.5708	0.361142	0.1	0.1	0.1	0.1	0.1	0	0	0	0	0	0	0.000000000
1504015798.818661928	-0.288388	0.77466	-0.811476	-0.0184078	0.788466	-1.60915	0.250699	0	0	0	0	0	0	0	0	0	0	0	0.000000000	-0.315167	0.788798	-0.788798	-0.0278169	0.828698	-1.5708	0.361142	0.1	0.1	0.1	0.1	0.1	0	0	0	0	0	0	0.000000000
1504015798.838208913	-0.288388	0.77466	-0.811476	-0.0184078	0.788466	-1.60915	0.250699	0	0	0	0	0	0	0	0	0	0	0	0.000000000	-0.333772	0.788798	-0.788798	-0.029459	0.828698	-1.5708	0.36838	0.1	0.1	0.1	0.1	0.1	0	0	0	0	0	0	0.000000000
1504015798.858155012	-0.30066	0.77466	-0.811476	-0.0199418	0.79	-1.60915	0.346204	0	0	0	0	0	0	0	0	0	0	0	0.000000000	-0.333772	0.788798	-0.788798	-0.029459	0.828698	-1.5708	0.36838	0.1	0.1	0.1	0.1	0.1	0	0	0	0	0	0	0.000000000
1504015798.878173112	-0.311398	0.77466	-0.811476	-0.0214757	0.788466	-1.60915	0.393956	0	0	0	0	0	0	0	0	0	0	0	0.000000000	-0.333772	0.788798	-0.788798	-0.029459	0.828698	-1.5708	0.36838	0.1	0.1	0.1	0.1	0.1	0	0	0	0	0	0	0.000000000
1504015798.898056030	-0.322136	0.77466	-0.811476	-0.0214757	0.788466	-1.60915	0.441708	0	0	0	0	0	0	0	0	0	0	0	0.000000000	-0.352714	0.788798	-0.788798	-0.0311308	0.828698	-1.5708	0.375054	0.1	0.1	0.1	0.1	0.1	0	0	0	0	0	0	0.000000000
1504015798.919372081	-0.322136	0.77466	-0.811476	-0.0214757	0.788466	-1.60915	0.441708	0	0	0	0	0	0	0	0	0	0	0	0.000000000	-0.352714	0.788798	-0.788798	-0.0311308	0.828698	-1.5708	0.375054	0.1	0.1	0.1	0.1	0.1	0	0	0	0	0	0	0.000000000
1504015798.940435886	-0.33134	0.77466	-0.811476	-0.0214757	0.79	-1.60915	0.393956	0	0	0	0	0	0	0	0	0	0	0	0.000000000	-0.371963	0.788798	-0.788798	-0.0328298	0.828698	-1.5708	0.38114	0.1	0.1	0.1	0.1	0.1	0	0	0	0	0	0	0.000000000
1504015798.958874940	-0.340544	0.77466	-0.811476	-0.0230097	0.79	-1.60915	0.298451	0	0	0	0	0	0	0	0	0	0	0	0.000000000	-0.371963	0.788798	-0.788798	-0.0328298	0.828698	-1.5708	0.38114	0.1	0.1	0.1	0.1	0.1	0	0	0	0	0	0	0.000000000
1504015798.978410959	-0.348214	0.77466	-0.811476	-0.0230097	0.79	-1.60915	0.298451	0	0	0	0	0	0	0	0	0	0	0	0.000000000	-0.371963	0.788798	-0.788798	-0.0328298	0.828698	-1.5708	0.38114	0.1	0.1	0.1	0.1	0.1	0	0	0	0	0	0	0.000000000
1504015798.998564958	-0.348214	0.77466	-0.811476	-0.0230097	0.79	-1.60915	0.298451	0	0	0	0	0	0	0	0	0	0	0	0.000000000	-0.39149	0.788798	-0.788798	-0.0345533	0.828698	-1.5708	0.386631	0.1	0.1	0.1	0.1	0.1	0	0	0	0	0	0	0.000000000
1504015799.018194913	-0.360485	0.77466	-0.811476	-0.0245437	0.79	-1.60915	0.393956	0	0	0	0	0	0	0	0	0	0	0	0.000000000	-0.39149	0.788798	-0.788798	-0.0345533	0.828698	-1.5708	0.386631	0.1	0.1	0.1	0.1	0.1	0	0	0	0	0	0	0.000000000
1504015799.039160966	-0.368155	0.77466	-0.811476	-0.0260777	0.79	-1.60915	0.393956	0	0	0	0	0	0	0	0	0	0	0	0.000000000	-0.411263	0.788798	-0.788798	-0.0362985	0.828698	-1.5708	0.391504	0.1	0.1	0.1	0.1	0.1	0	0	0	0	0	0	0.000000000
1504015799.061901092	-0.381961	0.77466	-0.811476	-0.0260777	0.79	-1.60915	0.393956	0	0	0	0	0	0	0	0	0	0	0	0.000000000	-0.411263	0.788798	-0.788798	-0.0362985	0.828698	-1.5708	0.391504	0.1	0.1	0.1	0.1	0.1	0	0	0	0	0	0	0.000000000
1504015799.080038070	-0.389631	0.77466	-0.811476	-0.0291456	0.79	-1.60915	0.250699	0	0	0.107442	0	0	0	0	0	0	0	0	0.000000000	-0.411263	0.788798	-0.788798	-0.0362985	0.828698	-1.5708	0.391504	0.1	0.1	0.1	0.1	0.1	0	0	0	0	0	0	0.000000000
1504015799.100871086	-0.392699	0.77466	-0.811476	-0.0291456	0.79	-1.60915	0.155195	0	0	0.107442	0	0	0	0	0	0	0	0	0.000000000	-0.431251	0.788798	-0.788798	-0.0380626	0.828698	-1.5708	0.395755	0.1	0.1	0.1	0.1	0.1	0	0	0	0	0	0	0.000000000
1504015799.118886947	-0.392699	0.77466	-0.811476	-0.0291456	0.79	-1.60915	0.155195	0	0	0	0	0	0	0	0	0	0	0	0.000000000	-0.431251	0.788798	-0.788798	-0.0380626	0.828698	-1.5708	0.395755	0.1	0.1	0.1	0.1	0.1	0	0	0	0	0	0	0.000000000
1504015799.138665914	-0.401903	0.776194	-0.811476	-0.0306796	0.79	-1.60915	0.346204	0	0	0	0	0	0	0	0	0	0	0	0.000000000	-0.451421	0.788798	-0.788798	-0.0398428	0.828698	-1.5708	0.399371	0.1	0.1	0.1	0.1	0.1	0	0	0	0	0	0	0.000000000
1504015799.160387992	-0.414175	0.77466	-0.811476	-0.0306796	0.79	-1.60915	0.441708	0	0	0	0	0	0	0	0	0	0	0	0.000000000	-0.451421	0.788798	-0.788798	-0.0398428	0.828698	-1.5708	0.399371	0.1	0.1	0.1	0.1	0.1	0	0	0	0	0	0	0.000000000
1504015799.178584098	-0.427981	0.77466	-0.811476	-0.0322136	0.79	-1.60915	0.48946	0	0	0	0	0	0	0	0	0	0	0	0.000000000	-0.451421	0.788798	-0.788798	-0.0398428	0.828698	-1.5708	0.399371	0.1	0.1	0.1	0.1	0.1	0	0	0	0	0	0	0.000000000
1504015799.198302984	-0.440252	0.776194	-0.811476	-0.0322136	0.79	-1.60915	0.441708	0	0	0	0	0	0	0	0	0	0	0	0.000000000	-0.471741	0.788798	-0.788798	-0.0416363	0.828698	-1.5708	0.402339	0.1	0.1	0.1	0.1	0.1	0	0	0	0	0	0	0.000000000
1504015799.218142032	-0.444854	0.77466	-0.811476	-0.0337476	0.79	-1.60915	0.298451	0	0	0	0	0	0	0	0	0	0	0	0.000000000	-0.471741	0.788798	-0.788798	-0.0416363	0.828698	-1.5708	0.402339	0.1	0.1	0.1	0.1	0.1	0	0	0	0	0	0	0.000000000
1504015799.238250017	-0.45099	0.776194	-0.811476	-0.0352816	0.79	-1.60915	0.202947	0	0	0	0	0	0	0	0	0	0	0	0.000000000	-0.471741	0.788798	-0.788798	-0.0416363	0.828698	-1.5708	0.402339	0.1	0.1	0.1	0.1	0.1	0	0	0	0	0	0	0.000000000
1504015799.258017063	-0.45099	0.776194	-0.811476	-0.0352816	0.79	-1.60915	0.202947	0	0	0	0	0	0	0	0	0	0	0	0.000000000	-0.492178	0.788798	-0.788798	-0.0434401	0.828698	-1.5708	0.404658	0.1	0.1	0.1	0.1	0.1	0	0	0	0	0	0	0.000000000
1504015799.278023004	-0.463262	0.77466	-0.811476	-0.0352816	0.79	-1.60915	0.441708	0	0	0	0	0	0	0	0	0	0	0	0.000000000	-0.492178	0.788798	-0.788798	-0.0434401	0.828698	-1.5708	0.404658	0.1	0.1	0.1	0.1	0.1	0	0	0	0	0	0	0.000000000
1504015799.298003911	-0.477068	0.77466	-0.811476	-0.0368155	0.79	-1.60915	0.48946	0	0	0	0	0	0	0	0	0	0	0	0.000000000	-0.512699	0.788798	-0.788798	-0.0452513	0.828698	-1.5708	0.406315	0.1	0.1	0.1	0.1	0.1	0	0	0	0	0	0	0.000000000
1504015799.318090915	-0.487806	0.77466	-0.811476	-0.0368155	0.79	-1.60915	0.441708	0	0	0	0	0	0	0	0	0	0	0	0.000000000	-0.512699	0.788798	-0.788798	-0.0452513	0.828698	-1.5708	0.406315	0.1	0.1	0.1	0.1	0.1	0	0	0	0	0	0	0.000000000
1504015799.338083028	-0.487806	0.77466	-0.811476	-0.0368155	0.79	-1.60915	0.441708	0	0	0	0	0	0	0	0	0	0	0	0.000000000	-0.512699	0.788798	-0.788798	-0.0452513	0.828698	-1.5708	0.406315	0.1	0.1	0.1	0.1	0.1	0	0	0	0	0	0	0.000000000
1504015799.358215093	-0.495476	0.776194	-0.811476	-0.0368155	0.79	-1.60915	0.298451	0	0	0	0	0	0	0	0	0	0	0	0.000000000	-0.533271	0.788798	-0.788798	-0.047067	0.828698	-1.5708	0.407315	0.1	0.1	0.1	0.1	0.1	0	0	0	0	0	0	0.000000000
1504015799.378060102	-0.503146	0.77466	-0.811476	-0.0383495	0.79	-1.60915	0.250699	0	0	0	0	0	0	0	0	0	0	0	0.000000000	-0.533271	0.788798	-0.788798	-0.047067	0.828698	-1.5708	0.407315	0.1	0.1	0.1	0.1	0.1	0	0	0	0	0	0	0.000000000
1504015799.398159980	-0.513884	0.77466	-0.811476	-0.0398835	0.79	-1.60915	0.346204	0	0	0	0	0	0	0	0	0	0	0	0.000000000	-0.553859	0.788798	-0.788798	-0.0488841	0.828698	-1.5708	0.407645	0.1	0.1	0.1	0.1	0.1	0	0	0	0	0	0	0.000000000
1504015799.420166015	-0.526155	0.77466	-0.811476	-0.0398835	0.79	-1.60915	0.441708	0	0	0	0	0	0	0	0	0	0	0	0.000000000	-0.553859	0.788798	-0.788798	-0.0488841	0.828698	-1.5708	0.407645	0.1	0.1	0.1	0.1	0.1	0	0	0	0	0	0	0.000000000
1504015799.440182924	-0.526155	0.77466	-0.811476	-0.0398835	0.79	-1.60915	0.441708	0	0	0	0	0	0	0	0	0	0	0	0.000000000	-0.57443	0.788798	-0.788798	-0.0506997	0.828698	-1.5708	0.407314	0.1	0.1	0.1	0.1	0.1	0	0	0	0	0	0	0.000000000
1504015799.458132028	-0.536893	0.77466	-0.811476	-0.0414175	0.79	-1.60915	0.48946	0	0	0	0	0	0	0	0	0	0	0	0.000000000	-0.57443	0.788798	-0.788798	-0.0506997	0.828698	-1.5708	0.407314	0.1	0.1	0.1	0.1	0.1	0	0	0	0	0	0	0.000000000
1504015799.478044033	-0.549165	0.77466	-0.811476	-0.0429515	0.79	-1.60915	0.441708	0	0	0	0	0	0	0	0	0	0	0	0.000000000	-0.57443	0.788798	-0.788798	-0.0506997	0.828698	-1.5708	0.407314	0.1	0.1	0.1	0.1	0.1	0	0	0	0	0	0	0.000000000
1504015799.498095035	-0.558369	0.77466	-0.811476	-0.0429515	0.79	-1.60915	0.346204	0	0	0	0	0	0	0	0	0	0	0	0.000000000	-0.594951	0.788798	-0.788798	-0.0525109	0.828698	-1.5708	0.406316	0.1	0.1	0.1	0.1	0.1	0	0	0	0	0	0	0.000000000
1504015799.520020008	-0.564505	0.77466	-0.811476	-0.0429515	0.79	-1.60915	0.250699	0	0	0	0	0	0	0	0	0	0	0	0.000000000	-0.594951	0.788798	-0.788798	-0.0525109	0.828698	-1.5708	0.406316	0.1	0.1	0.1	0.1	0.1	0	0	0	0	0	0	0.000000000
1504015799.538054943	-0.564505	0.77466	-0.811476	-0.0429515	0.79	-1.60915	0.250699	0	0	0	0	0	0	0	0	0	0	0	0.000000000	-0.594951	0.788798	-0.788798	-0.0525109	0.828698	-1.5708	0.406316	0.1	0.1	0.1	0.1	0.1	0	0	0	0	0	0	0.000000000
1504015799.558264970	-0.573709	0.77466	-0.811476	-0.0444854	0.79	-1.60915	0.346204	0	0	0	0	0	0	0	0	0	0	0	0.000000000	-0.615389	0.788798	-0.788798	-0.0543148	0.828698	-1.5708	0.404658	0.1	0.1	0.1	0.1	0.1	0	0	0	0	0	0	0.000000000
1504015799.578175067	-0.584447	0.77466	-0.811476	-0.0444854	0.79	-1.60915	0.393956	0	0	0	0	0	0	0	0	0	0	0	0.000000000	-0.615389	0.788798	-0.788798	-0.0543148	0.828698	-1.5708	0.404658	0.1	0.1	0.1	0.1	0.1	0	0	0	0	0	0	0.000000000
1504015799.598185062	-0.584447	0.77466	-0.811476	-0.0444854	0.79	-1.60915	0.393956	0	0	0	0	0	0	0	0	0	0	0	0.000000000	-0.635709	0.788798	-0.788798	-0.0561082	0.828698	-1.5708	0.402339	0.1	0.1	0.1	0.1	0.1	0	0	0	0	0	0	0.000000000
1504015799.618185997	-0.596719	0.77466	-0.811476	-0.0444854	0.79	-1.60915	0.441708	0	0	0	0	0	0	0	0	0	0	0	0.000000000	-0.635709	0.788798	-0.788798	-0.0561082	0.828698	-1.5708	0.402339	0.1	0.1	0.1	0.1	0.1	0	0	0	0	0	0	0.000000000
1504015799.638134956	-0.613592	0.77466	-0.811476	-0.0460194	0.79	-1.60915	0.441708	0	0	0	0	0	0	0	0	0	0	0	0.000000000	-0.635709	0.788798	-0.788798	-0.0561082	0.828698	-1.5708	0.402339	0.1	0.1	0.1	0.1	0.1	0	0	0	0	0	0	0.000000000
1504015799.658972978	-0.613592	0.77466	-0.811476	-0.0460194	0.79	-1.60915	0.441708	0	0	0	0	0	0	0	0	0	0	0	0.000000000	-0.655879	0.788798	-0.788798	-0.0578885	0.828698	-1.5708	0.399371	0.1	0.1	0.1	0.1	0.1	0	0	0	0	0	0	0.000000000
1504015799.678020000	-0.62433	0.776194	-0.811476	-0.0460194	0.79	-1.60915	0.298451	0	0	0	0	0	0	0	0	0	0	0	0.000000000	-0.655879	0.788798	-0.788798	-0.0578885	0.828698	-1.5708	0.399371	0.1	0.1	0.1	0.1	0.1	0	0	0	0	0	0	0.000000000
1504015799.698312044	-0.630466	0.77466	-0.811476	-0.0475534	0.79	-1.60915	0.250699	0	0	0	0	0	0	0	0	0	0	0	0.000000000	-0.675867	0.788798	-0.788798	-0.0596526	0.828698	-1.5708	0.395754	0.1	0.1	0.1	0.1	0.1	0	0	0	0	0	0	0.000000000
1504015799.719333887	-0.63967	0.776194	-0.811476	-0.0475534	0.79	-1.60915	0.346204	0	0	0	0	0	0	0	0	0	0	0	0.000000000	-0.675867	0.788798	-0.788798	-0.0596526	0.828698	-1.5708	0.395754	0.1	0.1	0.1	0.1	0.1	0	0	0	0	0	0	0.000000000
1504015799.738198041	-0.650408	0.77466	-0.811476	-0.0490874	0.79	-1.60915	0.441708	0	0	0	0	0	0	0	0	0	0	0	0.000000000	-0.675867	0.788798	-0.788798	-0.0596526	0.828698	-1.5708	0.395754	0.1	0.1	0.1	0.1	0.1	0	0	0	0	0	0	0.000000000
1504015799.758081912	-0.659612	0.77466	-0.811476	-0.0490874	0.79	-1.60915	0.346204	0	0	0	0	0	0	0	0	0	0	0	0.000000000	-0.69564	0.788798	-0.788798	-0.0613978	0.828698	-1.5708	0.391505	0.1	0.1	0.1	0.1	0.1	0	0	0	0	0	0	0.000000000
1504015799.778162002	-0.668816	0.776194	-0.811476	-0.0490874	0.79	-1.60915	0.393956	0	0	0	0	0	0	0	0	0	0	0	0.000000000	-0.69564	0.788798	-0.788798	-0.0613978	0.828698	-1.5708	0.391505	0.1	0.1	0.1	0.1	0.1	0	0	0	0	0	0	0.000000000
1504015799.798158884	-0.668816	0.776194	-0.811476	-0.0506214	0.79	-1.60915	0.393956	0	0	0	0	0	0	0	0	0	0	0	0.000000000	-0.715167	0.788798	-0.788798	-0.0631212	0.828698	-1.5708	0.386631	0.1	0.1	0.1	0.1	0.1	0	0	0	0	0	0	0.000000000
1504015799.818816900	-0.681087	0.776194	-0.811476	-0.0521553	0.79	-1.60915	0.393956	0	0	0	0	0	0	0	0	0	0	0	0.000000000	-0.715167	0.788798	-0.788798	-0.0631212	0.828698	-1.5708	0.386631	0.1	0.1	0.1	0.1	0.1	0	0	0	0	0	0	0.000000000
1504015799.838270902	-0.691825	0.77466	-0.811476	-0.0521553	0.79	-1.60915	0.346204	0	0	0	0	0	0	0	0	0	0	0	0.000000000	-0.715167	0.788798	-0.788798	-0.0631212	0.828698	-1.5708	0.386631	0.1	0.1	0.1	0.1	0.1	0	0	0	0	0	0	0.000000000
1504015799.858145952	-0.697961	0.77466	-0.811476	-0.0536893	0.79	-1.60915	0.298451	0	0	0	0	0	0	0	0	0	0	0	0.000000000	-0.734416	0.788798	-0.788798	-0.0648202	0.828698	-1.5708	0.381139	0.1	0.1	0.1	0.1	0.1	0	0	0	0	0	0	0.000000000
1504015799.878173112	-0.707165	0.77466	-0.811476	-0.0536893	0.79	-1.60915	0.298451	0	0	0	0	0	0	0	0	0	0	0	0.000000000	-0.734416	0.788798	-0.788798	-0.0648202	0.828698	-1.5708	0.381139	0.1	0.1	0.1	0.1	0.1	0	0	0	0	0	0	0.000000000
1504015799.898062944	-0.714835	0.77466	-0.811476	-0.0536893	0.79	-1.60915	0.346204	0	0	0	0	0	0	0	0	0	0	0	0.000000000	-0.753358	0.788798	-0.788798	-0.0664921	0.828698	-1.5708	0.375054	0.1	0.1	0.1	0.1	0.1	0	0	0	0	0	0	0.000000000
1504015799.919704914	-0.714835	0.77466	-0.811476	-0.0536893	0.79	-1.60915	0.346204	0	0	0	0	0	0	0	0	0	0	0	0.000000000	-0.753358	0.788798	-0.788798	-0.0664921	0.828698	-1.5708	0.375054	0.1	0.1	0.1	0.1	0.1	0	0	0	0	0	0	0.000000000
1504015799.938652038	-0.727107	0.77466	-0.811476	-0.0552233	0.79	-1.60915	0.393956	0	0	0	0	0	0	0	0	0	0	0	0.000000000	-0.753358	0.788798	-0.788798	-0.0664921	0.828698	-1.5708	0.375054	0.1	0.1	0.1	0.1	0.1	0	0	0	0	0	0	0.000000000
1504015799.958086967	-0.737845	0.776194	-0.811476	-0.0552233	0.791534	-1.60915	0.393956	0	0	0	0	0	0	0	0	0	0	0	0.000000000	-0.771963	0.788798	-0.788798	-0.0681342	0.828698	-1.5708	0.368379	0.1	0.1	0.1	0.1	0.1	0	0	0	0	0	0	0.000000000
1504015799.978049039	-0.747049	0.776194	-0.811476	-0.0567573	0.79	-1.60915	0.393956	0	0	0	0	0	0	0	0	0	0	0	0.000000000	-0.771963	0.788798	-0.788798	-0.0681342	0.828698	-1.5708	0.368379	0.1	0.1	0.1	0.1	0.1	0	0	0	0	0	0	0.000000000
1504015799.998672008	-0.753185	0.77466	-0.811476	-0.0567573	0.79	-1.60915	0.250699	0	0	0	0	0	0	0	0	0	0	0	0.000000000	-0.790203	0.788798	-0.788798	-0.069744	0.828698	-1.5708	0.361142	0.1	0.1	0.1	0.1	0.1	0	0	0	0	0	0	0.000000000
1504015800.019401073	-0.75932	0.776194	-0.811476	-0.0582913	0.791534	-1.60915	0.202947	0	0	0	0	0	0	0	0	0	0	0	0.000000000	-0.790203	0.788798	-0.788798	-0.069744	0.828698	-1.5708	0.361142	0.1	0.1	0.1	0.1	0.1	0	0	0	0	0	0	0.000000000
1504015800.038191080	-0.75932	0.776194	-0.811476	-0.0582913	0.791534	-1.60915	0.202947	0	0	0	0	0	0	0	0	0	0	0	0.000000000	-0.790203	0.788798	-0.788798	-0.069744	0.828698	-1.5708	0.361142	0.1	0.1	0.1	0.1	0.1	0	0	0	0	0	0	0.000000000
1504015800.058289051	-0.771592	0.776194	-0.811476	-0.0582913	0.791534	-1.60915	0.393956	0	0	0	0	0	0	0	0	0	0	0	0.000000000	-0.808049	0.788798	-0.788798	-0.0713191	0.828698	-1.5708	0.353355	0.1	0.1	0.1	0.1	0.1	0	0	0	0	0	0	0.000000000
1504015800.078222036	-0.780796	0.77466	-0.811476	-0.0598253	0.79	-1.60915	0.393956	0	0	0	0	0	0	0	0	0	0	0	0.000000000	-0.808049	0.788798	-0.788798	-0.0713191	0.828698	-1.5708	0.353355	0.1	0.1	0.1	0.1	0.1	0	0	0	0	0	0	0.000000000
1504015800.098289966	-0.791534	0.77466	-0.811476	-0.0598253	0.79	-1.60915	0.346204	0	0	0	0	0	0	0	0	0	0	0	0.000000000	-0.825475	0.788798	-0.788798	-0.0728572	0.828698	-1.5708	0.345041	0.1	0.1	0.1	0.1	0.1	0	0	0	0	0	0	0.000000000
1504015800.119910955	-0.791534	0.77466	-0.811476	-0.0613592	0.79	-1.60915	0.346204	0	0	0	0	0	0	0	0	0	0	0	0.000000000	-0.825475	0.788798	-0.788798	-0.0728572	0.828698	-1.5708	0.345041	0.1	0.1	0.1	0.1	0.1	0	0	0	0	0	0	0.000000000
1504015800.138122081	-0.799204	0.776194	-0.811476	-0.0628932	0.79	-1.60915	0.298451	0	0	0	0	0	0	0	0	0	0	0	0.000000000	-0.825475	0.788798	-0.788798	-0.0728572	0.828698	-1.5708	0.345041	0.1	0.1	0.1	0.1	0.1	0	0	0	0	0	0	0.000000000
1504015800.158438920	-0.811476	0.776194	-0.811476	-0.0644272	0.791534	-1.60915	0.298451	0	0	0	0	0	0	0	0	0	0	0	0.000000000	-0.842456	0.788798	-0.788798	-0.0743559	0.828698	-1.5708	0.33622	0.1	0.1	0.1	0.1	0.1	0	0	0	0	0	0	0.000000000
1504015800.178138017	-0.811476	0.776194	-0.811476	-0.0644272	0.791534	-1.60915	0.298451	0	0	0	0	0	0	0	0	0	0	0	0.000000000	-0.842456	0.788798	-0.788798	-0.0743559	0.828698	-1.5708	0.33622	0.1	0.1	0.1	0.1	0.1	0	0	0	0	0	0	0.000000000
1504015800.198219060	-0.82068	0.776194	-0.811476	-0.0644272	0.791534	-1.60915	0.393956	0	0	0	0	0	0	0	0	0	0	0	0.000000000	-0.842456	0.788798	-0.788798	-0.0743559	0.828698	-1.5708	0.33622	0.1	0.1	0.1	0.1	0.1	0	0	0	0	0	0	0.000000000
1504015800.218122959	-0.829884	0.77466	-0.811476	-0.0659612	0.791534	-1.60915	0.393956	0	0	0	0	0	0	0	0	0	0	0	0.000000000	-0.858967	0.788798	-0.788798	-0.0758132	0.828698	-1.5708	0.326918	0.1	0.1	0.1	0.1	0.1	0	0	0	0	0	0	0.000000000
1504015800.238821029	-0.83602	0.77466	-0.811476	-0.0659612	0.79	-1.60915	0.250699	0	0	0	0	0	0	0	0	0	0	0	0.000000000	-0.858967	0.788798	-0.788798	-0.0758132	0.828698	-1.5708	0.326918	0.1	0.1	0.1	0.1	0.1	0	0	0	0	0	0	0.000000000
1504015800.258657932	-0.840621	0.776194	-0.811476	-0.0674952	0.79	-1.60915	0.250699	0	0	0	0	0	0	0	0	0	0	0	0.000000000	-0.874985	0.788798	-0.788798	-0.077227	0.828698	-1.5708	0.317159	0.1	0.1	0.1	0.1	0.1	0	0	0	0	0	0	0.000000000
1504015800.278100013	-0.848291	0.77466	-0.811476	-0.0674952	0.79	-1.60915	0.250699	0	0	0	0	0	0	0	0	0	0	0	0.000000000	-0.874985	0.788798	-0.788798	-0.077227	0.828698	-1.5708	0.317159	0.1	0.1	0.1	0.1	0.1	0	0	0	0	0	0	0.000000000
1504015800.298648118	-0.854427	0.77466	-0.811476	-0.0674952	0.79	-1.60915	0.298451	0	0	0	0	0	0	0	0	0	0	0	0.000000000	-0.874985	0.788798	-0.788798	-0.077227	0.828698	-1.5708	0.317159	0.1	0.1	0.1	0.1	0.1	0	0	0	0	0	0	0.000000000
1504015800.320419073	-0.854427	0.77466	-0.811476	-0.0674952	0.79	-1.60915	0.298451	0	0	0	0	0	0	0	0	0	0	0	0.000000000	-0.890489	0.788798	-0.788798	-0.0785953	0.828698	-1.5708	0.306972	0.1	0.1	0.1	0.1	0.1	0	0	0	0	0	0	0.000000000
1504015800.338105916	-0.863631	0.776194	-0.811476	-0.0690291	0.791534	-1.60915	0.298451	0	0	0	0	0	0	0	0	0	0	0	0.000000000	-0.890489	0.788798	-0.788798	-0.0785953	0.828698	-1.5708	0.306972	0.1	0.1	0.1	0.1	0.1	0	0	0	0	0	0	0.000000000
1504015800.358140945	-0.875903	0.77466	-0.811476	-0.0690291	0.791534	-1.60915	0.393956	0	0	0	0	0	0	0	0	0	0	0	0.000000000	-0.905457	0.788798	-0.788798	-0.0799165	0.828698	-1.5708	0.296381	0.1	0.1	0.1	0.1	0.1	0	0	0	0	0	0	0.000000000
1504015800.378225088	-0.882039	0.77466	-0.811476	-0.0690291	0.791534	-1.60915	0.298451	0	0	0	0	0	0	0	0	0	0	0	0.000000000	-0.905457	0.788798	-0.788798	-0.0799165	0.828698	-1.5708	0.296381	0.1	0.1	0.1	0.1	0.1	0	0	0	0	0	0	0.000000000
1504015800.398292064	-0.882039	0.77466	-0.811476	-0.0690291	0.791534	-1.60915	0.298451	0	0	0	0	0	0	0	0	0	0	0	0.000000000	-0.905457	0.788798	-0.788798	-0.0799165	0.828698	-1.5708	0.296381	0.1	0.1	0.1	0.1	0.1	0	0	0	0	0	0	0.000000000
1504015800.418157100	-0.888175	0.77466	-0.811476	-0.0705631	0.791534	-1.60915	0.250699	0	0	0	0	0	0	0	0	0	0	0	0.000000000	-0.919872	0.788798	-0.788798	-0.0811888	0.828698	-1.5708	0.285419	0.1	0.1	0.1	0.1	0.1	0	0	0	0	0	0	0.000000000
1504015800.438138008	-0.895845	0.77466	-0.811476	-0.0705631	0.791534	-1.60915	0.250699	0	0	0	0	0	0	0	0	0	0	0	0.000000000	-0.919872	0.788798	-0.788798	-0.0811888	0.828698	-1.5708	0.285419	0.1	0.1	0.1	0.1	0.1	0	0	0	0	0	0	0.000000000
1504015800.458218097	-0.901981	0.77466	-0.811476	-0.0705631	0.791534	-1.60915	0.298451	0	0	0	0	0	0	0	0	0	0	0	0.000000000	-0.933717	0.788798	-0.788798	-0.0824107	0.828698	-1.5708	0.274119	0.1	0.1	0.1	0.1	0.1	0	0	0	0	0	0	0.000000000
1504015800.481775999	-0.909651	0.77466	-0.811476	-0.0720971	0.791534	-1.60915	0.298451	0	0	0	0	0	0	0	0	0	0	0	0.000000000	-0.933717	0.788798	-0.788798	-0.0824107	0.828698	-1.5708	0.274119	0.1	0.1	0.1	0.1	0.1	0	0	0	0	0	0	0.000000000
1504015800.498292922	-0.909651	0.77466	-0.811476	-0.0720971	0.791534	-1.60915	0.298451	0	0	0	0	0	0	0	0	0	0	0	0.000000000	-0.933717	0.788798	-0.788798	-0.0824107	0.828698	-1.5708	0.274119	0.1	0.1	0.1	0.1	0.1	0	0	0	0	0	0	0.000000000
1504015800.518238067	-0.917321	0.776194	-0.811476	-0.0720971	0.791534	-1.60915	0.250699	0	0	0	0	0	0	0	0	0	0	0	0.000000000	-0.946975	0.788798	-0.788798	-0.0835809	0.828698	-1.5708	0.262512	0.1	0.1	0.1	0.1	0.1	0	0	0	0	0	0	0.000000000
1504015800.538147926	-0.92499	0.77466	-0.81301	-0.0736311	0.791534	-1.60915	0.298451	0	0	0	0	0	0	0	0	0	0	0	0.000000000	-0.946975	0.788798	-0.788798	-0.0835809	0.828698	-1.5708	0.262512	0.1	0.1	0.1	0.1	0.1	0	0	0	0	0	0	0.000000000
1504015800.558100938	-0.931126	0.77466	-0.811476	-0.0736311	0.791534	-1.60915	0.298451	0	0	0	0	0	0	0	0	0	0	0	0.000000000	-0.959633	0.788798	-0.788798	-0.0846981	0.828698	-1.5708	0.250636	0.1	0.1	0.1	0.1	0.1	0	0	0	0	0	0	0.000000000
1504015800.579185962	-0.937262	0.77466	-0.811476	-0.0751651	0.791534	-1.60915	0.202947	0	0	0	0	0	0	0	0	0	0	0	0.000000000	-0.959633	0.788798	-0.788798	-0.0846981	0.828698	-1.5708	0.250636	0.1	0.1	0.1	0.1	0.1	0	0	0	0	0	0	0.000000000
1504015800.598190069	-0.941864	0.77466	-0.811476	-0.0751651	0.791534	-1.60915	0.202947	0	0	0	0	0	0	0	0	0	0	0	0.000000000	-0.959633	0.788798	-0.788798	-0.0846981	0.828698	-1.5708	0.250636	0.1	0.1	0.1	0.1	0.1	0	0	0	0	0	0	0.000000000
1504015800.618597984	-0.941864	0.77466	-0.811476	-0.0751651	0.791534	-1.60915	0.202947	0	0	0	0	0	0	0	0	0	0	0	0.000000000	-0.97168	0.788798	-0.788798	-0.0857614	0.828698	-1.5708	0.238524	0.1	0.1	0.1	0.1	0.1	0	0	0	0	0	0	0.000000000
1504015800.638247013	-0.949534	0.77466	-0.811476	-0.0751651	0.791534	-1.60915	0.202947	0	0	0	0	0	0	0	0	0	0	0	0.000000000	-0.97168	0.788798	-0.788798	-0.0857614	0.828698	-1.5708	0.238524	0.1	0.1	0.1	0.1	0.1	0	0	0	0	0	0	0.000000000
1504015800.658524036	-0.95567	0.776194	-0.811476	-0.0751651	0.791534	-1.60915	0.250699	0	0	0	0	0	0	0	0	0	0	0	0.000000000	-0.983105	0.788798	-0.788798	-0.0867697	0.828698	-1.5708	0.226217	0.1	0.1	0.1	0.1	0.1	0	0	0	0	0	0	0.000000000
1504015800.678231954	-0.961806	0.77466	-0.811476	-0.078233	0.791534	-1.60915	0.250699	0	0	0.107442	0	0	0	0	0	0	0	0	0.000000000	-0.983105	0.788798	-0.788798	-0.0867697	0.828698	-1.5708	0.226217	0.1	0.1	0.1	0.1	0.1	0	0	0	0	0	0	0.000000000
1504015800.699254989	-0.969476	0.77466	-0.811476	-0.078233	0.793068	-1.60915	0.250699	0	0	0	0	0	0	0	0	0	0	0	0.000000000	-0.983105	0.788798	-0.788798	-0.0867697	0.828698	-1.5708	0.226217	0.1	0.1	0.1	0.1	0.1	0	0	0	0	0	0	0.000000000
1504015800.718501091	-0.974078	0.776194	-0.811476	-0.078233	0.791534	-1.60915	0.202947	0	0	0	0	0	0	0	0	0	0	0	0.000000000	-0.993901	0.788798	-0.788798	-0.0877226	0.828698	-1.5708	0.213752	0.1	0.1	0.1	0.1	0.1	0	0	0	0	0	0	0.000000000
1504015800.738069057	-0.974078	0.776194	-0.811476	-0.078233	0.791534	-1.60915	0.202947	0	0	0	0	0	0	0	0	0	0	0	0.000000000	-0.993901	0.788798	-0.788798	-0.0877226	0.828698	-1.5708	0.213752	0.1	0.1	0.1	0.1	0.1	0	0	0	0	0	0	0.000000000
1504015800.759424924	-0.977146	0.776194	-0.811476	-0.078233	0.791534	-1.60915	0.107442	0	0	0	0	0	0	0	0	0	0	0	0.000000000	-1.00406	0.788798	-0.788798	-0.0886193	0.828698	-1.5708	0.201175	0.1	0.1	0.1	0.1	0.1	0	0	0	0	0	0	0.000000000
1504015800.778189897	-0.981748	0.77466	-0.811476	-0.079767	0.791534	-1.60915	0.155195	0	0	0	0	0	0	0	0	0	0	0	0.000000000	-1.00406	0.788798	-0.788798	-0.0886193	0.828698	-1.5708	0.201175	0.1	0.1	0.1	0.1	0.1	0	0	0	0	0	0	0.000000000
1504015800.798125028	-0.989418	0.77466	-0.811476	-0.079767	0.791534	-1.60915	0.250699	0	0	0	0	0	0	0	0	0	0	0	0.000000000	-1.00406	0.788798	-0.788798	-0.0886193	0.828698	-1.5708	0.201175	0.1	0.1	0.1	0.1	0.1	0	0	0	0	0	0	0.000000000
1504015800.818336009	-0.989418	0.77466	-0.811476	-0.079767	0.791534	-1.60915	0.250699	0	0	0	0	0	0	0	0	0	0	0	0.000000000	-1.01358	0.788798	-0.788798	-0.0894597	0.828698	-1.5708	0.188525	0.1	0.1	0.1	0.1	0.1	0	0	0	0	0	0	0.000000000
1504015800.838803052	-0.995554	0.77466	-0.811476	-0.079767	0.791534	-1.60915	0.202947	0	0	0	0	0	0	0	0	0	0	0	0.000000000	-1.01358	0.788798	-0.788798	-0.0894597	0.828698	-1.5708	0.188525	0.1	0.1	0.1	0.1	0.1	0	0	0	0	0	0	0.000000000
1504015800.858649969	-1.00016	0.77466	-0.811476	-0.078233	0.791534	-1.60915	0.202947	0	0	0	0	0	0	0	0	0	0	0	0.000000000	-1.02246	0.788798	-0.788798	-0.0902436	0.828698	-1.5708	0.175851	0.1	0.1	0.1	0.1	0.1	0	0	0	0	0	0	0.000000000
1504015800.878159999	-1.00629	0.776194	-0.81301	-0.079767	0.791534	-1.60915	0.202947	0	0	0	0	0	0	0	0	0	0	0	0.000000000	-1.02246	0.788798	-0.788798	-0.0902436	0.828698	-1.5708	0.175851	0.1	0.1	0.1	0.1	0.1	0	0	0	0	0	0	0.000000000
1504015800.899629116	-1.01089	0.77466	-0.811476	-0.079767	0.791534	-1.60915	0.155195	0	0	0	0	0	0	0	0	0	0	0	0.000000000	-1.02246	0.788798	-0.788798	-0.0902436	0.828698	-1.5708	0.175851	0.1	0.1	0.1	0.1	0.1	0	0	0	0	0	0	0.000000000
1504015800.919790983	-1.01089	0.77466	-0.811476	-0.079767	0.791534	-1.60915	0.155195	0	0	0	0	0	0	0	0	0	0	0	0.000000000	-1.03071	0.788798	-0.788798	-0.090971	0.828698	-1.5708	0.163192	0.1	0.1	0.1	0.1	0.1	0	0	0	0	0	0	0.000000000
1504015800.938221931	-1.01243	0.77466	-0.811476	-0.081301	0.791534	-1.60915	0.107442	0	0	0	0	0	0	0	0	0	0	0	0.000000000	-1.03071	0.788798	-0.788798	-0.090971	0.828698	-1.5708	0.163192	0.1	0.1	0.1	0.1	0.1	0	0	0	0	0	0	0.000000000
1504015800.958199977	-1.0155	0.77466	-0.811476	-0.081301	0.791534	-1.60915	0.155195	0	0	0	0	0	0	0	0	0	0	0	0.000000000	-1.03831	0.788798	-0.788798	-0.0916424	0.828698	-1.5708	0.150606	0.1	0.1	0.1	0.1	0.1	0	0	0	0	0	0	0.000000000
1504015800.978254079	-1.01856	0.776194	-0.811476	-0.081301	0.793068	-1.60915	0.202947	0	0	0	0	0	0	0	0	0	0	0	0.000000000	-1.03831	0.788798	-0.788798	-0.0916424	0.828698	-1.5708	0.150606	0.1	0.1	0.1	0.1	0.1	0	0	0	0	0	0	0.000000000
1504015800.998203992	-1.02317	0.776194	-0.811476	-0.081301	0.791534	-1.60915	0.155195	0	0	0	0	0	0	0	0	0	0	0	0.000000000	-1.03831	0.788798	-0.788798	-0.0916424	0.828698	-1.5708	0.150606	0.1	0.1	0.1	0.1	0.1	0	0	0	0	0	0	0.000000000
1504015801.018373966	-1.02317	0.776194	-0.811476	-0.081301	0.791534	-1.60915	0.155195	0	0	0	0	0	0	0	0	0	0	0	0.000000000	-1.04529	0.788798	-0.788798	-0.0922581	0.828698	-1.5708	0.138134	0.1	0.1	0.1	0.1	0.1	0	0	0	0	0	0	0.000000000
1504015801.038115978	-1.0293	0.77466	-0.811476	-0.082835	0.791534	-1.60915	0.202947	0	0	0	0	0	0	0	0	0	0	0	0.000000000	-1.04529	0.788798	-0.788798	-0.0922581	0.828698	-1.5708	0.138134	0.1	0.1	0.1	0.1	0.1	0	0	0	0	0	0	0.000000000
1504015801.059431076	-1.03237	0.776194	-0.811476	-0.082835	0.791534	-1.60915	0.155195	0	0	0	0	0	0	0	0	0	0	0	0.000000000	-1.05164	0.788798	-0.788798	-0.092819	0.828698	-1.5708	0.125834	0.1	0.1	0.1	0.1	0.1	0	0	0	0	0	0	0.000000000
1504015801.078214883	-1.03544	0.776194	-0.811476	-0.0843689	0.791534	-1.60915	0.107442	0	0	0	0	0	0	0	0	0	0	0	0.000000000	-1.05164	0.788798	-0.788798	-0.092819	0.828698	-1.5708	0.125834	0.1	0.1	0.1	0.1	0.1	0	0	0	0	0	0	0.000000000
1504015801.098237991	-1.03697	0.776194	-0.811476	-0.0843689	0.791534	-1.60915	0.107442	0	0	0	0	0	0	0	0	0	0	0	0.000000000	-1.05164	0.788798	-0.788798	-0.092819	0.828698	-1.5708	0.125834	0.1	0.1	0.1	0.1	0.1	0	0	0	0	0	0	0.000000000
1504015801.118275880	-1.03697	0.776194	-0.811476	-0.0843689	0.791534	-1.60915	0.107442	0	0	0	0	0	0	0	0	0	0	0	0.000000000	-1.05739	0.788798	-0.788798	-0.0933261	0.828698	-1.5708	0.113758	0.1	0.1	0.1	0.1	0.1	0	0	0	0	0	0	0.000000000
1504015801.138292074	-1.04004	0.776194	-0.811476	-0.0843689	0.791534	-1.60915	0.107442	0	0	0	0	0	0	0	0	0	0	0	0.000000000	-1.05739	0.788798	-0.788798	-0.0933261	0.828698	-1.5708	0.113758	0.1	0.1	0.1	0.1	0.1	0	0	0	0	0	0	0.000000000
1504015801.158910989	-1.04311	0.776194	-0.811476	-0.0843689	0.791534	-1.60915	0.107442	0	0	0	0	0	0	0	0	0	0	0	0.000000000	-1.06254	0.788798	-0.788798	-0.0937806	0.828698	-1.5708	0.101952	0.1	0.1	0.1	0.1	0.1	0	0	0	0	0	0	0.000000000
1504015801.178147077	-1.04771	0.77466	-0.811476	-0.0859029	0.791534	-1.60915	0.155195	0	0	0	0	0	0	0	0	0	0	0	0.000000000	-1.06254	0.788798	-0.788798	-0.0937806	0.828698	-1.5708	0.101952	0.1	0.1	0.1	0.1	0.1	0	0	0	0	0	0	0.000000000
1504015801.199048042	-1.04924	0.776194	-0.811476	-0.0859029	0.791534	-1.60915	0	0	0	0	0	0	0	0	0	0	0	0	0.000000000	-1.06254	0.788798	-0.788798	-0.0937806	0.828698	-1.5708	0.101952	0.1	0.1	0.1	0.1	0.1	0	0	0	0	0	0	0.000000000
1504015801.218736886	-1.04924	0.776194	-0.811476	-0.0859029	0.791534	-1.60915	0	0	0	0	0	0	0	0	0	0	0	0	0.000000000	-1.06711	0.788798	-0.788798	-0.0941839	0.828698	-1.5708	0.1	0.1	0.1	0.1	0.1	0.1	0	0	0	0	0	0	0.000000000
1504015801.238368988	-1.05231	0.77466	-0.811476	-0.0859029	0.791534	-1.60915	0.107442	0	0	0	0	0	0	0	0	0	0	0	0.000000000	-1.06711	0.788798	-0.788798	-0.0941839	0.828698	-1.5708	0.1	0.1	0.1	0.1	0.1	0.1	0	0	0	0	0	0	0.000000000
1504015801.258234977	-1.05231	0.776194	-0.811476	-0.0859029	0.791534	-1.60915	0	0	0	0	0	0	0	0	0	0	0	0	0.000000000	-1.06711	0.788798	-0.788798	-0.0941839	0.828698	-1.5708	0.1	0.1	0.1	0.1	0.1	0.1	0	0	0	0	0	0	0.000000000
1504015801.278182983	-1.05538	0.776194	-0.811476	-0.0859029	0.791534	-1.60915	0.107442	0	0	0	0	0	0	0	0	0	0	0	0.000000000	-1.07112	0.788798	-0.788798	-0.0945379	0.828698	-1.5708	0.1	0.1	0.1	0.1	0.1	0.1	0	0	0	0	0	0	0.000000000
1504015801.298156023	-1.05538	0.776194	-0.811476	-0.0859029	0.791534	-1.60915	0.107442	0	0	0	0	0	0	0	0	0	0	0	0.000000000	-1.07112	0.788798	-0.788798	-0.0945379	0.828698	-1.5708	0.1	0.1	0.1	0.1	0.1	0.1	0	0	0	0	0	0	0.000000000
1504015801.320040941	-1.05998	0.776194	-0.811476	-0.0859029	0.791534	-1.60915	0.202947	0	0	0	0	0	0	0	0	0	0	0	0.000000000	-1.07459	0.788798	-0.788798	-0.0948445	0.828698	-1.5708	0.1	0.1	0.1	0.1	0.1	0.1	0	0	0	0	0	0	0.000000000
1504015801.339564085	-1.06305	0.77466	-0.811476	-0.0859029	0.791534	-1.60915	0.107442	0	0	0	0	0	0	0	0	0	0	0	0.000000000	-1.07459	0.788798	-0.788798	-0.0948445	0.828698	-1.5708	0.1	0.1	0.1	0.1	0.1	0.1	0	0	0	0	0	0	0.000000000
1504015801.358325958	-1.06458	0.77466	-0.811476	-0.0874369	0.791534	-1.60915	0.107442	0	0	0	0	0	0	0	0	0	0	0	0.000000000	-1.07459	0.788798	-0.788798	-0.0948445	0.828698	-1.5708	0.1	0.1	0.1	0.1	0.1	0.1	0	0	0	0	0	0	0.000000000
1504015801.379728078	-1.06458	0.77466	-0.811476	-0.0874369	0.791534	-1.60915	0	0	0	0	0	0	0	0	0	0	0	0	0.000000000	-1.07755	0.788798	-0.788798	-0.095106	0.828698	-1.5708	0.1	0.1	0.1	0.1	0.1	0.1	0	0	0	0	0	0	0.000000000
1504015801.398627042	-1.06612	0.77466	-0.811476	-0.0874369	0.791534	-1.60915	0	0	0	0	0	0	0	0	0	0	0	0	0.000000000	-1.07755	0.788798	-0.788798	-0.095106	0.828698	-1.5708	0.1	0.1	0.1	0.1	0.1	0.1	0	0	0	0	0	0	0.000000000
1504015801.418170928	-1.06612	0.77466	-0.811476	-0.0874369	0.791534	-1.60915	0	0	0	0	0	0	0	0	0	0	0	0	0.000000000	-1.08004	0.788798	-0.788798	-0.0953249	0.828698	-1.5708	0.1	0.1	0.1	0.1	0.1	0.1	0	0	0	0	0	0	0.000000000
1504015801.438101053	-1.06918	0.776194	-0.811476	-0.0874369	0.793068	-1.60915	0	0	0	0	0	0	0	0	0	0	0	0	0.000000000	-1.08004	0.788798	-0.788798	-0.0953249	0.828698	-1.5708	0.1	0.1	0.1	0.1	0.1	0.1	0	0	0	0	0	0	0.000000000
1504015801.460398912	-1.06918	0.77466	-0.811476	-0.0889709	0.791534	-1.60915	0	0	0	0	0	0	0	0	0	0	0	0	0.000000000	-1.08004	0.788798	-0.788798	-0.0953249	0.828698	-1.5708	0.1	0.1	0.1	0.1	0.1	0.1	0	0	0	0	0	0	0.000000000
1504015801.478205919	-1.06918	0.77466	-0.811476	-0.0874369	0.791534	-1.60915	0	0	0	0	0	0	0	0	0	0	0	0	0.000000000	-1.08207	0.788798	-0.788798	-0.0955041	0.828698	-1.5708	0.1	0.1	0.1	0.1	0.1	0.1	0	0	0	0	0	0	0.000000000
1504015801.503895044	-1.06918	0.77466	-0.811476	-0.0874369	0.791534	-1.60915	0	0	0	0	0	0	0	0	0	0	0	0	0.000000000	-1.08207	0.788798	-0.788798	-0.0955041	0.828698	-1.5708	0.1	0.1	0.1	0.1	0.1	0.1	0	0	0	0	0	0	0.000000000
1504015801.518749952	-1.06918	0.77466	-0.811476	-0.0874369	0.791534	-1.60915	0	0	0	0	0	0	0	0	0	0	0	0	0.000000000	-1.08368	0.788798	-0.788798	-0.0956468	0.828698	-1.5708	0.1	0.1	0.1	0.1	0.1	0.1	0	0	0	0	0	0	0.000000000
1504015801.538106918	-1.07072	0.776194	-0.811476	-0.0889709	0.791534	-1.60915	0	0	0	0	0	0	0	0	0	0	0	0	0.000000000	-1.08368	0.788798	-0.788798	-0.0956468	0.828698	-1.5708	0.1	0.1	0.1	0.1	0.1	0.1	0	0	0	0	0	0	0.000000000
1504015801.558145046	-1.07379	0.776194	-0.81301	-0.0889709	0.791534	-1.60915	0.107442	0	0	0	0	0	0	0	0	0	0	0	0.000000000	-1.08368	0.788798	-0.788798	-0.0956468	0.828698	-1.5708	0.1	0.1	0.1	0.1	0.1	0.1	0	0	0	0	0	0	0.000000000
1504015801.578644037	-1.07379	0.776194	-0.81301	-0.0889709	0.791534	-1.60915	0.107442	0	0	0	0	0	0	0	0	0	0	0	0.000000000	-1.08492	0.788798	-0.788798	-0.0957564	0.828698	-1.5708	0.1	0.1	0.1	0.1	0.1	0.1	0	0	0	0	0	0	0.000000000
1504015801.598237037	-1.07379	0.77466	-0.811476	-0.0889709	0.791534	-1.60915	0	0	0	0	0	0	0	0	0	0	0	0	0.000000000	-1.08492	0.788798	-0.788798	-0.0957564	0.828698	-1.5708	0.1	0.1	0.1	0.1	0.1	0.1	0	0	0	0	0	0	0.000000000
1504015801.618096113	-1.07379	0.776194	-0.811476	-0.0889709	0.791534	-1.60915	0	0	0	0	0	0	0	0	0	0	0	0	0.000000000	-1.08583	0.788798	-0.788798	-0.0958366	0.828698	-1.5708	0.1	0.1	0.1	0.1	0.1	0.1	0	0	0	0	0	0	0.000000000
1504015801.638113975	-1.07379	0.77466	-0.811476	-0.0889709	0.791534	-1.60915	0	0	0	0	0	0	0	0	0	0	0	0	0.000000000	-1.08583	0.788798	-0.788798	-0.0958366	0.828698	-1.5708	0.1	0.1	0.1	0.1	0.1	0.1	0	0	0	0	0	0	0.000000000
1504015801.658087968	-1.07532	0.776194	-0.811476	-0.0889709	0.791534	-1.60915	0	0	0	0	0	0	0	0	0	0	0	0	0.000000000	-1.08583	0.788798	-0.788798	-0.0958366	0.828698	-1.5708	0.1	0.1	0.1	0.1	0.1	0.1	0	0	0	0	0	0	0.000000000
1504015801.681824922	-1.07379	0.776194	-0.811476	-0.0889709	0.791534	-1.60915	0	0	0	0	0	0	0	0	0	0	0	0	0.000000000	-1.08646	0.788798	-0.788798	-0.0958915	0.828698	-1.5708	0.1	0.1	0.1	0.1	0.1	0.1	0	0	0	0	0	0	0.000000000
1504015801.699419975	-1.07379	0.77466	-0.811476	-0.0889709	0.791534	-1.60915	0	0	0	0	0	0	0	0	0	0	0	0	0.000000000	-1.08646	0.788798	-0.788798	-0.0958915	0.828698	-1.5708	0.1	0.1	0.1	0.1	0.1	0.1	0	0	0	0	0	0	0.000000000
1504015801.722039937	-1.07379	0.77466	-0.811476	-0.0889709	0.791534	-1.60915	0	0	0	0	0	0	0	0	0	0	0	0	0.000000000	-1.08684	0.788798	-0.788798	-0.0959256	0.828698	-1.5708	0.1	0.1	0.1	0.1	0.1	0.1	0	0	0	0	0	0	0.000000000
1504015801.738172054	-1.07379	0.77466	-0.811476	-0.0889709	0.791534	-1.60915	0	0	0	0	0	0	0	0	0	0	0	0	0.000000000	-1.08684	0.788798	-0.788798	-0.0959256	0.828698	-1.5708	0.1	0.1	0.1	0.1	0.1	0.1	0	0	0	0	0	0	0.000000000
1504015801.758621931	-1.07379	0.77466	-0.811476	-0.0889709	0.791534	-1.60915	0	0	0	0	0	0	0	0	0	0	0	0	0.000000000	-1.08684	0.788798	-0.788798	-0.0959256	0.828698	-1.5708	0.1	0.1	0.1	0.1	0.1	0.1	0	0	0	0	0	0	0.000000000
1504015801.778110980	-1.07532	0.776194	-0.811476	-0.0889709	0.791534	-1.60915	0	0	0	0	0	0	0	0	0	0	0	0	0.000000000	-1.08704	0.788798	-0.788798	-0.0959434	0.828698	-1.5708	0.1	0.1	0.1	0.1	0.1	0.1	0	0	0	0	0	0	0.000000000
1504015801.798177957	-1.07532	0.776194	-0.811476	-0.0889709	0.791534	-1.60915	0	0	0	0	0	0	0	0	0	0	0	0	0.000000000	-1.08704	0.788798	-0.788798	-0.0959434	0.828698	-1.5708	0.1	0.1	0.1	0.1	0.1	0.1	0	0	0	0	0	0	0.000000000
1504015801.818133115	-1.07685	0.77466	-0.811476	-0.0889709	0.791534	-1.60915	0	0	0	0	0	0	0	0	0	0	0	0	0.000000000	-1.08712	0.788798	-0.788798	-0.0959501	0.828698	-1.5708	0.1	0.1	0.1	0.1	0.1	0.1	0	0	0	0	0	0	0.000000000
1504015801.839167118	-1.07532	0.776194	-0.811476	-0.0889709	0.791534	-1.60915	0	0	0	0	0	0	0	0	0	0	0	0	0.000000000	-1.08712	0.788798	-0.788798	-0.0959501	0.828698	-1.5708	0.1	0.1	0.1	0.1	0.1	0.1	0	0	0	0	0	0	0.000000000
1504015801.861145973	-1.07532	0.776194	-0.811476	-0.0889709	0.791534	-1.60915	0	0	0	0	0	0	0	0	0	0	0	0	0.000000000	-1.08712	0.788798	-0.788798	-0.0959501	0.828698	-1.5708	0.1	0.1	0.1	0.1	0.1	0.1	0	0	0	0	0	0	0.000000000
1504015801.878720998	-1.07532	0.776194	-0.811476	-0.0889709	0.791534	-1.60915	0	0	0	0	0	0	0	0	0	0	0	0	0.000000000	-1.08713	0.788798	-0.788798	-0.0959511	0.828698	-1.5708	0.1	0.1	0.1	0.1	0.1	0.1	0	0	0	0	0	0	0.000000000
1504015801.898515939	-1.07532	0.77466	-0.811476	-0.0889709	0.793068	-1.60915	0	0	0	0	0	0	0	0	0	0	0	0	0.000000000	-1.08713	0.788798	-0.788798	-0.0959511	0.828698	-1.5708	0.1	0.1	0.1	0.1	0.1	0.1	0	0	0	0	0	0	0.000000000
1504015801.918998003	-1.07532	0.77466	-0.811476	-0.0889709	0.793068	-1.60915	0	0	0	0	0	0	0	0	0	0	0	0	0.000000000	-1.08713	0.788806	-0.788811	-0.0959511	0.82869	-1.5708	0.1	0.1	0.1	0.1	0.1	0.1	0	0	0	0	0	0	0.000000000
1504015801.938288927	-1.07532	0.77466	-0.811476	-0.0889709	0.791534	-1.60915	0	0	0	0	0	0	0	0	0	0	0	0	0.000000000	-1.08713	0.788806	-0.788811	-0.0959511	0.82869	-1.5708	0.1	0.1	0.1	0.1	0.1	0.1	0	0	0	0	0	0	0.000000000
1504015801.958334922	-1.07532	0.77466	-0.811476	-0.0889709	0.791534	-1.60915	0	0	0	0	0	0	0	0	0	0	0	0	0.000000000	-1.08713	0.788806	-0.788811	-0.0959511	0.82869	-1.5708	0.1	0.1	0.1	0.1	0.1	0.1	0	0	0	0	0	0	0.000000000
1504015801.978215932	-1.07532	0.776194	-0.811476	-0.0889709	0.793068	-1.60915	0	0	0	0	0	0	0	0	0	0	0	0	0.000000000	-1.08712	0.788858	-0.788903	-0.0959534	0.828637	-1.57084	0.1	0.1	0.1	0.1	0.1	0.1	0	0	0	0	0	0	0.000000000
1504015801.998332977	-1.07532	0.77466	-0.811476	-0.0889709	0.793068	-1.60915	0	0	0	0	0	0	0	0	0	0	0	0	0.000000000	-1.08712	0.788858	-0.788903	-0.0959534	0.828637	-1.57084	0.1	0.1	0.1	0.1	0.1	0.1	0	0	0	0	0	0	0.000000000
1504015802.018484115	-1.07532	0.77466	-0.811476	-0.0889709	0.791534	-1.60915	0	0	0	0	0	0	0	0	0	0	0	0	0.000000000	-1.08709	0.788997	-0.789147	-0.0959597	0.828495	-1.57095	0.1	0.1	0.1	0.1	0.1	0.1	0	0	0	0	0	0	0.000000000
1504015802.038717985	-1.07532	0.77466	-0.811476	-0.0905049	0.793068	-1.60915	0	0	0	0	0	0	0	0	0	0	0	0	0.000000000	-1.08709	0.788997	-0.789147	-0.0959597	0.828495	-1.57095	0.1	0.1	0.1	0.1	0.1	0.1	0	0	0	0	0	0	0.000000000
1504015802.058182001	-1.07532	0.776194	-0.811476	-0.0905049	0.791534	-1.60915	0	0	0	0	0	0	0	0	0	0	0	0	0.000000000	-1.08709	0.788997	-0.789147	-0.0959597	0.828495	-1.57095	0.1	0.1	0.1	0.1	0.1	0.1	0	0	0	0	0	0	0.000000000
1504015802.078165054	-1.07532	0.77466	-0.811476	-0.0889709	0.791534	-1.60915	0	0	0	0	0	0	0	0	0	0	0	0	0.000000000	-1.08704	0.789262	-0.789611	-0.0959717	0.828225	-1.57115	0.1	0.1	0.1	0.1	0.1	0.1	0	0	0	0	0	0	0.000000000
1504015802.098562955	-1.07532	0.77466	-0.811476	-0.0889709	0.793068	-1.60915	0	0	0	0	0	0	0	0	0	0	0	0	0.000000000	-1.08704	0.789262	-0.789611	-0.0959717	0.828225	-1.57115	0.1	0.1	0.1	0.1	0.1	0.1	0	0	0	0	0	0	0.000000000
1504015802.118196964	-1.07532	0.77466	-0.811476	-0.0889709	0.793068	-1.60915	0	0	0	0	0	0	0	0	0	0	0	0	0.000000000	-1.08704	0.789262	-0.789611	-0.0959717	0.828225	-1.57115	0.1	0.1	0.1	0.1	0.1	0.1	0	0	0	0	0	0	0.000000000
1504015802.138180017	-1.07532	0.77466	-0.811476	-0.0905049	0.791534	-1.60915	0	0	0	0	0	0	0	0	0	0	0	0	0.000000000	-1.08696	0.789691	-0.790362	-0.0959912	0.827789	-1.57147	0.1	0.1	0.1	0.1	0.1	0.1	0	0	0	0	0	0	0.000000000
1504015802.158202886	-1.07532	0.776194	-0.811476	-0.0905049	0.791534	-1.60915	0	0	0	0	0	0	0	0	0	0	0	0	0.000000000	-1.08696	0.789691	-0.790362	-0.0959912	0.827789	-1.57147	0.1	0.1	0.1	0.1	0.1	0.1	0	0	0	0	0	0	0.000000000
1504015802.178586006	-1.07685	0.776194	-0.811476	-0.0905049	0.791534	-1.60915	0	0	0	0	0	0	0	0	0	0	0	0	0.000000000	-1.08683	0.790319	-0.791458	-0.0960198	0.827151	-1.57194	0.1	0.1	0.1	0.1	0.1	0.1	0	0	0	0	0	0	0.000000000
1504015802.198156118	-1.07532	0.77466	-0.811476	-0.0889709	0.793068	-1.60915	0	0	0	0	0	0	0	0	0	0	0	0	0.000000000	-1.08683	0.790319	-0.791458	-0.0960198	0.827151	-1.57194	0.1	0.1	0.1	0.1	0.1	0.1	0	0	0	0	0	0	0.000000000
1504015802.219944953	-1.07532	0.77466	-0.811476	-0.0889709	0.793068	-1.60915	0	0	0	0	0	0	0	0	0	0	0	0	0.000000000	-1.08667	0.791178	-0.792954	-0.0960591	0.826281	-1.57258	0.1	0.1	0.1	0.1	0.1	0.1	0	0	0	0	0	0	0.000000000
1504015802.239516019	-1.07532	0.77466	-0.811476	-0.0905049	0.791534	-1.60915	0	0	0	0	0	0	0	0	0	0	0	0	0.000000000	-1.08667	0.791178	-0.792954	-0.0960591	0.826281	-1.57258	0.1	0.1	0.1	0.1	0.1	0.1	0	0	0	0	0	0	0.000000000
1504015802.258047103	-1.07532	0.77466	-0.811476	-0.0889709	0.791534	-1.60915	0	0	0	0	0	0	0	0	0	0	0	0	0.000000000	-1.08667	0.791178	-0.792954	-0.0960591	0.826281	-1.57258	0.1	0.1	0.1	0.1	0.1	0.1	0	0	0	0	0	0	0.000000000
1504015802.278274059	-1.07532	0.776194	-0.811476	-0.0905049	0.791534	-1.60915	0	0	0	0	0	0	0	0	0	0	0	0	0.000000000	-1.08645	0.792301	-0.794902	-0.0961106	0.825149	-1.57342	0.1	0.1	0.1	0.1	0.1	0.1	0	0	0	0	0	0	0.000000000
1504015802.298618078	-1.07532	0.77466	-0.811476	-0.0905049	0.791534	-1.60915	0	0	0	0	0	0	0	0	0	0	0	0	0.000000000	-1.08645	0.792301	-0.794902	-0.0961106	0.825149	-1.57342	0.1	0.1	0.1	0.1	0.1	0.1	0	0	0	0	0	0	0.000000000
1504015802.320014953	-1.07532	0.77466	-0.811476	-0.0905049	0.791534	-1.60915	0	0	0	0	0	0	0	0	0	0	0	0	0.000000000	-1.08645	0.792301	-0.794902	-0.0961106	0.825149	-1.57342	0.1	0.1	0.1	0.1	0.1	0.1	0	0	0	0	0	0	0.000000000
1504015802.338296890	-1.07532	0.77466	-0.811476	-0.0905049	0.791534	-1.60915	0	0	0	0	0	0	0	0	0	0	0	0	0.000000000	-1.08618	0.793717	-0.797347	-0.096176	0.823728	-1.57446	0.1	0.1	0.1	0.1	0.1	0.1	0	0	0	0	0	0	0.000000000
1504015802.358107089	-1.07532	0.77466	-0.811476	-0.0905049	0.793068	-1.60915	0	0	0	0	0	0	0	0	0	0	0	0	0.000000000	-1.08618	0.793717	-0.797347	-0.096176	0.823728	-1.57446	0.1	0.1	0.1	0.1	0.1	0.1	0	0	0	0	0	0	0.000000000
1504015802.378340959	-1.07532	0.77466	-0.811476	-0.0905049	0.793068	-1.60915	0	0	0	0	0	0	0	0	0	0	0	0	0.000000000	-1.08584	0.795456	-0.800333	-0.0962569	0.821994	-1.57574	0.1	0.1	0.1	0.1	0.1	0.1	0	0	0	0	0	0	0.000000000
1504015802.398308038	-1.07532	0.776194	-0.811476	-0.0905049	0.791534	-1.60915	0	0	0	0	0	0	0	0	0	0	0	0	0.000000000	-1.08584	0.795456	-0.800333	-0.0962569	0.821994	-1.57574	0.1	0.1	0.1	0.1	0.1	0.1	0	0	0	0	0	0	0.000000000
1504015802.418047904	-1.07532	0.776194	-0.811476	-0.0905049	0.791534	-1.60915	0	0	0	0	0	0	0	0	0	0	0	0	0.000000000	-1.08584	0.795456	-0.800333	-0.0962569	0.821994	-1.57574	0.1	0.1	0.1	0.1	0.1	0.1	0	0	0	0	0	0	0.000000000
1504015802.438179016	-1.07532	0.776194	-0.811476	-0.0905049	0.791534	-1.60915	0	0	0	0	0	0	0	0	0	0	0	0	0.000000000	-1.08545	0.797545	-0.803895	-0.0963549	0.819926	-1.57726	0.1	0.1	0.1	0.1	0.1	0.1	0	0	0	0	0	0	0.000000000
1504015802.458406925	-1.07532	0.776194	-0.811476	-0.0905049	0.793068	-1.60915	0	0	0	0	0	0	0	0	0	0	0	0	0.000000000	-1.08545	0.797545	-0.803895	-0.0963549	0.819926	-1.57726	0.1	0.1	0.1	0.1	0.1	0.1	0	0	0	0	0	0	0.000000000
1504015802.478166103	-1.07532	0.77466	-0.811476	-0.0905049	0.791534	-1.60915	0	0	0	0	0	0	0	0	0	0	0	0	0.000000000	-1.08498	0.800012	-0.808068	-0.0964718	0.817504	-1.57903	0.1	0.1	0.1	0.1	0.1	0.1	0	0	0	0	0	0	0.000000000
1504015802.498260021	-1.07532	0.77466	-0.81301	-0.0905049	0.793068	-1.60915	0	0	0	0	0	0	0	0	0	0	0	0	0.000000000	-1.08498	0.800012	-0.808068	-0.0964718	0.817504	-1.57903	0.1	0.1	0.1	0.1	0.1	0.1	0	0	0	0	0	0	0.000000000
1504015802.519059896	-1.07532	0.77466	-0.81301	-0.0905049	0.793068	-1.60915	0	0	0	0	0	0	0	0	0	0	0	0	0.000000000	-1.08498	0.800012	-0.808068	-0.0964718	0.817504	-1.57903	0.1	0.1	0.1	0.1	0.1	0.1	0	0	0	0	0	0	0.000000000
1504015802.538501977	-1.07532	0.776194	-0.814544	-0.0905049	0.791534	-1.60915	0	0	0	0	0	0	0	0	0	0	0	0	0.000000000	-1.08444	0.802884	-0.81288	-0.0966095	0.814713	-1.58107	0.1	0.1	0.1	0.1	0.1	0.1	0	0	0	0	0	0	0.000000000
1504015802.558773994	-1.07532	0.77466	-0.814544	-0.0905049	0.791534	-1.60915	0	0	0	0	0	0	0	0	0	0	0	0	0.000000000	-1.08444	0.802884	-0.81288	-0.0966095	0.814713	-1.58107	0.1	0.1	0.1	0.1	0.1	0.1	0	0	0	0	0	0	0.000000000
1504015802.579062938	-1.07532	0.77466	-0.814544	-0.0905049	0.791534	-1.60915	0	0	0	0	0	0	0	0	0	0	0	0	0.000000000	-1.08382	0.806187	-0.818356	-0.0967699	0.811538	-1.58339	0.1	0.1	0.108425	0.1	0.1	0.1	0	0	0	0	0	0	0.000000000
1504015802.600380897	-1.07532	0.77466	-0.817612	-0.0905049	0.791534	-1.60915	0	0	0.107442	0	0	0	0	0	0	0	0	0	0.000000000	-1.08382	0.806187	-0.818356	-0.0967699	0.811538	-1.58339	0.1	0.1	0.108425	0.1	0.1	0.1	0	0	0	0	0	0	0.000000000
1504015802.618726968	-1.07532	0.77466	-0.817612	-0.0905049	0.791534	-1.60915	0	0	0.107442	0	0	0	0	0	0	0	0	0	0.000000000	-1.08382	0.806187	-0.818356	-0.0967699	0.811538	-1.58339	0.1	0.1	0.108425	0.1	0.1	0.1	0	0	0	0	0	0	0.000000000
1504015802.639341115	-1.07532	0.77466	-0.82068	-0.0905049	0.793068	-1.60915	0	0	0.107442	0	0	0	0	0	0	0	0	0	0.000000000	-1.08313	0.809949	-0.824516	-0.0969551	0.80797	-1.58599	0.1	0.1	0.121979	0.1	0.1	0.1	0	0	0	0	0	0	0.000000000
1504015802.658082008	-1.07532	0.776194	-0.823748	-0.0905049	0.791534	-1.60915	0	0	0.155195	0	0	0	0	0	0	0	0	0	0.000000000	-1.08313	0.809949	-0.824516	-0.0969551	0.80797	-1.58599	0.1	0.1	0.121979	0.1	0.1	0.1	0	0	0	0	0	0	0.000000000
1504015802.678126096	-1.07532	0.77466	-0.826816	-0.0905049	0.791534	-1.60915	0	0	0.155195	0	0	0	0	0	0	0	0	0	0.000000000	-1.08235	0.814194	-0.831378	-0.0971674	0.803997	-1.58887	0.1	0.1	0.135859	0.1	0.1	0.1	0	0	0	0	0	0	0.000000000
1504015802.698144912	-1.07532	0.77466	-0.82835	-0.0905049	0.791534	-1.60915	0	0	0.107442	0	0	0	0	0	0	0	0	0	0.000000000	-1.08235	0.814194	-0.831378	-0.0971674	0.803997	-1.58887	0.1	0.1	0.135859	0.1	0.1	0.1	0	0	0	0	0	0	0.000000000
1504015802.720546960	-1.07532	0.77466	-0.831418	-0.0905049	0.791534	-1.60915	0	0	0.107442	0	0	0	0	0	0	0	0	0	0.000000000	-1.08235	0.814194	-0.831378	-0.0971674	0.803997	-1.58887	0.1	0.1	0.135859	0.1	0.1	0.1	0	0	0	0	0	0	0.000000000
1504015802.738102912	-1.07532	0.77466	-0.831418	-0.0905049	0.791534	-1.60915	0	0	0.107442	0	0	0	0	0	0	0	0	0	0.000000000	-1.0815	0.81895	-0.838952	-0.0974093	0.799615	-1.59204	0.1	0.1	0.149975	0.1	0.1	0.1	0	0	0	0	0	0	0.000000000
1504015802.758126974	-1.07532	0.776194	-0.834486	-0.0905049	0.791534	-1.60915	0	0	0.155195	0	0	0	0	0	0	0	0	0	0.000000000	-1.0815	0.81895	-0.838952	-0.0974093	0.799615	-1.59204	0.1	0.1	0.149975	0.1	0.1	0.1	0	0	0	0	0	0	0.000000000
1504015802.778131961	-1.07685	0.776194	-0.839087	-0.0905049	0.791534	-1.60915	0	0	0.155195	0	0	0	0	0	0	0	0	0	0.000000000	-1.08055	0.824242	-0.847248	-0.0976833	0.794819	-1.5955	0.1	0.104785	0.164255	0.1	0.1	0.1	0	0	0	0	0	0	0.000000000
1504015802.798173904	-1.07685	0.776194	-0.843689	-0.0905049	0.791534	-1.60915	0	0	0.155195	0	0	0	0	0	0	0	0	0	0.000000000	-1.08055	0.824242	-0.847248	-0.0976833	0.794819	-1.5955	0.1	0.104785	0.164255	0.1	0.1	0.1	0	0	0	0	0	0	0.000000000
1504015802.818434953	-1.07685	0.776194	-0.843689	-0.0905049	0.791534	-1.60915	0	0	0.155195	0	0	0	0	0	0	0	0	0	0.000000000	-1.08055	0.824242	-0.847248	-0.0976833	0.794819	-1.5955	0.1	0.104785	0.164255	0.1	0.1	0.1	0	0	0	0	0	0	0.000000000
1504015802.838213920	-1.07685	0.776194	-0.848291	-0.0905049	0.791534	-1.60915	0	0	0.155195	0	0	0	0	0	0	0	0	0	0.000000000	-1.07952	0.830097	-0.856269	-0.0979922	0.789607	-1.59925	0.1	0.115927	0.178612	0.1	0.103198	0.1	0	0	0	0	0	0	0.000000000
1504015802.858153104	-1.07839	0.776194	-0.851359	-0.0905049	0.79	-1.60915	0	0	0.155195	0	0	0	0	0	0	0	0	0	0.000000000	-1.07952	0.830097	-0.856269	-0.0979922	0.789607	-1.59925	0.1	0.115927	0.178612	0.1	0.103198	0.1	0	0	0	0	0	0	0.000000000
1504015802.878202915	-1.07992	0.776194	-0.854427	-0.0905049	0.788466	-1.60915	0	0	0.155195	0	0	0	0	0	0	0	0	0	0.000000000	-1.07841	0.83654	-0.866014	-0.0983391	0.783979	-1.60327	0.1	0.127585	0.192967	0.1	0.111428	0.1	0	0	0	0	0	0	0.000000000
1504015802.898520946	-1.07992	0.777728	-0.859029	-0.0905049	0.788466	-1.60915	0	0	0.202947	0	0	0	0	0	0	0	0	0	0.000000000	-1.07841	0.83654	-0.866014	-0.0983391	0.783979	-1.60327	0.1	0.127585	0.192967	0.1	0.111428	0.1	0	0	0	0	0	0	0.000000000
1504015802.919898033	-1.07992	0.777728	-0.859029	-0.0905049	0.785398	-1.61221	0	0	0.202947	0	0.107442	0.107442	0	0	0	0	0	0	0.000000000	-1.07841	0.83654	-0.866014	-0.0983391	0.783979	-1.60327	0.1	0.127585	0.192967	0.1	0.111428	0.1	0	0	0	0	0	0	0.000000000
1504015802.938206911	-1.07992	0.78233	-0.865165	-0.0905049	0.78233	-1.61528	0	0.0955044	0.202947	0	0	0.107442	0	0	0	0	0	0	0.000000000	-1.07721	0.843598	-0.876481	-0.0987271	0.777938	-1.60757	0.1	0.139751	0.207235	0.1	0.119611	0.1	0	0	0	0	0	0	0.000000000
1504015802.958092927	-1.07992	0.785398	-0.869767	-0.0905049	0.779262	-1.61528	0	0.0955044	0.202947	0	0.107442	0	0	0	0	0	0	0	0.000000000	-1.07721	0.843598	-0.876481	-0.0987271	0.777938	-1.60757	0.1	0.139751	0.207235	0.1	0.119611	0.1	0	0	0	0	0	0	0.000000000
1504015802.978715896	-1.07992	0.788466	-0.872835	-0.0905049	0.776194	-1.61682	0	0.143257	0.202947	0	0.107442	0	0	0	0	0	0	0	0.000000000	-1.07592	0.851297	-0.887659	-0.0991595	0.771488	-1.61214	0.1	0.152422	0.221338	0.1	0.127708	0.1	0	0	0	0	0	0	0.000000000
1504015802.998147964	-1.07992	0.796136	-0.877437	-0.0920388	0.773126	-1.61988	0	0.191009	0.155195	0	0.107442	0.107442	0	0	0	0	0	0	0.000000000	-1.07592	0.851297	-0.887659	-0.0991595	0.771488	-1.61214	0.1	0.152422	0.221338	0.1	0.127708	0.1	0	0	0	0	0	0	0.000000000
1504015803.018591880	-1.07992	0.799204	-0.883573	-0.0905049	0.770058	-1.61988	0	0.143257	0.202947	0	0.107442	0.107442	0	0	0	0	0	0	0.000000000	-1.07592	0.851297	-0.887659	-0.0991595	0.771488	-1.61214	0.1	0.152422	0.221338	0.1	0.127708	0.1	0	0	0	0	0	0	0.000000000
1504015803.038067102	-1.07992	0.799204	-0.883573	-0.0905049	0.770058	-1.62295	0	0.143257	0.202947	0	0.107442	0.155195	0	0	0	0	0	0	0.000000000	-1.07454	0.85966	-0.899538	-0.0996399	0.764636	-1.61697	0.1	0.165586	0.235198	0.1	0.135684	0.1	0	0	0	0	0	0	0.000000000
1504015803.058180093	-1.07992	0.806874	-0.889709	-0.0920388	0.765456	-1.62449	0	0.238761	0.250699	0	0.155195	0.107442	0	0	0	0	0	0	0.000000000	-1.07454	0.85966	-0.899538	-0.0996399	0.764636	-1.61697	0.1	0.165586	0.235198	0.1	0.135684	0.1	0	0	0	0	0	0	0.000000000
1504015803.078149080	-1.07992	0.811476	-0.895845	-0.0935728	0.762388	-1.62449	0	0.191009	0.250699	0	0.107442	0	0	0	0	0	0	0	0.000000000	-1.07307	0.85966	-0.899538	-0.0996399	0.764636	-1.61697	0.1	0.165586	0.235198	0.1	0.135684	0.1	0	0	0	0	0	0	0.000000000
1504015803.098644971	-1.07992	0.816078	-0.901981	-0.0935728	0.75932	-1.62755	0	0.143257	0.250699	0	0.107442	0.107442	0	0	0	0	0	0	0.000000000	-1.07307	0.868711	-0.9121	-0.100172	0.757388	-1.62206	0.1	0.179228	0.248731	0.1	0.143502	0.100653	0	0	0	0	0	0	0.000000000
1504015803.118411064	-1.07992	0.816078	-0.901981	-0.0935728	0.75932	-1.62755	0	0.143257	0.250699	0	0.107442	0.107442	0	0	0	0	0	0	0.000000000	-1.07307	0.868711	-0.9121	-0.100172	0.757388	-1.62206	0.1	0.179228	0.248731	0.1	0.143502	0.100653	0	0	0	0	0	0	0.000000000
1504015803.138215065	-1.07992	0.817612	-0.908117	-0.0935728	0.756253	-1.63062	0	0.0955044	0.250699	0	0.155195	0.155195	0	0	0	0	0	0	0.000000000	-1.07152	0.878475	-0.925325	-0.10076	0.749756	-1.62738	0.1	0.193324	0.261852	0.1	0.151127	0.105415	0	0	0	0	0	0	0.000000000
1504015803.158232927	-1.07992	0.819146	-0.914253	-0.0935728	0.753185	-1.63369	0	0	0.250699	0	0.107442	0.107442	0	0	0	0	0	0	0.000000000	-1.07152	0.878475	-0.925325	-0.10076	0.749756	-1.62738	0.1	0.193324	0.261852	0.1	0.151127	0.105415	0	0	0	0	0	0	0.000000000
1504015803.178122043	-1.07992	0.822214	-0.918854	-0.0935728	0.750117	-1.63522	0	0.0955044	0.250699	0	0.107442	0.107442	0	0	0	0	0	0	0.000000000	-1.06988	0.888973	-0.939188	-0.101407	0.741749	-1.63294	0.1	0.207849	0.274485	0.1	0.15853	0.109947	0	0	0	0	0	0	0.000000000
1504015803.199841976	-1.07992	0.82835	-0.926524	-0.0951068	0.747049	-1.63983	0	0.191009	0.250699	0	0.107442	0.107442	0	0	0	0	0	0	0.000000000	-1.06988	0.888973	-0.939188	-0.101407	0.741749	-1.63294	0.1	0.207849	0.274485	0.1	0.15853	0.109947	0	0	0	0	0	0	0.000000000
1504015803.218120098	-1.07992	0.82835	-0.926524	-0.0951068	0.747049	-1.63983	0	0.191009	0.250699	0	0.107442	0.107442	0	0	0	0	0	0	0.000000000	-1.06988	0.888973	-0.939188	-0.101407	0.741749	-1.63294	0.1	0.207849	0.274485	0.1	0.15853	0.109947	0	0	0	0	0	0	0.000000000
1504015803.238224983	-1.07992	0.834486	-0.93266	-0.0951068	0.742447	-1.64136	0	0.286513	0.250699	0	0.155195	0.107442	0	0	0	0	0	0	0.000000000	-1.06815	0.900224	-0.95366	-0.102118	0.733381	-1.6387	0.1	0.222772	0.28655	0.1	0.165682	0.114222	0	0	0	0	0	0	0.000000000
1504015803.258167982	-1.07992	0.842155	-0.94033	-0.0951068	0.737845	-1.64443	0	0.334265	0.298451	0	0.155195	0.107442	0	0	0	0	0	0	0.000000000	-1.06815	0.900224	-0.95366	-0.102118	0.733381	-1.6387	0.1	0.222772	0.28655	0.1	0.165682	0.114222	0	0	0	0	0	0	0.000000000
1504015803.278147935	-1.07992	0.848291	-0.944932	-0.0951068	0.733243	-1.6475	0	0.238761	0.250699	0	0.202947	0.155195	0	0	0	0	0	0	0.000000000	-1.06815	0.900224	-0.95366	-0.102118	0.733381	-1.6387	0.1	0.222772	0.28655	0.1	0.165682	0.114222	0	0	0	0	0	0	0.000000000
1504015803.298106908	-1.07992	0.857495	-0.952602	-0.0966408	0.730175	-1.6521	0	0.286513	0.250699	0	0.155195	0.155195	0	0	0	0	0	0	0.000000000	-1.06635	0.912247	-0.968709	-0.102897	0.724666	-1.64468	0.1	0.238057	0.297965	0.1	0.172558	0.118235	0	0	0	0	0	0	0.000000000
1504015803.319858074	-1.07992	0.857495	-0.952602	-0.0966408	0.730175	-1.6521	0	0.286513	0.250699	0	0.155195	0.155195	0	0	0	0	0	0	0.000000000	-1.06635	0.912247	-0.968709	-0.102897	0.724666	-1.64468	0.1	0.238057	0.297965	0.1	0.172558	0.118235	0	0	0	0	0	0	0.000000000
1504015803.338278055	-1.07992	0.863631	-0.961806	-0.0966408	0.724039	-1.6521	0	0.238761	0.298451	0	0.202947	0	0	0	0	0	0	0	0.000000000	-1.06446	0.925057	-0.984297	-0.103749	0.715619	-1.65084	0.1	0.253646	0.308647	0.1	0.179128	0.121966	0	0	0	0	0	0	0.000000000
1504015803.358637094	-1.07992	0.868233	-0.967942	-0.0981748	0.720971	-1.65517	0	0.191009	0.298451	0	0.155195	0.107442	0	0	0	0	0	0	0.000000000	-1.06446	0.925057	-0.984297	-0.103749	0.715619	-1.65084	0.1	0.253646	0.308647	0.1	0.179128	0.121966	0	0	0	0	0	0	0.000000000
1504015803.378153085	-1.07992	0.872835	-0.974078	-0.0981748	0.717903	-1.65823	0	0.191009	0.298451	0	0.107442	0.107442	0	0	0	0	0	0	0.000000000	-1.06446	0.925057	-0.984297	-0.103749	0.715619	-1.65084	0.1	0.253646	0.308647	0.1	0.179128	0.121966	0	0	0	0	0	0	0.000000000
1504015803.398143053	-1.07992	0.872835	-0.974078	-0.0981748	0.717903	-1.65823	0	0.191009	0.298451	0	0.107442	0.107442	0	0	0	0	0	0	0.000000000	-1.06248	0.938668	-1.00038	-0.104677	0.706257	-1.65717	0.1	0.269499	0.318525	0.1	0.185379	0.125412	0	0	0	0	0	0	0.000000000
1504015803.420627117	-1.07992	0.886641	-0.990952	-0.0981748	0.708699	-1.66284	0	0.238761	0.298451	0	0.155195	0.107442	0	0	0	0	0	0	0.000000000	-1.06248	0.938668	-1.00038	-0.104677	0.706257	-1.65717	0.1	0.269499	0.318525	0.1	0.185379	0.125412	0	0	0	0	0	0	0.000000000
1504015803.438360929	-1.07992	0.886641	-0.990952	-0.0981748	0.708699	-1.66284	0	0.238761	0.298451	0	0.155195	0.107442	0	0	0	0	0	0	0.000000000	-1.06043	0.95309	-1.01693	-0.105686	0.696596	-1.66366	0.1	0.285548	0.327516	0.1	0.191287	0.128558	0	0	0	0	0	0	0.000000000
1504015803.458275079	-1.07992	0.894311	-1.00016	-0.0981748	0.704097	-1.66744	0	0.286513	0.346204	0	0.155195	0.155195	0	0	0	0	0	0	0.000000000	-1.06043	0.95309	-1.01693	-0.105686	0.696596	-1.66366	0.1	0.285548	0.327516	0.1	0.191287	0.128558	0	0	0	0	0	0	0.000000000
1504015803.478161096	-1.07992	0.901981	-1.00629	-0.0997088	0.699495	-1.67051	0	0.238761	0.298451	0	0.202947	0.107442	0	0	0	0	0	0	0.000000000	-1.06043	0.95309	-1.01693	-0.105686	0.696596	-1.66366	0.1	0.285548	0.327516	0.1	0.191287	0.128558	0	0	0	0	0	0	0.000000000
1504015803.498786926	-1.07839	0.909651	-1.0155	-0.0997088	0.694893	-1.67357	0	0.286513	0.346204	0	0.202947	0.107442	0	0	0	0	0	0	0.000000000	-1.05831	0.968329	-1.03387	-0.106782	0.686655	-1.6703	0.1	0.301732	0.335555	0.1	0.196835	0.131412	0	0	0	0	0	0	0.000000000
1504015803.523147106	-1.07685	0.917321	-1.02317	-0.101243	0.688757	-1.67664	0	0.286513	0.250699	0	0.202947	0.107442	0	0	0	0	0	0	0.000000000	-1.05831	0.968329	-1.03387	-0.106782	0.686655	-1.6703	0.1	0.301732	0.335555	0.1	0.196835	0.131412	0	0	0	0	0	0	0.000000000
1504015803.538266897	-1.07685	0.917321	-1.02317	-0.101243	0.688757	-1.67664	0	0.286513	0.250699	0	0.202947	0.107442	0	0	0	0	0	0	0.000000000	-1.05611	0.984388	-1.05117	-0.107967	0.676452	-1.67706	0.1	0.317978	0.342566	0.1	0.20201	0.133962	0	0	0	0	0	0	0.000000000
1504015803.558203935	-1.07379	0.923456	-1.03084	-0.101243	0.684155	-1.68124	0.143257	0.238761	0.250699	0	0.202947	0.155195	0	0	0	0	0	0	0.000000000	-1.05611	0.984388	-1.05117	-0.107967	0.676452	-1.67706	0.1	0.317978	0.342566	0.1	0.20201	0.133962	0	0	0	0	0	0	0.000000000
1504015803.578114986	-1.07225	0.928058	-1.04004	-0.101243	0.679553	-1.68431	0	0.191009	0.346204	0	0.202947	0.107442	0	0	0	0	0	0	0.000000000	-1.05611	0.984388	-1.05117	-0.107967	0.676452	-1.67706	0.1	0.317978	0.342566	0.1	0.20201	0.133962	0	0	0	0	0	0	0.000000000
1504015803.598261117	-1.07072	0.937262	-1.04924	-0.102777	0.674952	-1.68891	0	0.286513	0.346204	0	0.202947	0.107442	0	0	0	0	0	0	0.000000000	-1.05384	1.00127	-1.06877	-0.109247	0.666008	-1.68394	0.1	0.334203	0.348478	0.1	0.206796	0.136213	0	0	0	0	0	0	0.000000000
1504015803.618479013	-1.07072	0.937262	-1.04924	-0.102777	0.674952	-1.68891	0	0.286513	0.346204	0	0.202947	0.107442	0	0	0	0	0	0	0.000000000	-1.05384	1.00127	-1.06877	-0.109247	0.666008	-1.68394	0.1	0.334203	0.348478	0.1	0.206796	0.136213	0	0	0	0	0	0	0.000000000
1504015803.638176918	-1.07072	0.948	-1.05998	-0.102777	0.668816	-1.69198	0	0.334265	0.346204	0	0.202947	0.107442	0	0	0	0	0	0	0.000000000	-1.0515	1.01896	-1.08661	-0.110626	0.655342	-1.69092	0.1	0.350326	0.353244	0.1	0.21119	0.138165	0	0	0	0	0	0	0.000000000
1504015803.658248901	-1.07072	0.960272	-1.06918	-0.102777	0.664214	-1.69505	0	0.334265	0.346204	0	0.155195	0.107442	0	0	0	0	0	0	0.000000000	-1.0515	1.01896	-1.08661	-0.110626	0.655342	-1.69092	0.1	0.350326	0.353244	0.1	0.21119	0.138165	0	0	0	0	0	0	0.000000000
1504015803.679472923	-1.06918	0.967942	-1.07685	-0.102777	0.659612	-1.69812	0	0.334265	0.298451	0	0.155195	0.107442	0	0	0	0	0	0	0.000000000	-1.0515	1.01896	-1.08661	-0.110626	0.655342	-1.69092	0.1	0.350326	0.353244	0.1	0.21119	0.138165	0	0	0	0	0	0	0.000000000
1504015803.698097944	-1.06918	0.967942	-1.07685	-0.102777	0.659612	-1.69812	0	0.334265	0.298451	0	0.155195	0.107442	0	0	0	0	0	0	0.000000000	-1.0491	1.03746	-1.10463	-0.112107	0.644474	-1.69798	0.1	0.366266	0.356796	0.1	0.215178	0.139829	0	0	0	0	0	0	0.000000000
1504015803.718496084	-1.06612	0.97868	-1.08606	-0.104311	0.653476	-1.70118	0.143257	0.382018	0.346204	0	0.250699	0.155195	0	0	0	0	0	0	0.000000000	-1.0491	1.03746	-1.10463	-0.112107	0.644474	-1.69798	0.1	0.366266	0.356796	0.1	0.215178	0.139829	0	0	0	0	0	0	0.000000000
1504015803.738917112	-1.06458	0.987884	-1.09373	-0.104311	0.648874	-1.70425	0	0.334265	0.346204	0	0.202947	0.107442	0	0	0	0	0	0	0.000000000	-1.04663	1.05675	-1.12277	-0.113696	0.633426	-1.70512	0.1	0.381932	0.359103	0.1	0.218759	0.141204	0	0	0	0	0	0	0.000000000
1504015803.758192062	-1.06305	0.997088	-1.1014	-0.105845	0.644272	-1.70732	0	0.334265	0.346204	0	0.202947	0.107442	0	0	0	0	0	0	0.000000000	-1.04663	1.05675	-1.12277	-0.113696	0.633426	-1.70512	0.1	0.381932	0.359103	0.1	0.218759	0.141204	0	0	0	0	0	0	0.000000000
1504015803.778192043	-1.06305	1.00476	-1.1106	-0.105845	0.638136	-1.71346	0	0.334265	0.346204	0	0.250699	0.250699	0	0	0	0	0	0	0.000000000	-1.04663	1.05675	-1.12277	-0.113696	0.633426	-1.70512	0.1	0.381932	0.359103	0.1	0.218759	0.141204	0	0	0	0	0	0	0.000000000
1504015803.798283100	-1.06151	1.01089	-1.11827	-0.107379	0.633534	-1.71499	0	0.286513	0.346204	0	0.202947	0.155195	0	0	0	0	0	0	0.000000000	-1.04411	1.07681	-1.14096	-0.115395	0.622217	-1.7123	0.1	0.397226	0.360107	0.1	0.221924	0.142295	0	0	0	0	0	0	0.000000000
1504015803.820751905	-1.06151	1.0201	-1.12748	-0.108913	0.633534	-1.71499	0	0.334265	0.346204	0	0.202947	0.155195	0	0	0	0	0	0	0.000000000	-1.04411	1.07681	-1.14096	-0.115395	0.622217	-1.7123	0.1	0.397226	0.360107	0.1	0.221924	0.142295	0	0	0	0	0	0	0.000000000
1504015803.838100910	-1.06151	1.0201	-1.12748	-0.108913	0.628932	-1.71959	0	0.334265	0.346204	0	0.202947	0.155195	0	0	0	0	0	0	0.000000000	-1.04154	1.09762	-1.15913	-0.117207	0.61087	-1.71953	0.1	0.412066	0.359794	0.1	0.224675	0.143117	0	0	0	0	0	0	0.000000000
1504015803.858194112	-1.06151	1.03084	-1.13668	-0.108913	0.622796	-1.72419	0	0.286513	0.346204	0	0.202947	0.155195	0	0	0	0	0	0	0.000000000	-1.04154	1.09762	-1.15913	-0.117207	0.61087	-1.71953	0.1	0.412066	0.359794	0.1	0.224675	0.143117	0	0	0	0	0	0	0.000000000
1504015803.878180980	-1.06151	1.0385	-1.14435	-0.108913	0.619728	-1.72573	0	0.334265	0.298451	0	0.202947	0.107442	0	0	0	0	0	0	0.000000000	-1.04154	1.09762	-1.15913	-0.117207	0.61087	-1.71953	0.1	0.412066	0.359794	0.1	0.224675	0.143117	0	0	0	0	0	0	0.000000000
1504015803.898118972	-1.05998	1.05384	-1.15509	-0.108913	0.619728	-1.72573	0	0.42977	0.346204	0	0.202947	0.107442	0	0	0	0	0	0	0.000000000	-1.03891	1.11916	-1.17722	-0.119137	0.599405	-1.72679	0.1	0.426365	0.358146	0.1	0.227014	0.143676	0	0	0	0	0	0	0.000000000
1504015803.918900966	-1.05998	1.05384	-1.15509	-0.110447	0.615126	-1.7288	0	0.42977	0.346204	0	0.202947	0.107442	0	0	0	0	0	0	0.000000000	-1.03891	1.11916	-1.17722	-0.119137	0.599405	-1.72679	0.1	0.426365	0.358146	0.1	0.227014	0.143676	0	0	0	0	0	0	0.000000000
1504015803.938118934	-1.05998	1.06305	-1.16583	-0.110447	0.60899	-1.73186	0	0.382018	0.346204	0	0.202947	0.107442	0	0	0	0	0	0	0.000000000	-1.03624	1.14138	-1.19516	-0.121187	0.587842	-1.73406	0.1	0.440033	0.355154	0.1	0.228938	0.143984	0	0	0	0	0	0	0.000000000
1504015803.958277940	-1.05691	1.07685	-1.1735	-0.111981	0.602854	-1.73186	0.0955044	0.42977	0.346204	0	0.202947	0.107442	0	0	0	0	0	0	0.000000000	-1.03624	1.14138	-1.19516	-0.121187	0.587842	-1.73406	0.1	0.440033	0.355154	0.1	0.228938	0.143984	0	0	0	0	0	0	0.000000000
1504015803.978118896	-1.05231	1.09373	-1.18423	-0.113515	0.593651	-1.74107	0.143257	0.477522	0.298451	0	0.250699	0.155195	0	0	0	0	0	0	0.000000000	-1.03624	1.14138	-1.19516	-0.121187	0.587842	-1.73406	0.1	0.440033	0.355154	0.1	0.228938	0.143984	0	0	0	0	0	0	0.000000000
1504015803.998173952	-1.05231	1.09373	-1.18423	-0.113515	0.593651	-1.74107	0.143257	0.477522	0.298451	0	0.250699	0.155195	0	0	0	0	0	0	0.000000000	-1.03353	1.16426	-1.21287	-0.123359	0.576203	-1.74133	0.1	0.452984	0.350817	0.1	0.230453	0.144042	0	0	0	0	0	0	0.000000000
1504015804.018693923	-1.04924	1.10447	-1.19344	-0.113515	0.585981	-1.74567	0.0955044	0.42977	0.346204	0	0.298451	0.155195	0	0	0	0	0	0	0.000000000	-1.03353	1.16426	-1.21287	-0.123359	0.576203	-1.74133	0.1	0.452984	0.350817	0.1	0.230453	0.144042	0	0	0	0	0	0	0.000000000
1504015804.038069963	-1.04924	1.11674	-1.20417	-0.115049	0.579845	-1.74874	0	0.382018	0.346204	0	0.250699	0.107442	0	0	0	0	0	0	0.000000000	-1.03078	1.18775	-1.23031	-0.125655	0.564508	-1.7486	0.1	0.465154	0.345162	0.1	0.231563	0.14387	0	0	0	0	0	0	0.000000000
1504015804.058111906	-1.04771	1.12748	-1.21184	-0.116583	0.575243	-1.75181	0	0.382018	0.298451	0	0.155195	0.155195	0	0	0	0	0	0	0.000000000	-1.03078	1.18775	-1.23031	-0.125655	0.564508	-1.7486	0.1	0.465154	0.345162	0.1	0.231563	0.14387	0	0	0	0	0	0	0.000000000
1504015804.078735113	-1.04771	1.13668	-1.21951	-0.116583	0.570641	-1.75487	0	0.382018	0.298451	0	0.155195	0.155195	0	0	0	0	0	0	0.000000000	-1.03078	1.18775	-1.23031	-0.125655	0.564508	-1.7486	0.1	0.465154	0.345162	0.1	0.231563	0.14387	0	0	0	0	0	0	0.000000000
1504015804.098437070	-1.04617	1.14895	-1.22872	-0.118117	0.566039	-1.75948	0	0.42977	0.393956	0	0.202947	0.155195	0	0	0	0	0	0	0.000000000	-1.02799	1.21181	-1.24739	-0.128076	0.552777	-1.75585	0.1	0.476467	0.338218	0.1	0.232274	0.143476	0	0	0	0	0	0	0.000000000
1504015804.118627071	-1.04464	1.15969	-1.23639	-0.119651	0.559903	-1.76254	0	0.477522	0.346204	0.107442	0.202947	0.155195	0	0	0	0	0	0	0.000000000	-1.02799	1.21181	-1.24739	-0.128076	0.552777	-1.75585	0.1	0.476467	0.338218	0.1	0.232274	0.143476	0	0	0	0	0	0	0.000000000
1504015804.138539075	-1.04464	1.15969	-1.23639	-0.119651	0.559903	-1.76254	0	0.477522	0.346204	0.107442	0.202947	0.155195	0	0	0	0	0	0	0.000000000	-1.02518	1.2364	-1.26406	-0.130623	0.54103	-1.76306	0.1	0.486867	0.330027	0.1	0.232596	0.142867	0	0	0	0	0	0	0.000000000
1504015804.158289909	-1.04311	1.17503	-1.24559	-0.121184	0.553767	-1.76715	0	0.525274	0.298451	0.107442	0.202947	0.155195	0	0	0	0	0	0	0.000000000	-1.02518	1.2364	-1.26406	-0.130623	0.54103	-1.76306	0.1	0.486867	0.330027	0.1	0.232596	0.142867	0	0	0	0	0	0	0.000000000
1504015804.178184032	-1.04004	1.18884	-1.2548	-0.122718	0.547631	-1.76868	0.0955044	0.42977	0.298451	0	0.250699	0	0	0	0	0	0	0	0.000000000	-1.02518	1.2364	-1.26406	-0.130623	0.54103	-1.76306	0.1	0.486867	0.330027	0.1	0.232596	0.142867	0	0	0	0	0	0	0.000000000
1504015804.198235034	-1.0385	1.20111	-1.2548	-0.122718	0.547631	-1.76868	0.0955044	0.477522	0.298451	0	0.250699	0	0	0	0	0	0	0	0.000000000	-1.02235	1.26147	-1.28025	-0.133297	0.529286	-1.77024	0.1	0.496306	0.320648	0.1	0.232535	0.142056	0	0	0	0	0	0	0.000000000
