DingWan/Reconbot3Ddemo/02_MATLAB_Code/sensors_data/encoders_data_AllTrajectory6Modes_01_09.txt
time_stamp	actual_pos_joint_4	actual_pos_joint_5	actual_pos_joint_3	actual_pos_joint_1	actual_pos_joint_2	actual_pos_joint_6	actual_pos_joint_7	actual_vel_joint_4	actual_vel_joint_5	actual_vel_joint_3	actual_vel_joint_1	actual_vel_joint_2	actual_vel_joint_6	actual_vel_joint_7	actual_acc_joint_4	actual_acc_joint_5	actual_acc_joint_3	actual_acc_joint_1	actual_acc_joint_2	actual_acc_joint_6	actual_acc_joint_7	actual_time_from_start	desired_pos_joint_4	desired_pos_joint_5	desired_pos_joint_3	desired_pos_joint_1	desired_pos_joint_2	desired_pos_joint_6	desired_pos_joint_7	desired_vel_joint_4	desired_vel_joint_5	desired_vel_joint_3	desired_vel_joint_1	desired_vel_joint_2	desired_vel_joint_6	desired_vel_joint_7	desired_acc_joint_4	desired_acc_joint_5	desired_acc_joint_3	desired_acc_joint_1	desired_acc_joint_2	desired_acc_joint_6	desired_acc_joint_7	desired_time_from_start
1504276064.518662929	-1.09066	-0.199418	-1.39439	0.931126	-0.19635	-3.14159	0.615126	0	0	0	0	0	0	0	0	0	0	0	0	0	0	0.000000000	0	0.788798	-0.788798	0	0.828698	-1.5708	0	0.1	0.1	0.1	0.1	0.1	0.1	0.1	0	0	0	0	0	0	0	0.000000000
1504276064.538680076	-1.09066	-0.199418	-1.39439	0.931126	-0.19635	-3.14159	0.615126	0	0	0	0	0	0	0	0	0	0	0	0	0	0	0.000000000	0	0.788798	-0.788798	0	0.828698	-1.5708	0	0.1	0.1	0.1	0.1	0.1	0.1	0.1	0	0	0	0	0	0	0	0.000000000
1504276064.558923006	-1.09066	-0.199418	-1.39285	0.931126	-0.19635	-3.14159	0.615126	0	0	0	0	0	0	0	0	0	0	0	0	0	0	0.000000000	0	0.788798	-0.788798	0	0.828698	-1.5708	0	0.1	0.1	0.1	0.1	0.1	0.1	0.1	0	0	0	0	0	0	0	0.000000000
1504276064.578690052	-1.09066	-0.199418	-1.39439	0.931126	-0.19635	-3.14159	0.615126	0	0	0	0	0	0	0	0	0	0	0	0	0	0	0.000000000	0	0.788798	-0.788798	0	0.828698	-1.5708	0	0.1	0.1	0.1	0.1	0.1	0.1	0.1	0	0	0	0	0	0	0	0.000000000
1504276064.598634004	-1.09066	-0.199418	-1.39439	0.931126	-0.19635	-3.14159	0.615126	0	0	0	0	0	0	0	0	0	0	0	0	0	0	0.000000000	0	0.788798	-0.788798	0	0.828698	-1.5708	0	0.1	0.1	0.1	0.1	0.1	0.1	0.1	0	0	0	0	0	0	0	0.000000000
1504276064.618731021	-1.09066	-0.199418	-1.39439	0.931126	-0.19635	-3.14159	0.61666	0	0	0	0	0	0	0	0	0	0	0	0	0	0	0.000000000	0	0.788798	-0.788798	0	0.828698	-1.5708	0	0.1	0.1	0.1	0.1	0.1	0.1	0.1	0	0	0	0	0	0	0	0.000000000
1504276064.638670921	-1.09066	-0.199418	-1.39439	0.931126	-0.19635	-3.14159	0.61666	0	0	0	0	0	0	0	0	0	0	0	0	0	0	0.000000000	0	0.788798	-0.788798	0	0.828698	-1.5708	0	0.1	0.1	0.1	0.1	0.1	0.1	0.1	0	0	0	0	0	0	0	0.000000000
1504276064.658802986	-1.09066	-0.199418	-1.39439	0.931126	-0.19635	-3.14159	0.61666	0	0	0	0	0	0	0	0	0	0	0	0	0	0	0.000000000	0	0.788798	-0.788798	0	0.828698	-1.5708	0	0.1	0.1	0.1	0.1	0.1	0.1	0.1	0	0	0	0	0	0	0	0.000000000
1504276064.678749084	-1.09066	-0.199418	-1.39439	0.931126	-0.19635	-3.14159	0.615126	0	0	0	0	0	0	0	0	0	0	0	0	0	0	0.000000000	0	0.788798	-0.788798	0	0.828698	-1.5708	0	0.1	0.1	0.1	0.1	0.1	0.1	0.1	0	0	0	0	0	0	0	0.000000000
1504276064.698704004	-1.09066	-0.199418	-1.39439	0.931126	-0.19635	-3.14159	0.615126	0	0	0	0	0	0	0	0	0	0	0	0	0	0	0.000000000	0	0.788798	-0.788798	0	0.828698	-1.5708	0	0.1	0.1	0.1	0.1	0.1	0.1	0.1	0	0	0	0	0	0	0	0.000000000
1504276064.718754053	-1.09066	-0.199418	-1.39439	0.931126	-0.19635	-3.14159	0.615126	0	0	0	0	0	0	0	0	0	0	0	0	0	0	0.000000000	0	0.788798	-0.788798	0	0.828698	-1.5708	0	0.1	0.1	0.1	0.1	0.1	0.1	0.1	0	0	0	0	0	0	0	0.000000000
1504276064.738765001	-1.09066	-0.199418	-1.39439	0.931126	-0.19635	-3.14159	0.615126	0	0	0	0	0	0	0	0	0	0	0	0	0	0	0.000000000	0	0.788798	-0.788798	0	0.828698	-1.5708	0	0.1	0.1	0.1	0.1	0.1	0.1	0.1	0	0	0	0	0	0	0	0.000000000
1504276064.759095907	-1.09066	-0.199418	-1.39439	0.931126	-0.19635	-3.14159	0.615126	0	0	0	0	0	0	0	0	0	0	0	0	0	0	0.000000000	0	0.788798	-0.788798	0	0.828698	-1.5708	0	0.1	0.1	0.1	0.1	0.1	0.1	0.1	0	0	0	0	0	0	0	0.000000000
1504276064.778743028	-1.09066	-0.199418	-1.39285	0.931126	-0.19635	-3.14159	0.61666	0	0	0	0	0	0	0	0	0	0	0	0	0	0	0.000000000	0	0.788798	-0.788798	0	0.828698	-1.5708	0	0.1	0.1	0.1	0.1	0.1	0.1	0.1	0	0	0	0	0	0	0	0.000000000
1504276064.798621892	-1.09066	-0.199418	-1.39285	0.931126	-0.19635	-3.14159	0.61666	0	0	0	0	0	0	0	0	0	0	0	0	0	0	0.000000000	0	0.788798	-0.788798	0	0.828698	-1.5708	0	0.1	0.1	0.1	0.1	0.1	0.1	0.1	0	0	0	0	0	0	0	0.000000000
1504276064.818689107	-1.09066	-0.199418	-1.39439	0.931126	-0.19635	-3.14159	0.615126	0	0	0	0	0	0	0	0	0	0	0	0	0	0	0.000000000	0	0.788798	-0.788798	0	0.828698	-1.5708	0	0.1	0.1	0.1	0.1	0.1	0.1	0.1	0	0	0	0	0	0	0	0.000000000
1504276064.838666915	-1.09066	-0.199418	-1.39439	0.931126	-0.19635	-3.14159	0.615126	0	0	0	0	0	0	0	0	0	0	0	0	0	0	0.000000000	0	0.788798	-0.788798	0	0.828698	-1.5708	0	0.1	0.1	0.1	0.1	0.1	0.1	0.1	0	0	0	0	0	0	0	0.000000000
1504276064.858639001	-1.09066	-0.199418	-1.39439	0.931126	-0.19635	-3.14159	0.61666	0	0	0	0	0	0	0	0	0	0	0	0	0	0	0.000000000	0	0.788798	-0.788798	0	0.828698	-1.5708	0	0.1	0.1	0.1	0.1	0.1	0.1	0.1	0	0	0	0	0	0	0	0.000000000
1504276064.878650903	-1.09066	-0.199418	-1.39439	0.931126	-0.19635	-3.14159	0.615126	0	0	0	0	0	0	0	0	0	0	0	0	0	0	0.000000000	0	0.788798	-0.788798	0	0.828698	-1.5708	0	0.1	0.1	0.1	0.1	0.1	0.1	0.1	0	0	0	0	0	0	0	0.000000000
1504276064.898782014	-1.09066	-0.199418	-1.39439	0.931126	-0.19635	-3.14159	0.61666	0	0	0	0	0	0	0	0	0	0	0	0	0	0	0.000000000	0	0.788798	-0.788798	0	0.828698	-1.5708	0	0.1	0.1	0.1	0.1	0.1	0.1	0.1	0	0	0	0	0	0	0	0.000000000
1504276064.919044971	-1.09066	-0.199418	-1.39439	0.931126	-0.19635	-3.14159	0.61666	0	0	0	0	0	0	0	0	0	0	0	0	0	0	0.000000000	0	0.788798	-0.788798	0	0.828698	-1.5708	0	0.1	0.1	0.1	0.1	0.1	0.1	0.1	0	0	0	0	0	0	0	0.000000000
1504276064.938878059	-1.09066	-0.199418	-1.39439	0.931126	-0.19635	-3.14159	0.615126	0	0	0	0	0	0	0	0	0	0	0	0	0	0	0.000000000	0	0.788798	-0.788798	0	0.828698	-1.5708	0	0.1	0.1	0.1	0.1	0.1	0.1	0.1	0	0	0	0	0	0	0	0.000000000
1504276064.958965063	-1.09066	-0.199418	-1.39285	0.931126	-0.19635	-3.14159	0.61666	0	0	0	0	0	0	0	0	0	0	0	0	0	0	0.000000000	0	0.788798	-0.788798	0	0.828698	-1.5708	0	0.1	0.1	0.1	0.1	0.1	0.1	0.1	0	0	0	0	0	0	0	0.000000000
1504276064.978976964	-1.09066	-0.199418	-1.39439	0.931126	-0.19635	-3.14159	0.615126	0	0	0	0	0	0	0	0	0	0	0	0	0	0	0.000000000	0	0.788798	-0.788798	0	0.828698	-1.5708	0	0.1	0.1	0.1	0.1	0.1	0.1	0.1	0	0	0	0	0	0	0	0.000000000
1504276065.002002954	-1.09066	-0.199418	-1.39439	0.931126	-0.19635	-3.14159	0.615126	0	0	0	0	0	0	0	0	0	0	0	0	0	0	0.000000000	0	0.788798	-0.788798	0	0.828698	-1.5708	0	0.1	0.1	0.1	0.1	0.1	0.1	0.1	0	0	0	0	0	0	0	0.000000000
1504276065.018877029	-1.09066	-0.199418	-1.39439	0.931126	-0.19635	-3.14159	0.615126	0	0	0	0	0	0	0	0	0	0	0	0	0	0	0.000000000	0	0.788798	-0.788798	0	0.828698	-1.5708	0	0.1	0.1	0.1	0.1	0.1	0.1	0.1	0	0	0	0	0	0	0	0.000000000
1504276065.038803100	-1.09066	-0.199418	-1.39285	0.931126	-0.19635	-3.14159	0.61666	0	0	0	0	0	0	0	0	0	0	0	0	0	0	0.000000000	0	0.788798	-0.788798	0	0.828698	-1.5708	0	0.1	0.1	0.1	0.1	0.1	0.1	0.1	0	0	0	0	0	0	0	0.000000000
1504276065.059001922	-1.09066	-0.199418	-1.39439	0.931126	-0.19635	-3.14159	0.61666	0	0	0	0	0	0	0	0	0	0	0	0	0	0	0.000000000	0	0.788798	-0.788798	0	0.828698	-1.5708	0	0.1	0.1	0.1	0.1	0.1	0.1	0.1	0	0	0	0	0	0	0	0.000000000
1504276065.078769922	-1.09066	-0.199418	-1.39439	0.931126	-0.19635	-3.14159	0.615126	0	0	0	0	0	0	0	0	0	0	0	0	0	0	0.000000000	0	0.788798	-0.788798	0	0.828698	-1.5708	0	0.1	0.1	0.1	0.1	0.1	0.1	0.1	0	0	0	0	0	0	0	0.000000000
1504276065.098946094	-1.09066	-0.199418	-1.39285	0.931126	-0.19635	-3.14159	0.615126	0	0	0	0	0	0	0	0	0	0	0	0	0	0	0.000000000	0	0.788798	-0.788798	0	0.828698	-1.5708	0	0.1	0.1	0.1	0.1	0.1	0.1	0.1	0	0	0	0	0	0	0	0.000000000
1504276065.118779897	-1.09066	-0.199418	-1.39439	0.931126	-0.19635	-3.14159	0.615126	0	0	0	0	0	0	0	0	0	0	0	0	0	0	0.000000000	0	0.788798	-0.788798	0	0.828698	-1.5708	0	0.1	0.1	0.1	0.1	0.1	0.1	0.1	0	0	0	0	0	0	0	0.000000000
1504276065.138762950	-1.09066	-0.199418	-1.39439	0.931126	-0.19635	-3.14159	0.615126	0	0	0	0	0	0	0	0	0	0	0	0	0	0	0.000000000	0	0.788798	-0.788798	0	0.828698	-1.5708	0	0.1	0.1	0.1	0.1	0.1	0.1	0.1	0	0	0	0	0	0	0	0.000000000
1504276065.158946990	-1.09066	-0.199418	-1.39439	0.931126	-0.19635	-3.14159	0.61666	0	0	0	0	0	0	0	0	0	0	0	0	0	0	0.000000000	0	0.788798	-0.788798	0	0.828698	-1.5708	0	0.1	0.1	0.1	0.1	0.1	0.1	0.1	0	0	0	0	0	0	0	0.000000000
1504276065.178803920	-1.09066	-0.199418	-1.39439	0.931126	-0.19635	-3.14159	0.615126	0	0	0	0	0	0	0	0	0	0	0	0	0	0	0.000000000	0	0.788798	-0.788798	0	0.828698	-1.5708	0	0.1	0.1	0.1	0.1	0.1	0.1	0.1	0	0	0	0	0	0	0	0.000000000
1504276065.198875904	-1.09066	-0.199418	-1.39439	0.931126	-0.19635	-3.14159	0.615126	0	0	0	0	0	0	0	0	0	0	0	0	0	0	0.000000000	0	0.788798	-0.788798	0	0.828698	-1.5708	0	0.1	0.1	0.1	0.1	0.1	0.1	0.1	0	0	0	0	0	0	0	0.000000000
1504276065.219546079	-1.09066	-0.199418	-1.39439	0.931126	-0.19635	-3.14159	0.61666	0	0	0	0	0	0	0	0	0	0	0	0	0	0	0.000000000	0	0.788798	-0.788798	0	0.828698	-1.5708	0	0.1	0.1	0.1	0.1	0.1	0.1	0.1	0	0	0	0	0	0	0	0.000000000
1504276065.238745927	-1.09066	-0.199418	-1.39439	0.931126	-0.19635	-3.14159	0.61666	0	0	0	0	0	0	0	0	0	0	0	0	0	0	0.000000000	0	0.788798	-0.788798	0	0.828698	-1.5708	0	0.1	0.1	0.1	0.1	0.1	0.1	0.1	0	0	0	0	0	0	0	0.000000000
1504276065.258728981	-1.09066	-0.199418	-1.39439	0.931126	-0.19635	-3.14159	0.615126	0	0	0	0	0	0	0	0	0	0	0	0	0	0	0.000000000	0	0.788798	-0.788798	0	0.828698	-1.5708	0	0.1	0.1	0.1	0.1	0.1	0.1	0.1	0	0	0	0	0	0	0	0.000000000
1504276065.278872966	-1.09066	-0.199418	-1.39439	0.931126	-0.19635	-3.14159	0.615126	0	0	0	0	0	0	0	0	0	0	0	0	0	0	0.000000000	0	0.788798	-0.788798	0	0.828698	-1.5708	0	0.1	0.1	0.1	0.1	0.1	0.1	0.1	0	0	0	0	0	0	0	0.000000000
1504276065.299141883	-1.09066	-0.199418	-1.39439	0.931126	-0.19635	-3.14159	0.615126	0	0	0	0	0	0	0	0	0	0	0	0	0	0	0.000000000	0	0.788798	-0.788798	0	0.828698	-1.5708	0	0.1	0.1	0.1	0.1	0.1	0.1	0.1	0	0	0	0	0	0	0	0.000000000
1504276065.319060087	-1.09066	-0.199418	-1.39439	0.931126	-0.19635	-3.14159	0.61666	0	0	0	0	0	0	0	0	0	0	0	0	0	0	0.000000000	0	0.788798	-0.788798	0	0.828698	-1.5708	0	0.1	0.1	0.1	0.1	0.1	0.1	0.1	0	0	0	0	0	0	0	0.000000000
1504276065.339261054	-1.09066	-0.199418	-1.39439	0.931126	-0.19635	-3.14159	0.615126	0	0	0	0	0	0	0	0	0	0	0	0	0	0	0.000000000	0	0.788798	-0.788798	0	0.828698	-1.5708	0	0.1	0.1	0.1	0.1	0.1	0.1	0.1	0	0	0	0	0	0	0	0.000000000
1504276065.363471031	-1.09066	-0.199418	-1.39439	0.931126	-0.19635	-3.14159	0.615126	0	0	0	0	0	0	0	0	0	0	0	0	0	0	0.000000000	0	0.788798	-0.788798	0	0.828698	-1.5708	0	0.1	0.1	0.1	0.1	0.1	0.1	0.1	0	0	0	0	0	0	0	0.000000000
1504276065.378839015	-1.09066	-0.199418	-1.39285	0.931126	-0.19635	-3.14159	0.615126	0	0	0	0	0	0	0	0	0	0	0	0	0	0	0.000000000	0	0.788798	-0.788798	0	0.828698	-1.5708	0	0.1	0.1	0.1	0.1	0.1	0.1	0.1	0	0	0	0	0	0	0	0.000000000
1504276065.398776054	-1.09066	-0.199418	-1.39439	0.931126	-0.19635	-3.14159	0.615126	0	0	0	0	0	0	0	0	0	0	0	0	0	0	0.000000000	0	0.788798	-0.788798	0	0.828698	-1.5708	0	0.1	0.1	0.1	0.1	0.1	0.1	0.1	0	0	0	0	0	0	0	0.000000000
1504276065.420730113	-1.09066	-0.199418	-1.39439	0.931126	-0.19635	-3.14159	0.615126	0	0	0	0	0	0	0	0	0	0	0	0	0	0	0.000000000	0	0.788798	-0.788798	0	0.828698	-1.5708	0	0.1	0.1	0.1	0.1	0.1	0.1	0.1	0	0	0	0	0	0	0	0.000000000
1504276065.438685894	-1.09066	-0.199418	-1.39439	0.931126	-0.19635	-3.14159	0.615126	0	0	0	0	0	0	0	0	0	0	0	0	0	0	0.000000000	0	0.788798	-0.788798	0	0.828698	-1.5708	0	0.1	0.1	0.1	0.1	0.1	0.1	0.1	0	0	0	0	0	0	0	0.000000000
1504276065.458668947	-1.09066	-0.199418	-1.39439	0.931126	-0.19635	-3.14159	0.615126	0	0	0	0	0	0	0	0	0	0	0	0	0	0	0.000000000	0	0.788798	-0.788798	0	0.828698	-1.5708	0	0.1	0.1	0.1	0.1	0.1	0.1	0.1	0	0	0	0	0	0	0	0.000000000
1504276065.478746891	-1.09066	-0.199418	-1.39439	0.931126	-0.19635	-3.14159	0.61666	0	0	0	0	0	0	0	0	0	0	0	0	0	0	0.000000000	0	0.788798	-0.788798	0	0.828698	-1.5708	0	0.1	0.1	0.1	0.1	0.1	0.1	0.1	0	0	0	0	0	0	0	0.000000000
1504276065.499058961	-1.09066	-0.199418	-1.39285	0.931126	-0.19635	-3.14159	0.615126	0	0	0	0	0	0	0	0	0	0	0	0	0	0	0.000000000	0	0.788798	-0.788798	0	0.828698	-1.5708	0	0.1	0.1	0.1	0.1	0.1	0.1	0.1	0	0	0	0	0	0	0	0.000000000
1504276065.519145965	-1.09066	-0.199418	-1.39439	0.931126	-0.19635	-3.14159	0.615126	0	0	0	0	0	0	0	0	0	0	0	0	0	0	0.000000000	0	0.788798	-0.788798	0	0.828698	-1.5708	0	0.1	0.1	0.1	0.1	0.1	0.1	0.1	0	0	0	0	0	0	0	0.000000000
1504276065.538732051	-1.09066	-0.199418	-1.39439	0.931126	-0.19635	-3.14159	0.615126	0	0	0	0	0	0	0	0	0	0	0	0	0	0	0.000000000	0	0.788798	-0.788798	0	0.828698	-1.5708	0	0.1	0.1	0.1	0.1	0.1	0.1	0.1	0	0	0	0	0	0	0	0.000000000
1504276065.559099912	-1.09066	-0.199418	-1.39439	0.931126	-0.19635	-3.14159	0.61666	0	0	0	0	0	0	0	0	0	0	0	0	0	0	0.000000000	0	0.788798	-0.788798	0	0.828698	-1.5708	0	0.1	0.1	0.1	0.1	0.1	0.1	0.1	0	0	0	0	0	0	0	0.000000000
1504276065.578696012	-1.09066	-0.199418	-1.39439	0.931126	-0.19635	-3.14159	0.615126	0	0	0	0	0	0	0	0	0	0	0	0	0	0	0.000000000	0	0.788798	-0.788798	0	0.828698	-1.5708	0	0.1	0.1	0.1	0.1	0.1	0.1	0.1	0	0	0	0	0	0	0	0.000000000
1504276065.600816011	-1.09066	-0.199418	-1.39439	0.931126	-0.19635	-3.14159	0.615126	0	0	0	0	0	0	0	0	0	0	0	0	0	0	0.000000000	0	0.788798	-0.788798	0	0.828698	-1.5708	0	0.1	0.1	0.1	0.1	0.1	0.1	0.1	0	0	0	0	0	0	0	0.000000000
1504276065.618860006	-1.09066	-0.199418	-1.39439	0.931126	-0.19635	-3.14159	0.615126	0	0	0	0	0	0	0	0	0	0	0	0	0	0	0.000000000	0	0.788798	-0.788798	0	0.828698	-1.5708	0	0.1	0.1	0.1	0.1	0.1	0.1	0.1	0	0	0	0	0	0	0	0.000000000
1504276065.638706922	-1.09066	-0.199418	-1.39439	0.931126	-0.19635	-3.14159	0.615126	0	0	0	0	0	0	0	0	0	0	0	0	0	0	0.000000000	0	0.788798	-0.788798	0	0.828698	-1.5708	0	0.1	0.1	0.1	0.1	0.1	0.1	0.1	0	0	0	0	0	0	0	0.000000000
1504276065.659161090	-1.09066	-0.199418	-1.39439	0.931126	-0.19635	-3.14159	0.615126	0	0	0	0	0	0	0	0	0	0	0	0	0	0	0.000000000	0	0.788798	-0.788798	0	0.828698	-1.5708	0	0.1	0.1	0.1	0.1	0.1	0.1	0.1	0	0	0	0	0	0	0	0.000000000
1504276065.678741931	-1.09066	-0.199418	-1.39439	0.931126	-0.19635	-3.14159	0.61666	0	0	0	0	0	0	0	0	0	0	0	0	0	0	0.000000000	0	0.788798	-0.788798	0	0.828698	-1.5708	0	0.1	0.1	0.1	0.1	0.1	0.1	0.1	0	0	0	0	0	0	0	0.000000000
1504276065.698787927	-1.09066	-0.199418	-1.39439	0.931126	-0.19635	-3.14159	0.615126	0	0	0	0	0	0	0	0	0	0	0	0	0	0	0.000000000	0	0.788798	-0.788798	0	0.828698	-1.5708	0	0.1	0.1	0.1	0.1	0.1	0.1	0.1	0	0	0	0	0	0	0	0.000000000
1504276065.719098091	-1.09066	-0.199418	-1.39439	0.931126	-0.19635	-3.14159	0.615126	0	0	0	0	0	0	0	0	0	0	0	0	0	0	0.000000000	0	0.788798	-0.788798	0	0.828698	-1.5708	0	0.1	0.1	0.1	0.1	0.1	0.1	0.1	0	0	0	0	0	0	0	0.000000000
1504276065.738791942	-1.09066	-0.199418	-1.39439	0.931126	-0.19635	-3.14159	0.615126	0	0	0	0	0	0	0	0	0	0	0	0	0	0	0.000000000	0	0.788798	-0.788798	0	0.828698	-1.5708	0	0.1	0.1	0.1	0.1	0.1	0.1	0.1	0	0	0	0	0	0	0	0.000000000
1504276065.758826971	-1.09066	-0.199418	-1.39439	0.931126	-0.19635	-3.14159	0.615126	0	0	0	0	0	0	0	0	0	0	0	0	0	0	0.000000000	0	0.788798	-0.788798	0	0.828698	-1.5708	0	0.1	0.1	0.1	0.1	0.1	0.1	0.1	0	0	0	0	0	0	0	0.000000000
1504276065.778739929	-1.09066	-0.199418	-1.39439	0.931126	-0.19635	-3.14159	0.615126	0	0	0	0	0	0	0	0	0	0	0	0	0	0	0.000000000	0	0.788798	-0.788798	0	0.828698	-1.5708	0	0.1	0.1	0.1	0.1	0.1	0.1	0.1	0	0	0	0	0	0	0	0.000000000
1504276065.798734903	-1.09066	-0.199418	-1.39439	0.931126	-0.19635	-3.14159	0.615126	0	0	0	0	0	0	0	0	0	0	0	0	0	0	0.000000000	0	0.788798	-0.788798	0	0.828698	-1.5708	0	0.1	0.1	0.1	0.1	0.1	0.1	0.1	0	0	0	0	0	0	0	0.000000000
1504276065.818835020	-1.09066	-0.199418	-1.39439	0.931126	-0.19635	-3.14159	0.615126	0	0	0	0	0	0	0	0	0	0	0	0	0	0	0.000000000	0	0.788798	-0.788798	0	0.828698	-1.5708	0	0.1	0.1	0.1	0.1	0.1	0.1	0.1	0	0	0	0	0	0	0	0.000000000
1504276065.838752031	-1.09066	-0.199418	-1.39439	0.931126	-0.19635	-3.14159	0.615126	0	0	0	0	0	0	0	0	0	0	0	0	0	0	0.000000000	0	0.788798	-0.788798	0	0.828698	-1.5708	0	0.1	0.1	0.1	0.1	0.1	0.1	0.1	0	0	0	0	0	0	0	0.000000000
1504276065.858791112	-1.09066	-0.199418	-1.39439	0.931126	-0.19635	-3.14159	0.615126	0	0	0	0	0	0	0	0	0	0	0	0	0	0	0.000000000	0	0.788798	-0.788798	0	0.828698	-1.5708	0	0.1	0.1	0.1	0.1	0.1	0.1	0.1	0	0	0	0	0	0	0	0.000000000
1504276065.878828048	-1.09066	-0.199418	-1.39439	0.931126	-0.19635	-3.14313	0.615126	0	0	0	0	0	0	0	0	0	0	0	0	0	0	0.000000000	0	0.788798	-0.788798	0	0.828698	-1.5708	0	0.1	0.1	0.1	0.1	0.1	0.1	0.1	0	0	0	0	0	0	0	0.000000000
1504276065.898766040	-1.09066	-0.199418	-1.39439	0.931126	-0.19635	-3.14159	0.615126	0	0	0	0	0	0	0	0	0	0	0	0	0	0	0.000000000	0	0.788798	-0.788798	0	0.828698	-1.5708	0	0.1	0.1	0.1	0.1	0.1	0.1	0.1	0	0	0	0	0	0	0	0.000000000
1504276065.918858051	-1.09066	-0.199418	-1.39439	0.931126	-0.19635	-3.14159	0.615126	0	0	0	0	0	0	0	0	0	0	0	0	0	0	0.000000000	0	0.788798	-0.788798	0	0.828698	-1.5708	0	0.1	0.1	0.1	0.1	0.1	0.1	0.1	0	0	0	0	0	0	0	0.000000000
1504276065.938841104	-1.09066	-0.199418	-1.39439	0.931126	-0.19635	-3.14159	0.615126	0	0	0	0	0	0	0	0	0	0	0	0	0	0	0.000000000	0	0.788798	-0.788798	0	0.828698	-1.5708	0	0.1	0.1	0.1	0.1	0.1	0.1	0.1	0	0	0	0	0	0	0	0.000000000
1504276065.959285974	-1.09066	-0.200951	-1.39439	0.931126	-0.19635	-3.14159	0.615126	0	0	0	0	0	0	0	0	0	0	0	0	0	0	0.000000000	0	0.788798	-0.788798	0	0.828698	-1.5708	0	0.1	0.1	0.1	0.1	0.1	0.1	0.1	0	0	0	0	0	0	0	0.000000000
1504276065.978738069	-1.09066	-0.199418	-1.39439	0.931126	-0.19635	-3.14159	0.615126	0	0	0	0	0	0	0	0	0	0	0	0	0	0	0.000000000	0	0.788798	-0.788798	0	0.828698	-1.5708	0	0.1	0.1	0.1	0.1	0.1	0.1	0.1	0	0	0	0	0	0	0	0.000000000
1504276065.998805046	-1.09066	-0.199418	-1.39439	0.931126	-0.19635	-3.14159	0.61666	0	0	0	0	0	0	0	0	0	0	0	0	0	0	0.000000000	0	0.788798	-0.788798	0	0.828698	-1.5708	0	0.1	0.1	0.1	0.1	0.1	0.1	0.1	0	0	0	0	0	0	0	0.000000000
1504276066.018770933	-1.09066	-0.199418	-1.39439	0.931126	-0.19635	-3.14159	0.615126	0	0	0	0	0	0	0	0	0	0	0	0	0	0	0.000000000	0	0.788798	-0.788798	0	0.828698	-1.5708	0	0.1	0.1	0.1	0.1	0.1	0.1	0.1	0	0	0	0	0	0	0	0.000000000
1504276066.038801908	-1.09066	-0.199418	-1.39439	0.931126	-0.19635	-3.14159	0.615126	0	0	0	0	0	0	0	0	0	0	0	0	0	0	0.000000000	0	0.788798	-0.788798	0	0.828698	-1.5708	0	0.1	0.1	0.1	0.1	0.1	0.1	0.1	0	0	0	0	0	0	0	0.000000000
1504276066.059581041	-1.09066	-0.199418	-1.39439	0.931126	-0.19635	-3.14159	0.61666	0	0	0	0	0	0	0	0	0	0	0	0	0	0	0.000000000	0	0.788798	-0.788798	0	0.828698	-1.5708	0	0.1	0.1	0.1	0.1	0.1	0.1	0.1	0	0	0	0	0	0	0	0.000000000
1504276066.078758955	-1.09066	-0.199418	-1.39439	0.931126	-0.19635	-3.14159	0.615126	0	0	0	0	0	0	0	0	0	0	0	0	0	0	0.000000000	0	0.788798	-0.788798	0	0.828698	-1.5708	0	0.1	0.1	0.1	0.1	0.1	0.1	0.1	0	0	0	0	0	0	0	0.000000000
1504276066.098702907	-1.09066	-0.199418	-1.39439	0.931126	-0.19635	-3.14159	0.615126	0	0	0	0	0	0	0	0	0	0	0	0	0	0	0.000000000	0	0.788798	-0.788798	0	0.828698	-1.5708	0	0.1	0.1	0.1	0.1	0.1	0.1	0.1	0	0	0	0	0	0	0	0.000000000
1504276066.118767023	-1.09066	-0.199418	-1.39439	0.931126	-0.19635	-3.14159	0.615126	0	0	0	0	0	0	0	0	0	0	0	0	0	0	0.000000000	0	0.788798	-0.788798	0	0.828698	-1.5708	0	0.1	0.1	0.1	0.1	0.1	0.1	0.1	0	0	0	0	0	0	0	0.000000000
1504276066.138695001	-1.09066	-0.199418	-1.39439	0.931126	-0.19635	-3.14159	0.615126	0	0	0	0	0	0	0	0	0	0	0	0	0	0	0.000000000	0	0.788798	-0.788798	0	0.828698	-1.5708	0	0.1	0.1	0.1	0.1	0.1	0.1	0.1	0	0	0	0	0	0	0	0.000000000
1504276066.158920049	-1.09066	-0.199418	-1.39439	0.931126	-0.19635	-3.14159	0.615126	0	0	0	0	0	0	0	0	0	0	0	0	0	0	0.000000000	0	0.788798	-0.788798	0	0.828698	-1.5708	0	0.1	0.1	0.1	0.1	0.1	0.1	0.1	0	0	0	0	0	0	0	0.000000000
1504276066.178711891	-1.09066	-0.199418	-1.39439	0.931126	-0.19635	-3.14159	0.61666	0	0	0	0	0	0	0	0	0	0	0	0	0	0	0.000000000	0	0.788798	-0.788798	0	0.828698	-1.5708	0	0.1	0.1	0.1	0.1	0.1	0.1	0.1	0	0	0	0	0	0	0	0.000000000
1504276066.198698043	-1.09066	-0.199418	-1.39439	0.931126	-0.19635	-3.14159	0.615126	0	0	0	0	0	0	0	0	0	0	0	0	0	0	0.000000000	0	0.788798	-0.788798	0	0.828698	-1.5708	0	0.1	0.1	0.1	0.1	0.1	0.1	0.1	0	0	0	0	0	0	0	0.000000000
1504276066.218832015	-1.09066	-0.199418	-1.39439	0.931126	-0.19635	-3.14159	0.615126	0	0	0	0	0	0	0	0	0	0	0	0	0	0	0.000000000	0	0.788798	-0.788798	0	0.828698	-1.5708	0	0.1	0.1	0.1	0.1	0.1	0.1	0.1	0	0	0	0	0	0	0	0.000000000
1504276066.238722085	-1.09066	-0.199418	-1.39439	0.931126	-0.19635	-3.14159	0.615126	0	0	0	0	0	0	0	0	0	0	0	0	0	0	0.000000000	0	0.788798	-0.788798	0	0.828698	-1.5708	0	0.1	0.1	0.1	0.1	0.1	0.1	0.1	0	0	0	0	0	0	0	0.000000000
1504276066.258958101	-1.09066	-0.199418	-1.39439	0.931126	-0.19635	-3.14159	0.615126	0	0	0	0	0	0	0	0	0	0	0	0	0	0	0.000000000	0	0.788798	-0.788798	0	0.828698	-1.5708	0	0.1	0.1	0.1	0.1	0.1	0.1	0.1	0	0	0	0	0	0	0	0.000000000
1504276066.278840065	-1.09066	-0.199418	-1.39439	0.931126	-0.19635	-3.14159	0.615126	0	0	0	0	0	0	0	0	0	0	0	0	0	0	0.000000000	0	0.788798	-0.788798	0	0.828698	-1.5708	0	0.1	0.1	0.1	0.1	0.1	0.1	0.1	0	0	0	0	0	0	0	0.000000000
1504276066.298832893	-1.09066	-0.199418	-1.39439	0.931126	-0.19635	-3.14159	0.615126	0	0	0	0	0	0	0	0	0	0	0	0	0	0	0.000000000	0	0.788798	-0.788798	0	0.828698	-1.5708	0	0.1	0.1	0.1	0.1	0.1	0.1	0.1	0	0	0	0	0	0	0	0.000000000
1504276066.318816900	-1.09066	-0.199418	-1.39439	0.931126	-0.19635	-3.14159	0.615126	0	0	0	0	0	0	0	0	0	0	0	0	0	0	0.000000000	0	0.788798	-0.788798	0	0.828698	-1.5708	0	0.1	0.1	0.1	0.1	0.1	0.1	0.1	0	0	0	0	0	0	0	0.000000000
1504276066.338704109	-1.09066	-0.199418	-1.39439	0.931126	-0.19635	-3.14159	0.61666	0	0	0	0	0	0	0	0	0	0	0	0	0	0	0.000000000	0	0.788798	-0.788798	0	0.828698	-1.5708	0	0.1	0.1	0.1	0.1	0.1	0.1	0.1	0	0	0	0	0	0	0	0.000000000
1504276066.358752012	-1.09066	-0.199418	-1.39439	0.931126	-0.19635	-3.14159	0.61666	0	0	0	0	0	0	0	0	0	0	0	0	0	0	0.000000000	0	0.788798	-0.788798	0	0.828698	-1.5708	0	0.1	0.1	0.1	0.1	0.1	0.1	0.1	0	0	0	0	0	0	0	0.000000000
1504276066.379060029	-1.09066	-0.199418	-1.39439	0.931126	-0.19635	-3.14159	0.61666	0	0	0	0	0	0	0	0	0	0	0	0	0	0	0.000000000	0	0.788798	-0.788798	0	0.828698	-1.5708	0	0.1	0.1	0.1	0.1	0.1	0.1	0.1	0	0	0	0	0	0	0	0.000000000
1504276066.398792028	-1.09066	-0.199418	-1.39439	0.931126	-0.19635	-3.14159	0.615126	0	0	0	0	0	0	0	0	0	0	0	0	0	0	0.000000000	0	0.788798	-0.788798	0	0.828698	-1.5708	0	0.1	0.1	0.1	0.1	0.1	0.1	0.1	0	0	0	0	0	0	0	0.000000000
1504276066.418725013	-1.09066	-0.199418	-1.39439	0.931126	-0.19635	-3.14159	0.61666	0	0	0	0	0	0	0	0	0	0	0	0	0	0	0.000000000	0	0.788798	-0.788798	0	0.828698	-1.5708	0	0.1	0.1	0.1	0.1	0.1	0.1	0.1	0	0	0	0	0	0	0	0.000000000
1504276066.438731908	-1.09066	-0.199418	-1.39439	0.931126	-0.19635	-3.14159	0.61666	0	0	0	0	0	0	0	0	0	0	0	0	0	0	0.000000000	0	0.788798	-0.788798	0	0.828698	-1.5708	0	0.1	0.1	0.1	0.1	0.1	0.1	0.1	0	0	0	0	0	0	0	0.000000000
1504276066.458710908	-1.09066	-0.199418	-1.39439	0.931126	-0.19635	-3.14159	0.615126	0	0	0	0	0	0	0	0	0	0	0	0	0	0	0.000000000	0	0.788798	-0.788798	0	0.828698	-1.5708	0	0.1	0.1	0.1	0.1	0.1	0.1	0.1	0	0	0	0	0	0	0	0.000000000
1504276066.478729009	-1.09066	-0.199418	-1.39439	0.931126	-0.19635	-3.14159	0.615126	0	0	0	0	0	0	0	0	0	0	0	0	0	0	0.000000000	0	0.788798	-0.788798	0	0.828698	-1.5708	0	0.1	0.1	0.1	0.1	0.1	0.1	0.1	0	0	0	0	0	0	0	0.000000000
1504276066.498704910	-1.09066	-0.199418	-1.39439	0.931126	-0.19635	-3.14159	0.61666	0	0	0	0	0	0	0	0	0	0	0	0	0	0	0.000000000	0	0.788798	-0.788798	0	0.828698	-1.5708	0	0.1	0.1	0.1	0.1	0.1	0.1	0.1	0	0	0	0	0	0	0	0.000000000
1504276066.518682003	-1.09066	-0.199418	-1.39439	0.931126	-0.19635	-3.14159	0.61666	0	0	0	0	0	0	0	0	0	0	0	0	0	0	0.000000000	0	0.788798	-0.788798	0	0.828698	-1.5708	0	0.1	0.1	0.1	0.1	0.1	0.1	0.1	0	0	0	0	0	0	0	0.000000000
1504276066.538753986	-1.09066	-0.199418	-1.39439	0.931126	-0.19635	-3.14159	0.61666	0	0	0	0	0	0	0	0	0	0	0	0	0	0	0.000000000	0	0.788798	-0.788798	0	0.828698	-1.5708	0	0.1	0.1	0.1	0.1	0.1	0.1	0.1	0	0	0	0	0	0	0	0.000000000
1504276066.558976888	-1.09066	-0.199418	-1.39439	0.931126	-0.19635	-3.14159	0.61666	0	0	0	0	0	0	0	0	0	0	0	0	0	0	0.000000000	0	0.788798	-0.788798	0	0.828698	-1.5708	0	0.1	0.1	0.1	0.1	0.1	0.1	0.1	0	0	0	0	0	0	0	0.000000000
1504276066.578690052	-1.09066	-0.199418	-1.39439	0.931126	-0.19635	-3.14159	0.61666	0	0	0	0	0	0	0	0	0	0	0	0	0	0	0.000000000	0	0.788798	-0.788798	0	0.828698	-1.5708	0	0.1	0.1	0.1	0.1	0.1	0.1	0.1	0	0	0	0	0	0	0	0.000000000
1504276066.598695993	-1.09066	-0.199418	-1.39439	0.931126	-0.19635	-3.14159	0.615126	0	0	0	0	0	0	0	0	0	0	0	0	0	0	0.000000000	0	0.788798	-0.788798	0	0.828698	-1.5708	0	0.1	0.1	0.1	0.1	0.1	0.1	0.1	0	0	0	0	0	0	0	0.000000000
1504276066.618674039	-1.09066	-0.199418	-1.39285	0.931126	-0.19635	-3.14159	0.61666	0	0	0	0	0	0	0	0	0	0	0	0	0	0	0.000000000	0	0.788798	-0.788798	0	0.828698	-1.5708	0	0.1	0.1	0.1	0.1	0.1	0.1	0.1	0	0	0	0	0	0	0	0.000000000
1504276066.638811111	-1.09066	-0.199418	-1.39285	0.931126	-0.19635	-3.14159	0.61666	0	0	0	0	0	0	0	0	0	0	0	0	0	0	0.000000000	0	0.788798	-0.788798	0	0.828698	-1.5708	0	0.1	0.1	0.1	0.1	0.1	0.1	0.1	0	0	0	0	0	0	0	0.000000000
1504276066.658658027	-1.09066	-0.199418	-1.39439	0.931126	-0.19635	-3.14159	0.615126	0	0	0	0	0	0	0	0	0	0	0	0	0	0	0.000000000	0	0.788798	-0.788798	0	0.828698	-1.5708	0	0.1	0.1	0.1	0.1	0.1	0.1	0.1	0	0	0	0	0	0	0	0.000000000
1504276066.678736925	-1.09066	-0.199418	-1.39439	0.931126	-0.19635	-3.14159	0.615126	0	0	0	0	0	0	0	0	0	0	0	0	0	0	0.000000000	0	0.788798	-0.788798	0	0.828698	-1.5708	0	0.1	0.1	0.1	0.1	0.1	0.1	0.1	0	0	0	0	0	0	0	0.000000000
1504276066.698807001	-1.09066	-0.199418	-1.39439	0.931126	-0.19635	-3.14159	0.61666	0	0	0	0	0	0	0	0	0	0	0	0	0	0	0.000000000	0	0.788798	-0.788798	0	0.828698	-1.5708	0	0.1	0.1	0.1	0.1	0.1	0.1	0.1	0	0	0	0	0	0	0	0.000000000
1504276066.718875885	-1.09066	-0.199418	-1.39439	0.931126	-0.19635	-3.14159	0.61666	0	0	0	0	0	0	0	0	0	0	0	0	0	0	0.000000000	0	0.788798	-0.788798	0	0.828698	-1.5708	0	0.1	0.1	0.1	0.1	0.1	0.1	0.1	0	0	0	0	0	0	0	0.000000000
1504276066.738663911	-1.09066	-0.199418	-1.39439	0.931126	-0.19635	-3.14159	0.615126	0	0	0	0	0	0	0	0	0	0	0	0	0	0	0.000000000	0	0.788798	-0.788798	0	0.828698	-1.5708	0	0.1	0.1	0.1	0.1	0.1	0.1	0.1	0	0	0	0	0	0	0	0.000000000
1504276066.758801937	-1.09066	-0.199418	-1.39439	0.931126	-0.19635	-3.14159	0.615126	0	0	0	0	0	0	0	0	0	0	0	0	0	0	0.000000000	0	0.788798	-0.788798	0	0.828698	-1.5708	0	0.1	0.1	0.1	0.1	0.1	0.1	0.1	0	0	0	0	0	0	0	0.000000000
1504276066.778656959	-1.09066	-0.199418	-1.39439	0.931126	-0.19635	-3.14159	0.615126	0	0	0	0	0	0	0	0	0	0	0	0	0	0	0.000000000	0	0.788798	-0.788798	0	0.828698	-1.5708	0	0.1	0.1	0.1	0.1	0.1	0.1	0.1	0	0	0	0	0	0	0	0.000000000
1504276066.798835039	-1.09066	-0.199418	-1.39439	0.931126	-0.19635	-3.14159	0.615126	0	0	0	0	0	0	0	0	0	0	0	0	0	0	0.000000000	0	0.788798	-0.788798	0	0.828698	-1.5708	0	0.1	0.1	0.1	0.1	0.1	0.1	0.1	0	0	0	0	0	0	0	0.000000000
1504276066.818970918	-1.09066	-0.199418	-1.39439	0.931126	-0.19635	-3.14159	0.615126	0	0	0	0	0	0	0	0	0	0	0	0	0	0	0.000000000	0	0.788798	-0.788798	0	0.828698	-1.5708	0	0.1	0.1	0.1	0.1	0.1	0.1	0.1	0	0	0	0	0	0	0	0.000000000
1504276066.838829994	-1.09066	-0.199418	-1.39439	0.931126	-0.19635	-3.14159	0.615126	0	0	0	0	0	0	0	0	0	0	0	0	0	0	0.000000000	0	0.788798	-0.788798	0	0.828698	-1.5708	0	0.1	0.1	0.1	0.1	0.1	0.1	0.1	0	0	0	0	0	0	0	0.000000000
1504276066.858788013	-1.09066	-0.199418	-1.39439	0.931126	-0.19635	-3.14159	0.61666	0	0	0	0	0	0	0	0	0	0	0	0	0	0	0.000000000	0	0.788798	-0.788798	0	0.828698	-1.5708	0	0.1	0.1	0.1	0.1	0.1	0.1	0.1	0	0	0	0	0	0	0	0.000000000
1504276066.878726959	-1.09066	-0.199418	-1.39439	0.931126	-0.19635	-3.14159	0.615126	0	0	0	0	0	0	0	0	0	0	0	0	0	0	0.000000000	0	0.788798	-0.788798	0	0.828698	-1.5708	0	0.1	0.1	0.1	0.1	0.1	0.1	0.1	0	0	0	0	0	0	0	0.000000000
1504276066.898766040	-1.09066	-0.199418	-1.39439	0.931126	-0.19635	-3.14159	0.615126	0	0	0	0	0	0	0	0	0	0	0	0	0	0	0.000000000	0	0.788798	-0.788798	0	0.828698	-1.5708	0	0.1	0.1	0.1	0.1	0.1	0.1	0.1	0	0	0	0	0	0	0	0.000000000
1504276066.918999910	-1.09066	-0.199418	-1.39439	0.931126	-0.19635	-3.14159	0.615126	0	0	0	0	0	0	0	0	0	0	0	0	0	0	0.000000000	0	0.788798	-0.788798	0	0.828698	-1.5708	0	0.1	0.1	0.1	0.1	0.1	0.1	0.1	0	0	0	0	0	0	0	0.000000000
1504276066.938885927	-1.09066	-0.199418	-1.39439	0.931126	-0.19635	-3.14159	0.615126	0	0	0	0	0	0	0	0	0	0	0	0	0	0	0.000000000	0	0.788798	-0.788798	0	0.828698	-1.5708	0	0.1	0.1	0.1	0.1	0.1	0.1	0.1	0	0	0	0	0	0	0	0.000000000
1504276066.958946943	-1.09066	-0.199418	-1.39285	0.931126	-0.19635	-3.14159	0.61666	0	0	0	0	0	0	0	0	0	0	0	0	0	0	0.000000000	0	0.788798	-0.788798	0	0.828698	-1.5708	0	0.1	0.1	0.1	0.1	0.1	0.1	0.1	0	0	0	0	0	0	0	0.000000000
1504276066.978694915	-1.09066	-0.199418	-1.39439	0.931126	-0.19635	-3.14159	0.615126	0	0	0	0	0	0	0	0	0	0	0	0	0	0	0.000000000	0	0.788798	-0.788798	0	0.828698	-1.5708	0	0.1	0.1	0.1	0.1	0.1	0.1	0.1	0	0	0	0	0	0	0	0.000000000
1504276066.999066114	-1.09066	-0.199418	-1.39439	0.931126	-0.19635	-3.14159	0.61666	0	0	0	0	0	0	0	0	0	0	0	0	0	0	0.000000000	0	0.788798	-0.788798	0	0.828698	-1.5708	0	0.1	0.1	0.1	0.1	0.1	0.1	0.1	0	0	0	0	0	0	0	0.000000000
1504276067.018682003	-1.09066	-0.199418	-1.39439	0.931126	-0.19635	-3.14159	0.615126	0	0	0	0	0	0	0	0	0	0	0	0	0	0	0.000000000	0	0.788798	-0.788798	0	0.828698	-1.5708	0	0.1	0.1	0.1	0.1	0.1	0.1	0.1	0	0	0	0	0	0	0	0.000000000
1504276067.038753032	-1.09066	-0.199418	-1.39439	0.931126	-0.19635	-3.14159	0.615126	0	0	0	0	0	0	0	0	0	0	0	0	0	0	0.000000000	0	0.788798	-0.788798	0	0.828698	-1.5708	0	0.1	0.1	0.1	0.1	0.1	0.1	0.1	0	0	0	0	0	0	0	0.000000000
1504276067.058671951	-1.09066	-0.199418	-1.39439	0.931126	-0.19635	-3.14159	0.615126	0	0	0	0	0	0	0	0	0	0	0	0	0	0	0.000000000	0	0.788798	-0.788798	0	0.828698	-1.5708	0	0.1	0.1	0.1	0.1	0.1	0.1	0.1	0	0	0	0	0	0	0	0.000000000
1504276067.078711986	-1.09066	-0.199418	-1.39439	0.931126	-0.19635	-3.14159	0.61666	0	0	0	0	0	0	0	0	0	0	0	0	0	0	0.000000000	0	0.788798	-0.788798	0	0.828698	-1.5708	0	0.1	0.1	0.1	0.1	0.1	0.1	0.1	0	0	0	0	0	0	0	0.000000000
1504276067.098748922	-1.09066	-0.199418	-1.39439	0.931126	-0.19635	-3.14159	0.61666	0	0	0	0	0	0	0	0	0	0	0	0	0	0	0.000000000	0	0.788798	-0.788798	0	0.828698	-1.5708	0	0.1	0.1	0.1	0.1	0.1	0.1	0.1	0	0	0	0	0	0	0	0.000000000
1504276067.118882894	-1.09066	-0.199418	-1.39439	0.931126	-0.19635	-3.14159	0.61666	0	0	0	0	0	0	0	0	0	0	0	0	0	0	0.000000000	0	0.788798	-0.788798	0	0.828698	-1.5708	0	0.1	0.1	0.1	0.1	0.1	0.1	0.1	0	0	0	0	0	0	0	0.000000000
1504276067.138858079	-1.09066	-0.199418	-1.39439	0.931126	-0.19635	-3.14159	0.615126	0	0	0	0	0	0	0	0	0	0	0	0	0	0	0.000000000	0	0.788798	-0.788798	0	0.828698	-1.5708	0	0.1	0.1	0.1	0.1	0.1	0.1	0.1	0	0	0	0	0	0	0	0.000000000
1504276067.158869981	-1.09066	-0.199418	-1.39439	0.931126	-0.19635	-3.14159	0.615126	0	0	0	0	0	0	0	0	0	0	0	0	0	0	0.000000000	0	0.788798	-0.788798	0	0.828698	-1.5708	0	0.1	0.1	0.1	0.1	0.1	0.1	0.1	0	0	0	0	0	0	0	0.000000000
1504276067.178639888	-1.09066	-0.199418	-1.39439	0.931126	-0.19635	-3.14159	0.61666	0	0	0	0	0	0	0	0	0	0	0	0	0	0	0.000000000	0	0.788798	-0.788798	0	0.828698	-1.5708	0	0.1	0.1	0.1	0.1	0.1	0.1	0.1	0	0	0	0	0	0	0	0.000000000
1504276067.198879957	-1.09066	-0.199418	-1.39439	0.931126	-0.19635	-3.14159	0.615126	0	0	0	0	0	0	0	0	0	0	0	0	0	0	0.000000000	0	0.788798	-0.788798	0	0.828698	-1.5708	0	0.1	0.1	0.1	0.1	0.1	0.1	0.1	0	0	0	0	0	0	0	0.000000000
1504276067.218735933	-1.09066	-0.199418	-1.39439	0.931126	-0.19635	-3.14159	0.615126	0	0	0	0	0	0	0	0	0	0	0	0	0	0	0.000000000	0	0.788798	-0.788798	0	0.828698	-1.5708	0	0.1	0.1	0.1	0.1	0.1	0.1	0.1	0	0	0	0	0	0	0	0.000000000
1504276067.239952087	-1.09066	-0.199418	-1.39439	0.931126	-0.19635	-3.14159	0.615126	0	0	0	0	0	0	0	0	0	0	0	0	0	0	0.000000000	0	0.788798	-0.788798	0	0.828698	-1.5708	0	0.1	0.1	0.1	0.1	0.1	0.1	0.1	0	0	0	0	0	0	0	0.000000000
1504276067.259700059	-1.09066	-0.199418	-1.39439	0.931126	-0.19635	-3.14159	0.615126	0	0	0	0	0	0	0	0	0	0	0	0	0	0	0.000000000	0	0.788798	-0.788798	0	0.828698	-1.5708	0	0.1	0.1	0.1	0.1	0.1	0.1	0.1	0	0	0	0	0	0	0	0.000000000
1504276067.278728008	-1.09066	-0.199418	-1.39439	0.931126	-0.19635	-3.14159	0.615126	0	0	0	0	0	0	0	0	0	0	0	0	0	0	0.000000000	0	0.788798	-0.788798	0	0.828698	-1.5708	0	0.1	0.1	0.1	0.1	0.1	0.1	0.1	0	0	0	0	0	0	0	0.000000000
1504276067.298784971	-1.09066	-0.199418	-1.39439	0.931126	-0.19635	-3.14159	0.615126	0	0	0	0	0	0	0	0	0	0	0	0	0	0	0.000000000	0	0.788798	-0.788798	0	0.828698	-1.5708	0	0.1	0.1	0.1	0.1	0.1	0.1	0.1	0	0	0	0	0	0	0	0.000000000
1504276067.318666934	-1.09066	-0.199418	-1.39439	0.931126	-0.19635	-3.14159	0.61666	0	0	0	0	0	0	0	0	0	0	0	0	0	0	0.000000000	0	0.788798	-0.788798	0	0.828698	-1.5708	0	0.1	0.1	0.1	0.1	0.1	0.1	0.1	0	0	0	0	0	0	0	0.000000000
1504276067.338769912	-1.09066	-0.199418	-1.39439	0.931126	-0.19635	-3.14159	0.61666	0	0	0	0	0	0	0	0	0	0	0	0	0	0	0.000000000	0	0.788798	-0.788798	0	0.828698	-1.5708	0	0.1	0.1	0.1	0.1	0.1	0.1	0.1	0	0	0	0	0	0	0	0.000000000
1504276067.358947038	-1.09066	-0.199418	-1.39439	0.931126	-0.19635	-3.14313	0.615126	0	0	0	0	0	0	0	0	0	0	0	0	0	0	0.000000000	0	0.788798	-0.788798	0	0.828698	-1.5708	0	0.1	0.1	0.1	0.1	0.1	0.1	0.1	0	0	0	0	0	0	0	0.000000000
1504276067.378719091	-1.09066	-0.199418	-1.39439	0.931126	-0.19635	-3.14159	0.615126	0	0	0	0	0	0	0	0	0	0	0	0	0	0	0.000000000	0	0.788798	-0.788798	0	0.828698	-1.5708	0	0.1	0.1	0.1	0.1	0.1	0.1	0.1	0	0	0	0	0	0	0	0.000000000
1504276067.398802995	-1.09066	-0.199418	-1.39285	0.931126	-0.19635	-3.14159	0.615126	0	0	0	0	0	0	0	0	0	0	0	0	0	0	0.000000000	0	0.788798	-0.788798	0	0.828698	-1.5708	0	0.1	0.1	0.1	0.1	0.1	0.1	0.1	0	0	0	0	0	0	0	0.000000000
1504276067.418812036	-1.09066	-0.199418	-1.39285	0.931126	-0.19635	-3.14159	0.61666	0	0	0	0	0	0	0	0	0	0	0	0	0	0	0.000000000	0	0.788798	-0.788798	0	0.828698	-1.5708	0	0.1	0.1	0.1	0.1	0.1	0.1	0.1	0	0	0	0	0	0	0	0.000000000
1504276067.438791036	-1.09066	-0.199418	-1.39285	0.931126	-0.19635	-3.14159	0.61666	0	0	0	0	0	0	0	0	0	0	0	0	0	0	0.000000000	0	0.788798	-0.788798	0	0.828698	-1.5708	0	0.1	0.1	0.1	0.1	0.1	0.1	0.1	0	0	0	0	0	0	0	0.000000000
1504276067.458698034	-1.09066	-0.199418	-1.39439	0.931126	-0.19635	-3.14159	0.61666	0	0	0	0	0	0	0	0	0	0	0	0	0	0	0.000000000	0	0.788798	-0.788798	0	0.828698	-1.5708	0	0.1	0.1	0.1	0.1	0.1	0.1	0.1	0	0	0	0	0	0	0	0.000000000
1504276067.478755950	-1.09066	-0.199418	-1.39285	0.931126	-0.19635	-3.14159	0.61666	0	0	0	0	0	0	0	0	0	0	0	0	0	0	0.000000000	0	0.788798	-0.788798	0	0.828698	-1.5708	0	0.1	0.1	0.1	0.1	0.1	0.1	0.1	0	0	0	0	0	0	0	0.000000000
1504276067.498748064	-1.09066	-0.199418	-1.39439	0.931126	-0.19635	-3.14159	0.61666	0	0	0	0	0	0	0	0	0	0	0	0	0	0	0.000000000	0	0.788798	-0.788798	0	0.828698	-1.5708	0	0.1	0.1	0.1	0.1	0.1	0.1	0.1	0	0	0	0	0	0	0	0.000000000
1504276067.518719911	-1.09066	-0.199418	-1.39439	0.931126	-0.19635	-3.14159	0.61666	0	0	0	0	0	0	0	0	0	0	0	0	0	0	0.000000000	0	0.788798	-0.788798	0	0.828698	-1.5708	0	0.1	0.1	0.1	0.1	0.1	0.1	0.1	0	0	0	0	0	0	0	0.000000000
1504276067.539963006	-1.09066	-0.199418	-1.39439	0.931126	-0.19635	-3.14159	0.615126	0	0	0	0	0	0	0	0	0	0	0	0	0	0	0.000000000	0	0.788798	-0.788798	0	0.828698	-1.5708	0	0.1	0.1	0.1	0.1	0.1	0.1	0.1	0	0	0	0	0	0	0	0.000000000
1504276067.558897018	-1.08913	-0.199418	-1.39439	0.931126	-0.19635	-3.14159	0.615126	0	0	0	0	0	0	0	0	0	0	0	0	0	0	0.000000000	0	0.788798	-0.788798	0	0.828698	-1.5708	0	0.1	0.1	0.1	0.1	0.1	0.1	0.1	0	0	0	0	0	0	0	0.000000000
1504276067.578680992	-1.09066	-0.199418	-1.39439	0.931126	-0.194816	-3.14159	0.61666	0	0	0	0	0	0	0	0	0	0	0	0	0	0	0.000000000	0	0.788798	-0.788798	0	0.828698	-1.5708	0	0.1	0.1	0.1	0.1	0.1	0.1	0.1	0	0	0	0	0	0	0	0.000000000
1504276067.598781108	-1.09066	-0.199418	-1.39439	0.931126	-0.19635	-3.14159	0.615126	0	0	0	0	0	0	0	0	0	0	0	0	0	0	0.000000000	0	0.788798	-0.788798	0	0.828698	-1.5708	0	0.1	0.1	0.1	0.1	0.1	0.1	0.1	0	0	0	0	0	0	0	0.000000000
1504276067.618949890	-1.09066	-0.199418	-1.39439	0.931126	-0.19635	-3.14159	0.615126	0	0	0	0	0	0	0	0	0	0	0	0	0	0	0.000000000	0	0.788798	-0.788798	0	0.828698	-1.5708	0	0.1	0.1	0.1	0.1	0.1	0.1	0.1	0	0	0	0	0	0	0	0.000000000
1504276067.639354944	-1.09066	-0.199418	-1.39439	0.931126	-0.19635	-3.14159	0.61666	0	0	0	0	0	0	0	0	0	0	0	0	0	0	0.000000000	0	0.788798	-0.788798	0	0.828698	-1.5708	0	0.1	0.1	0.1	0.1	0.1	0.1	0.1	0	0	0	0	0	0	0	0.000000000
1504276067.658770084	-1.09066	-0.199418	-1.39439	0.931126	-0.19635	-3.14159	0.615126	0	0	0	0	0	0	0	0	0	0	0	0	0	0	0.000000000	0	0.788798	-0.788798	0	0.828698	-1.5708	0	0.1	0.1	0.1	0.1	0.1	0.1	0.1	0	0	0	0	0	0	0	0.000000000
1504276067.678684949	-1.09066	-0.199418	-1.39439	0.931126	-0.19635	-3.14159	0.615126	0	0	0	0	0	0	0	0	0	0	0	0	0	0	0.000000000	0	0.788798	-0.788798	0	0.828698	-1.5708	0	0.1	0.1	0.1	0.1	0.1	0.1	0.1	0	0	0	0	0	0	0	0.000000000
1504276067.698725938	-1.09066	-0.199418	-1.39439	0.931126	-0.19635	-3.14159	0.615126	0	0	0	0	0	0	0	0	0	0	0	0	0	0	0.000000000	0	0.788798	-0.788798	0	0.828698	-1.5708	0	0.1	0.1	0.1	0.1	0.1	0.1	0.1	0	0	0	0	0	0	0	0.000000000
1504276067.718723058	-1.09066	-0.199418	-1.39439	0.931126	-0.19635	-3.14159	0.615126	0	0	0	0	0	0	0	0	0	0	0	0	0	0	0.000000000	0	0.788798	-0.788798	0	0.828698	-1.5708	0	0.1	0.1	0.1	0.1	0.1	0.1	0.1	0	0	0	0	0	0	0	0.000000000
1504276067.738723039	-1.09066	-0.199418	-1.39439	0.931126	-0.19635	-3.14159	0.615126	0	0	0	0	0	0	0	0	0	0	0	0	0	0	0.000000000	0	0.788798	-0.788798	0	0.828698	-1.5708	0	0.1	0.1	0.1	0.1	0.1	0.1	0.1	0	0	0	0	0	0	0	0.000000000
1504276067.758986949	-1.09066	-0.199418	-1.39285	0.931126	-0.19635	-3.14159	0.615126	0	0	0	0	0	0	0	0	0	0	0	0	0	0	0.000000000	0	0.788798	-0.788798	0	0.828698	-1.5708	0	0.1	0.1	0.1	0.1	0.1	0.1	0.1	0	0	0	0	0	0	0	0.000000000
1504276067.778784990	-1.09066	-0.199418	-1.39439	0.931126	-0.19635	-3.14159	0.615126	0	0	0	0	0	0	0	0	0	0	0	0	0	0	0.000000000	0	0.788798	-0.788798	0	0.828698	-1.5708	0	0.1	0.1	0.1	0.1	0.1	0.1	0.1	0	0	0	0	0	0	0	0.000000000
1504276067.798804044	-1.09066	-0.199418	-1.39439	0.931126	-0.19635	-3.14159	0.615126	0	0	0	0	0	0	0	0	0	0	0	0	0	0	0.000000000	0	0.788798	-0.788798	0	0.828698	-1.5708	0	0.1	0.1	0.1	0.1	0.1	0.1	0.1	0	0	0	0	0	0	0	0.000000000
1504276067.818737983	-1.09066	-0.199418	-1.39439	0.931126	-0.19635	-3.14159	0.615126	0	0	0	0	0	0	0	0	0	0	0	0	0	0	0.000000000	0	0.788798	-0.788798	0	0.828698	-1.5708	0	0.1	0.1	0.1	0.1	0.1	0.1	0.1	0	0	0	0	0	0	0	0.000000000
1504276067.839216947	-1.09066	-0.199418	-1.39439	0.931126	-0.19635	-3.14159	0.615126	0	0	0	0	0	0	0	0	0	0	0	0	0	0	0.000000000	0	0.788798	-0.788798	0	0.828698	-1.5708	0	0.1	0.1	0.1	0.1	0.1	0.1	0.1	0	0	0	0	0	0	0	0.000000000
1504276067.859211921	-1.09066	-0.199418	-1.39439	0.931126	-0.19635	-3.14159	0.615126	0	0	0	0	0	0	0	0	0	0	0	0	0	0	0.000000000	0	0.788798	-0.788798	0	0.828698	-1.5708	0	0.1	0.1	0.1	0.1	0.1	0.1	0.1	0	0	0	0	0	0	0	0.000000000
1504276067.878724098	-1.09066	-0.199418	-1.39439	0.931126	-0.19635	-3.14159	0.61666	0	0	0	0	0	0	0	0	0	0	0	0	0	0	0.000000000	0	0.788798	-0.788798	0	0.828698	-1.5708	0	0.1	0.1	0.1	0.1	0.1	0.1	0.1	0	0	0	0	0	0	0	0.000000000
1504276067.898740053	-1.09066	-0.199418	-1.39439	0.931126	-0.194816	-3.14159	0.615126	0	0	0	0	0	0	0	0	0	0	0	0	0	0	0.000000000	0	0.788798	-0.788798	0	0.828698	-1.5708	0	0.1	0.1	0.1	0.1	0.1	0.1	0.1	0	0	0	0	0	0	0	0.000000000
1504276067.918821096	-1.09066	-0.199418	-1.39439	0.931126	-0.19635	-3.14159	0.61666	0	0	0	0	0	0	0	0	0	0	0	0	0	0	0.000000000	0	0.788798	-0.788798	0	0.828698	-1.5708	0	0.1	0.1	0.1	0.1	0.1	0.1	0.1	0	0	0	0	0	0	0	0.000000000
1504276067.938791036	-1.09066	-0.199418	-1.39439	0.931126	-0.19635	-3.14159	0.61666	0	0	0	0	0	0	0	0	0	0	0	0	0	0	0.000000000	0	0.788798	-0.788798	0	0.828698	-1.5708	0	0.1	0.1	0.1	0.1	0.1	0.1	0.1	0	0	0	0	0	0	0	0.000000000
1504276067.958843946	-1.09066	-0.199418	-1.39439	0.931126	-0.19635	-3.14159	0.615126	0	0	0	0	0	0	0	0	0	0	0	0	0	0	0.000000000	0	0.788798	-0.788798	0	0.828698	-1.5708	0	0.1	0.1	0.1	0.1	0.1	0.1	0.1	0	0	0	0	0	0	0	0.000000000
1504276067.978738069	-1.09066	-0.199418	-1.39439	0.931126	-0.19635	-3.14159	0.61666	0	0	0	0	0	0	0	0	0	0	0	0	0	0	0.000000000	0	0.788798	-0.788798	0	0.828698	-1.5708	0	0.1	0.1	0.1	0.1	0.1	0.1	0.1	0	0	0	0	0	0	0	0.000000000
1504276067.998744964	-1.09066	-0.199418	-1.39439	0.931126	-0.19635	-3.14159	0.615126	0	0	0	0	0	0	0	0	0	0	0	0	0	0	0.000000000	0	0.788798	-0.788798	0	0.828698	-1.5708	0	0.1	0.1	0.1	0.1	0.1	0.1	0.1	0	0	0	0	0	0	0	0.000000000
1504276068.018788099	-1.09066	-0.199418	-1.39439	0.931126	-0.19635	-3.14159	0.615126	0	0	0	0	0	0	0	0	0	0	0	0	0	0	0.000000000	0	0.788798	-0.788798	0	0.828698	-1.5708	0	0.1	0.1	0.1	0.1	0.1	0.1	0.1	0	0	0	0	0	0	0	0.000000000
1504276068.038793087	-1.09066	-0.199418	-1.39439	0.931126	-0.19635	-3.14159	0.61666	0	0	0	0	0	0	0	0	0	0	0	0	0	0	0.000000000	0	0.788798	-0.788798	0	0.828698	-1.5708	0	0.1	0.1	0.1	0.1	0.1	0.1	0.1	0	0	0	0	0	0	0	0.000000000
1504276068.059197902	-1.09066	-0.199418	-1.39439	0.931126	-0.19635	-3.14159	0.61666	0	0	0	0	0	0	0	0	0	0	0	0	0	0	0.000000000	0	0.788798	-0.788798	0	0.828698	-1.5708	0	0.1	0.1	0.1	0.1	0.1	0.1	0.1	0	0	0	0	0	0	0	0.000000000
1504276068.078685998	-1.09066	-0.199418	-1.39439	0.931126	-0.19635	-3.14159	0.615126	0	0	0	0	0	0	0	0	0	0	0	0	0	0	0.000000000	0	0.788798	-0.788798	0	0.828698	-1.5708	0	0.1	0.1	0.1	0.1	0.1	0.1	0.1	0	0	0	0	0	0	0	0.000000000
1504276068.098700046	-1.09066	-0.199418	-1.39439	0.931126	-0.19635	-3.14159	0.615126	0	0	0	0	0	0	0	0	0	0	0	0	0	0	0.000000000	0	0.788798	-0.788798	0	0.828698	-1.5708	0	0.1	0.1	0.1	0.1	0.1	0.1	0.1	0	0	0	0	0	0	0	0.000000000
1504276068.118649959	-1.09066	-0.199418	-1.39439	0.931126	-0.19635	-3.14159	0.615126	0	0	0	0	0	0	0	0	0	0	0	0	0	0	0.000000000	0	0.788798	-0.788798	0	0.828698	-1.5708	0	0.1	0.1	0.1	0.1	0.1	0.1	0.1	0	0	0	0	0	0	0	0.000000000
1504276068.138676881	-1.09066	-0.199418	-1.39439	0.931126	-0.19635	-3.14159	0.615126	0	0	0	0	0	0	0	0	0	0	0	0	0	0	0.000000000	0	0.788798	-0.788798	0	0.828698	-1.5708	0	0.1	0.1	0.1	0.1	0.1	0.1	0.1	0	0	0	0	0	0	0	0.000000000
1504276068.158773899	-1.09066	-0.199418	-1.39285	0.931126	-0.19635	-3.14159	0.615126	0	0	0	0	0	0	0	0	0	0	0	0	0	0	0.000000000	0	0.788798	-0.788798	0	0.828698	-1.5708	0	0.1	0.1	0.1	0.1	0.1	0.1	0.1	0	0	0	0	0	0	0	0.000000000
1504276068.178728103	-1.09066	-0.199418	-1.39439	0.931126	-0.19635	-3.14159	0.615126	0	0	0	0	0	0	0	0	0	0	0	0	0	0	0.000000000	0	0.788798	-0.788798	0	0.828698	-1.5708	0	0.1	0.1	0.1	0.1	0.1	0.1	0.1	0	0	0	0	0	0	0	0.000000000
1504276068.198668003	-1.09066	-0.199418	-1.39439	0.931126	-0.19635	-3.14159	0.615126	0	0	0	0	0	0	0	0	0	0	0	0	0	0	0.000000000	0	0.788798	-0.788798	0	0.828698	-1.5708	0	0.1	0.1	0.1	0.1	0.1	0.1	0.1	0	0	0	0	0	0	0	0.000000000
1504276068.218664884	-1.09066	-0.199418	-1.39439	0.931126	-0.19635	-3.14313	0.615126	0	0	0	0	0	0	0	0	0	0	0	0	0	0	0.000000000	0	0.788798	-0.788798	0	0.828698	-1.5708	0	0.1	0.1	0.1	0.1	0.1	0.1	0.1	0	0	0	0	0	0	0	0.000000000
1504276068.238771915	-1.09066	-0.199418	-1.39439	0.931126	-0.19635	-3.14313	0.615126	0	0	0	0	0	0	0	0	0	0	0	0	0	0	0.000000000	0	0.788798	-0.788798	0	0.828698	-1.5708	0	0.1	0.1	0.1	0.1	0.1	0.1	0.1	0	0	0	0	0	0	0	0.000000000
1504276068.258718013	-1.09066	-0.199418	-1.39439	0.931126	-0.19635	-3.14159	0.615126	0	0	0	0	0	0	0	0	0	0	0	0	0	0	0.000000000	0	0.788798	-0.788798	0	0.828698	-1.5708	0	0.1	0.1	0.1	0.1	0.1	0.1	0.1	0	0	0	0	0	0	0	0.000000000
1504276068.278706073	-1.09066	-0.199418	-1.39439	0.931126	-0.19635	-3.14159	0.615126	0	0	0	0	0	0	0	0	0	0	0	0	0	0	0.000000000	0	0.788798	-0.788798	0	0.828698	-1.5708	0	0.1	0.1	0.1	0.1	0.1	0.1	0.1	0	0	0	0	0	0	0	0.000000000
1504276068.298825979	-1.09066	-0.199418	-1.39439	0.931126	-0.194816	-3.14159	0.615126	0	0	0	0	0	0	0	0	0	0	0	0	0	0	0.000000000	0	0.788798	-0.788798	0	0.828698	-1.5708	0	0.1	0.1	0.1	0.1	0.1	0.1	0.1	0	0	0	0	0	0	0	0.000000000
1504276068.319022893	-1.09066	-0.199418	-1.39439	0.931126	-0.19635	-3.14159	0.615126	0	0	0	0	0	0	0	0	0	0	0	0	0	0	0.000000000	0	0.788798	-0.788798	0	0.828698	-1.5708	0	0.1	0.1	0.1	0.1	0.1	0.1	0.1	0	0	0	0	0	0	0	0.000000000
1504276068.338670969	-1.09066	-0.199418	-1.39439	0.931126	-0.19635	-3.14159	0.615126	0	0	0	0	0	0	0	0	0	0	0	0	0	0	0.000000000	0	0.788798	-0.788798	0	0.828698	-1.5708	0	0.1	0.1	0.1	0.1	0.1	0.1	0.1	0	0	0	0	0	0	0	0.000000000
1504276068.358921051	-1.09066	-0.199418	-1.39439	0.931126	-0.19635	-3.14159	0.61666	0	0	0	0	0	0	0	0	0	0	0	0	0	0	0.000000000	0	0.788798	-0.788798	0	0.828698	-1.5708	0	0.1	0.1	0.1	0.1	0.1	0.1	0.1	0	0	0	0	0	0	0	0.000000000
1504276068.378762960	-1.09066	-0.199418	-1.39439	0.931126	-0.19635	-3.14159	0.615126	0	0	0	0	0	0	0	0	0	0	0	0	0	0	0.000000000	0	0.788798	-0.788798	0	0.828698	-1.5708	0	0.1	0.1	0.1	0.1	0.1	0.1	0.1	0	0	0	0	0	0	0	0.000000000
1504276068.398767948	-1.09066	-0.199418	-1.39439	0.931126	-0.19635	-3.14159	0.615126	0	0	0	0	0	0	0	0	0	0	0	0	0	0	0.000000000	0	0.788798	-0.788798	0	0.828698	-1.5708	0	0.1	0.1	0.1	0.1	0.1	0.1	0.1	0	0	0	0	0	0	0	0.000000000
1504276068.418802976	-1.09066	-0.199418	-1.39439	0.931126	-0.19635	-3.14159	0.615126	0	0	0	0	0	0	0	0	0	0	0	0	0	0	0.000000000	0	0.788798	-0.788798	0	0.828698	-1.5708	0	0.1	0.1	0.1	0.1	0.1	0.1	0.1	0	0	0	0	0	0	0	0.000000000
1504276068.438839912	-1.09066	-0.199418	-1.39439	0.931126	-0.19635	-3.14159	0.615126	0	0	0	0	0	0	0	0	0	0	0	0	0	0	0.000000000	0	0.788798	-0.788798	0	0.828698	-1.5708	0	0.1	0.1	0.1	0.1	0.1	0.1	0.1	0	0	0	0	0	0	0	0.000000000
1504276068.458658933	-1.09066	-0.199418	-1.39439	0.931126	-0.19635	-3.14159	0.615126	0	0	0	0	0	0	0	0	0	0	0	0	0	0	0.000000000	0	0.788798	-0.788798	0	0.828698	-1.5708	0	0.1	0.1	0.1	0.1	0.1	0.1	0.1	0	0	0	0	0	0	0	0.000000000
1504276068.478805065	-1.09066	-0.199418	-1.39439	0.931126	-0.19635	-3.14159	0.61666	0	0	0	0	0	0	0	0	0	0	0	0	0	0	0.000000000	0	0.788798	-0.788798	0	0.828698	-1.5708	0	0.1	0.1	0.1	0.1	0.1	0.1	0.1	0	0	0	0	0	0	0	0.000000000
1504276068.498795986	-1.09066	-0.199418	-1.39439	0.931126	-0.19635	-3.14159	0.615126	0	0	0	0	0	0	0	0	0	0	0	0	0	0	0.000000000	0	0.788798	-0.788798	0	0.828698	-1.5708	0	0.1	0.1	0.1	0.1	0.1	0.1	0.1	0	0	0	0	0	0	0	0.000000000
1504276068.518712997	-1.09066	-0.199418	-1.39439	0.931126	-0.19635	-3.14159	0.615126	0	0	0	0	0	0	0	0	0	0	0	0	0	0	0.000000000	0	0.788798	-0.788798	0	0.828698	-1.5708	0	0.1	0.1	0.1	0.1	0.1	0.1	0.1	0	0	0	0	0	0	0	0.000000000
1504276068.538676977	-1.09066	-0.199418	-1.39439	0.931126	-0.19635	-3.14159	0.615126	0	0	0	0	0	0	0	0	0	0	0	0	0	0	0.000000000	0	0.788798	-0.788798	0	0.828698	-1.5708	0	0.1	0.1	0.1	0.1	0.1	0.1	0.1	0	0	0	0	0	0	0	0.000000000
1504276068.558793067	-1.09066	-0.199418	-1.39439	0.931126	-0.19635	-3.14159	0.615126	0	0	0	0	0	0	0	0	0	0	0	0	0	0	0.000000000	0	0.788798	-0.788798	0	0.828698	-1.5708	0	0.1	0.1	0.1	0.1	0.1	0.1	0.1	0	0	0	0	0	0	0	0.000000000
1504276068.578707933	-1.09066	-0.199418	-1.39439	0.931126	-0.19635	-3.14159	0.615126	0	0	0	0	0	0	0	0	0	0	0	0	0	0	0.000000000	0	0.788798	-0.788798	0	0.828698	-1.5708	0	0.1	0.1	0.1	0.1	0.1	0.1	0.1	0	0	0	0	0	0	0	0.000000000
1504276068.598642110	-1.09066	-0.199418	-1.39439	0.931126	-0.19635	-3.14159	0.615126	0	0	0	0	0	0	0	0	0	0	0	0	0	0	0.000000000	0	0.788798	-0.788798	0	0.828698	-1.5708	0	0.1	0.1	0.1	0.1	0.1	0.1	0.1	0	0	0	0	0	0	0	0.000000000
1504276068.618632078	-1.09066	-0.199418	-1.39439	0.931126	-0.19635	-3.14159	0.615126	0	0	0	0	0	0	0	0	0	0	0	0	0	0	0.000000000	0	0.788798	-0.788798	0	0.828698	-1.5708	0	0.1	0.1	0.1	0.1	0.1	0.1	0.1	0	0	0	0	0	0	0	0.000000000
1504276068.638629913	-1.09066	-0.199418	-1.39439	0.931126	-0.19635	-3.14159	0.615126	0	0	0	0	0	0	0	0	0	0	0	0	0	0	0.000000000	0	0.788798	-0.788798	0	0.828698	-1.5708	0	0.1	0.1	0.1	0.1	0.1	0.1	0.1	0	0	0	0	0	0	0	0.000000000
1504276068.658646106	-1.09066	-0.199418	-1.39439	0.931126	-0.19635	-3.14159	0.615126	0	0	0	0	0	0	0	0	0	0	0	0	0	0	0.000000000	0	0.788798	-0.788798	0	0.828698	-1.5708	0	0.1	0.1	0.1	0.1	0.1	0.1	0.1	0	0	0	0	0	0	0	0.000000000
1504276068.678659915	-1.09066	-0.199418	-1.39439	0.931126	-0.19635	-3.14159	0.615126	0	0	0	0	0	0	0	0	0	0	0	0	0	0	0.000000000	0	0.788798	-0.788798	0	0.828698	-1.5708	0	0.1	0.1	0.1	0.1	0.1	0.1	0.1	0	0	0	0	0	0	0	0.000000000
1504276068.698682069	-1.09066	-0.199418	-1.39439	0.931126	-0.19635	-3.14159	0.615126	0	0	0	0	0	0	0	0	0	0	0	0	0	0	0.000000000	0	0.788798	-0.788798	0	0.828698	-1.5708	0	0.1	0.1	0.1	0.1	0.1	0.1	0.1	0	0	0	0	0	0	0	0.000000000
1504276068.718631982	-1.09066	-0.199418	-1.39439	0.931126	-0.19635	-3.14159	0.615126	0	0	0	0	0	0	0	0	0	0	0	0	0	0	0.000000000	0	0.788798	-0.788798	0	0.828698	-1.5708	0	0.1	0.1	0.1	0.1	0.1	0.1	0.1	0	0	0	0	0	0	0	0.000000000
1504276068.738615036	-1.09066	-0.199418	-1.39439	0.931126	-0.19635	-3.14159	0.615126	0	0	0	0	0	0	0	0	0	0	0	0	0	0	0.000000000	0	0.788798	-0.788798	0	0.828698	-1.5708	0	0.1	0.1	0.1	0.1	0.1	0.1	0.1	0	0	0	0	0	0	0	0.000000000
1504276068.758696079	-1.09066	-0.199418	-1.39439	0.931126	-0.19635	-3.14159	0.615126	0	0	0	0	0	0	0	0	0	0	0	0	0	0	0.000000000	0	0.788798	-0.788798	0	0.828698	-1.5708	0	0.1	0.1	0.1	0.1	0.1	0.1	0.1	0	0	0	0	0	0	0	0.000000000
1504276068.778608083	-1.09066	-0.199418	-1.39439	0.931126	-0.19635	-3.14159	0.615126	0	0	0	0	0	0	0	0	0	0	0	0	0	0	0.000000000	0	0.788798	-0.788798	0	0.828698	-1.5708	0	0.1	0.1	0.1	0.1	0.1	0.1	0.1	0	0	0	0	0	0	0	0.000000000
1504276068.798659086	-1.09066	-0.199418	-1.39439	0.931126	-0.19635	-3.14159	0.615126	0	0	0	0	0	0	0	0	0	0	0	0	0	0	0.000000000	0	0.788798	-0.788798	0	0.828698	-1.5708	0	0.1	0.1	0.1	0.1	0.1	0.1	0.1	0	0	0	0	0	0	0	0.000000000
1504276068.818737030	-1.09066	-0.199418	-1.39439	0.931126	-0.19635	-3.14159	0.615126	0	0	0	0	0	0	0	0	0	0	0	0	0	0	0.000000000	0	0.788798	-0.788798	0	0.828698	-1.5708	0	0.1	0.1	0.1	0.1	0.1	0.1	0.1	0	0	0	0	0	0	0	0.000000000
1504276068.838625907	-1.09066	-0.199418	-1.39439	0.931126	-0.19635	-3.14159	0.615126	0	0	0	0	0	0	0	0	0	0	0	0	0	0	0.000000000	0	0.788798	-0.788798	0	0.828698	-1.5708	0	0.1	0.1	0.1	0.1	0.1	0.1	0.1	0	0	0	0	0	0	0	0.000000000
1504276068.858773946	-1.09066	-0.199418	-1.39285	0.931126	-0.19635	-3.14159	0.615126	0	0	0	0	0	0	0	0	0	0	0	0	0	0	0.000000000	0	0.788798	-0.788798	0	0.828698	-1.5708	0	0.1	0.1	0.1	0.1	0.1	0.1	0.1	0	0	0	0	0	0	0	0.000000000
1504276068.878643035	-1.09066	-0.199418	-1.39439	0.931126	-0.19635	-3.14159	0.615126	0	0	0	0	0	0	0	0	0	0	0	0	0	0	0.000000000	0	0.788798	-0.788798	0	0.828698	-1.5708	0	0.1	0.1	0.1	0.1	0.1	0.1	0.1	0	0	0	0	0	0	0	0.000000000
1504276068.898710966	-1.09066	-0.199418	-1.39439	0.931126	-0.19635	-3.14159	0.615126	0	0	0	0	0	0	0	0	0	0	0	0	0	0	0.000000000	0	0.788798	-0.788798	0	0.828698	-1.5708	0	0.1	0.1	0.1	0.1	0.1	0.1	0.1	0	0	0	0	0	0	0	0.000000000
1504276068.918642044	-1.09066	-0.199418	-1.39439	0.931126	-0.19635	-3.14159	0.615126	0	0	0	0	0	0	0	0	0	0	0	0	0	0	0.000000000	0	0.788798	-0.788798	0	0.828698	-1.5708	0	0.1	0.1	0.1	0.1	0.1	0.1	0.1	0	0	0	0	0	0	0	0.000000000
1504276068.938714981	-1.09066	-0.199418	-1.39439	0.931126	-0.19635	-3.14159	0.615126	0	0	0	0	0	0	0	0	0	0	0	0	0	0	0.000000000	0	0.788798	-0.788798	0	0.828698	-1.5708	0	0.1	0.1	0.1	0.1	0.1	0.1	0.1	0	0	0	0	0	0	0	0.000000000
1504276068.958811044	-1.09066	-0.199418	-1.39439	0.931126	-0.194816	-3.14159	0.61666	0	0	0	0	0	0	0	0	0	0	0	0	0	0	0.000000000	0	0.788798	-0.788798	0	0.828698	-1.5708	0	0.1	0.1	0.1	0.1	0.1	0.1	0.1	0	0	0	0	0	0	0	0.000000000
1504276068.978709936	-1.09066	-0.199418	-1.39439	0.931126	-0.19635	-3.14159	0.615126	0	0	0	0	0	0	0	0	0	0	0	0	0	0	0.000000000	0	0.788798	-0.788798	0	0.828698	-1.5708	0	0.1	0.1	0.1	0.1	0.1	0.1	0.1	0	0	0	0	0	0	0	0.000000000
1504276068.998766899	-1.09066	-0.199418	-1.39439	0.931126	-0.19635	-3.14159	0.61666	0	0	0	0	0	0	0	0	0	0	0	0	0	0	0.000000000	0	0.788798	-0.788798	0	0.828698	-1.5708	0	0.1	0.1	0.1	0.1	0.1	0.1	0.1	0	0	0	0	0	0	0	0.000000000
1504276069.018692970	-1.09066	-0.199418	-1.39285	0.931126	-0.19635	-3.14159	0.61666	0	0	0	0	0	0	0	0	0	0	0	0	0	0	0.000000000	0	0.788798	-0.788798	0	0.828698	-1.5708	0	0.1	0.1	0.1	0.1	0.1	0.1	0.1	0	0	0	0	0	0	0	0.000000000
1504276069.038801908	-1.09066	-0.199418	-1.39285	0.931126	-0.19635	-3.14159	0.61666	0	0	0	0	0	0	0	0	0	0	0	0	0	0	0.000000000	0	0.788798	-0.788798	0	0.828698	-1.5708	0	0.1	0.1	0.1	0.1	0.1	0.1	0.1	0	0	0	0	0	0	0	0.000000000
1504276069.058726072	-1.09066	-0.199418	-1.39439	0.931126	-0.19635	-3.14159	0.61666	0	0	0	0	0	0	0	0	0	0	0	0	0	0	0.000000000	0	0.788798	-0.788798	0	0.828698	-1.5708	0	0.1	0.1	0.1	0.1	0.1	0.1	0.1	0	0	0	0	0	0	0	0.000000000
1504276069.078721046	-1.09066	-0.199418	-1.39439	0.931126	-0.19635	-3.14159	0.615126	0	0	0	0	0	0	0	0	0	0	0	0	0	0	0.000000000	0	0.788798	-0.788798	0	0.828698	-1.5708	0	0.1	0.1	0.1	0.1	0.1	0.1	0.1	0	0	0	0	0	0	0	0.000000000
1504276069.098757028	-1.09066	-0.199418	-1.39439	0.931126	-0.19635	-3.14159	0.615126	0	0	0	0	0	0	0	0	0	0	0	0	0	0	0.000000000	0	0.788798	-0.788798	0	0.828698	-1.5708	0	0.1	0.1	0.1	0.1	0.1	0.1	0.1	0	0	0	0	0	0	0	0.000000000
1504276069.118797063	-1.09066	-0.199418	-1.39439	0.931126	-0.19635	-3.14159	0.615126	0	0	0	0	0	0	0	0	0	0	0	0	0	0	0.000000000	0	0.788798	-0.788798	0	0.828698	-1.5708	0	0.1	0.1	0.1	0.1	0.1	0.1	0.1	0	0	0	0	0	0	0	0.000000000
1504276069.138648033	-1.09066	-0.199418	-1.39439	0.931126	-0.19635	-3.14159	0.615126	0	0	0	0	0	0	0	0	0	0	0	0	0	0	0.000000000	0	0.788798	-0.788798	0	0.828698	-1.5708	0	0.1	0.1	0.1	0.1	0.1	0.1	0.1	0	0	0	0	0	0	0	0.000000000
1504276069.161096096	-1.09066	-0.199418	-1.39439	0.931126	-0.19635	-3.14159	0.615126	0	0	0	0	0	0	0	0	0	0	0	0	0	0	0.000000000	0	0.788798	-0.788798	0	0.828698	-1.5708	0	0.1	0.1	0.1	0.1	0.1	0.1	0.1	0	0	0	0	0	0	0	0.000000000
1504276069.178858041	-1.09066	-0.199418	-1.39439	0.93266	-0.19635	-3.14159	0.615126	0	0	0	0	0	0	0	0	0	0	0	0	0	0	0.000000000	0	0.788798	-0.788798	0	0.828698	-1.5708	0	0.1	0.1	0.1	0.1	0.1	0.1	0.1	0	0	0	0	0	0	0	0.000000000
1504276069.198760986	-1.09066	-0.199418	-1.39439	0.931126	-0.19635	-3.14159	0.615126	0	0	0	0	0	0	0	0	0	0	0	0	0	0	0.000000000	0	0.788798	-0.788798	0	0.828698	-1.5708	0	0.1	0.1	0.1	0.1	0.1	0.1	0.1	0	0	0	0	0	0	0	0.000000000
1504276069.218955039	-1.09066	-0.199418	-1.39439	0.931126	-0.19635	-3.14159	0.615126	0	0	0	0	0	0	0	0	0	0	0	0	0	0	0.000000000	0	0.788798	-0.788798	0	0.828698	-1.5708	0	0.1	0.1	0.1	0.1	0.1	0.1	0.1	0	0	0	0	0	0	0	0.000000000
1504276069.238676071	-1.09066	-0.199418	-1.39439	0.931126	-0.19635	-3.14159	0.615126	0	0	0	0	0	0	0	0	0	0	0	0	0	0	0.000000000	0	0.788798	-0.788798	0	0.828698	-1.5708	0	0.1	0.1	0.1	0.1	0.1	0.1	0.1	0	0	0	0	0	0	0	0.000000000
1504276069.258656024	-1.09066	-0.199418	-1.39439	0.931126	-0.19635	-3.14159	0.615126	0	0	0	0	0	0	0	0	0	0	0	0	0	0	0.000000000	0	0.788798	-0.788798	0	0.828698	-1.5708	0	0.1	0.1	0.1	0.1	0.1	0.1	0.1	0	0	0	0	0	0	0	0.000000000
1504276069.278666973	-1.09066	-0.199418	-1.39439	0.931126	-0.19635	-3.14159	0.615126	0	0	0	0	0	0	0	0	0	0	0	0	0	0	0.000000000	0	0.788798	-0.788798	0	0.828698	-1.5708	0	0.1	0.1	0.1	0.1	0.1	0.1	0.1	0	0	0	0	0	0	0	0.000000000
1504276069.298696994	-1.09066	-0.199418	-1.39439	0.931126	-0.19635	-3.14159	0.615126	0	0	0	0	0	0	0	0	0	0	0	0	0	0	0.000000000	0	0.788798	-0.788798	0	0.828698	-1.5708	0	0.1	0.1	0.1	0.1	0.1	0.1	0.1	0	0	0	0	0	0	0	0.000000000
1504276069.318757057	-1.09066	-0.199418	-1.39439	0.931126	-0.19635	-3.14159	0.61666	0	0	0	0	0	0	0	0	0	0	0	0	0	0	0.000000000	0	0.788798	-0.788798	0	0.828698	-1.5708	0	0.1	0.1	0.1	0.1	0.1	0.1	0.1	0	0	0	0	0	0	0	0.000000000
1504276069.338675975	-1.09066	-0.199418	-1.39439	0.931126	-0.19635	-3.14159	0.61666	0	0	0	0	0	0	0	0	0	0	0	0	0	0	0.000000000	0	0.788798	-0.788798	0	0.828698	-1.5708	0	0.1	0.1	0.1	0.1	0.1	0.1	0.1	0	0	0	0	0	0	0	0.000000000
1504276069.358757972	-1.09066	-0.199418	-1.39439	0.931126	-0.19635	-3.14159	0.61666	0	0	0	0	0	0	0	0	0	0	0	0	0	0	0.000000000	0	0.788798	-0.788798	0	0.828698	-1.5708	0	0.1	0.1	0.1	0.1	0.1	0.1	0.1	0	0	0	0	0	0	0	0.000000000
1504276069.378709077	-1.09066	-0.199418	-1.39439	0.931126	-0.19635	-3.14159	0.615126	0	0	0	0	0	0	0	0	0	0	0	0	0	0	0.000000000	0	0.788798	-0.788798	0	0.828698	-1.5708	0	0.1	0.1	0.1	0.1	0.1	0.1	0.1	0	0	0	0	0	0	0	0.000000000
1504276069.398678064	-1.09066	-0.199418	-1.39439	0.931126	-0.19635	-3.14159	0.61666	0	0	0	0	0	0	0	0	0	0	0	0	0	0	0.000000000	0	0.788798	-0.788798	0	0.828698	-1.5708	0	0.1	0.1	0.1	0.1	0.1	0.1	0.1	0	0	0	0	0	0	0	0.000000000
1504276069.418654918	-1.09066	-0.199418	-1.39439	0.931126	-0.19635	-3.14159	0.615126	0	0	0	0	0	0	0	0	0	0	0	0	0	0	0.000000000	0	0.788798	-0.788798	0	0.828698	-1.5708	0	0.1	0.1	0.1	0.1	0.1	0.1	0.1	0	0	0	0	0	0	0	0.000000000
1504276069.438755989	-1.09066	-0.199418	-1.39439	0.931126	-0.19635	-3.14159	0.615126	0	0	0	0	0	0	0	0	0	0	0	0	0	0	0.000000000	0	0.788798	-0.788798	0	0.828698	-1.5708	0	0.1	0.1	0.1	0.1	0.1	0.1	0.1	0	0	0	0	0	0	0	0.000000000
1504276069.458657026	-1.09066	-0.199418	-1.39439	0.931126	-0.194816	-3.14159	0.615126	0	0	0	0	0	0	0	0	0	0	0	0	0	0	0.000000000	0	0.788798	-0.788798	0	0.828698	-1.5708	0	0.1	0.1	0.1	0.1	0.1	0.1	0.1	0	0	0	0	0	0	0	0.000000000
1504276069.478728055	-1.09066	-0.199418	-1.39439	0.931126	-0.19635	-3.14159	0.61666	0	0	0	0	0	0	0	0	0	0	0	0	0	0	0.000000000	0	0.788798	-0.788798	0	0.828698	-1.5708	0	0.1	0.1	0.1	0.1	0.1	0.1	0.1	0	0	0	0	0	0	0	0.000000000
1504276069.498727083	-1.09066	-0.199418	-1.39285	0.931126	-0.194816	-3.14159	0.61666	0	0	0	0	0	0	0	0	0	0	0	0	0	0	0.000000000	0	0.788798	-0.788798	0	0.828698	-1.5708	0	0.1	0.1	0.1	0.1	0.1	0.1	0.1	0	0	0	0	0	0	0	0.000000000
1504276069.518667936	-1.09066	-0.199418	-1.39285	0.931126	-0.194816	-3.14159	0.615126	0	0	0	0	0	0	0	0	0	0	0	0	0	0	0.000000000	0	0.788798	-0.788798	0	0.828698	-1.5708	0	0.1	0.1	0.1	0.1	0.1	0.1	0.1	0	0	0	0	0	0	0	0.000000000
1504276069.538640975	-1.09066	-0.199418	-1.39285	0.931126	-0.194816	-3.14159	0.615126	0	0	0	0	0	0	0	0	0	0	0	0	0	0	0.000000000	0	0.788798	-0.788798	0	0.828698	-1.5708	0	0.1	0.1	0.1	0.1	0.1	0.1	0.1	0	0	0	0	0	0	0	0.000000000
1504276069.558762073	-1.09066	-0.199418	-1.39439	0.931126	-0.193282	-3.14159	0.615126	0	0	0	0	0	0	0	0	0	0	0	0	0	0	0.000000000	0	0.788798	-0.788798	0	0.828698	-1.5708	0	0.1	0.1	0.1	0.1	0.1	0.1	0.1	0	0	0	0	0	0	0	0.000000000
1504276069.578706026	-1.09066	-0.197884	-1.39439	0.931126	-0.193282	-3.14159	0.615126	0	0	0	0	0	0	0	0	0	0	0	0	0	0	0.000000000	0	0.788798	-0.788798	0	0.828698	-1.5708	0	0.1	0.1	0.1	0.1	0.1	0.1	0.1	0	0	0	0	0	0	0	0.000000000
1504276069.598654031	-1.09066	-0.197884	-1.39285	0.931126	-0.193282	-3.14159	0.615126	0	0	0	0	0	0	0	0	0	0	0	0	0	0	0.000000000	0	0.788798	-0.788798	0	0.828698	-1.5708	0	0.1	0.1	0.1	0.1	0.1	0.1	0.1	0	0	0	0	0	0	0	0.000000000
1504276069.618629932	-1.09066	-0.197884	-1.39439	0.929592	-0.191748	-3.14159	0.615126	0	0	0	0	0	0	0	0	0	0	0	0	0	0	0.000000000	0	0.788798	-0.788798	0	0.828698	-1.5708	0	0.1	0.1	0.1	0.1	0.1	0.1	0.1	0	0	0	0	0	0	0	0.000000000
1504276069.638653993	-1.09066	-0.197884	-1.39439	0.929592	-0.191748	-3.14159	0.615126	0	0	0	0	0	0	0	0	0	0	0	0	0	0	0.000000000	0	0.788798	-0.788798	0	0.828698	-1.5708	0	0.1	0.1	0.1	0.1	0.1	0.1	0.1	0	0	0	0	0	0	0	0.000000000
1504276069.658670902	-1.09066	-0.19635	-1.39439	0.929592	-0.191748	-3.14159	0.61666	0	0	0	0	0	0	0	0	0	0	0	0	0	0	0.000000000	0	0.788798	-0.788798	0	0.828698	-1.5708	0	0.1	0.1	0.1	0.1	0.1	0.1	0.1	0	0	0	0	0	0	0	0.000000000
1504276069.678662061	-1.09066	-0.194816	-1.39439	0.929592	-0.190214	-3.14159	0.615126	0	0.0955044	0	0	0	0	0	0	0	0	0	0	0	0	0.000000000	0	0.788798	-0.788798	0	0.828698	-1.5708	0	0.1	0.1	0.1	0.1	0.1	0.1	0.1	0	0	0	0	0	0	0	0.000000000
1504276069.698679924	-1.09066	-0.193282	-1.39439	0.929592	-0.190214	-3.14159	0.615126	0	0	0	0	0	0	0	0	0	0	0	0	0	0	0.000000000	0	0.788798	-0.788798	0	0.828698	-1.5708	0	0.1	0.1	0.1	0.1	0.1	0.1	0.1	0	0	0	0	0	0	0	0.000000000
1504276069.718637943	-1.09066	-0.191748	-1.39439	0.929592	-0.18868	-3.14159	0.615126	0	0	0	0	0	0	0	0	0	0	0	0	0	0	0.000000000	0	0.788798	-0.788798	0	0.828698	-1.5708	0	0.1	0.1	0.1	0.1	0.1	0.1	0.1	0	0	0	0	0	0	0	0.000000000
1504276069.738630056	-1.09066	-0.191748	-1.39439	0.929592	-0.18868	-3.14159	0.615126	0	0	0	0	0	0	0	0	0	0	0	0	0	0	0.000000000	0	0.788798	-0.788798	0	0.828698	-1.5708	0	0.1	0.1	0.1	0.1	0.1	0.1	0.1	0	0	0	0	0	0	0	0.000000000
1504276069.758979082	-1.09066	-0.191748	-1.39439	0.929592	-0.18868	-3.14159	0.61666	0	0	0	0	0	0	0	0	0	0	0	0	0	0	0.000000000	0	0.788798	-0.788798	0	0.828698	-1.5708	0	0.1	0.1	0.1	0.1	0.1	0.1	0.1	0	0	0	0	0	0	0	0.000000000
1504276069.778649091	-1.09066	-0.190214	-1.39439	0.929592	-0.185612	-3.14159	0.615126	0	0	0	0	0.0955044	0	0	0	0	0	0	0	0	0	0.000000000	0	0.788798	-0.788798	0	0.828698	-1.5708	0	0.1	0.1	0.1	0.1	0.1	0.1	0.1	0	0	0	0	0	0	0	0.000000000
1504276069.798650979	-1.09066	-0.190214	-1.39439	0.929592	-0.182544	-3.14159	0.615126	0	0	0	0	0.143257	0	0	0	0	0	0	0	0	0	0.000000000	0	0.788798	-0.788798	0	0.828698	-1.5708	0	0.1	0.1	0.1	0.1	0.1	0.1	0.1	0	0	0	0	0	0	0	0.000000000
1504276069.818887948	-1.09066	-0.185612	-1.39439	0.929592	-0.179476	-3.14159	0.615126	0	0.143257	0	0	0.143257	0	0	0	0	0	0	0	0	0	0.000000000	0	0.788798	-0.788798	0	0.828698	-1.5708	0	0.1	0.1	0.1	0.1	0.1	0.1	0.1	0	0	0	0	0	0	0	0.000000000
1504276069.838829040	-1.09066	-0.185612	-1.39439	0.929592	-0.179476	-3.14159	0.615126	0	0.143257	0	0	0.143257	0	0	0	0	0	0	0	0	0	0.000000000	0	0.788798	-0.788798	0	0.828698	-1.5708	0	0.1	0.1	0.1	0.1	0.1	0.1	0.1	0	0	0	0	0	0	0	0.000000000
1504276069.858783960	-1.09066	-0.182544	-1.39746	0.929592	-0.176408	-3.14313	0.615126	0	0.143257	0.107442	0	0.0955044	0	0	0	0	0	0	0	0	0	0.000000000	0	0.788798	-0.788798	0	0.828698	-1.5708	0	0.1	0.1	0.1	0.1	0.1	0.1	0.1	0	0	0	0	0	0	0	0.000000000
1504276069.878705024	-1.09066	-0.179476	-1.39899	0.929592	-0.174874	-3.14159	0.615126	0	0.0955044	0	0	0.0955044	0	0	0	0	0	0	0	0	0	0.000000000	0	0.788798	-0.788798	0	0.828698	-1.5708	0	0.1	0.1	0.1	0.1	0.1	0.1	0.1	0	0	0	0	0	0	0	0.000000000
1504276069.898766040	-1.09066	-0.179476	-1.39899	0.929592	-0.174874	-3.14159	0.615126	0	0	0	0	0	0	0	0	0	0	0	0	0	0	0.000000000	0	0.788798	-0.788798	0	0.828698	-1.5708	0	0.1	0.1	0.1	0.1	0.1	0.1	0.1	0	0	0	0	0	0	0	0.000000000
1504276069.919044017	-1.09066	-0.179476	-1.39899	0.929592	-0.17334	-3.14159	0.615126	0	0	0	0	0	0	0	0	0	0	0	0	0	0	0.000000000	0	0.788798	-0.788798	0	0.828698	-1.5708	0	0.1	0.1	0.1	0.1	0.1	0.1	0.1	0	0	0	0	0	0	0	0.000000000
1504276069.938713073	-1.09066	-0.179476	-1.39899	0.929592	-0.17334	-3.14159	0.615126	0	0	0	0	0	0	0	0	0	0	0	0	0	0	0.000000000	0	0.788798	-0.788798	0	0.828698	-1.5708	0	0.1	0.1	0.1	0.1	0.1	0.1	0.1	0	0	0	0	0	0	0	0.000000000
1504276069.958780050	-1.09066	-0.179476	-1.40052	0.929592	-0.171806	-3.14159	0.615126	0	0	0	0	0.0955044	0	0	0	0	0	0	0	0	0	0.000000000	0	0.788798	-0.788798	0	0.828698	-1.5708	0	0.1	0.1	0.1	0.1	0.1	0.1	0.1	0	0	0	0	0	0	0	0.000000000
1504276069.978703022	-1.09066	-0.176408	-1.40052	0.926524	-0.170272	-3.14159	0.615126	0	0.0955044	0	0.107442	0	0	0	0	0	0	0	0	0	0	0.000000000	0	0.788798	-0.788798	0	0.828698	-1.5708	0	0.1	0.1	0.1	0.1	0.1	0.1	0.1	0	0	0	0	0	0	0	0.000000000
1504276069.998747110	-1.09066	-0.17334	-1.40206	0.923456	-0.164136	-3.14159	0.615126	0	0.0955044	0	0.107442	0.191009	0	0	0	0	0	0	0	0	0	0.000000000	0	0.788798	-0.788798	0	0.828698	-1.5708	0	0.1	0.1	0.1	0.1	0.1	0.1	0.1	0	0	0	0	0	0	0	0.000000000
1504276070.018750905	-1.09066	-0.17334	-1.40206	0.923456	-0.164136	-3.14159	0.615126	0	0.0955044	0	0.107442	0.191009	0	0	0	0	0	0	0	0	0	0.000000000	0	0.788798	-0.788798	0	0.828698	-1.5708	0	0.1	0.1	0.1	0.1	0.1	0.1	0.1	0	0	0	0	0	0	0	0.000000000
1504276070.038683891	-1.08606	-0.17334	-1.40206	0.923456	-0.161068	-3.14159	0.615126	0.143257	0	0	0	0.143257	0	0	0	0	0	0	0	0	0	0.000000000	0	0.788798	-0.788798	0	0.828698	-1.5708	0	0.1	0.1	0.1	0.1	0.1	0.1	0.1	0	0	0	0	0	0	0	0.000000000
1504276070.058684110	-1.08299	-0.17334	-1.40052	0.921922	-0.156466	-3.14159	0.615126	0.0955044	0	0	0	0.143257	0	0	0	0	0	0	0	0	0	0.000000000	0	0.788798	-0.788798	0	0.828698	-1.5708	0	0.1	0.1	0.1	0.1	0.1	0.1	0.1	0	0	0	0	0	0	0	0.000000000
1504276070.078731060	-1.08146	-0.171806	-1.40052	0.920388	-0.153398	-3.14159	0.613592	0	0	0	0	0.143257	0	0	0	0	0	0	0	0	0	0.000000000	0	0.788798	-0.788798	0	0.828698	-1.5708	0	0.1	0.1	0.1	0.1	0.1	0.1	0.1	0	0	0	0	0	0	0	0.000000000
1504276070.098675012	-1.07992	-0.170272	-1.40206	0.918854	-0.153398	-3.14313	0.613592	0	0.0955044	0	0	0	0	0	0	0	0	0	0	0	0	0.000000000	0	0.788798	-0.788798	0	0.828698	-1.5708	0	0.1	0.1	0.1	0.1	0.1	0.1	0.1	0	0	0	0	0	0	0	0.000000000
1504276070.132086038	-1.07992	-0.167204	-1.40206	0.917321	-0.148796	-3.14313	0.612058	0	0.0955044	0	0.107442	0.143257	0	0	0	0	0	0	0	0	0	0.000000000	0	0.788798	-0.788798	0	0.828698	-1.5708	0	0.1	0.1	0.1	0.1	0.1	0.1	0.1	0	0	0	0	0	0	0	0.000000000
1504276070.138890027	-1.07992	-0.167204	-1.40206	0.917321	-0.148796	-3.14313	0.612058	0	0.0955044	0	0.107442	0.143257	0	0	0	0	0	0	0	0	0	0.000000000	0	0.788798	-0.788798	0	0.828698	-1.5708	0	0.1	0.1	0.1	0.1	0.1	0.1	0.1	0	0	0	0	0	0	0	0.000000000
1504276070.159198045	-1.07992	-0.167204	-1.40206	0.917321	-0.148796	-3.14313	0.612058	0	0.0955044	0	0.107442	0.143257	0	0	0	0	0	0	0	0	0	0.000000000	0	0.788798	-0.788798	0	0.828698	-1.5708	0	0.1	0.1	0.1	0.1	0.1	0.1	0.1	0	0	0	0	0	0	0	0.000000000
1504276070.178674936	-1.06765	-0.159534	-1.40819	0.912719	-0.141126	-3.14313	0.607456	0.238761	0.0955044	0.155195	0.107442	0.143257	0	0.107442	0	0	0	0	0	0	0	0.000000000	0	0.788798	-0.788798	0	0.828698	-1.5708	0	0.1	0.1	0.1	0.1	0.1	0.1	0.1	0	0	0	0	0	0	0	0.000000000
1504276070.198664903	-1.06612	-0.158	-1.41126	0.911185	-0.139592	-3.14159	0.605922	0.143257	0.0955044	0.155195	0.107442	0.0955044	0	0.107442	0	0	0	0	0	0	0	0.000000000	0	0.788798	-0.788798	0	0.828698	-1.5708	0	0.1	0.1	0.1	0.1	0.1	0.1	0.1	0	0	0	0	0	0	0	0.000000000
1504276070.218713045	-1.06612	-0.153398	-1.41586	0.909651	-0.136524	-3.14159	0.602854	0	0.143257	0.155195	0	0.0955044	0	0.107442	0	0	0	0	0	0	0	0.000000000	0	0.788798	-0.788798	0	0.828698	-1.5708	0	0.1	0.1	0.1	0.1	0.1	0.1	0.1	0	0	0	0	0	0	0	0.000000000
1504276070.238699913	-1.06612	-0.153398	-1.41586	0.909651	-0.136524	-3.14159	0.602854	0	0.143257	0.155195	0	0.0955044	0	0.107442	0	0	0	0	0	0	0	0.000000000	0	0.788798	-0.788798	0	0.828698	-1.5708	0	0.1	0.1	0.1	0.1	0.1	0.1	0.1	0	0	0	0	0	0	0	0.000000000
1504276070.258641004	-1.06305	-0.148796	-1.422	0.906583	-0.136524	-3.14313	0.599786	0.143257	0.191009	0.202947	0.107442	0	0	0.155195	0	0	0	0	0	0	0	0.000000000	0	0.788798	-0.788798	0	0.828698	-1.5708	0	0.1	0.1	0.1	0.1	0.1	0.1	0.1	0	0	0	0	0	0	0	0.000000000
1504276070.278722047	-1.05691	-0.145728	-1.4266	0.901981	-0.133456	-3.14313	0.598253	0.191009	0.0955044	0.202947	0.155195	0.0955044	0	0	0	0	0	0	0	0	0	0.000000000	0	0.788798	-0.788798	0	0.828698	-1.5708	0	0.1	0.1	0.1	0.1	0.1	0.1	0.1	0	0	0	0	0	0	0	0.000000000
1504276070.298688888	-1.05384	-0.14266	-1.42967	0.898913	-0.130388	-3.14313	0.596719	0.143257	0.0955044	0.155195	0.155195	0.143257	0	0	0	0	0	0	0	0	0	0.000000000	0	0.788798	-0.788798	0	0.828698	-1.5708	0	0.1	0.1	0.1	0.1	0.1	0.1	0.1	0	0	0	0	0	0	0	0.000000000
1504276070.318675041	-1.05384	-0.14266	-1.42967	0.898913	-0.130388	-3.14313	0.596719	0.143257	0.0955044	0.155195	0.155195	0.143257	0	0	0	0	0	0	0	0	0	0.000000000	0	0.788798	-0.788798	0	0.828698	-1.5708	0	0.1	0.1	0.1	0.1	0.1	0.1	0.1	0	0	0	0	0	0	0	0.000000000
1504276070.338681936	-1.04771	-0.141126	-1.42967	0.891243	-0.12732	-3.14159	0.593651	0.191009	0	0	0.250699	0.143257	0	0	0	0	0	0	0	0	0	0.000000000	0	0.788798	-0.788798	0	0.828698	-1.5708	0	0.1	0.1	0.1	0.1	0.1	0.1	0.1	0	0	0	0	0	0	0	0.000000000
1504276070.358685016	-1.04464	-0.141126	-1.4312	0.883573	-0.124252	-3.14313	0.592117	0.143257	0	0	0.250699	0.0955044	0	0.107442	0	0	0	0	0	0	0	0.000000000	0	0.788798	-0.788798	0	0.828698	-1.5708	0	0.1	0.1	0.1	0.1	0.1	0.1	0.1	0	0	0	0	0	0	0	0.000000000
1504276070.378712892	-1.0385	-0.141126	-1.4312	0.880505	-0.121184	-3.14313	0.590583	0.191009	0	0	0.202947	0.0955044	0	0.107442	0	0	0	0	0	0	0	0.000000000	0	0.788798	-0.788798	0	0.828698	-1.5708	0	0.1	0.1	0.1	0.1	0.1	0.1	0.1	0	0	0	0	0	0	0	0.000000000
1504276070.398673057	-1.0339	-0.141126	-1.4312	0.880505	-0.118117	-3.14313	0.589049	0.143257	0	0	0	0.143257	0	0	0	0	0	0	0	0	0	0.000000000	0	0.788798	-0.788798	0	0.828698	-1.5708	0	0.1	0.1	0.1	0.1	0.1	0.1	0.1	0	0	0	0	0	0	0	0.000000000
1504276070.418678998	-1.0293	-0.139592	-1.4312	0.880505	-0.116583	-3.14313	0.587515	0.191009	0	0	0	0	0	0.107442	0	0	0	0	0	0	0	0.000000000	0	0.788798	-0.788798	0	0.828698	-1.5708	0	0.1	0.1	0.1	0.1	0.1	0.1	0.1	0	0	0	0	0	0	0	0.000000000
1504276070.438673019	-1.0293	-0.139592	-1.4312	0.880505	-0.116583	-3.14313	0.587515	0.191009	0	0	0	0	0	0.107442	0	0	0	0	0	0	0	0.000000000	0	0.788798	-0.788798	0	0.828698	-1.5708	0	0.1	0.1	0.1	0.1	0.1	0.1	0.1	0	0	0	0	0	0	0	0.000000000
1504276070.458745002	-1.0247	-0.13499	-1.43274	0.874369	-0.118117	-3.14313	0.585981	0.143257	0.143257	0	0.202947	0	0	0	0	0	0	0	0	0	0	0.000000000	0	0.788798	-0.788798	0	0.828698	-1.5708	0	0.1	0.1	0.1	0.1	0.1	0.1	0.1	0	0	0	0	0	0	0	0.000000000
1504276070.478660106	-1.0201	-0.130388	-1.43427	0.869767	-0.116583	-3.14313	0.585981	0.143257	0.143257	0.107442	0.202947	0	0	0	0	0	0	0	0	0	0	0.000000000	0	0.788798	-0.788798	0	0.828698	-1.5708	0	0.1	0.1	0.1	0.1	0.1	0.1	0.1	0	0	0	0	0	0	0	0.000000000
1504276070.498631000	-1.0155	-0.125786	-1.44041	0.865165	-0.111981	-3.14313	0.584447	0.143257	0.191009	0.202947	0.202947	0.143257	0	0	0	0	0	0	0	0	0	0.000000000	0	0.788798	-0.788798	0	0.828698	-1.5708	0	0.1	0.1	0.1	0.1	0.1	0.1	0.1	0	0	0	0	0	0	0	0.000000000
1504276070.518671989	-1.00936	-0.121184	-1.44808	0.860563	-0.105845	-3.14159	0.581379	0.238761	0.191009	0.298451	0.155195	0.191009	0	0.107442	0	0	0	0	0	0	0	0.000000000	0	0.788798	-0.788798	0	0.828698	-1.5708	0	0.1	0.1	0.1	0.1	0.1	0.1	0.1	0	0	0	0	0	0	0	0.000000000
1504276070.538645982	-1.00936	-0.121184	-1.44808	0.860563	-0.105845	-3.14159	0.581379	0.238761	0.191009	0.298451	0.155195	0.191009	0	0.107442	0	0	0	0	0	0	0	0.000000000	0	0.788798	-0.788798	0	0.828698	-1.5708	0	0.1	0.1	0.1	0.1	0.1	0.1	0.1	0	0	0	0	0	0	0	0.000000000
1504276070.558809995	-1.00322	-0.115049	-1.45575	0.855961	-0.104311	-3.14313	0.576777	0.238761	0.238761	0.298451	0.155195	0.0955044	0	0.155195	0	0	0	0	0	0	0	0.000000000	0	0.788798	-0.788798	0	0.828698	-1.5708	0	0.1	0.1	0.1	0.1	0.1	0.1	0.1	0	0	0	0	0	0	0	0.000000000
1504276070.578706026	-0.995554	-0.111981	-1.46188	0.851359	-0.102777	-3.14313	0.572175	0.286513	0.0955044	0.250699	0.155195	0	0	0.202947	0	0	0	0	0	0	0	0.000000000	0	0.788798	-0.788798	0	0.828698	-1.5708	0	0.1	0.1	0.1	0.1	0.1	0.1	0.1	0	0	0	0	0	0	0	0.000000000
1504276070.598702907	-0.989418	-0.108913	-1.46649	0.848291	-0.102777	-3.14313	0.567573	0.238761	0.0955044	0.155195	0.155195	0	0	0.202947	0	0	0	0	0	0	0	0.000000000	0	0.788798	-0.788798	0	0.828698	-1.5708	0	0.1	0.1	0.1	0.1	0.1	0.1	0.1	0	0	0	0	0	0	0	0.000000000
1504276070.618814945	-0.98635	-0.107379	-1.46649	0.845223	-0.101243	-3.14313	0.562971	0.143257	0	0	0.155195	0	0	0.155195	0	0	0	0	0	0	0	0.000000000	0	0.788798	-0.788798	0	0.828698	-1.5708	0	0.1	0.1	0.1	0.1	0.1	0.1	0.1	0	0	0	0	0	0	0	0.000000000
1504276070.638705968	-0.98635	-0.107379	-1.46649	0.845223	-0.101243	-3.14313	0.562971	0.143257	0	0	0.155195	0	0	0.155195	0	0	0	0	0	0	0	0.000000000	0	0.788798	-0.788798	0	0.828698	-1.5708	0	0.1	0.1	0.1	0.1	0.1	0.1	0.1	0	0	0	0	0	0	0	0.000000000
1504276070.658767938	-0.980214	-0.107379	-1.46649	0.840621	-0.0966408	-3.14313	0.558369	0.143257	0	0	0.202947	0.143257	0	0.155195	0	0	0	0	0	0	0	0.000000000	0	0.788798	-0.788798	0	0.828698	-1.5708	0	0.1	0.1	0.1	0.1	0.1	0.1	0.1	0	0	0	0	0	0	0	0.000000000
1504276070.678646087	-0.972544	-0.107379	-1.46802	0.834486	-0.0935728	-3.14313	0.553767	0.286513	0	0	0.202947	0.143257	0	0.202947	0	0	0	0	0	0	0	0.000000000	0	0.788798	-0.788798	0	0.828698	-1.5708	0	0.1	0.1	0.1	0.1	0.1	0.1	0.1	0	0	0	0	0	0	0	0.000000000
1504276070.698637008	-0.967942	-0.105845	-1.46649	0.826816	-0.0889709	-3.14313	0.550699	0.143257	0	0	0.298451	0.191009	0	0.155195	0	0	0	0	0	0	0	0.000000000	0	0.788798	-0.788798	0	0.828698	-1.5708	0	0.1	0.1	0.1	0.1	0.1	0.1	0.1	0	0	0	0	0	0	0	0.000000000
1504276070.718628883	-0.960272	-0.105845	-1.46649	0.819146	-0.0859029	-3.14313	0.547631	0.238761	0	0	0.298451	0.143257	0	0.155195	0	0	0	0	0	0	0	0.000000000	0	0.788798	-0.788798	0	0.828698	-1.5708	0	0.1	0.1	0.1	0.1	0.1	0.1	0.1	0	0	0	0	0	0	0	0.000000000
1504276070.738773107	-0.960272	-0.105845	-1.46649	0.819146	-0.0859029	-3.14313	0.547631	0.238761	0	0	0.298451	0.143257	0	0.155195	0	0	0	0	0	0	0	0.000000000	0	0.788798	-0.788798	0	0.828698	-1.5708	0	0.1	0.1	0.1	0.1	0.1	0.1	0.1	0	0	0	0	0	0	0	0.000000000
1504276070.758856058	-0.952602	-0.105845	-1.46649	0.81301	-0.082835	-3.14313	0.546097	0.286513	0	0	0.250699	0.0955044	0	0.107442	0	0	0	0	0	0	0	0.000000000	0	0.788798	-0.788798	0	0.828698	-1.5708	0	0.1	0.1	0.1	0.1	0.1	0.1	0.1	0	0	0	0	0	0	0	0.000000000
1504276070.778681039	-0.944932	-0.105845	-1.46649	0.809942	-0.081301	-3.14313	0.543029	0.286513	0	0	0.155195	0	0	0.107442	0	0	0	0	0	0	0	0.000000000	0	0.788798	-0.788798	0	0.828698	-1.5708	0	0.1	0.1	0.1	0.1	0.1	0.1	0.1	0	0	0	0	0	0	0	0.000000000
1504276070.798758029	-0.938796	-0.102777	-1.46802	0.80534	-0.078233	-3.14313	0.538427	0.238761	0.0955044	0	0.155195	0.0955044	0	0.155195	0	0	0	0	0	0	0	0.000000000	0	0.788798	-0.788798	0	0.828698	-1.5708	0	0.1	0.1	0.1	0.1	0.1	0.1	0.1	0	0	0	0	0	0	0	0.000000000
1504276070.818644046	-0.931126	-0.0966408	-1.47109	0.79767	-0.0736311	-3.14313	0.535359	0.238761	0.191009	0.107442	0.250699	0.143257	0	0.155195	0	0	0	0	0	0	0	0.000000000	0	0.788798	-0.788798	0	0.828698	-1.5708	0	0.1	0.1	0.1	0.1	0.1	0.1	0.1	0	0	0	0	0	0	0	0.000000000
1504276070.838752031	-0.931126	-0.0966408	-1.47109	0.79767	-0.0736311	-3.14313	0.535359	0.238761	0.191009	0.107442	0.250699	0.143257	0	0.155195	0	0	0	0	0	0	0	0.000000000	0	0.788798	-0.788798	0	0.828698	-1.5708	0	0.1	0.1	0.1	0.1	0.1	0.1	0.1	0	0	0	0	0	0	0	0.000000000
1504276070.858743906	-0.926524	-0.0905049	-1.48029	0.791534	-0.0720971	-3.14313	0.530757	0.191009	0.191009	0.298451	0.298451	0.0955044	0	0.202947	0	0	0	0	0	0	0	0.000000000	0	0.788798	-0.788798	0	0.828698	-1.5708	0	0.1	0.1	0.1	0.1	0.1	0.1	0.1	0	0	0	0	0	0	0	0.000000000
1504276070.878732919	-0.918854	-0.0843689	-1.4895	0.785398	-0.0720971	-3.14313	0.526155	0.286513	0.238761	0.393956	0.250699	0	0	0.202947	0	0	0	0	0	0	0	0.000000000	0	0.788798	-0.788798	0	0.828698	-1.5708	0	0.1	0.1	0.1	0.1	0.1	0.1	0.1	0	0	0	0	0	0	0	0.000000000
1504276070.898633003	-0.909651	-0.078233	-1.49717	0.779262	-0.0705631	-3.14313	0.521553	0.334265	0.286513	0.298451	0.250699	0	0	0.202947	0	0	0	0	0	0	0	0.000000000	0	0.788798	-0.788798	0	0.828698	-1.5708	0	0.1	0.1	0.1	0.1	0.1	0.1	0.1	0	0	0	0	0	0	0	0.000000000
1504276070.918658018	-0.901981	-0.0736311	-1.5033	0.771592	-0.0644272	-3.14313	0.516952	0.286513	0.191009	0.250699	0.298451	0.191009	0	0.202947	0	0	0	0	0	0	0	0.000000000	0	0.788798	-0.788798	0	0.828698	-1.5708	0	0.1	0.1	0.1	0.1	0.1	0.1	0.1	0	0	0	0	0	0	0	0.000000000
1504276070.938672065	-0.901981	-0.0736311	-1.5033	0.771592	-0.0644272	-3.14313	0.516952	0.286513	0.191009	0.250699	0.298451	0.191009	0	0.202947	0	0	0	0	0	0	0	0.000000000	0	0.788798	-0.788798	0	0.828698	-1.5708	0	0.1	0.1	0.1	0.1	0.1	0.1	0.1	0	0	0	0	0	0	0	0.000000000
1504276070.958976030	-0.895845	-0.0705631	-1.50637	0.763922	-0.0628932	-3.14313	0.513884	0.238761	0.0955044	0.107442	0.298451	0.0955044	0	0.155195	0	0	0	0	0	0	0	0.000000000	0	0.788798	-0.788798	0	0.828698	-1.5708	0	0.1	0.1	0.1	0.1	0.1	0.1	0.1	0	0	0	0	0	0	0	0.000000000
1504276070.979331016	-0.885107	-0.0705631	-1.50637	0.757787	-0.0598253	-3.14313	0.507748	0.334265	0	0	0.250699	0	0	0.155195	0	0	0	0	0	0	0	0.000000000	0	0.788798	-0.788798	0	0.828698	-1.5708	0	0.1	0.1	0.1	0.1	0.1	0.1	0.1	0	0	0	0	0	0	0	0.000000000
1504276070.998744010	-0.878971	-0.0705631	-1.50637	0.751651	-0.0567573	-3.14313	0.503146	0.286513	0	0	0.250699	0.0955044	0	0.202947	0	0	0	0	0	0	0	0.000000000	0	0.788798	-0.788798	0	0.828698	-1.5708	0	0.1	0.1	0.1	0.1	0.1	0.1	0.1	0	0	0	0	0	0	0	0.000000000
1504276071.018665075	-0.872835	-0.0690291	-1.50637	0.745515	-0.0552233	-3.14313	0.498544	0.238761	0	0	0.250699	0	0	0.155195	0	0	0	0	0	0	0	0.000000000	0	0.788798	-0.788798	0	0.828698	-1.5708	0	0.1	0.1	0.1	0.1	0.1	0.1	0.1	0	0	0	0	0	0	0	0.000000000
1504276071.038723945	-0.872835	-0.0690291	-1.50637	0.745515	-0.0552233	-3.14313	0.498544	0.238761	0	0	0.250699	0	0	0.155195	0	0	0	0	0	0	0	0.000000000	0	0.788798	-0.788798	0	0.828698	-1.5708	0	0.1	0.1	0.1	0.1	0.1	0.1	0.1	0	0	0	0	0	0	0	0.000000000
1504276071.059101104	-0.866699	-0.0674952	-1.5079	0.739379	-0.0536893	-3.14313	0.493942	0.191009	0.0955044	0	0.250699	0	0	0.202947	0	0	0	0	0	0	0	0.000000000	0	0.788798	-0.788798	0	0.828698	-1.5708	0	0.1	0.1	0.1	0.1	0.1	0.1	0.1	0	0	0	0	0	0	0	0.000000000
1504276071.078711032	-0.857495	-0.0659612	-1.5079	0.731709	-0.0521553	-3.14313	0.48934	0.286513	0	0	0.250699	0	0	0.202947	0	0	0	0	0	0	0	0.000000000	0	0.788798	-0.788798	0	0.828698	-1.5708	0	0.1	0.1	0.1	0.1	0.1	0.1	0.1	0	0	0	0	0	0	0	0.000000000
1504276071.098721027	-0.848291	-0.0644272	-1.51097	0.724039	-0.0475534	-3.14313	0.484738	0.334265	0	0.107442	0.298451	0.143257	0	0.202947	0	0	0	0	0	0	0	0.000000000	0	0.788798	-0.788798	0	0.828698	-1.5708	0	0.1	0.1	0.1	0.1	0.1	0.1	0.1	0	0	0	0	0	0	0	0.000000000
1504276071.118695020	-0.840621	-0.0598253	-1.51404	0.714835	-0.0429515	-3.14313	0.480136	0.286513	0.143257	0.107442	0.346204	0.191009	0	0.202947	0	0	0	0	0	0	0	0.000000000	0	0.788798	-0.788798	0	0.828698	-1.5708	0	0.1	0.1	0.1	0.1	0.1	0.1	0.1	0	0	0	0	0	0	0	0.000000000
1504276071.138752937	-0.840621	-0.0598253	-1.51404	0.714835	-0.0429515	-3.14313	0.480136	0.286513	0.143257	0.107442	0.346204	0.191009	0	0.202947	0	0	0	0	0	0	0	0.000000000	0	0.788798	-0.788798	0	0.828698	-1.5708	0	0.1	0.1	0.1	0.1	0.1	0.1	0.1	0	0	0	0	0	0	0	0.000000000
1504276071.158791065	-0.831418	-0.0567573	-1.51711	0.707165	-0.0383495	-3.14313	0.477068	0.334265	0.143257	0.107442	0.298451	0.191009	0	0.155195	0	0	0	0	0	0	0	0.000000000	0	0.788798	-0.788798	0	0.828698	-1.5708	0	0.1	0.1	0.1	0.1	0.1	0.1	0.1	0	0	0	0	0	0	0	0.000000000
1504276071.182720899	-0.817612	-0.0506214	-1.52171	0.701029	-0.0368155	-3.14313	0.470932	0.334265	0.191009	0.155195	0.250699	0.0955044	0	0.155195	0	0	0	0	0	0	0	0.000000000	0	0.788798	-0.788798	0	0.828698	-1.5708	0	0.1	0.1	0.1	0.1	0.1	0.1	0.1	0	0	0	0	0	0	0	0.000000000
1504276071.198770999	-0.809942	-0.0490874	-1.52784	0.694893	-0.0368155	-3.14313	0.467864	0.334265	0.143257	0.202947	0.250699	0	0	0.155195	0	0	0	0	0	0	0	0.000000000	0	0.788798	-0.788798	0	0.828698	-1.5708	0	0.1	0.1	0.1	0.1	0.1	0.1	0.1	0	0	0	0	0	0	0	0.000000000
1504276071.218765020	-0.802272	-0.0444854	-1.53091	0.687223	-0.0368155	-3.14313	0.467864	0.334265	0.143257	0.155195	0.298451	0	0	0.155195	0	0	0	0	0	0	0	0.000000000	0	0.788798	-0.788798	0	0.828698	-1.5708	0	0.1	0.1	0.1	0.1	0.1	0.1	0.1	0	0	0	0	0	0	0	0.000000000
1504276071.238714933	-0.802272	-0.0444854	-1.53091	0.687223	-0.0368155	-3.14313	0.463262	0.334265	0.143257	0.155195	0.298451	0	0	0.202947	0	0	0	0	0	0	0	0.000000000	0	0.788798	-0.788798	0	0.828698	-1.5708	0	0.1	0.1	0.1	0.1	0.1	0.1	0.1	0	0	0	0	0	0	0	0.000000000
1504276071.258739948	-0.791534	-0.0429515	-1.53398	0.679553	-0.0337476	-3.14313	0.457126	0.334265	0	0.155195	0.298451	0.0955044	0	0.250699	0	0	0	0	0	0	0	0.000000000	0	0.788798	-0.788798	0	0.828698	-1.5708	0	0.1	0.1	0.1	0.1	0.1	0.1	0.1	0	0	0	0	0	0	0	0.000000000
1504276071.282672882	-0.786932	-0.0414175	-1.53551	0.671884	-0.0306796	-3.14313	0.452524	0.191009	0	0.107442	0.250699	0.143257	0	0.202947	0	0	0	0	0	0	0	0.000000000	0	0.788798	-0.788798	0	0.828698	-1.5708	0	0.1	0.1	0.1	0.1	0.1	0.1	0.1	0	0	0	0	0	0	0	0.000000000
1504276071.298767089	-0.779262	-0.0398835	-1.53551	0.664214	-0.0276117	-3.14313	0.447922	0.238761	0	0	0.250699	0.0955044	0	0.202947	0	0	0	0	0	0	0	0.000000000	0	0.788798	-0.788798	0	0.828698	-1.5708	0	0.1	0.1	0.1	0.1	0.1	0.1	0.1	0	0	0	0	0	0	0	0.000000000
1504276071.319447040	-0.779262	-0.0398835	-1.53551	0.664214	-0.0276117	-3.14313	0.447922	0.238761	0	0	0.250699	0.0955044	0	0.202947	0	0	0	0	0	0	0	0.000000000	0	0.788798	-0.788798	0	0.828698	-1.5708	0	0.1	0.1	0.1	0.1	0.1	0.1	0.1	0	0	0	0	0	0	0	0.000000000
1504276071.338725090	-0.771592	-0.0383495	-1.53705	0.656544	-0.0260777	-3.14313	0.44332	0.286513	0	0	0.250699	0	0	0.202947	0	0	0	0	0	0	0	0.000000000	0	0.788798	-0.788798	0	0.828698	-1.5708	0	0.1	0.1	0.1	0.1	0.1	0.1	0.1	0	0	0	0	0	0	0	0.000000000
1504276071.358700990	-0.762388	-0.0383495	-1.53705	0.648874	-0.0276117	-3.14313	0.438719	0.334265	0	0	0.298451	0	0	0.202947	0	0	0	0	0	0	0	0.000000000	0	0.788798	-0.788798	0	0.828698	-1.5708	0	0.1	0.1	0.1	0.1	0.1	0.1	0.1	0	0	0	0	0	0	0	0.000000000
1504276071.378900051	-0.751651	-0.0383495	-1.53705	0.641204	-0.0260777	-3.14313	0.434117	0.382018	0	0	0.346204	0	0	0.202947	0	0	0	0	0	0	0	0.000000000	0	0.788798	-0.788798	0	0.828698	-1.5708	0	0.1	0.1	0.1	0.1	0.1	0.1	0.1	0	0	0	0	0	0	0	0.000000000
1504276071.400088071	-0.739379	-0.0383495	-1.53858	0.633534	-0.0260777	-3.14466	0.427981	0.42977	0	0	0.298451	0	0	0.250699	0	0	0	0	0	0	0	0.000000000	0	0.788798	-0.788798	0	0.828698	-1.5708	0	0.1	0.1	0.1	0.1	0.1	0.1	0.1	0	0	0	0	0	0	0	0.000000000
1504276071.418931007	-0.739379	-0.0383495	-1.53858	0.633534	-0.0260777	-3.14466	0.427981	0.42977	0	0	0.298451	0	0	0.250699	0	0	0	0	0	0	0	0.000000000	0	0.788798	-0.788798	0	0.828698	-1.5708	0	0.1	0.1	0.1	0.1	0.1	0.1	0.1	0	0	0	0	0	0	0	0.000000000
1504276071.438877105	-0.728641	-0.0383495	-1.53705	0.625864	-0.0260777	-3.14313	0.421845	0.334265	0	0	0.298451	0	0	0.202947	0	0	0	0	0	0	0	0.000000000	0	0.788798	-0.788798	0	0.828698	-1.5708	0	0.1	0.1	0.1	0.1	0.1	0.1	0.1	0	0	0	0	0	0	0	0.000000000
1504276071.459635019	-0.720971	-0.0383495	-1.53705	0.61666	-0.0260777	-3.14313	0.417243	0.286513	0	0	0.346204	0	0	0.202947	0	0	0	0	0	0	0	0.000000000	0	0.788798	-0.788798	0	0.828698	-1.5708	0	0.1	0.1	0.1	0.1	0.1	0.1	0.1	0	0	0	0	0	0	0	0.000000000
1504276071.478821992	-0.713301	-0.0383495	-1.53705	0.607456	-0.0260777	-3.14313	0.412641	0.286513	0	0	0.298451	0	0	0.202947	0	0	0	0	0	0	0	0.000000000	0	0.788798	-0.788798	0	0.828698	-1.5708	0	0.1	0.1	0.1	0.1	0.1	0.1	0.1	0	0	0	0	0	0	0	0.000000000
1504276071.498876094	-0.704097	-0.0383495	-1.53705	0.60132	-0.0276117	-3.14313	0.406505	0.42977	0	0	0.250699	0	0	0.250699	0	0	0	0	0	0	0	0.000000000	0	0.788798	-0.788798	0	0.828698	-1.5708	0	0.1	0.1	0.1	0.1	0.1	0.1	0.1	0	0	0	0	0	0	0	0.000000000
1504276071.519558906	-0.693359	-0.0383495	-1.53705	0.60132	-0.0276117	-3.14313	0.406505	0.382018	0	0	0.250699	0	0	0.250699	0	0	0	0	0	0	0	0.000000000	0	0.788798	-0.788798	0	0.828698	-1.5708	0	0.1	0.1	0.1	0.1	0.1	0.1	0.1	0	0	0	0	0	0	0	0.000000000
1504276071.539349079	-0.693359	-0.0383495	-1.53705	0.593651	-0.0260777	-3.14313	0.400369	0.382018	0	0	0.298451	0	0	0.250699	0	0	0	0	0	0	0	0.000000000	0	0.788798	-0.788798	0	0.828698	-1.5708	0	0.1	0.1	0.1	0.1	0.1	0.1	0.1	0	0	0	0	0	0	0	0.000000000
1504276071.558890104	-0.679553	-0.0383495	-1.53858	0.584447	-0.0260777	-3.14313	0.392699	0.382018	0	0	0.346204	0	0	0.250699	0	0	0	0	0	0	0	0.000000000	0	0.788798	-0.788798	0	0.828698	-1.5708	0	0.1	0.1	0.1	0.1	0.1	0.1	0.1	0	0	0	0	0	0	0	0.000000000
1504276071.578751087	-0.671884	-0.0383495	-1.53705	0.575243	-0.0276117	-3.14313	0.386563	0.286513	0	0	0.346204	0	0	0.250699	0	0	0	0	0	0	0	0.000000000	0	0.788798	-0.788798	0	0.828698	-1.5708	0	0.1	0.1	0.1	0.1	0.1	0.1	0.1	0	0	0	0	0	0	0	0.000000000
1504276071.598711967	-0.661146	-0.0383495	-1.53705	0.567573	-0.0276117	-3.14313	0.380427	0.382018	0	0	0.298451	0	0	0.202947	0	0	0	0	0	0	0	0.000000000	0	0.788798	-0.788798	0	0.828698	-1.5708	0	0.1	0.1	0.1	0.1	0.1	0.1	0.1	0	0	0	0	0	0	0	0.000000000
1504276071.619191884	-0.651942	-0.0383495	-1.53705	0.567573	-0.0276117	-3.14313	0.380427	0.382018	0	0	0.298451	0	0	0.202947	0	0	0	0	0	0	0	0.000000000	0	0.788798	-0.788798	0	0.828698	-1.5708	0	0.1	0.1	0.1	0.1	0.1	0.1	0.1	0	0	0	0	0	0	0	0.000000000
1504276071.638784885	-0.651942	-0.0383495	-1.53705	0.559903	-0.0276117	-3.14313	0.372757	0.382018	0	0	0.250699	0	0	0.250699	0	0	0	0	0	0	0	0.000000000	0	0.788798	-0.788798	0	0.828698	-1.5708	0	0.1	0.1	0.1	0.1	0.1	0.1	0.1	0	0	0	0	0	0	0	0.000000000
1504276071.658735990	-0.642738	-0.0383495	-1.53705	0.550699	-0.0276117	-3.14313	0.366621	0.334265	0	0	0.346204	0	0	0.202947	0	0	0	0	0	0	0	0.000000000	0	0.788798	-0.788798	0	0.828698	-1.5708	0	0.1	0.1	0.1	0.1	0.1	0.1	0.1	0	0	0	0	0	0	0	0.000000000
1504276071.678765058	-0.630466	-0.0383495	-1.53858	0.541495	-0.0276117	-3.14313	0.360485	0.382018	0	0	0.346204	0	0	0.202947	0	0	0	0	0	0	0	0.000000000	0	0.788798	-0.788798	0	0.828698	-1.5708	0	0.1	0.1	0.1	0.1	0.1	0.1	0.1	0	0	0	0	0	0	0	0.000000000
1504276071.698848009	-0.630466	-0.0383495	-1.53858	0.541495	-0.0276117	-3.14313	0.360485	0.382018	0	0	0.346204	0	0	0.202947	0	0	0	0	0	0	0	0.000000000	0	0.788798	-0.788798	0	0.828698	-1.5708	0	0.1	0.1	0.1	0.1	0.1	0.1	0.1	0	0	0	0	0	0	0	0.000000000
1504276071.718794107	-0.621262	-0.0383495	-1.53705	0.532291	-0.0260777	-3.14313	0.355884	0.334265	0	0	0.346204	0	0	0.202947	0	0	0	0	0	0	0	0.000000000	0	0.788798	-0.788798	0	0.828698	-1.5708	0	0.1	0.1	0.1	0.1	0.1	0.1	0.1	0	0	0	0	0	0	0	0.000000000
1504276071.738877058	-0.610524	-0.0383495	-1.53705	0.524621	-0.0276117	-3.14313	0.348214	0.334265	0	0	0.298451	0	0	0.202947	0	0	0	0	0	0	0	0.000000000	0	0.788798	-0.788798	0	0.828698	-1.5708	0	0.1	0.1	0.1	0.1	0.1	0.1	0.1	0	0	0	0	0	0	0	0.000000000
1504276071.759373903	-0.599786	-0.0383495	-1.53858	0.516952	-0.0260777	-3.14313	0.345146	0.334265	0	0	0.298451	0	0	0.155195	0	0	0	0	0	0	0	0.000000000	0	0.788798	-0.788798	0	0.828698	-1.5708	0	0.1	0.1	0.1	0.1	0.1	0.1	0.1	0	0	0	0	0	0	0	0.000000000
1504276071.779113054	-0.599786	-0.0383495	-1.53858	0.516952	-0.0260777	-3.14313	0.345146	0.334265	0	0	0.298451	0	0	0.155195	0	0	0	0	0	0	0	0.000000000	0	0.788798	-0.788798	0	0.828698	-1.5708	0	0.1	0.1	0.1	0.1	0.1	0.1	0.1	0	0	0	0	0	0	0	0.000000000
1504276071.799463987	-0.587515	-0.0398835	-1.53705	0.507748	-0.0276117	-3.14313	0.33901	0.42977	0	0	0.346204	0	0	0.202947	0	0	0	0	0	0	0	0.000000000	0	0.788798	-0.788798	0	0.828698	-1.5708	0	0.1	0.1	0.1	0.1	0.1	0.1	0.1	0	0	0	0	0	0	0	0.000000000
1504276071.818865060	-0.575243	-0.0398835	-1.53858	0.495476	-0.0260777	-3.14313	0.332874	0.382018	0	0	0.298451	0	0	0.202947	0	0	0	0	0	0	0	0.000000000	0	0.788798	-0.788798	0	0.828698	-1.5708	0	0.1	0.1	0.1	0.1	0.1	0.1	0.1	0	0	0	0	0	0	0	0.000000000
1504276071.845007896	-0.567573	-0.0383495	-1.53858	0.48934	-0.0276117	-3.14313	0.328272	0.286513	0	0	0.202947	0	0	0.155195	0	0	0	0	0	0	0	0.000000000	0	0.788798	-0.788798	0	0.828698	-1.5708	0	0.1	0.1	0.1	0.1	0.1	0.1	0.1	0	0	0	0	0	0	0	0.000000000
1504276071.863835096	-0.567573	-0.0383495	-1.53858	0.48934	-0.0276117	-3.14313	0.328272	0.286513	0	0	0.202947	0	0	0.155195	0	0	0	0	0	0	0	0.000000000	0	0.788798	-0.788798	0	0.828698	-1.5708	0	0.1	0.1	0.1	0.1	0.1	0.1	0.1	0	0	0	0	0	0	0	0.000000000
1504276071.880939006	-0.556835	-0.0383495	-1.53858	0.480136	-0.0260777	-3.14466	0.322136	0.382018	0	0	0.298451	0	0	0.202947	0	0	0	0	0	0	0	0.000000000	0	0.788798	-0.788798	0	0.828698	-1.5708	0	0.1	0.1	0.1	0.1	0.1	0.1	0.1	0	0	0	0	0	0	0	0.000000000
1504276071.898850917	-0.543029	-0.0383495	-1.53705	0.470932	-0.0260777	-3.14313	0.316	0.42977	0	0	0.393956	0	0	0.202947	0	0	0	0	0	0	0	0.000000000	0	0.788798	-0.788798	0	0.828698	-1.5708	0	0.1	0.1	0.1	0.1	0.1	0.1	0.1	0	0	0	0	0	0	0	0.000000000
1504276071.919507980	-0.533825	-0.0383495	-1.53858	0.460194	-0.0276117	-3.14313	0.309864	0.382018	0	0	0.346204	0	0	0.250699	0	0	0	0	0	0	0	0.000000000	0	0.788798	-0.788798	0	0.828698	-1.5708	0	0.1	0.1	0.1	0.1	0.1	0.1	0.1	0	0	0	0	0	0	0	0.000000000
1504276071.939088106	-0.533825	-0.0383495	-1.53858	0.460194	-0.0276117	-3.14313	0.309864	0.382018	0	0	0.346204	0	0	0.250699	0	0	0	0	0	0	0	0.000000000	0	0.788798	-0.788798	0	0.828698	-1.5708	0	0.1	0.1	0.1	0.1	0.1	0.1	0.1	0	0	0	0	0	0	0	0.000000000
1504276071.959425926	-0.513884	-0.0383495	-1.53858	0.444854	-0.0260777	-3.14466	0.299126	0.334265	0	0	0.298451	0	0	0.202947	0	0	0	0	0	0	0	0.000000000	0	0.788798	-0.788798	0	0.828698	-1.5708	0	0.1	0.1	0.1	0.1	0.1	0.1	0.1	0	0	0	0	0	0	0	0.000000000
1504276071.978720903	-0.509282	-0.0383495	-1.53858	0.437185	-0.0260777	-3.14313	0.296058	0.286513	0	0	0.298451	0	0	0.202947	0	0	0	0	0	0	0	0.000000000	0	0.788798	-0.788798	0	0.828698	-1.5708	0	0.1	0.1	0.1	0.1	0.1	0.1	0.1	0	0	0	0	0	0	0	0.000000000
1504276071.998730897	-0.503146	-0.0383495	-1.53858	0.431049	-0.0260777	-3.14313	0.289922	0.286513	0	0	0.250699	0	0	0.202947	0	0	0	0	0	0	0	0.000000000	0	0.788798	-0.788798	0	0.828698	-1.5708	0	0.1	0.1	0.1	0.1	0.1	0.1	0.1	0	0	0	0	0	0	0	0.000000000
1504276072.018912076	-0.503146	-0.0383495	-1.53858	0.431049	-0.0260777	-3.14466	0.283786	0.286513	0	0	0.250699	0	0	0.250699	0	0	0	0	0	0	0	0.000000000	0	0.788798	-0.788798	0	0.828698	-1.5708	0	0.1	0.1	0.1	0.1	0.1	0.1	0.1	0	0	0	0	0	0	0	0.000000000
1504276072.038747072	-0.490874	-0.0383495	-1.53858	0.421845	-0.0260777	-3.14466	0.283786	0.42977	0	0	0.298451	0	0	0.250699	0	0	0	0	0	0	0	0.000000000	0	0.788798	-0.788798	0	0.828698	-1.5708	0	0.1	0.1	0.1	0.1	0.1	0.1	0.1	0	0	0	0	0	0	0	0.000000000
1504276072.058739900	-0.480136	-0.0383495	-1.53858	0.411107	-0.0260777	-3.14313	0.277651	0.382018	0	0	0.393956	0	0	0.202947	0	0	0	0	0	0	0	0.000000000	0	0.788798	-0.788798	0	0.828698	-1.5708	0	0.1	0.1	0.1	0.1	0.1	0.1	0.1	0	0	0	0	0	0	0	0.000000000
1504276072.078720092	-0.469398	-0.0383495	-1.53858	0.400369	-0.0276117	-3.14466	0.273049	0.382018	0	0	0.393956	0	0	0.202947	0	0	0	0	0	0	0	0.000000000	0	0.788798	-0.788798	0	0.828698	-1.5708	0	0.1	0.1	0.1	0.1	0.1	0.1	0.1	0	0	0	0	0	0	0	0.000000000
1504276072.098803043	-0.45866	-0.0383495	-1.53858	0.391165	-0.0260777	-3.14466	0.268447	0.382018	0	0	0.346204	0	0	0.202947	0	0	0	0	0	0	0	0.000000000	0	0.788798	-0.788798	0	0.828698	-1.5708	0	0.1	0.1	0.1	0.1	0.1	0.1	0.1	0	0	0	0	0	0	0	0.000000000
1504276072.118798971	-0.45866	-0.0383495	-1.53858	0.391165	-0.0260777	-3.14466	0.268447	0.382018	0	0	0.346204	0	0	0.202947	0	0	0	0	0	0	0	0.000000000	0	0.788798	-0.788798	0	0.828698	-1.5708	0	0.1	0.1	0.1	0.1	0.1	0.1	0.1	0	0	0	0	0	0	0	0.000000000
1504276072.138768911	-0.447922	-0.0383495	-1.53858	0.385029	-0.0260777	-3.14313	0.263845	0.382018	0	0	0.298451	0	0	0.202947	0	0	0	0	0	0	0	0.000000000	0	0.788798	-0.788798	0	0.828698	-1.5708	0	0.1	0.1	0.1	0.1	0.1	0.1	0.1	0	0	0	0	0	0	0	0.000000000
1504276072.158808946	-0.438719	-0.0383495	-1.53858	0.378893	-0.0276117	-3.14466	0.260777	0.334265	0	0	0.250699	0	0	0.155195	0	0	0	0	0	0	0	0.000000000	0	0.788798	-0.788798	0	0.828698	-1.5708	0	0.1	0.1	0.1	0.1	0.1	0.1	0.1	0	0	0	0	0	0	0	0.000000000
1504276072.178783893	-0.426447	-0.0398835	-1.53858	0.371223	-0.0260777	-3.14466	0.256175	0.382018	0	0	0.250699	0	0	0.155195	0	0	0	0	0	0	0	0.000000000	0	0.788798	-0.788798	0	0.828698	-1.5708	0	0.1	0.1	0.1	0.1	0.1	0.1	0.1	0	0	0	0	0	0	0	0.000000000
1504276072.198692083	-0.417243	-0.0383495	-1.53858	0.362019	-0.0276117	-3.14466	0.251573	0.382018	0	0	0.346204	0	0	0.155195	0	0	0	0	0	0	0	0.000000000	0	0.788798	-0.788798	0	0.828698	-1.5708	0	0.1	0.1	0.1	0.1	0.1	0.1	0.1	0	0	0	0	0	0	0	0.000000000
1504276072.218748092	-0.417243	-0.0383495	-1.53858	0.362019	-0.0276117	-3.14466	0.251573	0.382018	0	0	0.346204	0	0	0.155195	0	0	0	0	0	0	0	0.000000000	0	0.788798	-0.788798	0	0.828698	-1.5708	0	0.1	0.1	0.1	0.1	0.1	0.1	0.1	0	0	0	0	0	0	0	0.000000000
1504276072.238719940	-0.406505	-0.0383495	-1.53858	0.352816	-0.0260777	-3.14466	0.245437	0.382018	0	0	0.346204	0	0	0.202947	0	0	0	0	0	0	0	0.000000000	0	0.788798	-0.788798	0	0.828698	-1.5708	0	0.1	0.1	0.1	0.1	0.1	0.1	0.1	0	0	0	0	0	0	0	0.000000000
1504276072.258760929	-0.397301	-0.0383495	-1.53858	0.343612	-0.0276117	-3.14466	0.239301	0.334265	0	0	0.346204	0	0	0.250699	0	0	0	0	0	0	0	0.000000000	0	0.788798	-0.788798	0	0.828698	-1.5708	0	0.1	0.1	0.1	0.1	0.1	0.1	0.1	0	0	0	0	0	0	0	0.000000000
1504276072.278779983	-0.386563	-0.0383495	-1.53858	0.335942	-0.0260777	-3.14466	0.233165	0.382018	0	0	0.298451	0	0	0.298451	0	0	0	0	0	0	0	0.000000000	0	0.788798	-0.788798	0	0.828698	-1.5708	0	0.1	0.1	0.1	0.1	0.1	0.1	0.1	0	0	0	0	0	0	0	0.000000000
1504276072.298765897	-0.380427	-0.0383495	-1.53858	0.326738	-0.0276117	-3.14466	0.227029	0.238761	0	0	0.346204	0	0	0.250699	0	0	0	0	0	0	0	0.000000000	0	0.788798	-0.788798	0	0.828698	-1.5708	0	0.1	0.1	0.1	0.1	0.1	0.1	0.1	0	0	0	0	0	0	0	0.000000000
1504276072.318705081	-0.380427	-0.0383495	-1.53858	0.326738	-0.0276117	-3.14466	0.227029	0.238761	0	0	0.346204	0	0	0.250699	0	0	0	0	0	0	0	0.000000000	0	0.788798	-0.788798	0	0.828698	-1.5708	0	0.1	0.1	0.1	0.1	0.1	0.1	0.1	0	0	0	0	0	0	0	0.000000000
1504276072.338711023	-0.371223	-0.0383495	-1.53858	0.319068	-0.0260777	-3.14466	0.220893	0.334265	0	0	0.298451	0	0	0.250699	0	0	0	0	0	0	0	0.000000000	0	0.788798	-0.788798	0	0.828698	-1.5708	0	0.1	0.1	0.1	0.1	0.1	0.1	0.1	0	0	0	0	0	0	0	0.000000000
1504276072.359286069	-0.362019	-0.0383495	-1.53858	0.309864	-0.0276117	-3.14466	0.213223	0.334265	0	0	0.346204	0	0	0.250699	0	0	0	0	0	0	0	0.000000000	0	0.788798	-0.788798	0	0.828698	-1.5708	0	0.1	0.1	0.1	0.1	0.1	0.1	0.1	0	0	0	0	0	0	0	0.000000000
1504276072.378731012	-0.352816	-0.0383495	-1.53858	0.302194	-0.0276117	-3.14466	0.208621	0.286513	0	0	0.298451	0	0	0.202947	0	0	0	0	0	0	0	0.000000000	0	0.788798	-0.788798	0	0.828698	-1.5708	0	0.1	0.1	0.1	0.1	0.1	0.1	0.1	0	0	0	0	0	0	0	0.000000000
1504276072.398780107	-0.343612	-0.0383495	-1.53858	0.29299	-0.0260777	-3.14313	0.204019	0.334265	0	0	0.346204	0	0	0.202947	0	0	0	0	0	0	0	0.000000000	0	0.788798	-0.788798	0	0.828698	-1.5708	0	0.1	0.1	0.1	0.1	0.1	0.1	0.1	0	0	0	0	0	0	0	0.000000000
1504276072.419157028	-0.332874	-0.0398835	-1.53858	0.286854	-0.0260777	-3.14466	0.199418	0.382018	0	0	0.250699	0	0	0.155195	0	0	0	0	0	0	0	0.000000000	0	0.788798	-0.788798	0	0.828698	-1.5708	0	0.1	0.1	0.1	0.1	0.1	0.1	0.1	0	0	0	0	0	0	0	0.000000000
1504276072.438689947	-0.332874	-0.0398835	-1.53858	0.286854	-0.0260777	-3.14466	0.199418	0.382018	0	0	0.250699	0	0	0.155195	0	0	0	0	0	0	0	0.000000000	0	0.788798	-0.788798	0	0.828698	-1.5708	0	0.1	0.1	0.1	0.1	0.1	0.1	0.1	0	0	0	0	0	0	0	0.000000000
1504276072.458720922	-0.32367	-0.0383495	-1.53858	0.280718	-0.0276117	-3.14466	0.194816	0.286513	0	0	0.202947	0	0	0.155195	0	0	0	0	0	0	0	0.000000000	0	0.788798	-0.788798	0	0.828698	-1.5708	0	0.1	0.1	0.1	0.1	0.1	0.1	0.1	0	0	0	0	0	0	0	0.000000000
1504276072.478756904	-0.314466	-0.0398835	-1.53858	0.271515	-0.0276117	-3.14466	0.190214	0.286513	0	0	0.298451	0	0	0.155195	0	0	0	0	0	0	0	0.000000000	0	0.788798	-0.788798	0	0.828698	-1.5708	0	0.1	0.1	0.1	0.1	0.1	0.1	0.1	0	0	0	0	0	0	0	0.000000000
1504276072.498752117	-0.306796	-0.0383495	-1.53858	0.263845	-0.0260777	-3.14466	0.187146	0.334265	0	0	0.298451	0	0	0.107442	0	0	0	0	0	0	0	0.000000000	0	0.788798	-0.788798	0	0.828698	-1.5708	0	0.1	0.1	0.1	0.1	0.1	0.1	0.1	0	0	0	0	0	0	0	0.000000000
1504276072.518793106	-0.306796	-0.0383495	-1.53858	0.263845	-0.0260777	-3.14466	0.187146	0.334265	0	0	0.298451	0	0	0.107442	0	0	0	0	0	0	0	0.000000000	0	0.788798	-0.788798	0	0.828698	-1.5708	0	0.1	0.1	0.1	0.1	0.1	0.1	0.1	0	0	0	0	0	0	0	0.000000000
1504276072.538814067	-0.297592	-0.0383495	-1.53858	0.256175	-0.0276117	-3.14466	0.18101	0.286513	0	0	0.298451	0	0	0.202947	0	0	0	0	0	0	0	0.000000000	0	0.788798	-0.788798	0	0.828698	-1.5708	0	0.1	0.1	0.1	0.1	0.1	0.1	0.1	0	0	0	0	0	0	0	0.000000000
1504276072.558773040	-0.286854	-0.0383495	-1.53858	0.248505	-0.0260777	-3.14466	0.176408	0.334265	0	0	0.298451	0	0	0.202947	0	0	0	0	0	0	0	0.000000000	0	0.788798	-0.788798	0	0.828698	-1.5708	0	0.1	0.1	0.1	0.1	0.1	0.1	0.1	0	0	0	0	0	0	0	0.000000000
1504276072.578732967	-0.280718	-0.0383495	-1.53858	0.240835	-0.0276117	-3.14466	0.171806	0.238761	0	0	0.250699	0	0	0.202947	0	0	0	0	0	0	0	0.000000000	0	0.788798	-0.788798	0	0.828698	-1.5708	0	0.1	0.1	0.1	0.1	0.1	0.1	0.1	0	0	0	0	0	0	0	0.000000000
1504276072.598720073	-0.273049	-0.0383495	-1.53858	0.233165	-0.0276117	-3.14466	0.167204	0.286513	0	0	0.298451	0	0	0.202947	0	0	0	0	0	0	0	0.000000000	0	0.788798	-0.788798	0	0.828698	-1.5708	0	0.1	0.1	0.1	0.1	0.1	0.1	0.1	0	0	0	0	0	0	0	0.000000000
1504276072.618755102	-0.273049	-0.0383495	-1.53858	0.233165	-0.0276117	-3.14466	0.167204	0.286513	0	0	0.298451	0	0	0.202947	0	0	0	0	0	0	0	0.000000000	0	0.788798	-0.788798	0	0.828698	-1.5708	0	0.1	0.1	0.1	0.1	0.1	0.1	0.1	0	0	0	0	0	0	0	0.000000000
1504276072.638690948	-0.263845	-0.0383495	-1.53858	0.227029	-0.0276117	-3.14466	0.162602	0.334265	0	0	0.250699	0	0	0.202947	0	0	0	0	0	0	0	0.000000000	0	0.788798	-0.788798	0	0.828698	-1.5708	0	0.1	0.1	0.1	0.1	0.1	0.1	0.1	0	0	0	0	0	0	0	0.000000000
1504276072.658667087	-0.253107	-0.0383495	-1.53858	0.219359	-0.0260777	-3.14313	0.156466	0.334265	0	0	0.250699	0	0	0.202947	0	0	0	0	0	0	0	0.000000000	0	0.788798	-0.788798	0	0.828698	-1.5708	0	0.1	0.1	0.1	0.1	0.1	0.1	0.1	0	0	0	0	0	0	0	0.000000000
1504276072.678702116	-0.243903	-0.0383495	-1.53858	0.211689	-0.0276117	-3.14466	0.151864	0.334265	0	0	0.250699	0	0	0.155195	0	0	0	0	0	0	0	0.000000000	0	0.788798	-0.788798	0	0.828698	-1.5708	0	0.1	0.1	0.1	0.1	0.1	0.1	0.1	0	0	0	0	0	0	0	0.000000000
1504276072.698836088	-0.237767	-0.0383495	-1.53858	0.204019	-0.0276117	-3.14466	0.147262	0.238761	0	0	0.298451	0	0	0.155195	0	0	0	0	0	0	0	0.000000000	0	0.788798	-0.788798	0	0.828698	-1.5708	0	0.1	0.1	0.1	0.1	0.1	0.1	0.1	0	0	0	0	0	0	0	0.000000000
1504276072.718722105	-0.230097	-0.0383495	-1.53858	0.197884	-0.0260777	-3.14466	0.147262	0.286513	0	0	0.250699	0	0	0.155195	0	0	0	0	0	0	0	0.000000000	0	0.788798	-0.788798	0	0.828698	-1.5708	0	0.1	0.1	0.1	0.1	0.1	0.1	0.1	0	0	0	0	0	0	0	0.000000000
1504276072.738784074	-0.230097	-0.0383495	-1.53858	0.197884	-0.0260777	-3.14466	0.14266	0.286513	0	0	0.250699	0	0	0.155195	0	0	0	0	0	0	0	0.000000000	0	0.788798	-0.788798	0	0.828698	-1.5708	0	0.1	0.1	0.1	0.1	0.1	0.1	0.1	0	0	0	0	0	0	0	0.000000000
1504276072.758867979	-0.220893	-0.0383495	-1.53858	0.190214	-0.0260777	-3.14466	0.138058	0.334265	0	0	0.250699	0	0	0.202947	0	0	0	0	0	0	0	0.000000000	0	0.788798	-0.788798	0	0.828698	-1.5708	0	0.1	0.1	0.1	0.1	0.1	0.1	0.1	0	0	0	0	0	0	0	0.000000000
1504276072.778767108	-0.213223	-0.0383495	-1.53858	0.185612	-0.0260777	-3.14466	0.13499	0.286513	0	0	0.202947	0	0	0.155195	0	0	0	0	0	0	0	0.000000000	0	0.788798	-0.788798	0	0.828698	-1.5708	0	0.1	0.1	0.1	0.1	0.1	0.1	0.1	0	0	0	0	0	0	0	0.000000000
1504276072.799127101	-0.204019	-0.0383495	-1.53858	0.177942	-0.0245437	-3.14466	0.130388	0.334265	0	0	0.250699	0	0	0.155195	0	0	0	0	0	0	0	0.000000000	0	0.788798	-0.788798	0	0.828698	-1.5708	0	0.1	0.1	0.1	0.1	0.1	0.1	0.1	0	0	0	0	0	0	0	0.000000000
1504276072.818687915	-0.204019	-0.0383495	-1.53858	0.177942	-0.0245437	-3.14466	0.130388	0.334265	0	0	0.250699	0	0	0.155195	0	0	0	0	0	0	0	0.000000000	0	0.788798	-0.788798	0	0.828698	-1.5708	0	0.1	0.1	0.1	0.1	0.1	0.1	0.1	0	0	0	0	0	0	0	0.000000000
1504276072.838723897	-0.197884	-0.0383495	-1.53858	0.171806	-0.0199418	-3.14466	0.12732	0.238761	0	0	0.250699	0.143257	0	0.155195	0	0	0	0	0	0	0	0.000000000	0	0.788798	-0.788798	0	0.828698	-1.5708	0	0.1	0.1	0.1	0.1	0.1	0.1	0.1	0	0	0	0	0	0	0	0.000000000
1504276072.858673095	-0.190214	-0.0383495	-1.53858	0.164136	-0.0184078	-3.14466	0.122718	0.238761	0	0	0.250699	0.0955044	0	0.155195	0	0	0	0	0	0	0	0.000000000	0	0.788798	-0.788798	0	0.828698	-1.5708	0	0.1	0.1	0.1	0.1	0.1	0.1	0.1	0	0	0	0	0	0	0	0.000000000
1504276072.878724098	-0.185612	-0.0398835	-1.53858	0.158	-0.0168738	-3.14466	0.118117	0.191009	0	0	0.250699	0	0	0.155195	0	0	0	0	0	0	0	0.000000000	0	0.788798	-0.788798	0	0.828698	-1.5708	0	0.1	0.1	0.1	0.1	0.1	0.1	0.1	0	0	0	0	0	0	0	0.000000000
1504276072.898689031	-0.179476	-0.0383495	-1.53858	0.151864	-0.0168738	-3.14466	0.115049	0.191009	0	0	0.250699	0	0	0.107442	0	0	0	0	0	0	0	0.000000000	0	0.788798	-0.788798	0	0.828698	-1.5708	0	0.1	0.1	0.1	0.1	0.1	0.1	0.1	0	0	0	0	0	0	0	0.000000000
1504276072.918735027	-0.179476	-0.0383495	-1.53858	0.151864	-0.0168738	-3.14466	0.115049	0.191009	0	0	0.250699	0	0	0.107442	0	0	0	0	0	0	0	0.000000000	0	0.788798	-0.788798	0	0.828698	-1.5708	0	0.1	0.1	0.1	0.1	0.1	0.1	0.1	0	0	0	0	0	0	0	0.000000000
1504276072.938782930	-0.171806	-0.0383495	-1.53858	0.145728	-0.0153398	-3.14466	0.111981	0.238761	0	0	0.250699	0	0	0.107442	0	0	0	0	0	0	0	0.000000000	0	0.788798	-0.788798	0	0.828698	-1.5708	0	0.1	0.1	0.1	0.1	0.1	0.1	0.1	0	0	0	0	0	0	0	0.000000000
1504276072.959378004	-0.164136	-0.0383495	-1.53858	0.139592	-0.0153398	-3.14466	0.107379	0.286513	0	0	0.250699	0	0	0.155195	0	0	0	0	0	0	0	0.000000000	0	0.788798	-0.788798	0	0.828698	-1.5708	0	0.1	0.1	0.1	0.1	0.1	0.1	0.1	0	0	0	0	0	0	0	0.000000000
1504276072.978784084	-0.156466	-0.0383495	-1.54012	0.133456	-0.0138058	-3.14313	0.104311	0.238761	0	0	0.202947	0	0	0.155195	0	0	0	0	0	0	0	0.000000000	0	0.788798	-0.788798	0	0.828698	-1.5708	0	0.1	0.1	0.1	0.1	0.1	0.1	0.1	0	0	0	0	0	0	0	0.000000000
1504276072.998874902	-0.156466	-0.0383495	-1.54012	0.133456	-0.0138058	-3.14313	0.104311	0.238761	0	0	0.202947	0	0	0.155195	0	0	0	0	0	0	0	0.000000000	0	0.788798	-0.788798	0	0.828698	-1.5708	0	0.1	0.1	0.1	0.1	0.1	0.1	0.1	0	0	0	0	0	0	0	0.000000000
1504276073.019505023	-0.148796	-0.0383495	-1.54012	0.128854	-0.0107379	-3.14313	0.101243	0.238761	0	0	0.155195	0.0955044	0	0.107442	0	0	0	0	0	0	0	0.000000000	0	0.788798	-0.788798	0	0.828698	-1.5708	0	0.1	0.1	0.1	0.1	0.1	0.1	0.1	0	0	0	0	0	0	0	0.000000000
1504276073.038907051	-0.14266	-0.0383495	-1.54165	0.122718	-0.0107379	-3.14313	0.101243	0.238761	0	0	0.250699	0.0955044	0	0.107442	0	0	0	0	0	0	0	0.000000000	0	0.788798	-0.788798	0	0.828698	-1.5708	0	0.1	0.1	0.1	0.1	0.1	0.1	0.1	0	0	0	0	0	0	0	0.000000000
1504276073.060674905	-0.14266	-0.0383495	-1.54165	0.122718	-0.0107379	-3.14466	0.0966408	0.238761	0	0	0.250699	0	0	0.107442	0	0	0	0	0	0	0	0.000000000	0	0.788798	-0.788798	0	0.828698	-1.5708	0	0.1	0.1	0.1	0.1	0.1	0.1	0.1	0	0	0	0	0	0	0	0.000000000
