DingWan/Reconbot3Ddemo/02_MATLAB_Code/sensors_data/encoders_data.txt
time_stamp	actual_pos_joint_4	actual_pos_joint_5	actual_pos_joint_3	actual_pos_joint_1	actual_pos_joint_2	actual_pos_joint_6	actual_pos_joint_7	actual_vel_joint_4	actual_vel_joint_5	actual_vel_joint_3	actual_vel_joint_1	actual_vel_joint_2	actual_vel_joint_6	actual_vel_joint_7	actual_acc_joint_4	actual_acc_joint_5	actual_acc_joint_3	actual_acc_joint_1	actual_acc_joint_2	actual_acc_joint_6	actual_acc_joint_7	actual_time_from_start	desired_pos_joint_4	desired_pos_joint_5	desired_pos_joint_3	desired_pos_joint_1	desired_pos_joint_2	desired_pos_joint_6	desired_pos_joint_7	desired_vel_joint_4	desired_vel_joint_5	desired_vel_joint_3	desired_vel_joint_1	desired_vel_joint_2	desired_vel_joint_6	desired_vel_joint_7	desired_acc_joint_4	desired_acc_joint_5	desired_acc_joint_3	desired_acc_joint_1	desired_acc_joint_2	desired_acc_joint_6	desired_acc_joint_7	desired_time_from_start
1504274721.316020011	-0.862097	-0.239301	-1.3499	1.12748	-0.200951	-3.14159	0.612058	0	0	0	0	0	0	0	0	0	0	0	0	0	0	0.000000000	0	0.788798	-0.788798	0	0.828698	-1.5708	0	0.1	0.1	0.1	0.1	0.1	0.1	0.1	0	0	0	0	0	0	0	0.000000000
1504274721.336131095	-0.862097	-0.239301	-1.3499	1.12748	-0.199418	-3.14159	0.612058	0	0	0	0	0	0	0	0	0	0	0	0	0	0	0.000000000	0	0.788798	-0.788798	0	0.828698	-1.5708	0	0.1	0.1	0.1	0.1	0.1	0.1	0.1	0	0	0	0	0	0	0	0.000000000
1504274721.356002092	-0.862097	-0.239301	-1.3499	1.12748	-0.200951	-3.14159	0.612058	0	0	0	0	0	0	0	0	0	0	0	0	0	0	0.000000000	0	0.788798	-0.788798	0	0.828698	-1.5708	0	0.1	0.1	0.1	0.1	0.1	0.1	0.1	0	0	0	0	0	0	0	0.000000000
1504274721.376056909	-0.862097	-0.239301	-1.3499	1.12748	-0.200951	-3.14159	0.612058	0	0	0	0	0	0	0	0	0	0	0	0	0	0	0.000000000	0	0.788798	-0.788798	0	0.828698	-1.5708	0	0.1	0.1	0.1	0.1	0.1	0.1	0.1	0	0	0	0	0	0	0	0.000000000
1504274721.396004915	-0.862097	-0.239301	-1.3499	1.12748	-0.200951	-3.14159	0.612058	0	0	0	0	0	0	0	0	0	0	0	0	0	0	0.000000000	0	0.788798	-0.788798	0	0.828698	-1.5708	0	0.1	0.1	0.1	0.1	0.1	0.1	0.1	0	0	0	0	0	0	0	0.000000000
1504274721.415963888	-0.862097	-0.239301	-1.3499	1.12748	-0.200951	-3.14159	0.612058	0	0	0	0	0	0	0	0	0	0	0	0	0	0	0.000000000	0	0.788798	-0.788798	0	0.828698	-1.5708	0	0.1	0.1	0.1	0.1	0.1	0.1	0.1	0	0	0	0	0	0	0	0.000000000
1504274721.435964107	-0.862097	-0.239301	-1.3499	1.12748	-0.200951	-3.14159	0.612058	0	0	0	0	0	0	0	0	0	0	0	0	0	0	0.000000000	0	0.788798	-0.788798	0	0.828698	-1.5708	0	0.1	0.1	0.1	0.1	0.1	0.1	0.1	0	0	0	0	0	0	0	0.000000000
1504274721.455981969	-0.862097	-0.239301	-1.3499	1.12748	-0.199418	-3.14159	0.612058	0	0	0	0	0	0	0	0	0	0	0	0	0	0	0.000000000	0	0.788798	-0.788798	0	0.828698	-1.5708	0	0.1	0.1	0.1	0.1	0.1	0.1	0.1	0	0	0	0	0	0	0	0.000000000
1504274721.476026058	-0.862097	-0.239301	-1.3499	1.12748	-0.200951	-3.14159	0.612058	0	0	0	0	0	0	0	0	0	0	0	0	0	0	0.000000000	0	0.788798	-0.788798	0	0.828698	-1.5708	0	0.1	0.1	0.1	0.1	0.1	0.1	0.1	0	0	0	0	0	0	0	0.000000000
1504274721.496072053	-0.862097	-0.239301	-1.3499	1.12748	-0.199418	-3.14159	0.612058	0	0	0	0	0	0	0	0	0	0	0	0	0	0	0.000000000	0	0.788798	-0.788798	0	0.828698	-1.5708	0	0.1	0.1	0.1	0.1	0.1	0.1	0.1	0	0	0	0	0	0	0	0.000000000
1504274721.515973091	-0.862097	-0.239301	-1.3499	1.12748	-0.199418	-3.14159	0.612058	0	0	0	0	0	0	0	0	0	0	0	0	0	0	0.000000000	0	0.788798	-0.788798	0	0.828698	-1.5708	0	0.1	0.1	0.1	0.1	0.1	0.1	0.1	0	0	0	0	0	0	0	0.000000000
1504274721.536065101	-0.862097	-0.239301	-1.3499	1.12748	-0.199418	-3.14159	0.612058	0	0	0	0	0	0	0	0	0	0	0	0	0	0	0.000000000	0	0.788798	-0.788798	0	0.828698	-1.5708	0	0.1	0.1	0.1	0.1	0.1	0.1	0.1	0	0	0	0	0	0	0	0.000000000
1504274721.556503057	-0.862097	-0.239301	-1.3499	1.12748	-0.200951	-3.14159	0.612058	0	0	0	0	0	0	0	0	0	0	0	0	0	0	0.000000000	0	0.788798	-0.788798	0	0.828698	-1.5708	0	0.1	0.1	0.1	0.1	0.1	0.1	0.1	0	0	0	0	0	0	0	0.000000000
1504274721.576383113	-0.862097	-0.239301	-1.3499	1.12748	-0.200951	-3.14159	0.612058	0	0	0	0	0	0	0	0	0	0	0	0	0	0	0.000000000	0	0.788798	-0.788798	0	0.828698	-1.5708	0	0.1	0.1	0.1	0.1	0.1	0.1	0.1	0	0	0	0	0	0	0	0.000000000
1504274721.596411943	-0.862097	-0.239301	-1.3499	1.12748	-0.200951	-3.14159	0.612058	0	0	0	0	0	0	0	0	0	0	0	0	0	0	0.000000000	0	0.788798	-0.788798	0	0.828698	-1.5708	0	0.1	0.1	0.1	0.1	0.1	0.1	0.1	0	0	0	0	0	0	0	0.000000000
1504274721.616091966	-0.862097	-0.239301	-1.3499	1.12748	-0.200951	-3.14159	0.612058	0	0	0	0	0	0	0	0	0	0	0	0	0	0	0.000000000	0	0.788798	-0.788798	0	0.828698	-1.5708	0	0.1	0.1	0.1	0.1	0.1	0.1	0.1	0	0	0	0	0	0	0	0.000000000
1504274721.636265039	-0.862097	-0.239301	-1.3499	1.12748	-0.200951	-3.14159	0.612058	0	0	0	0	0	0	0	0	0	0	0	0	0	0	0.000000000	0	0.788798	-0.788798	0	0.828698	-1.5708	0	0.1	0.1	0.1	0.1	0.1	0.1	0.1	0	0	0	0	0	0	0	0.000000000
1504274721.656114101	-0.862097	-0.239301	-1.3499	1.12748	-0.200951	-3.14159	0.612058	0	0	0	0	0	0	0	0	0	0	0	0	0	0	0.000000000	0	0.788798	-0.788798	0	0.828698	-1.5708	0	0.1	0.1	0.1	0.1	0.1	0.1	0.1	0	0	0	0	0	0	0	0.000000000
1504274721.676038026	-0.862097	-0.239301	-1.3499	1.12748	-0.200951	-3.14159	0.612058	0	0	0	0	0	0	0	0	0	0	0	0	0	0	0.000000000	0	0.788798	-0.788798	0	0.828698	-1.5708	0	0.1	0.1	0.1	0.1	0.1	0.1	0.1	0	0	0	0	0	0	0	0.000000000
1504274721.696734905	-0.862097	-0.239301	-1.3499	1.12748	-0.200951	-3.14159	0.612058	0	0	0	0	0	0	0	0	0	0	0	0	0	0	0.000000000	0	0.788798	-0.788798	0	0.828698	-1.5708	0	0.1	0.1	0.1	0.1	0.1	0.1	0.1	0	0	0	0	0	0	0	0.000000000
1504274721.716150999	-0.862097	-0.239301	-1.3499	1.12748	-0.200951	-3.14159	0.612058	0	0	0	0	0	0	0	0	0	0	0	0	0	0	0.000000000	0	0.788798	-0.788798	0	0.828698	-1.5708	0	0.1	0.1	0.1	0.1	0.1	0.1	0.1	0	0	0	0	0	0	0	0.000000000
1504274721.736121892	-0.862097	-0.239301	-1.3499	1.12748	-0.200951	-3.14159	0.612058	0	0	0	0	0	0	0	0	0	0	0	0	0	0	0.000000000	0	0.788798	-0.788798	0	0.828698	-1.5708	0	0.1	0.1	0.1	0.1	0.1	0.1	0.1	0	0	0	0	0	0	0	0.000000000
1504274721.756839990	-0.862097	-0.239301	-1.3499	1.12748	-0.200951	-3.14159	0.612058	0	0	0	0	0	0	0	0	0	0	0	0	0	0	0.000000000	0	0.788798	-0.788798	0	0.828698	-1.5708	0	0.1	0.1	0.1	0.1	0.1	0.1	0.1	0	0	0	0	0	0	0	0.000000000
1504274721.777082920	-0.862097	-0.239301	-1.3499	1.12748	-0.200951	-3.14159	0.612058	0	0	0	0	0	0	0	0	0	0	0	0	0	0	0.000000000	0	0.788798	-0.788798	0	0.828698	-1.5708	0	0.1	0.1	0.1	0.1	0.1	0.1	0.1	0	0	0	0	0	0	0	0.000000000
1504274721.796489000	-0.862097	-0.239301	-1.3499	1.12748	-0.200951	-3.14159	0.612058	0	0	0	0	0	0	0	0	0	0	0	0	0	0	0.000000000	0	0.788798	-0.788798	0	0.828698	-1.5708	0	0.1	0.1	0.1	0.1	0.1	0.1	0.1	0	0	0	0	0	0	0	0.000000000
1504274721.816009998	-0.862097	-0.239301	-1.3499	1.12748	-0.199418	-3.14159	0.612058	0	0	0	0	0	0	0	0	0	0	0	0	0	0	0.000000000	0	0.788798	-0.788798	0	0.828698	-1.5708	0	0.1	0.1	0.1	0.1	0.1	0.1	0.1	0	0	0	0	0	0	0	0.000000000
1504274721.836085081	-0.862097	-0.239301	-1.3499	1.12748	-0.200951	-3.14159	0.612058	0	0	0	0	0	0	0	0	0	0	0	0	0	0	0.000000000	0	0.788798	-0.788798	0	0.828698	-1.5708	0	0.1	0.1	0.1	0.1	0.1	0.1	0.1	0	0	0	0	0	0	0	0.000000000
1504274721.856291055	-0.862097	-0.239301	-1.3499	1.12748	-0.200951	-3.14159	0.612058	0	0	0	0	0	0	0	0	0	0	0	0	0	0	0.000000000	0	0.788798	-0.788798	0	0.828698	-1.5708	0	0.1	0.1	0.1	0.1	0.1	0.1	0.1	0	0	0	0	0	0	0	0.000000000
1504274721.876154899	-0.862097	-0.239301	-1.3499	1.12748	-0.200951	-3.14159	0.612058	0	0	0	0	0	0	0	0	0	0	0	0	0	0	0.000000000	0	0.788798	-0.788798	0	0.828698	-1.5708	0	0.1	0.1	0.1	0.1	0.1	0.1	0.1	0	0	0	0	0	0	0	0.000000000
1504274721.896647930	-0.862097	-0.239301	-1.3499	1.12748	-0.200951	-3.14159	0.612058	0	0	0	0	0	0	0	0	0	0	0	0	0	0	0.000000000	0	0.788798	-0.788798	0	0.828698	-1.5708	0	0.1	0.1	0.1	0.1	0.1	0.1	0.1	0	0	0	0	0	0	0	0.000000000
1504274721.916024923	-0.862097	-0.239301	-1.3499	1.12748	-0.200951	-3.14159	0.612058	0	0	0	0	0	0	0	0	0	0	0	0	0	0	0.000000000	0	0.788798	-0.788798	0	0.828698	-1.5708	0	0.1	0.1	0.1	0.1	0.1	0.1	0.1	0	0	0	0	0	0	0	0.000000000
1504274721.936132907	-0.862097	-0.239301	-1.3499	1.12748	-0.199418	-3.14159	0.612058	0	0	0	0	0	0	0	0	0	0	0	0	0	0	0.000000000	0	0.788798	-0.788798	0	0.828698	-1.5708	0	0.1	0.1	0.1	0.1	0.1	0.1	0.1	0	0	0	0	0	0	0	0.000000000
1504274721.956276893	-0.862097	-0.239301	-1.3499	1.12748	-0.200951	-3.14159	0.612058	0	0	0	0	0	0	0	0	0	0	0	0	0	0	0.000000000	0	0.788798	-0.788798	0	0.828698	-1.5708	0	0.1	0.1	0.1	0.1	0.1	0.1	0.1	0	0	0	0	0	0	0	0.000000000
1504274721.976017951	-0.862097	-0.239301	-1.3499	1.12748	-0.199418	-3.14159	0.612058	0	0	0	0	0	0	0	0	0	0	0	0	0	0	0.000000000	0	0.788798	-0.788798	0	0.828698	-1.5708	0	0.1	0.1	0.1	0.1	0.1	0.1	0.1	0	0	0	0	0	0	0	0.000000000
1504274721.996030092	-0.862097	-0.239301	-1.3499	1.12748	-0.200951	-3.14159	0.612058	0	0	0	0	0	0	0	0	0	0	0	0	0	0	0.000000000	0	0.788798	-0.788798	0	0.828698	-1.5708	0	0.1	0.1	0.1	0.1	0.1	0.1	0.1	0	0	0	0	0	0	0	0.000000000
1504274722.016505002	-0.862097	-0.239301	-1.3499	1.12748	-0.200951	-3.14159	0.612058	0	0	0	0	0	0	0	0	0	0	0	0	0	0	0.000000000	0	0.788798	-0.788798	0	0.828698	-1.5708	0	0.1	0.1	0.1	0.1	0.1	0.1	0.1	0	0	0	0	0	0	0	0.000000000
1504274722.036068916	-0.862097	-0.239301	-1.3499	1.12748	-0.200951	-3.14159	0.610524	0	0	0	0	0	0	0	0	0	0	0	0	0	0	0.000000000	0	0.788798	-0.788798	0	0.828698	-1.5708	0	0.1	0.1	0.1	0.1	0.1	0.1	0.1	0	0	0	0	0	0	0	0.000000000
1504274722.056318998	-0.862097	-0.239301	-1.3499	1.12748	-0.200951	-3.14159	0.612058	0	0	0	0	0	0	0	0	0	0	0	0	0	0	0.000000000	0	0.788798	-0.788798	0	0.828698	-1.5708	0	0.1	0.1	0.1	0.1	0.1	0.1	0.1	0	0	0	0	0	0	0	0.000000000
1504274722.076076030	-0.862097	-0.239301	-1.3499	1.12748	-0.200951	-3.14159	0.612058	0	0	0	0	0	0	0	0	0	0	0	0	0	0	0.000000000	0	0.788798	-0.788798	0	0.828698	-1.5708	0	0.1	0.1	0.1	0.1	0.1	0.1	0.1	0	0	0	0	0	0	0	0.000000000
1504274722.096033096	-0.862097	-0.239301	-1.3499	1.12748	-0.199418	-3.14159	0.612058	0	0	0	0	0	0	0	0	0	0	0	0	0	0	0.000000000	0	0.788798	-0.788798	0	0.828698	-1.5708	0	0.1	0.1	0.1	0.1	0.1	0.1	0.1	0	0	0	0	0	0	0	0.000000000
1504274722.116313934	-0.862097	-0.239301	-1.3499	1.12748	-0.199418	-3.14159	0.612058	0	0	0	0	0	0	0	0	0	0	0	0	0	0	0.000000000	0	0.788798	-0.788798	0	0.828698	-1.5708	0	0.1	0.1	0.1	0.1	0.1	0.1	0.1	0	0	0	0	0	0	0	0.000000000
1504274722.136209011	-0.862097	-0.239301	-1.3499	1.12748	-0.200951	-3.14159	0.612058	0	0	0	0	0	0	0	0	0	0	0	0	0	0	0.000000000	0	0.788798	-0.788798	0	0.828698	-1.5708	0	0.1	0.1	0.1	0.1	0.1	0.1	0.1	0	0	0	0	0	0	0	0.000000000
1504274722.156945943	-0.862097	-0.239301	-1.3499	1.12748	-0.200951	-3.14159	0.612058	0	0	0	0	0	0	0	0	0	0	0	0	0	0	0.000000000	0	0.788798	-0.788798	0	0.828698	-1.5708	0	0.1	0.1	0.1	0.1	0.1	0.1	0.1	0	0	0	0	0	0	0	0.000000000
1504274722.177485942	-0.862097	-0.239301	-1.3499	1.12748	-0.200951	-3.14159	0.612058	0	0	0	0	0	0	0	0	0	0	0	0	0	0	0.000000000	0	0.788798	-0.788798	0	0.828698	-1.5708	0	0.1	0.1	0.1	0.1	0.1	0.1	0.1	0	0	0	0	0	0	0	0.000000000
1504274722.196304082	-0.862097	-0.239301	-1.3499	1.12748	-0.200951	-3.14159	0.612058	0	0	0	0	0	0	0	0	0	0	0	0	0	0	0.000000000	0	0.788798	-0.788798	0	0.828698	-1.5708	0	0.1	0.1	0.1	0.1	0.1	0.1	0.1	0	0	0	0	0	0	0	0.000000000
1504274722.216759920	-0.862097	-0.239301	-1.3499	1.12748	-0.200951	-3.14159	0.612058	0	0	0	0	0	0	0	0	0	0	0	0	0	0	0.000000000	0	0.788798	-0.788798	0	0.828698	-1.5708	0	0.1	0.1	0.1	0.1	0.1	0.1	0.1	0	0	0	0	0	0	0	0.000000000
1504274722.239414930	-0.862097	-0.239301	-1.3499	1.12748	-0.199418	-3.14159	0.612058	0	0	0	0	0	0	0	0	0	0	0	0	0	0	0.000000000	0	0.788798	-0.788798	0	0.828698	-1.5708	0	0.1	0.1	0.1	0.1	0.1	0.1	0.1	0	0	0	0	0	0	0	0.000000000
1504274722.256460905	-0.862097	-0.239301	-1.3499	1.12748	-0.200951	-3.14159	0.612058	0	0	0	0	0	0	0	0	0	0	0	0	0	0	0.000000000	0	0.788798	-0.788798	0	0.828698	-1.5708	0	0.1	0.1	0.1	0.1	0.1	0.1	0.1	0	0	0	0	0	0	0	0.000000000
1504274722.282829999	-0.862097	-0.239301	-1.3499	1.12748	-0.200951	-3.14159	0.612058	0	0	0	0	0	0	0	0	0	0	0	0	0	0	0.000000000	0	0.788798	-0.788798	0	0.828698	-1.5708	0	0.1	0.1	0.1	0.1	0.1	0.1	0.1	0	0	0	0	0	0	0	0.000000000
1504274722.296503067	-0.862097	-0.239301	-1.3499	1.12748	-0.200951	-3.14159	0.612058	0	0	0	0	0	0	0	0	0	0	0	0	0	0	0.000000000	0	0.788798	-0.788798	0	0.828698	-1.5708	0	0.1	0.1	0.1	0.1	0.1	0.1	0.1	0	0	0	0	0	0	0	0.000000000
1504274722.316313982	-0.862097	-0.239301	-1.3499	1.12748	-0.200951	-3.14159	0.612058	0	0	0	0	0	0	0	0	0	0	0	0	0	0	0.000000000	0	0.788798	-0.788798	0	0.828698	-1.5708	0	0.1	0.1	0.1	0.1	0.1	0.1	0.1	0	0	0	0	0	0	0	0.000000000
1504274722.336209058	-0.862097	-0.239301	-1.3499	1.12748	-0.199418	-3.14159	0.612058	0	0	0	0	0	0	0	0	0	0	0	0	0	0	0.000000000	0	0.788798	-0.788798	0	0.828698	-1.5708	0	0.1	0.1	0.1	0.1	0.1	0.1	0.1	0	0	0	0	0	0	0	0.000000000
1504274722.356122016	-0.862097	-0.239301	-1.3499	1.12748	-0.200951	-3.14159	0.612058	0	0	0	0	0	0	0	0	0	0	0	0	0	0	0.000000000	0	0.788798	-0.788798	0	0.828698	-1.5708	0	0.1	0.1	0.1	0.1	0.1	0.1	0.1	0	0	0	0	0	0	0	0.000000000
1504274722.377917051	-0.862097	-0.239301	-1.3499	1.12748	-0.200951	-3.14159	0.612058	0	0	0	0	0	0	0	0	0	0	0	0	0	0	0.000000000	0	0.788798	-0.788798	0	0.828698	-1.5708	0	0.1	0.1	0.1	0.1	0.1	0.1	0.1	0	0	0	0	0	0	0	0.000000000
1504274722.399593114	-0.862097	-0.239301	-1.3499	1.12748	-0.200951	-3.14159	0.612058	0	0	0	0	0	0	0	0	0	0	0	0	0	0	0.000000000	0	0.788798	-0.788798	0	0.828698	-1.5708	0	0.1	0.1	0.1	0.1	0.1	0.1	0.1	0	0	0	0	0	0	0	0.000000000
1504274722.416279077	-0.862097	-0.239301	-1.3499	1.12748	-0.200951	-3.14159	0.612058	0	0	0	0	0	0	0	0	0	0	0	0	0	0	0.000000000	0	0.788798	-0.788798	0	0.828698	-1.5708	0	0.1	0.1	0.1	0.1	0.1	0.1	0.1	0	0	0	0	0	0	0	0.000000000
1504274722.436409950	-0.862097	-0.239301	-1.3499	1.12748	-0.200951	-3.14159	0.612058	0	0	0	0	0	0	0	0	0	0	0	0	0	0	0.000000000	0	0.788798	-0.788798	0	0.828698	-1.5708	0	0.1	0.1	0.1	0.1	0.1	0.1	0.1	0	0	0	0	0	0	0	0.000000000
1504274722.456172943	-0.862097	-0.239301	-1.3499	1.12748	-0.199418	-3.14159	0.610524	0	0	0	0	0	0	0	0	0	0	0	0	0	0	0.000000000	0	0.788798	-0.788798	0	0.828698	-1.5708	0	0.1	0.1	0.1	0.1	0.1	0.1	0.1	0	0	0	0	0	0	0	0.000000000
1504274722.476198911	-0.862097	-0.239301	-1.3499	1.12748	-0.200951	-3.14159	0.612058	0	0	0	0	0	0	0	0	0	0	0	0	0	0	0.000000000	0	0.788798	-0.788798	0	0.828698	-1.5708	0	0.1	0.1	0.1	0.1	0.1	0.1	0.1	0	0	0	0	0	0	0	0.000000000
1504274722.496135950	-0.862097	-0.239301	-1.3499	1.12748	-0.200951	-3.14159	0.612058	0	0	0	0	0	0	0	0	0	0	0	0	0	0	0.000000000	0	0.788798	-0.788798	0	0.828698	-1.5708	0	0.1	0.1	0.1	0.1	0.1	0.1	0.1	0	0	0	0	0	0	0	0.000000000
1504274722.516208887	-0.862097	-0.239301	-1.3499	1.12748	-0.199418	-3.14159	0.612058	0	0	0	0	0	0	0	0	0	0	0	0	0	0	0.000000000	0	0.788798	-0.788798	0	0.828698	-1.5708	0	0.1	0.1	0.1	0.1	0.1	0.1	0.1	0	0	0	0	0	0	0	0.000000000
1504274722.536786079	-0.862097	-0.239301	-1.35144	1.12748	-0.200951	-3.14159	0.612058	0	0	0	0	0	0	0	0	0	0	0	0	0	0	0.000000000	0	0.788798	-0.788798	0	0.828698	-1.5708	0	0.1	0.1	0.1	0.1	0.1	0.1	0.1	0	0	0	0	0	0	0	0.000000000
1504274722.556973934	-0.862097	-0.239301	-1.35144	1.12748	-0.200951	-3.14159	0.612058	0	0	0	0	0	0	0	0	0	0	0	0	0	0	0.000000000	0	0.788798	-0.788798	0	0.828698	-1.5708	0	0.1	0.1	0.1	0.1	0.1	0.1	0.1	0	0	0	0	0	0	0	0.000000000
1504274722.576252937	-0.862097	-0.239301	-1.3499	1.12748	-0.200951	-3.14159	0.612058	0	0	0	0	0	0	0	0	0	0	0	0	0	0	0.000000000	0	0.788798	-0.788798	0	0.828698	-1.5708	0	0.1	0.1	0.1	0.1	0.1	0.1	0.1	0	0	0	0	0	0	0	0.000000000
1504274722.600768089	-0.862097	-0.239301	-1.3499	1.12748	-0.199418	-3.14159	0.612058	0	0	0	0	0	0	0	0	0	0	0	0	0	0	0.000000000	0	0.788798	-0.788798	0	0.828698	-1.5708	0	0.1	0.1	0.1	0.1	0.1	0.1	0.1	0	0	0	0	0	0	0	0.000000000
1504274722.616414070	-0.862097	-0.239301	-1.3499	1.12901	-0.200951	-3.14159	0.612058	0	0	0	0	0	0	0	0	0	0	0	0	0	0	0.000000000	0	0.788798	-0.788798	0	0.828698	-1.5708	0	0.1	0.1	0.1	0.1	0.1	0.1	0.1	0	0	0	0	0	0	0	0.000000000
1504274722.636193990	-0.862097	-0.239301	-1.3499	1.12748	-0.200951	-3.14159	0.612058	0	0	0	0	0	0	0	0	0	0	0	0	0	0	0.000000000	0	0.788798	-0.788798	0	0.828698	-1.5708	0	0.1	0.1	0.1	0.1	0.1	0.1	0.1	0	0	0	0	0	0	0	0.000000000
1504274722.656927108	-0.862097	-0.239301	-1.3499	1.12748	-0.200951	-3.14006	0.612058	0	0	0	0	0	0	0	0	0	0	0	0	0	0	0.000000000	0	0.788798	-0.788798	0	0.828698	-1.5708	0	0.1	0.1	0.1	0.1	0.1	0.1	0.1	0	0	0	0	0	0	0	0.000000000
1504274722.676126003	-0.862097	-0.239301	-1.3499	1.12748	-0.199418	-3.14159	0.612058	0	0	0	0	0	0	0	0	0	0	0	0	0	0	0.000000000	0	0.788798	-0.788798	0	0.828698	-1.5708	0	0.1	0.1	0.1	0.1	0.1	0.1	0.1	0	0	0	0	0	0	0	0.000000000
1504274722.697082996	-0.862097	-0.239301	-1.3499	1.12748	-0.199418	-3.14159	0.612058	0	0	0	0	0	0	0	0	0	0	0	0	0	0	0.000000000	0	0.788798	-0.788798	0	0.828698	-1.5708	0	0.1	0.1	0.1	0.1	0.1	0.1	0.1	0	0	0	0	0	0	0	0.000000000
1504274722.716124057	-0.862097	-0.239301	-1.3499	1.12748	-0.200951	-3.14159	0.612058	0	0	0	0	0	0	0	0	0	0	0	0	0	0	0.000000000	0	0.788798	-0.788798	0	0.828698	-1.5708	0	0.1	0.1	0.1	0.1	0.1	0.1	0.1	0	0	0	0	0	0	0	0.000000000
1504274722.736130952	-0.862097	-0.239301	-1.3499	1.12748	-0.199418	-3.14159	0.612058	0	0	0	0	0	0	0	0	0	0	0	0	0	0	0.000000000	0	0.788798	-0.788798	0	0.828698	-1.5708	0	0.1	0.1	0.1	0.1	0.1	0.1	0.1	0	0	0	0	0	0	0	0.000000000
1504274722.757066965	-0.862097	-0.239301	-1.3499	1.12748	-0.199418	-3.14159	0.612058	0	0	0	0	0	0	0	0	0	0	0	0	0	0	0.000000000	0	0.788798	-0.788798	0	0.828698	-1.5708	0	0.1	0.1	0.1	0.1	0.1	0.1	0.1	0	0	0	0	0	0	0	0.000000000
1504274722.776127099	-0.862097	-0.239301	-1.3499	1.12748	-0.200951	-3.14159	0.612058	0	0	0	0	0	0	0	0	0	0	0	0	0	0	0.000000000	0	0.788798	-0.788798	0	0.828698	-1.5708	0	0.1	0.1	0.1	0.1	0.1	0.1	0.1	0	0	0	0	0	0	0	0.000000000
1504274722.796107053	-0.862097	-0.239301	-1.3499	1.12748	-0.200951	-3.14159	0.612058	0	0	0	0	0	0	0	0	0	0	0	0	0	0	0.000000000	0	0.788798	-0.788798	0	0.828698	-1.5708	0	0.1	0.1	0.1	0.1	0.1	0.1	0.1	0	0	0	0	0	0	0	0.000000000
1504274722.816114902	-0.862097	-0.239301	-1.3499	1.12748	-0.200951	-3.14159	0.612058	0	0	0	0	0	0	0	0	0	0	0	0	0	0	0.000000000	0	0.788798	-0.788798	0	0.828698	-1.5708	0	0.1	0.1	0.1	0.1	0.1	0.1	0.1	0	0	0	0	0	0	0	0.000000000
1504274722.836291074	-0.862097	-0.239301	-1.3499	1.12748	-0.200951	-3.14159	0.612058	0	0	0	0	0	0	0	0	0	0	0	0	0	0	0.000000000	0	0.788798	-0.788798	0	0.828698	-1.5708	0	0.1	0.1	0.1	0.1	0.1	0.1	0.1	0	0	0	0	0	0	0	0.000000000
1504274722.856282949	-0.862097	-0.239301	-1.3499	1.12748	-0.200951	-3.14159	0.612058	0	0	0	0	0	0	0	0	0	0	0	0	0	0	0.000000000	0	0.788798	-0.788798	0	0.828698	-1.5708	0	0.1	0.1	0.1	0.1	0.1	0.1	0.1	0	0	0	0	0	0	0	0.000000000
1504274722.876389026	-0.862097	-0.239301	-1.3499	1.12748	-0.199418	-3.14159	0.612058	0	0	0	0	0	0	0	0	0	0	0	0	0	0	0.000000000	0	0.788798	-0.788798	0	0.828698	-1.5708	0	0.1	0.1	0.1	0.1	0.1	0.1	0.1	0	0	0	0	0	0	0	0.000000000
1504274722.896147966	-0.862097	-0.239301	-1.3499	1.12748	-0.199418	-3.14159	0.612058	0	0	0	0	0	0	0	0	0	0	0	0	0	0	0.000000000	0	0.788798	-0.788798	0	0.828698	-1.5708	0	0.1	0.1	0.1	0.1	0.1	0.1	0.1	0	0	0	0	0	0	0	0.000000000
1504274722.916060924	-0.862097	-0.239301	-1.3499	1.12748	-0.199418	-3.14159	0.612058	0	0	0	0	0	0	0	0	0	0	0	0	0	0	0.000000000	0	0.788798	-0.788798	0	0.828698	-1.5708	0	0.1	0.1	0.1	0.1	0.1	0.1	0.1	0	0	0	0	0	0	0	0.000000000
1504274722.936341047	-0.862097	-0.239301	-1.3499	1.12748	-0.200951	-3.14159	0.612058	0	0	0	0	0	0	0	0	0	0	0	0	0	0	0.000000000	0	0.788798	-0.788798	0	0.828698	-1.5708	0	0.1	0.1	0.1	0.1	0.1	0.1	0.1	0	0	0	0	0	0	0	0.000000000
1504274722.956163883	-0.862097	-0.237767	-1.3499	1.12748	-0.200951	-3.14159	0.612058	0	0	0	0	0	0	0	0	0	0	0	0	0	0	0.000000000	0	0.788798	-0.788798	0	0.828698	-1.5708	0	0.1	0.1	0.1	0.1	0.1	0.1	0.1	0	0	0	0	0	0	0	0.000000000
1504274722.976083993	-0.862097	-0.239301	-1.35144	1.12594	-0.199418	-3.14159	0.612058	0	0	0	0	0	0	0	0	0	0	0	0	0	0	0.000000000	0	0.788798	-0.788798	0	0.828698	-1.5708	0	0.1	0.1	0.1	0.1	0.1	0.1	0.1	0	0	0	0	0	0	0	0.000000000
1504274722.996336936	-0.862097	-0.239301	-1.3499	1.12748	-0.200951	-3.14159	0.612058	0	0	0	0	0	0	0	0	0	0	0	0	0	0	0.000000000	0	0.788798	-0.788798	0	0.828698	-1.5708	0	0.1	0.1	0.1	0.1	0.1	0.1	0.1	0	0	0	0	0	0	0	0.000000000
1504274723.016123056	-0.862097	-0.239301	-1.3499	1.12748	-0.200951	-3.14159	0.612058	0	0	0	0	0	0	0	0	0	0	0	0	0	0	0.000000000	0	0.788798	-0.788798	0	0.828698	-1.5708	0	0.1	0.1	0.1	0.1	0.1	0.1	0.1	0	0	0	0	0	0	0	0.000000000
1504274723.036288022	-0.862097	-0.239301	-1.3499	1.12748	-0.200951	-3.14159	0.612058	0	0	0	0	0	0	0	0	0	0	0	0	0	0	0.000000000	0	0.788798	-0.788798	0	0.828698	-1.5708	0	0.1	0.1	0.1	0.1	0.1	0.1	0.1	0	0	0	0	0	0	0	0.000000000
1504274723.056181907	-0.862097	-0.239301	-1.35144	1.12748	-0.200951	-3.14159	0.612058	0	0	0	0	0	0	0	0	0	0	0	0	0	0	0.000000000	0	0.788798	-0.788798	0	0.828698	-1.5708	0	0.1	0.1	0.1	0.1	0.1	0.1	0.1	0	0	0	0	0	0	0	0.000000000
1504274723.076051950	-0.862097	-0.239301	-1.3499	1.12748	-0.200951	-3.14159	0.612058	0	0	0	0	0	0	0	0	0	0	0	0	0	0	0.000000000	0	0.788798	-0.788798	0	0.828698	-1.5708	0	0.1	0.1	0.1	0.1	0.1	0.1	0.1	0	0	0	0	0	0	0	0.000000000
1504274723.096200942	-0.862097	-0.239301	-1.3499	1.12748	-0.200951	-3.14159	0.612058	0	0	0	0	0	0	0	0	0	0	0	0	0	0	0.000000000	0	0.788798	-0.788798	0	0.828698	-1.5708	0	0.1	0.1	0.1	0.1	0.1	0.1	0.1	0	0	0	0	0	0	0	0.000000000
1504274723.116189002	-0.862097	-0.239301	-1.3499	1.12748	-0.200951	-3.14159	0.612058	0	0	0	0	0	0	0	0	0	0	0	0	0	0	0.000000000	0	0.788798	-0.788798	0	0.828698	-1.5708	0	0.1	0.1	0.1	0.1	0.1	0.1	0.1	0	0	0	0	0	0	0	0.000000000
1504274723.136323928	-0.862097	-0.239301	-1.35144	1.12594	-0.200951	-3.14159	0.612058	0	0	0	0	0	0	0	0	0	0	0	0	0	0	0.000000000	0	0.788798	-0.788798	0	0.828698	-1.5708	0	0.1	0.1	0.1	0.1	0.1	0.1	0.1	0	0	0	0	0	0	0	0.000000000
1504274723.156987905	-0.862097	-0.239301	-1.3499	1.12748	-0.199418	-3.14159	0.612058	0	0	0	0	0	0	0	0	0	0	0	0	0	0	0.000000000	0	0.788798	-0.788798	0	0.828698	-1.5708	0	0.1	0.1	0.1	0.1	0.1	0.1	0.1	0	0	0	0	0	0	0	0.000000000
1504274723.176440000	-0.862097	-0.239301	-1.3499	1.12748	-0.199418	-3.14159	0.612058	0	0	0	0	0	0	0	0	0	0	0	0	0	0	0.000000000	0	0.788798	-0.788798	0	0.828698	-1.5708	0	0.1	0.1	0.1	0.1	0.1	0.1	0.1	0	0	0	0	0	0	0	0.000000000
1504274723.196121931	-0.862097	-0.239301	-1.3499	1.12748	-0.200951	-3.14159	0.612058	0	0	0	0	0	0	0	0	0	0	0	0	0	0	0.000000000	0	0.788798	-0.788798	0	0.828698	-1.5708	0	0.1	0.1	0.1	0.1	0.1	0.1	0.1	0	0	0	0	0	0	0	0.000000000
1504274723.216161966	-0.862097	-0.239301	-1.3499	1.12748	-0.200951	-3.14159	0.612058	0	0	0	0	0	0	0	0	0	0	0	0	0	0	0.000000000	0	0.788798	-0.788798	0	0.828698	-1.5708	0	0.1	0.1	0.1	0.1	0.1	0.1	0.1	0	0	0	0	0	0	0	0.000000000
1504274723.236126899	-0.862097	-0.239301	-1.3499	1.12748	-0.199418	-3.14159	0.612058	0	0	0	0	0	0	0	0	0	0	0	0	0	0	0.000000000	0	0.788798	-0.788798	0	0.828698	-1.5708	0	0.1	0.1	0.1	0.1	0.1	0.1	0.1	0	0	0	0	0	0	0	0.000000000
1504274723.256438016	-0.862097	-0.239301	-1.3499	1.12748	-0.200951	-3.14159	0.612058	0	0	0	0	0	0	0	0	0	0	0	0	0	0	0.000000000	0	0.788798	-0.788798	0	0.828698	-1.5708	0	0.1	0.1	0.1	0.1	0.1	0.1	0.1	0	0	0	0	0	0	0	0.000000000
1504274723.276063919	-0.862097	-0.239301	-1.3499	1.12748	-0.200951	-3.14159	0.612058	0	0	0	0	0	0	0	0	0	0	0	0	0	0	0.000000000	0	0.788798	-0.788798	0	0.828698	-1.5708	0	0.1	0.1	0.1	0.1	0.1	0.1	0.1	0	0	0	0	0	0	0	0.000000000
1504274723.296186923	-0.862097	-0.239301	-1.3499	1.12748	-0.200951	-3.14159	0.612058	0	0	0	0	0	0	0	0	0	0	0	0	0	0	0.000000000	0	0.788798	-0.788798	0	0.828698	-1.5708	0	0.1	0.1	0.1	0.1	0.1	0.1	0.1	0	0	0	0	0	0	0	0.000000000
1504274723.316068887	-0.862097	-0.239301	-1.3499	1.12748	-0.200951	-3.14159	0.612058	0	0	0	0	0	0	0	0	0	0	0	0	0	0	0.000000000	0	0.788798	-0.788798	0	0.828698	-1.5708	0	0.1	0.1	0.1	0.1	0.1	0.1	0.1	0	0	0	0	0	0	0	0.000000000
1504274723.336172103	-0.862097	-0.239301	-1.35144	1.12748	-0.199418	-3.14159	0.612058	0	0	0	0	0	0	0	0	0	0	0	0	0	0	0.000000000	0	0.788798	-0.788798	0	0.828698	-1.5708	0	0.1	0.1	0.1	0.1	0.1	0.1	0.1	0	0	0	0	0	0	0	0.000000000
1504274723.356092929	-0.862097	-0.239301	-1.3499	1.12748	-0.200951	-3.14159	0.612058	0	0	0	0	0	0	0	0	0	0	0	0	0	0	0.000000000	0	0.788798	-0.788798	0	0.828698	-1.5708	0	0.1	0.1	0.1	0.1	0.1	0.1	0.1	0	0	0	0	0	0	0	0.000000000
1504274723.376079082	-0.862097	-0.239301	-1.3499	1.12748	-0.200951	-3.14159	0.612058	0	0	0	0	0	0	0	0	0	0	0	0	0	0	0.000000000	0	0.788798	-0.788798	0	0.828698	-1.5708	0	0.1	0.1	0.1	0.1	0.1	0.1	0.1	0	0	0	0	0	0	0	0.000000000
1504274723.396189928	-0.862097	-0.239301	-1.3499	1.12748	-0.200951	-3.14159	0.612058	0	0	0	0	0	0	0	0	0	0	0	0	0	0	0.000000000	0	0.788798	-0.788798	0	0.828698	-1.5708	0	0.1	0.1	0.1	0.1	0.1	0.1	0.1	0	0	0	0	0	0	0	0.000000000
1504274723.416256904	-0.862097	-0.239301	-1.3499	1.12748	-0.200951	-3.14159	0.612058	0	0	0	0	0	0	0	0	0	0	0	0	0	0	0.000000000	0	0.788798	-0.788798	0	0.828698	-1.5708	0	0.1	0.1	0.1	0.1	0.1	0.1	0.1	0	0	0	0	0	0	0	0.000000000
1504274723.436155080	-0.862097	-0.239301	-1.3499	1.12748	-0.199418	-3.14159	0.612058	0	0	0	0	0	0	0	0	0	0	0	0	0	0	0.000000000	0	0.788798	-0.788798	0	0.828698	-1.5708	0	0.1	0.1	0.1	0.1	0.1	0.1	0.1	0	0	0	0	0	0	0	0.000000000
1504274723.456199884	-0.862097	-0.239301	-1.35144	1.12748	-0.200951	-3.14159	0.612058	0	0	0	0	0	0	0	0	0	0	0	0	0	0	0.000000000	0	0.788798	-0.788798	0	0.828698	-1.5708	0	0.1	0.1	0.1	0.1	0.1	0.1	0.1	0	0	0	0	0	0	0	0.000000000
1504274723.476128101	-0.862097	-0.239301	-1.3499	1.12748	-0.200951	-3.14159	0.612058	0	0	0	0	0	0	0	0	0	0	0	0	0	0	0.000000000	0	0.788798	-0.788798	0	0.828698	-1.5708	0	0.1	0.1	0.1	0.1	0.1	0.1	0.1	0	0	0	0	0	0	0	0.000000000
1504274723.496243953	-0.862097	-0.239301	-1.3499	1.12748	-0.199418	-3.14159	0.612058	0	0	0	0	0	0	0	0	0	0	0	0	0	0	0.000000000	0	0.788798	-0.788798	0	0.828698	-1.5708	0	0.1	0.1	0.1	0.1	0.1	0.1	0.1	0	0	0	0	0	0	0	0.000000000
1504274723.516213893	-0.862097	-0.239301	-1.3499	1.12748	-0.199418	-3.14159	0.612058	0	0	0	0	0	0	0	0	0	0	0	0	0	0	0.000000000	0	0.788798	-0.788798	0	0.828698	-1.5708	0	0.1	0.1	0.1	0.1	0.1	0.1	0.1	0	0	0	0	0	0	0	0.000000000
1504274723.537306070	-0.862097	-0.239301	-1.3499	1.12748	-0.200951	-3.14159	0.612058	0	0	0	0	0	0	0	0	0	0	0	0	0	0	0.000000000	0	0.788798	-0.788798	0	0.828698	-1.5708	0	0.1	0.1	0.1	0.1	0.1	0.1	0.1	0	0	0	0	0	0	0	0.000000000
1504274723.556267976	-0.862097	-0.239301	-1.3499	1.12748	-0.200951	-3.14159	0.612058	0	0	0	0	0	0	0	0	0	0	0	0	0	0	0.000000000	0	0.788798	-0.788798	0	0.828698	-1.5708	0	0.1	0.1	0.1	0.1	0.1	0.1	0.1	0	0	0	0	0	0	0	0.000000000
1504274723.576090097	-0.862097	-0.239301	-1.3499	1.12748	-0.200951	-3.14159	0.612058	0	0	0	0	0	0	0	0	0	0	0	0	0	0	0.000000000	0	0.788798	-0.788798	0	0.828698	-1.5708	0	0.1	0.1	0.1	0.1	0.1	0.1	0.1	0	0	0	0	0	0	0	0.000000000
1504274723.596343994	-0.862097	-0.239301	-1.3499	1.12748	-0.200951	-3.14159	0.612058	0	0	0	0	0	0	0	0	0	0	0	0	0	0	0.000000000	0	0.788798	-0.788798	0	0.828698	-1.5708	0	0.1	0.1	0.1	0.1	0.1	0.1	0.1	0	0	0	0	0	0	0	0.000000000
1504274723.616485118	-0.862097	-0.239301	-1.3499	1.12748	-0.199418	-3.14159	0.612058	0	0	0	0	0	0	0	0	0	0	0	0	0	0	0.000000000	0	0.788798	-0.788798	0	0.828698	-1.5708	0	0.1	0.1	0.1	0.1	0.1	0.1	0.1	0	0	0	0	0	0	0	0.000000000
1504274723.636101961	-0.862097	-0.239301	-1.3499	1.12748	-0.200951	-3.14159	0.612058	0	0	0	0	0	0	0	0	0	0	0	0	0	0	0.000000000	0	0.788798	-0.788798	0	0.828698	-1.5708	0	0.1	0.1	0.1	0.1	0.1	0.1	0.1	0	0	0	0	0	0	0	0.000000000
1504274723.656196117	-0.862097	-0.239301	-1.3499	1.12748	-0.200951	-3.14159	0.612058	0	0	0	0	0	0	0	0	0	0	0	0	0	0	0.000000000	0	0.788798	-0.788798	0	0.828698	-1.5708	0	0.1	0.1	0.1	0.1	0.1	0.1	0.1	0	0	0	0	0	0	0	0.000000000
1504274723.678097009	-0.862097	-0.239301	-1.3499	1.12748	-0.199418	-3.14159	0.612058	0	0	0	0	0	0	0	0	0	0	0	0	0	0	0.000000000	0	0.788798	-0.788798	0	0.828698	-1.5708	0	0.1	0.1	0.1	0.1	0.1	0.1	0.1	0	0	0	0	0	0	0	0.000000000
1504274723.696512937	-0.862097	-0.239301	-1.3499	1.12748	-0.199418	-3.14159	0.612058	0	0	0	0	0	0	0	0	0	0	0	0	0	0	0.000000000	0	0.788798	-0.788798	0	0.828698	-1.5708	0	0.1	0.1	0.1	0.1	0.1	0.1	0.1	0	0	0	0	0	0	0	0.000000000
1504274723.716722011	-0.862097	-0.239301	-1.3499	1.12748	-0.200951	-3.14159	0.612058	0	0	0	0	0	0	0	0	0	0	0	0	0	0	0.000000000	0	0.788798	-0.788798	0	0.828698	-1.5708	0	0.1	0.1	0.1	0.1	0.1	0.1	0.1	0	0	0	0	0	0	0	0.000000000
1504274723.737076997	-0.862097	-0.239301	-1.3499	1.12748	-0.199418	-3.14159	0.612058	0	0	0	0	0	0	0	0	0	0	0	0	0	0	0.000000000	0	0.788798	-0.788798	0	0.828698	-1.5708	0	0.1	0.1	0.1	0.1	0.1	0.1	0.1	0	0	0	0	0	0	0	0.000000000
1504274723.756495952	-0.862097	-0.239301	-1.3499	1.12748	-0.199418	-3.14159	0.612058	0	0	0	0	0	0	0	0	0	0	0	0	0	0	0.000000000	0	0.788798	-0.788798	0	0.828698	-1.5708	0	0.1	0.1	0.1	0.1	0.1	0.1	0.1	0	0	0	0	0	0	0	0.000000000
1504274723.776119947	-0.862097	-0.239301	-1.3499	1.12748	-0.200951	-3.14159	0.612058	0	0	0	0	0	0	0	0	0	0	0	0	0	0	0.000000000	0	0.788798	-0.788798	0	0.828698	-1.5708	0	0.1	0.1	0.1	0.1	0.1	0.1	0.1	0	0	0	0	0	0	0	0.000000000
1504274723.796173095	-0.862097	-0.239301	-1.3499	1.12748	-0.200951	-3.14159	0.612058	0	0	0	0	0	0	0	0	0	0	0	0	0	0	0.000000000	0	0.788798	-0.788798	0	0.828698	-1.5708	0	0.1	0.1	0.1	0.1	0.1	0.1	0.1	0	0	0	0	0	0	0	0.000000000
1504274723.816102981	-0.862097	-0.239301	-1.3499	1.12748	-0.200951	-3.14159	0.612058	0	0	0	0	0	0	0	0	0	0	0	0	0	0	0.000000000	0	0.788798	-0.788798	0	0.828698	-1.5708	0	0.1	0.1	0.1	0.1	0.1	0.1	0.1	0	0	0	0	0	0	0	0.000000000
1504274723.836163997	-0.862097	-0.239301	-1.3499	1.12748	-0.200951	-3.14159	0.612058	0	0	0	0	0	0	0	0	0	0	0	0	0	0	0.000000000	0	0.788798	-0.788798	0	0.828698	-1.5708	0	0.1	0.1	0.1	0.1	0.1	0.1	0.1	0	0	0	0	0	0	0	0.000000000
1504274723.856317043	-0.862097	-0.239301	-1.3499	1.12748	-0.200951	-3.14159	0.612058	0	0	0	0	0	0	0	0	0	0	0	0	0	0	0.000000000	0	0.788798	-0.788798	0	0.828698	-1.5708	0	0.1	0.1	0.1	0.1	0.1	0.1	0.1	0	0	0	0	0	0	0	0.000000000
1504274723.877080917	-0.862097	-0.239301	-1.3499	1.12748	-0.200951	-3.14159	0.612058	0	0	0	0	0	0	0	0	0	0	0	0	0	0	0.000000000	0	0.788798	-0.788798	0	0.828698	-1.5708	0	0.1	0.1	0.1	0.1	0.1	0.1	0.1	0	0	0	0	0	0	0	0.000000000
1504274723.896198034	-0.862097	-0.239301	-1.3499	1.12748	-0.200951	-3.14159	0.612058	0	0	0	0	0	0	0	0	0	0	0	0	0	0	0.000000000	0	0.788798	-0.788798	0	0.828698	-1.5708	0	0.1	0.1	0.1	0.1	0.1	0.1	0.1	0	0	0	0	0	0	0	0.000000000
1504274723.916479110	-0.862097	-0.239301	-1.3499	1.12748	-0.200951	-3.14159	0.612058	0	0	0	0	0	0	0	0	0	0	0	0	0	0	0.000000000	0	0.788798	-0.788798	0	0.828698	-1.5708	0	0.1	0.1	0.1	0.1	0.1	0.1	0.1	0	0	0	0	0	0	0	0.000000000
1504274723.936280965	-0.862097	-0.239301	-1.3499	1.12748	-0.199418	-3.14159	0.612058	0	0	0	0	0	0	0	0	0	0	0	0	0	0	0.000000000	0	0.788798	-0.788798	0	0.828698	-1.5708	0	0.1	0.1	0.1	0.1	0.1	0.1	0.1	0	0	0	0	0	0	0	0.000000000
1504274723.956193923	-0.862097	-0.239301	-1.3499	1.12748	-0.200951	-3.14159	0.610524	0	0	0	0	0	0	0	0	0	0	0	0	0	0	0.000000000	0	0.788798	-0.788798	0	0.828698	-1.5708	0	0.1	0.1	0.1	0.1	0.1	0.1	0.1	0	0	0	0	0	0	0	0.000000000
1504274723.977952957	-0.862097	-0.239301	-1.3499	1.12748	-0.200951	-3.14159	0.610524	0	0	0	0	0	0	0	0	0	0	0	0	0	0	0.000000000	0	0.788798	-0.788798	0	0.828698	-1.5708	0	0.1	0.1	0.1	0.1	0.1	0.1	0.1	0	0	0	0	0	0	0	0.000000000
1504274723.996103048	-0.862097	-0.239301	-1.3499	1.12748	-0.200951	-3.14159	0.612058	0	0	0	0	0	0	0	0	0	0	0	0	0	0	0.000000000	0	0.788798	-0.788798	0	0.828698	-1.5708	0	0.1	0.1	0.1	0.1	0.1	0.1	0.1	0	0	0	0	0	0	0	0.000000000
1504274724.017707109	-0.862097	-0.239301	-1.3499	1.12748	-0.200951	-3.14159	0.612058	0	0	0	0	0	0	0	0	0	0	0	0	0	0	0.000000000	0	0.788798	-0.788798	0	0.828698	-1.5708	0	0.1	0.1	0.1	0.1	0.1	0.1	0.1	0	0	0	0	0	0	0	0.000000000
1504274724.039891004	-0.862097	-0.239301	-1.3499	1.12748	-0.199418	-3.14159	0.612058	0	0	0	0	0	0	0	0	0	0	0	0	0	0	0.000000000	0	0.788798	-0.788798	0	0.828698	-1.5708	0	0.1	0.1	0.1	0.1	0.1	0.1	0.1	0	0	0	0	0	0	0	0.000000000
1504274724.058317899	-0.862097	-0.239301	-1.3499	1.12748	-0.199418	-3.14159	0.612058	0	0	0	0	0	0	0	0	0	0	0	0	0	0	0.000000000	0	0.788798	-0.788798	0	0.828698	-1.5708	0	0.1	0.1	0.1	0.1	0.1	0.1	0.1	0	0	0	0	0	0	0	0.000000000
1504274724.081475973	-0.862097	-0.239301	-1.3499	1.12748	-0.200951	-3.14159	0.612058	0	0	0	0	0	0	0	0	0	0	0	0	0	0	0.000000000	0	0.788798	-0.788798	0	0.828698	-1.5708	0	0.1	0.1	0.1	0.1	0.1	0.1	0.1	0	0	0	0	0	0	0	0.000000000
1504274724.096215009	-0.862097	-0.239301	-1.3499	1.12748	-0.200951	-3.14159	0.612058	0	0	0	0	0	0	0	0	0	0	0	0	0	0	0.000000000	0	0.788798	-0.788798	0	0.828698	-1.5708	0	0.1	0.1	0.1	0.1	0.1	0.1	0.1	0	0	0	0	0	0	0	0.000000000
1504274724.116502046	-0.862097	-0.239301	-1.3499	1.12748	-0.199418	-3.14159	0.612058	0	0	0	0	0	0	0	0	0	0	0	0	0	0	0.000000000	0	0.788798	-0.788798	0	0.828698	-1.5708	0	0.1	0.1	0.1	0.1	0.1	0.1	0.1	0	0	0	0	0	0	0	0.000000000
1504274724.136111974	-0.862097	-0.239301	-1.3499	1.12748	-0.200951	-3.14159	0.612058	0	0	0	0	0	0	0	0	0	0	0	0	0	0	0.000000000	0	0.788798	-0.788798	0	0.828698	-1.5708	0	0.1	0.1	0.1	0.1	0.1	0.1	0.1	0	0	0	0	0	0	0	0.000000000
1504274724.156193017	-0.862097	-0.239301	-1.3499	1.12748	-0.199418	-3.14159	0.612058	0	0	0	0	0	0	0	0	0	0	0	0	0	0	0.000000000	0	0.788798	-0.788798	0	0.828698	-1.5708	0	0.1	0.1	0.1	0.1	0.1	0.1	0.1	0	0	0	0	0	0	0	0.000000000
1504274724.176105022	-0.862097	-0.239301	-1.3499	1.12748	-0.199418	-3.14159	0.612058	0	0	0	0	0	0	0	0	0	0	0	0	0	0	0.000000000	0	0.788798	-0.788798	0	0.828698	-1.5708	0	0.1	0.1	0.1	0.1	0.1	0.1	0.1	0	0	0	0	0	0	0	0.000000000
1504274724.196527957	-0.862097	-0.239301	-1.3499	1.12748	-0.200951	-3.14159	0.612058	0	0	0	0	0	0	0	0	0	0	0	0	0	0	0.000000000	0	0.788798	-0.788798	0	0.828698	-1.5708	0	0.1	0.1	0.1	0.1	0.1	0.1	0.1	0	0	0	0	0	0	0	0.000000000
1504274724.216239929	-0.862097	-0.239301	-1.3499	1.12748	-0.200951	-3.14159	0.612058	0	0	0	0	0	0	0	0	0	0	0	0	0	0	0.000000000	0	0.788798	-0.788798	0	0.828698	-1.5708	0	0.1	0.1	0.1	0.1	0.1	0.1	0.1	0	0	0	0	0	0	0	0.000000000
1504274724.236284971	-0.862097	-0.239301	-1.3499	1.12748	-0.200951	-3.14159	0.612058	0	0	0	0	0	0	0	0	0	0	0	0	0	0	0.000000000	0	0.788798	-0.788798	0	0.828698	-1.5708	0	0.1	0.1	0.1	0.1	0.1	0.1	0.1	0	0	0	0	0	0	0	0.000000000
1504274724.256251096	-0.862097	-0.239301	-1.3499	1.12748	-0.200951	-3.14159	0.612058	0	0	0	0	0	0	0	0	0	0	0	0	0	0	0.000000000	0	0.788798	-0.788798	0	0.828698	-1.5708	0	0.1	0.1	0.1	0.1	0.1	0.1	0.1	0	0	0	0	0	0	0	0.000000000
1504274724.280546903	-0.862097	-0.239301	-1.3499	1.12748	-0.200951	-3.14159	0.612058	0	0	0	0	0	0	0	0	0	0	0	0	0	0	0.000000000	0	0.788798	-0.788798	0	0.828698	-1.5708	0	0.1	0.1	0.1	0.1	0.1	0.1	0.1	0	0	0	0	0	0	0	0.000000000
1504274724.296241998	-0.862097	-0.239301	-1.3499	1.12748	-0.200951	-3.14159	0.612058	0	0	0	0	0	0	0	0	0	0	0	0	0	0	0.000000000	0	0.788798	-0.788798	0	0.828698	-1.5708	0	0.1	0.1	0.1	0.1	0.1	0.1	0.1	0	0	0	0	0	0	0	0.000000000
1504274724.316426038	-0.862097	-0.239301	-1.3499	1.12594	-0.199418	-3.14159	0.612058	0	0	0	0	0	0	0	0	0	0	0	0	0	0	0.000000000	0	0.788798	-0.788798	0	0.828698	-1.5708	0	0.1	0.1	0.1	0.1	0.1	0.1	0.1	0	0	0	0	0	0	0	0.000000000
1504274724.336604118	-0.862097	-0.239301	-1.3499	1.12748	-0.199418	-3.14159	0.612058	0	0	0	0	0	0	0	0	0	0	0	0	0	0	0.000000000	0	0.788798	-0.788798	0	0.828698	-1.5708	0	0.1	0.1	0.1	0.1	0.1	0.1	0.1	0	0	0	0	0	0	0	0.000000000
1504274724.356509923	-0.862097	-0.239301	-1.3499	1.12748	-0.199418	-3.14159	0.612058	0	0	0	0	0	0	0	0	0	0	0	0	0	0	0.000000000	0	0.788798	-0.788798	0	0.828698	-1.5708	0	0.1	0.1	0.1	0.1	0.1	0.1	0.1	0	0	0	0	0	0	0	0.000000000
1504274724.376321077	-0.862097	-0.239301	-1.3499	1.12748	-0.199418	-3.14159	0.612058	0	0	0	0	0	0	0	0	0	0	0	0	0	0	0.000000000	0	0.788798	-0.788798	0	0.828698	-1.5708	0	0.1	0.1	0.1	0.1	0.1	0.1	0.1	0	0	0	0	0	0	0	0.000000000
1504274724.396512985	-0.862097	-0.239301	-1.3499	1.12748	-0.200951	-3.14159	0.612058	0	0	0	0	0	0	0	0	0	0	0	0	0	0	0.000000000	0	0.788798	-0.788798	0	0.828698	-1.5708	0	0.1	0.1	0.1	0.1	0.1	0.1	0.1	0	0	0	0	0	0	0	0.000000000
1504274724.416161060	-0.862097	-0.239301	-1.3499	1.12748	-0.200951	-3.14159	0.612058	0	0	0	0	0	0	0	0	0	0	0	0	0	0	0.000000000	0	0.788798	-0.788798	0	0.828698	-1.5708	0	0.1	0.1	0.1	0.1	0.1	0.1	0.1	0	0	0	0	0	0	0	0.000000000
1504274724.436103105	-0.862097	-0.239301	-1.3499	1.12748	-0.200951	-3.14159	0.612058	0	0	0	0	0	0	0	0	0	0	0	0	0	0	0.000000000	0	0.788798	-0.788798	0	0.828698	-1.5708	0	0.1	0.1	0.1	0.1	0.1	0.1	0.1	0	0	0	0	0	0	0	0.000000000
1504274724.456257104	-0.862097	-0.239301	-1.3499	1.12748	-0.199418	-3.14159	0.612058	0	0	0	0	0	0	0	0	0	0	0	0	0	0	0.000000000	0	0.788798	-0.788798	0	0.828698	-1.5708	0	0.1	0.1	0.1	0.1	0.1	0.1	0.1	0	0	0	0	0	0	0	0.000000000
1504274724.476397037	-0.862097	-0.239301	-1.3499	1.12748	-0.200951	-3.14159	0.612058	0	0	0	0	0	0	0	0	0	0	0	0	0	0	0.000000000	0	0.788798	-0.788798	0	0.828698	-1.5708	0	0.1	0.1	0.1	0.1	0.1	0.1	0.1	0	0	0	0	0	0	0	0.000000000
1504274724.496234893	-0.862097	-0.239301	-1.3499	1.12748	-0.200951	-3.14159	0.612058	0	0	0	0	0	0	0	0	0	0	0	0	0	0	0.000000000	0	0.788798	-0.788798	0	0.828698	-1.5708	0	0.1	0.1	0.1	0.1	0.1	0.1	0.1	0	0	0	0	0	0	0	0.000000000
1504274724.516078948	-0.862097	-0.239301	-1.3499	1.12748	-0.200951	-3.14159	0.612058	0	0	0	0	0	0	0	0	0	0	0	0	0	0	0.000000000	0	0.788798	-0.788798	0	0.828698	-1.5708	0	0.1	0.1	0.1	0.1	0.1	0.1	0.1	0	0	0	0	0	0	0	0.000000000
1504274724.536183118	-0.862097	-0.239301	-1.3499	1.12748	-0.200951	-3.14159	0.612058	0	0	0	0	0	0	0	0	0	0	0	0	0	0	0.000000000	0	0.788798	-0.788798	0	0.828698	-1.5708	0	0.1	0.1	0.1	0.1	0.1	0.1	0.1	0	0	0	0	0	0	0	0.000000000
1504274724.556082010	-0.862097	-0.239301	-1.3499	1.12748	-0.199418	-3.14159	0.612058	0	0	0	0	0	0	0	0	0	0	0	0	0	0	0.000000000	0	0.788798	-0.788798	0	0.828698	-1.5708	0	0.1	0.1	0.1	0.1	0.1	0.1	0.1	0	0	0	0	0	0	0	0.000000000
1504274724.576050996	-0.862097	-0.239301	-1.3499	1.12748	-0.199418	-3.14159	0.612058	0	0	0	0	0	0	0	0	0	0	0	0	0	0	0.000000000	0	0.788798	-0.788798	0	0.828698	-1.5708	0	0.1	0.1	0.1	0.1	0.1	0.1	0.1	0	0	0	0	0	0	0	0.000000000
1504274724.596793889	-0.862097	-0.239301	-1.3499	1.12748	-0.199418	-3.14159	0.612058	0	0	0	0	0	0	0	0	0	0	0	0	0	0	0.000000000	0	0.788798	-0.788798	0	0.828698	-1.5708	0	0.1	0.1	0.1	0.1	0.1	0.1	0.1	0	0	0	0	0	0	0	0.000000000
1504274724.616106986	-0.862097	-0.239301	-1.3499	1.12748	-0.199418	-3.14159	0.612058	0	0	0	0	0	0	0	0	0	0	0	0	0	0	0.000000000	0	0.788798	-0.788798	0	0.828698	-1.5708	0	0.1	0.1	0.1	0.1	0.1	0.1	0.1	0	0	0	0	0	0	0	0.000000000
1504274724.636178016	-0.862097	-0.237767	-1.3499	1.12748	-0.200951	-3.14159	0.610524	0	0	0	0	0	0	0	0	0	0	0	0	0	0	0.000000000	0	0.788798	-0.788798	0	0.828698	-1.5708	0	0.1	0.1	0.1	0.1	0.1	0.1	0.1	0	0	0	0	0	0	0	0.000000000
1504274724.656352996	-0.862097	-0.239301	-1.35144	1.12748	-0.199418	-3.14159	0.612058	0	0	0	0	0	0	0	0	0	0	0	0	0	0	0.000000000	0	0.788798	-0.788798	0	0.828698	-1.5708	0	0.1	0.1	0.1	0.1	0.1	0.1	0.1	0	0	0	0	0	0	0	0.000000000
1504274724.676099061	-0.862097	-0.239301	-1.3499	1.12748	-0.200951	-3.14159	0.612058	0	0	0	0	0	0	0	0	0	0	0	0	0	0	0.000000000	0	0.788798	-0.788798	0	0.828698	-1.5708	0	0.1	0.1	0.1	0.1	0.1	0.1	0.1	0	0	0	0	0	0	0	0.000000000
1504274724.696248054	-0.862097	-0.239301	-1.3499	1.12748	-0.199418	-3.14159	0.612058	0	0	0	0	0	0	0	0	0	0	0	0	0	0	0.000000000	0	0.788798	-0.788798	0	0.828698	-1.5708	0	0.1	0.1	0.1	0.1	0.1	0.1	0.1	0	0	0	0	0	0	0	0.000000000
1504274724.716100931	-0.862097	-0.239301	-1.3499	1.12748	-0.199418	-3.14159	0.612058	0	0	0	0	0	0	0	0	0	0	0	0	0	0	0.000000000	0	0.788798	-0.788798	0	0.828698	-1.5708	0	0.1	0.1	0.1	0.1	0.1	0.1	0.1	0	0	0	0	0	0	0	0.000000000
1504274724.736133098	-0.862097	-0.239301	-1.3499	1.12748	-0.200951	-3.14159	0.612058	0	0	0	0	0	0	0	0	0	0	0	0	0	0	0.000000000	0	0.788798	-0.788798	0	0.828698	-1.5708	0	0.1	0.1	0.1	0.1	0.1	0.1	0.1	0	0	0	0	0	0	0	0.000000000
1504274724.756064891	-0.862097	-0.239301	-1.3499	1.12748	-0.200951	-3.14159	0.612058	0	0	0	0	0	0	0	0	0	0	0	0	0	0	0.000000000	0	0.788798	-0.788798	0	0.828698	-1.5708	0	0.1	0.1	0.1	0.1	0.1	0.1	0.1	0	0	0	0	0	0	0	0.000000000
1504274724.776174068	-0.862097	-0.239301	-1.3499	1.12748	-0.200951	-3.14159	0.612058	0	0	0	0	0	0	0	0	0	0	0	0	0	0	0.000000000	0	0.788798	-0.788798	0	0.828698	-1.5708	0	0.1	0.1	0.1	0.1	0.1	0.1	0.1	0	0	0	0	0	0	0	0.000000000
1504274724.796089887	-0.860563	-0.239301	-1.3499	1.12748	-0.199418	-3.14159	0.612058	0	0	0	0	0	0	0	0	0	0	0	0	0	0	0.000000000	0	0.788798	-0.788798	0	0.828698	-1.5708	0	0.1	0.1	0.1	0.1	0.1	0.1	0.1	0	0	0	0	0	0	0	0.000000000
1504274724.816205978	-0.860563	-0.239301	-1.3499	1.12748	-0.199418	-3.14159	0.612058	0	0	0	0	0	0	0	0	0	0	0	0	0	0	0.000000000	0	0.788798	-0.788798	0	0.828698	-1.5708	0	0.1	0.1	0.1	0.1	0.1	0.1	0.1	0	0	0	0	0	0	0	0.000000000
1504274724.836229085	-0.862097	-0.239301	-1.3499	1.12748	-0.200951	-3.14159	0.612058	0	0	0	0	0	0	0	0	0	0	0	0	0	0	0.000000000	0	0.788798	-0.788798	0	0.828698	-1.5708	0	0.1	0.1	0.1	0.1	0.1	0.1	0.1	0	0	0	0	0	0	0	0.000000000
1504274724.856365919	-0.862097	-0.239301	-1.3499	1.12748	-0.200951	-3.14159	0.612058	0	0	0	0	0	0	0	0	0	0	0	0	0	0	0.000000000	0	0.788798	-0.788798	0	0.828698	-1.5708	0	0.1	0.1	0.1	0.1	0.1	0.1	0.1	0	0	0	0	0	0	0	0.000000000
1504274724.876054048	-0.862097	-0.239301	-1.3499	1.12748	-0.200951	-3.14159	0.612058	0	0	0	0	0	0	0	0	0	0	0	0	0	0	0.000000000	0	0.788798	-0.788798	0	0.828698	-1.5708	0	0.1	0.1	0.1	0.1	0.1	0.1	0.1	0	0	0	0	0	0	0	0.000000000
1504274724.896073102	-0.862097	-0.239301	-1.3499	1.12748	-0.200951	-3.14159	0.612058	0	0	0	0	0	0	0	0	0	0	0	0	0	0	0.000000000	0	0.788798	-0.788798	0	0.828698	-1.5708	0	0.1	0.1	0.1	0.1	0.1	0.1	0.1	0	0	0	0	0	0	0	0.000000000
1504274724.916178941	-0.862097	-0.239301	-1.3499	1.12748	-0.200951	-3.14159	0.612058	0	0	0	0	0	0	0	0	0	0	0	0	0	0	0.000000000	0	0.788798	-0.788798	0	0.828698	-1.5708	0	0.1	0.1	0.1	0.1	0.1	0.1	0.1	0	0	0	0	0	0	0	0.000000000
1504274724.936129093	-0.862097	-0.239301	-1.3499	1.12748	-0.200951	-3.14159	0.612058	0	0	0	0	0	0	0	0	0	0	0	0	0	0	0.000000000	0	0.788798	-0.788798	0	0.828698	-1.5708	0	0.1	0.1	0.1	0.1	0.1	0.1	0.1	0	0	0	0	0	0	0	0.000000000
1504274724.956099987	-0.862097	-0.239301	-1.35144	1.12748	-0.200951	-3.14159	0.612058	0	0	0	0	0	0	0	0	0	0	0	0	0	0	0.000000000	0	0.788798	-0.788798	0	0.828698	-1.5708	0	0.1	0.1	0.1	0.1	0.1	0.1	0.1	0	0	0	0	0	0	0	0.000000000
1504274724.976191043	-0.862097	-0.239301	-1.3499	1.12748	-0.200951	-3.14159	0.612058	0	0	0	0	0	0	0	0	0	0	0	0	0	0	0.000000000	0	0.788798	-0.788798	0	0.828698	-1.5708	0	0.1	0.1	0.1	0.1	0.1	0.1	0.1	0	0	0	0	0	0	0	0.000000000
1504274724.996109008	-0.862097	-0.239301	-1.3499	1.12748	-0.200951	-3.14159	0.612058	0	0	0	0	0	0	0	0	0	0	0	0	0	0	0.000000000	0	0.788798	-0.788798	0	0.828698	-1.5708	0	0.1	0.1	0.1	0.1	0.1	0.1	0.1	0	0	0	0	0	0	0	0.000000000
1504274725.016087055	-0.862097	-0.239301	-1.3499	1.12748	-0.200951	-3.14159	0.612058	0	0	0	0	0	0	0	0	0	0	0	0	0	0	0.000000000	0	0.788798	-0.788798	0	0.828698	-1.5708	0	0.1	0.1	0.1	0.1	0.1	0.1	0.1	0	0	0	0	0	0	0	0.000000000
1504274725.036237001	-0.862097	-0.237767	-1.3499	1.12748	-0.199418	-3.14159	0.612058	0	0	0	0	0	0	0	0	0	0	0	0	0	0	0.000000000	0	0.788798	-0.788798	0	0.828698	-1.5708	0	0.1	0.1	0.1	0.1	0.1	0.1	0.1	0	0	0	0	0	0	0	0.000000000
1504274725.056324958	-0.862097	-0.239301	-1.3499	1.12748	-0.200951	-3.14159	0.612058	0	0	0	0	0	0	0	0	0	0	0	0	0	0	0.000000000	0	0.788798	-0.788798	0	0.828698	-1.5708	0	0.1	0.1	0.1	0.1	0.1	0.1	0.1	0	0	0	0	0	0	0	0.000000000
1504274725.076212882	-0.862097	-0.239301	-1.3499	1.12748	-0.199418	-3.14159	0.610524	0	0	0	0	0	0	0	0	0	0	0	0	0	0	0.000000000	0	0.788798	-0.788798	0	0.828698	-1.5708	0	0.1	0.1	0.1	0.1	0.1	0.1	0.1	0	0	0	0	0	0	0	0.000000000
1504274725.096112012	-0.862097	-0.239301	-1.3499	1.12748	-0.199418	-3.14159	0.612058	0	0	0	0	0	0	0	0	0	0	0	0	0	0	0.000000000	0	0.788798	-0.788798	0	0.828698	-1.5708	0	0.1	0.1	0.1	0.1	0.1	0.1	0.1	0	0	0	0	0	0	0	0.000000000
1504274725.116091012	-0.862097	-0.239301	-1.3499	1.12748	-0.199418	-3.14159	0.612058	0	0	0	0	0	0	0	0	0	0	0	0	0	0	0.000000000	0	0.788798	-0.788798	0	0.828698	-1.5708	0	0.1	0.1	0.1	0.1	0.1	0.1	0.1	0	0	0	0	0	0	0	0.000000000
1504274725.136343955	-0.862097	-0.239301	-1.3499	1.12748	-0.199418	-3.14159	0.612058	0	0	0	0	0	0	0	0	0	0	0	0	0	0	0.000000000	0	0.788798	-0.788798	0	0.828698	-1.5708	0	0.1	0.1	0.1	0.1	0.1	0.1	0.1	0	0	0	0	0	0	0	0.000000000
1504274725.156049966	-0.862097	-0.239301	-1.3499	1.12748	-0.199418	-3.14159	0.612058	0	0	0	0	0	0	0	0	0	0	0	0	0	0	0.000000000	0	0.788798	-0.788798	0	0.828698	-1.5708	0	0.1	0.1	0.1	0.1	0.1	0.1	0.1	0	0	0	0	0	0	0	0.000000000
1504274725.176098108	-0.862097	-0.239301	-1.3499	1.12748	-0.200951	-3.14159	0.612058	0	0	0	0	0	0	0	0	0	0	0	0	0	0	0.000000000	0	0.788798	-0.788798	0	0.828698	-1.5708	0	0.1	0.1	0.1	0.1	0.1	0.1	0.1	0	0	0	0	0	0	0	0.000000000
1504274725.196213006	-0.862097	-0.239301	-1.3499	1.12748	-0.200951	-3.14159	0.612058	0	0	0	0	0	0	0	0	0	0	0	0	0	0	0.000000000	0	0.788798	-0.788798	0	0.828698	-1.5708	0	0.1	0.1	0.1	0.1	0.1	0.1	0.1	0	0	0	0	0	0	0	0.000000000
1504274725.216392993	-0.862097	-0.239301	-1.3499	1.12748	-0.199418	-3.14159	0.612058	0	0	0	0	0	0	0	0	0	0	0	0	0	0	0.000000000	0	0.788798	-0.788798	0	0.828698	-1.5708	0	0.1	0.1	0.1	0.1	0.1	0.1	0.1	0	0	0	0	0	0	0	0.000000000
1504274725.236306905	-0.862097	-0.237767	-1.3499	1.12748	-0.200951	-3.14159	0.612058	0	0	0	0	0	0	0	0	0	0	0	0	0	0	0.000000000	0	0.788798	-0.788798	0	0.828698	-1.5708	0	0.1	0.1	0.1	0.1	0.1	0.1	0.1	0	0	0	0	0	0	0	0.000000000
1504274725.257777929	-0.862097	-0.239301	-1.3499	1.12748	-0.200951	-3.14159	0.612058	0	0	0	0	0	0	0	0	0	0	0	0	0	0	0.000000000	0	0.788798	-0.788798	0	0.828698	-1.5708	0	0.1	0.1	0.1	0.1	0.1	0.1	0.1	0	0	0	0	0	0	0	0.000000000
1504274725.277751922	-0.862097	-0.239301	-1.3499	1.12748	-0.200951	-3.14159	0.612058	0	0	0	0	0	0	0	0	0	0	0	0	0	0	0.000000000	0	0.788798	-0.788798	0	0.828698	-1.5708	0	0.1	0.1	0.1	0.1	0.1	0.1	0.1	0	0	0	0	0	0	0	0.000000000
1504274725.297085046	-0.862097	-0.239301	-1.3499	1.12748	-0.200951	-3.14159	0.612058	0	0	0	0	0	0	0	0	0	0	0	0	0	0	0.000000000	0	0.788798	-0.788798	0	0.828698	-1.5708	0	0.1	0.1	0.1	0.1	0.1	0.1	0.1	0	0	0	0	0	0	0	0.000000000
1504274725.316482067	-0.862097	-0.239301	-1.3499	1.12748	-0.200951	-3.14159	0.612058	0	0	0	0	0	0	0	0	0	0	0	0	0	0	0.000000000	0	0.788798	-0.788798	0	0.828698	-1.5708	0	0.1	0.1	0.1	0.1	0.1	0.1	0.1	0	0	0	0	0	0	0	0.000000000
1504274725.336271047	-0.862097	-0.239301	-1.3499	1.12748	-0.199418	-3.14159	0.612058	0	0	0	0	0	0	0	0	0	0	0	0	0	0	0.000000000	0	0.788798	-0.788798	0	0.828698	-1.5708	0	0.1	0.1	0.1	0.1	0.1	0.1	0.1	0	0	0	0	0	0	0	0.000000000
1504274725.356132030	-0.862097	-0.239301	-1.3499	1.12748	-0.199418	-3.14159	0.612058	0	0	0	0	0	0	0	0	0	0	0	0	0	0	0.000000000	0	0.788798	-0.788798	0	0.828698	-1.5708	0	0.1	0.1	0.1	0.1	0.1	0.1	0.1	0	0	0	0	0	0	0	0.000000000
1504274725.376054048	-0.862097	-0.239301	-1.3499	1.12748	-0.199418	-3.14159	0.612058	0	0	0	0	0	0	0	0	0	0	0	0	0	0	0.000000000	0	0.788798	-0.788798	0	0.828698	-1.5708	0	0.1	0.1	0.1	0.1	0.1	0.1	0.1	0	0	0	0	0	0	0	0.000000000
1504274725.396223068	-0.862097	-0.239301	-1.3499	1.12748	-0.199418	-3.14159	0.612058	0	0	0	0	0	0	0	0	0	0	0	0	0	0	0.000000000	0	0.788798	-0.788798	0	0.828698	-1.5708	0	0.1	0.1	0.1	0.1	0.1	0.1	0.1	0	0	0	0	0	0	0	0.000000000
1504274725.416096925	-0.862097	-0.239301	-1.3499	1.12748	-0.199418	-3.14159	0.612058	0	0	0	0	0	0	0	0	0	0	0	0	0	0	0.000000000	0	0.788798	-0.788798	0	0.828698	-1.5708	0	0.1	0.1	0.1	0.1	0.1	0.1	0.1	0	0	0	0	0	0	0	0.000000000
1504274725.436197042	-0.862097	-0.239301	-1.3499	1.12748	-0.199418	-3.14159	0.612058	0	0	0	0	0	0	0	0	0	0	0	0	0	0	0.000000000	0	0.788798	-0.788798	0	0.828698	-1.5708	0	0.1	0.1	0.1	0.1	0.1	0.1	0.1	0	0	0	0	0	0	0	0.000000000
1504274725.456754922	-0.862097	-0.239301	-1.3499	1.12748	-0.200951	-3.14159	0.612058	0	0	0	0	0	0	0	0	0	0	0	0	0	0	0.000000000	0	0.788798	-0.788798	0	0.828698	-1.5708	0	0.1	0.1	0.1	0.1	0.1	0.1	0.1	0	0	0	0	0	0	0	0.000000000
1504274725.476632118	-0.862097	-0.239301	-1.3499	1.12748	-0.200951	-3.14159	0.612058	0	0	0	0	0	0	0	0	0	0	0	0	0	0	0.000000000	0	0.788798	-0.788798	0	0.828698	-1.5708	0	0.1	0.1	0.1	0.1	0.1	0.1	0.1	0	0	0	0	0	0	0	0.000000000
1504274725.496469974	-0.862097	-0.239301	-1.3499	1.12748	-0.200951	-3.14159	0.612058	0	0	0	0	0	0	0	0	0	0	0	0	0	0	0.000000000	0	0.788798	-0.788798	0	0.828698	-1.5708	0	0.1	0.1	0.1	0.1	0.1	0.1	0.1	0	0	0	0	0	0	0	0.000000000
1504274725.520047903	-0.862097	-0.239301	-1.3499	1.12748	-0.200951	-3.14159	0.612058	0	0	0	0	0	0	0	0	0	0	0	0	0	0	0.000000000	0	0.788798	-0.788798	0	0.828698	-1.5708	0	0.1	0.1	0.1	0.1	0.1	0.1	0.1	0	0	0	0	0	0	0	0.000000000
1504274725.536876916	-0.862097	-0.239301	-1.3499	1.12748	-0.199418	-3.14159	0.612058	0	0	0	0	0	0	0	0	0	0	0	0	0	0	0.000000000	0	0.788798	-0.788798	0	0.828698	-1.5708	0	0.1	0.1	0.1	0.1	0.1	0.1	0.1	0	0	0	0	0	0	0	0.000000000
1504274725.556212902	-0.862097	-0.239301	-1.3499	1.12748	-0.200951	-3.14159	0.612058	0	0	0	0	0	0	0	0	0	0	0	0	0	0	0.000000000	0	0.788798	-0.788798	0	0.828698	-1.5708	0	0.1	0.1	0.1	0.1	0.1	0.1	0.1	0	0	0	0	0	0	0	0.000000000
1504274725.576097965	-0.862097	-0.239301	-1.3499	1.12748	-0.200951	-3.14159	0.612058	0	0	0	0	0	0	0	0	0	0	0	0	0	0	0.000000000	0	0.788798	-0.788798	0	0.828698	-1.5708	0	0.1	0.1	0.1	0.1	0.1	0.1	0.1	0	0	0	0	0	0	0	0.000000000
1504274725.596046924	-0.862097	-0.239301	-1.3499	1.12748	-0.200951	-3.14159	0.612058	0	0	0	0	0	0	0	0	0	0	0	0	0	0	0.000000000	0	0.788798	-0.788798	0	0.828698	-1.5708	0	0.1	0.1	0.1	0.1	0.1	0.1	0.1	0	0	0	0	0	0	0	0.000000000
1504274725.616166114	-0.862097	-0.239301	-1.3499	1.12748	-0.200951	-3.14159	0.612058	0	0	0	0	0	0	0	0	0	0	0	0	0	0	0.000000000	0	0.788798	-0.788798	0	0.828698	-1.5708	0	0.1	0.1	0.1	0.1	0.1	0.1	0.1	0	0	0	0	0	0	0	0.000000000
1504274725.636135101	-0.862097	-0.239301	-1.3499	1.12748	-0.200951	-3.14159	0.612058	0	0	0	0	0	0	0	0	0	0	0	0	0	0	0.000000000	0	0.788798	-0.788798	0	0.828698	-1.5708	0	0.1	0.1	0.1	0.1	0.1	0.1	0.1	0	0	0	0	0	0	0	0.000000000
1504274725.656136035	-0.862097	-0.239301	-1.3499	1.12748	-0.200951	-3.14159	0.612058	0	0	0	0	0	0	0	0	0	0	0	0	0	0	0.000000000	0	0.788798	-0.788798	0	0.828698	-1.5708	0	0.1	0.1	0.1	0.1	0.1	0.1	0.1	0	0	0	0	0	0	0	0.000000000
1504274725.676125049	-0.862097	-0.239301	-1.3499	1.12748	-0.200951	-3.14159	0.612058	0	0	0	0	0	0	0	0	0	0	0	0	0	0	0.000000000	0	0.788798	-0.788798	0	0.828698	-1.5708	0	0.1	0.1	0.1	0.1	0.1	0.1	0.1	0	0	0	0	0	0	0	0.000000000
1504274725.696213006	-0.862097	-0.239301	-1.3499	1.12748	-0.200951	-3.14159	0.612058	0	0	0	0	0	0	0	0	0	0	0	0	0	0	0.000000000	0	0.788798	-0.788798	0	0.828698	-1.5708	0	0.1	0.1	0.1	0.1	0.1	0.1	0.1	0	0	0	0	0	0	0	0.000000000
1504274725.716058969	-0.862097	-0.239301	-1.3499	1.12748	-0.200951	-3.14159	0.612058	0	0	0	0	0	0	0	0	0	0	0	0	0	0	0.000000000	0	0.788798	-0.788798	0	0.828698	-1.5708	0	0.1	0.1	0.1	0.1	0.1	0.1	0.1	0	0	0	0	0	0	0	0.000000000
1504274725.736098051	-0.862097	-0.239301	-1.3499	1.12748	-0.200951	-3.14159	0.610524	0	0	0	0	0	0	0	0	0	0	0	0	0	0	0.000000000	0	0.788798	-0.788798	0	0.828698	-1.5708	0	0.1	0.1	0.1	0.1	0.1	0.1	0.1	0	0	0	0	0	0	0	0.000000000
1504274725.756122112	-0.862097	-0.239301	-1.3499	1.12748	-0.200951	-3.14159	0.612058	0	0	0	0	0	0	0	0	0	0	0	0	0	0	0.000000000	0	0.788798	-0.788798	0	0.828698	-1.5708	0	0.1	0.1	0.1	0.1	0.1	0.1	0.1	0	0	0	0	0	0	0	0.000000000
1504274725.776087999	-0.862097	-0.239301	-1.3499	1.12748	-0.200951	-3.14159	0.612058	0	0	0	0	0	0	0	0	0	0	0	0	0	0	0.000000000	0	0.788798	-0.788798	0	0.828698	-1.5708	0	0.1	0.1	0.1	0.1	0.1	0.1	0.1	0	0	0	0	0	0	0	0.000000000
1504274725.796327114	-0.862097	-0.239301	-1.3499	1.12748	-0.200951	-3.14159	0.612058	0	0	0	0	0	0	0	0	0	0	0	0	0	0	0.000000000	0	0.788798	-0.788798	0	0.828698	-1.5708	0	0.1	0.1	0.1	0.1	0.1	0.1	0.1	0	0	0	0	0	0	0	0.000000000
1504274725.816101074	-0.862097	-0.239301	-1.3499	1.12748	-0.200951	-3.14159	0.612058	0	0	0	0	0	0	0	0	0	0	0	0	0	0	0.000000000	0	0.788798	-0.788798	0	0.828698	-1.5708	0	0.1	0.1	0.1	0.1	0.1	0.1	0.1	0	0	0	0	0	0	0	0.000000000
1504274725.836107015	-0.862097	-0.239301	-1.3499	1.12748	-0.200951	-3.14159	0.612058	0	0	0	0	0	0	0	0	0	0	0	0	0	0	0.000000000	0	0.788798	-0.788798	0	0.828698	-1.5708	0	0.1	0.1	0.1	0.1	0.1	0.1	0.1	0	0	0	0	0	0	0	0.000000000
1504274725.856327056	-0.862097	-0.239301	-1.3499	1.12748	-0.200951	-3.14159	0.612058	0	0	0	0	0	0	0	0	0	0	0	0	0	0	0.000000000	0	0.788798	-0.788798	0	0.828698	-1.5708	0	0.1	0.1	0.1	0.1	0.1	0.1	0.1	0	0	0	0	0	0	0	0.000000000
1504274725.876161098	-0.862097	-0.239301	-1.3499	1.12748	-0.199418	-3.14159	0.612058	0	0	0	0	0	0	0	0	0	0	0	0	0	0	0.000000000	0	0.788798	-0.788798	0	0.828698	-1.5708	0	0.1	0.1	0.1	0.1	0.1	0.1	0.1	0	0	0	0	0	0	0	0.000000000
1504274725.897371053	-0.862097	-0.239301	-1.3499	1.12748	-0.199418	-3.14159	0.612058	0	0	0	0	0	0	0	0	0	0	0	0	0	0	0.000000000	0	0.788798	-0.788798	0	0.828698	-1.5708	0	0.1	0.1	0.1	0.1	0.1	0.1	0.1	0	0	0	0	0	0	0	0.000000000
1504274725.916088104	-0.862097	-0.239301	-1.3499	1.12748	-0.199418	-3.14159	0.612058	0	0	0	0	0	0	0	0	0	0	0	0	0	0	0.000000000	0	0.788798	-0.788798	0	0.828698	-1.5708	0	0.1	0.1	0.1	0.1	0.1	0.1	0.1	0	0	0	0	0	0	0	0.000000000
1504274725.936045885	-0.862097	-0.239301	-1.3499	1.12748	-0.200951	-3.14159	0.612058	0	0	0	0	0	0	0	0	0	0	0	0	0	0	0.000000000	0	0.788798	-0.788798	0	0.828698	-1.5708	0	0.1	0.1	0.1	0.1	0.1	0.1	0.1	0	0	0	0	0	0	0	0.000000000
1504274725.956557989	-0.862097	-0.239301	-1.3499	1.12748	-0.200951	-3.14159	0.612058	0	0	0	0	0	0	0	0	0	0	0	0	0	0	0.000000000	0	0.788798	-0.788798	0	0.828698	-1.5708	0	0.1	0.1	0.1	0.1	0.1	0.1	0.1	0	0	0	0	0	0	0	0.000000000
1504274725.976109981	-0.862097	-0.239301	-1.3499	1.12748	-0.199418	-3.14159	0.612058	0	0	0	0	0	0	0	0	0	0	0	0	0	0	0.000000000	0	0.788798	-0.788798	0	0.828698	-1.5708	0	0.1	0.1	0.1	0.1	0.1	0.1	0.1	0	0	0	0	0	0	0	0.000000000
1504274725.996304988	-0.862097	-0.239301	-1.3499	1.12748	-0.199418	-3.14159	0.612058	0	0	0	0	0	0	0	0	0	0	0	0	0	0	0.000000000	0	0.788798	-0.788798	0	0.828698	-1.5708	0	0.1	0.1	0.1	0.1	0.1	0.1	0.1	0	0	0	0	0	0	0	0.000000000
1504274726.016402006	-0.862097	-0.239301	-1.3499	1.12748	-0.200951	-3.14159	0.612058	0	0	0	0	0	0	0	0	0	0	0	0	0	0	0.000000000	0	0.788798	-0.788798	0	0.828698	-1.5708	0	0.1	0.1	0.1	0.1	0.1	0.1	0.1	0	0	0	0	0	0	0	0.000000000
1504274726.036267042	-0.862097	-0.239301	-1.3499	1.12748	-0.199418	-3.14159	0.612058	0	0	0	0	0	0	0	0	0	0	0	0	0	0	0.000000000	0	0.788798	-0.788798	0	0.828698	-1.5708	0	0.1	0.1	0.1	0.1	0.1	0.1	0.1	0	0	0	0	0	0	0	0.000000000
1504274726.057255029	-0.862097	-0.239301	-1.3499	1.12748	-0.199418	-3.14159	0.612058	0	0	0	0	0	0	0	0	0	0	0	0	0	0	0.000000000	0	0.788798	-0.788798	0	0.828698	-1.5708	0	0.1	0.1	0.1	0.1	0.1	0.1	0.1	0	0	0	0	0	0	0	0.000000000
1504274726.076534986	-0.862097	-0.239301	-1.3499	1.12748	-0.200951	-3.14159	0.612058	0	0	0	0	0	0	0	0	0	0	0	0	0	0	0.000000000	0	0.788798	-0.788798	0	0.828698	-1.5708	0	0.1	0.1	0.1	0.1	0.1	0.1	0.1	0	0	0	0	0	0	0	0.000000000
1504274726.096142053	-0.862097	-0.239301	-1.3499	1.12748	-0.199418	-3.14159	0.612058	0	0	0	0	0	0	0	0	0	0	0	0	0	0	0.000000000	0	0.788798	-0.788798	0	0.828698	-1.5708	0	0.1	0.1	0.1	0.1	0.1	0.1	0.1	0	0	0	0	0	0	0	0.000000000
1504274726.116331100	-0.862097	-0.239301	-1.3499	1.12748	-0.199418	-3.14159	0.612058	0	0	0	0	0	0	0	0	0	0	0	0	0	0	0.000000000	0	0.788798	-0.788798	0	0.828698	-1.5708	0	0.1	0.1	0.1	0.1	0.1	0.1	0.1	0	0	0	0	0	0	0	0.000000000
1504274726.136121034	-0.862097	-0.239301	-1.3499	1.12748	-0.200951	-3.14159	0.612058	0	0	0	0	0	0	0	0	0	0	0	0	0	0	0.000000000	0	0.788798	-0.788798	0	0.828698	-1.5708	0	0.1	0.1	0.1	0.1	0.1	0.1	0.1	0	0	0	0	0	0	0	0.000000000
1504274726.156085968	-0.862097	-0.239301	-1.3499	1.12748	-0.200951	-3.14159	0.612058	0	0	0	0	0	0	0	0	0	0	0	0	0	0	0.000000000	0	0.788798	-0.788798	0	0.828698	-1.5708	0	0.1	0.1	0.1	0.1	0.1	0.1	0.1	0	0	0	0	0	0	0	0.000000000
1504274726.176744937	-0.862097	-0.239301	-1.3499	1.12748	-0.200951	-3.14159	0.612058	0	0	0	0	0	0	0	0	0	0	0	0	0	0	0.000000000	0	0.788798	-0.788798	0	0.828698	-1.5708	0	0.1	0.1	0.1	0.1	0.1	0.1	0.1	0	0	0	0	0	0	0	0.000000000
1504274726.196094989	-0.862097	-0.239301	-1.3499	1.12748	-0.200951	-3.14159	0.612058	0	0	0	0	0	0	0	0	0	0	0	0	0	0	0.000000000	0	0.788798	-0.788798	0	0.828698	-1.5708	0	0.1	0.1	0.1	0.1	0.1	0.1	0.1	0	0	0	0	0	0	0	0.000000000
1504274726.216193914	-0.862097	-0.239301	-1.3499	1.12748	-0.200951	-3.14159	0.612058	0	0	0	0	0	0	0	0	0	0	0	0	0	0	0.000000000	0	0.788798	-0.788798	0	0.828698	-1.5708	0	0.1	0.1	0.1	0.1	0.1	0.1	0.1	0	0	0	0	0	0	0	0.000000000
1504274726.236305952	-0.862097	-0.239301	-1.3499	1.12748	-0.199418	-3.14159	0.612058	0	0	0	0	0	0	0	0	0	0	0	0	0	0	0.000000000	0	0.788798	-0.788798	0	0.828698	-1.5708	0	0.1	0.1	0.1	0.1	0.1	0.1	0.1	0	0	0	0	0	0	0	0.000000000
1504274726.257177114	-0.862097	-0.239301	-1.3499	1.12748	-0.200951	-3.14159	0.612058	0	0	0	0	0	0	0	0	0	0	0	0	0	0	0.000000000	0	0.788798	-0.788798	0	0.828698	-1.5708	0	0.1	0.1	0.1	0.1	0.1	0.1	0.1	0	0	0	0	0	0	0	0.000000000
1504274726.276108026	-0.862097	-0.239301	-1.3499	1.12748	-0.200951	-3.14159	0.612058	0	0	0	0	0	0	0	0	0	0	0	0	0	0	0.000000000	0	0.788798	-0.788798	0	0.828698	-1.5708	0	0.1	0.1	0.1	0.1	0.1	0.1	0.1	0	0	0	0	0	0	0	0.000000000
1504274726.296415090	-0.862097	-0.239301	-1.3499	1.12748	-0.200951	-3.14159	0.612058	0	0	0	0	0	0	0	0	0	0	0	0	0	0	0.000000000	0	0.788798	-0.788798	0	0.828698	-1.5708	0	0.1	0.1	0.1	0.1	0.1	0.1	0.1	0	0	0	0	0	0	0	0.000000000
1504274726.316709995	-0.862097	-0.239301	-1.3499	1.12748	-0.200951	-3.14159	0.612058	0	0	0	0	0	0	0	0	0	0	0	0	0	0	0.000000000	0	0.788798	-0.788798	0	0.828698	-1.5708	0	0.1	0.1	0.1	0.1	0.1	0.1	0.1	0	0	0	0	0	0	0	0.000000000
1504274726.336076021	-0.862097	-0.239301	-1.3499	1.12748	-0.200951	-3.14159	0.612058	0	0	0	0	0	0	0	0	0	0	0	0	0	0	0.000000000	0	0.788798	-0.788798	0	0.828698	-1.5708	0	0.1	0.1	0.1	0.1	0.1	0.1	0.1	0	0	0	0	0	0	0	0.000000000
1504274726.356271028	-0.862097	-0.239301	-1.3499	1.12748	-0.200951	-3.14159	0.612058	0	0	0	0	0	0	0	0	0	0	0	0	0	0	0.000000000	0	0.788798	-0.788798	0	0.828698	-1.5708	0	0.1	0.1	0.1	0.1	0.1	0.1	0.1	0	0	0	0	0	0	0	0.000000000
1504274726.376275062	-0.862097	-0.239301	-1.3499	1.12748	-0.199418	-3.14159	0.612058	0	0	0	0	0	0	0	0	0	0	0	0	0	0	0.000000000	0	0.788798	-0.788798	0	0.828698	-1.5708	0	0.1	0.1	0.1	0.1	0.1	0.1	0.1	0	0	0	0	0	0	0	0.000000000
1504274726.396750926	-0.862097	-0.239301	-1.3499	1.12748	-0.200951	-3.14159	0.612058	0	0	0	0	0	0	0	0	0	0	0	0	0	0	0.000000000	0	0.788798	-0.788798	0	0.828698	-1.5708	0	0.1	0.1	0.1	0.1	0.1	0.1	0.1	0	0	0	0	0	0	0	0.000000000
1504274726.416055917	-0.862097	-0.239301	-1.3499	1.12748	-0.200951	-3.14159	0.612058	0	0	0	0	0	0	0	0	0	0	0	0	0	0	0.000000000	0	0.788798	-0.788798	0	0.828698	-1.5708	0	0.1	0.1	0.1	0.1	0.1	0.1	0.1	0	0	0	0	0	0	0	0.000000000
1504274726.436116933	-0.862097	-0.239301	-1.3499	1.12748	-0.200951	-3.14159	0.612058	0	0	0	0	0	0	0	0	0	0	0	0	0	0	0.000000000	0	0.788798	-0.788798	0	0.828698	-1.5708	0	0.1	0.1	0.1	0.1	0.1	0.1	0.1	0	0	0	0	0	0	0	0.000000000
1504274726.456453084	-0.862097	-0.239301	-1.3499	1.12748	-0.199418	-3.14159	0.612058	0	0	0	0	0	0	0	0	0	0	0	0	0	0	0.000000000	0	0.788798	-0.788798	0	0.828698	-1.5708	0	0.1	0.1	0.1	0.1	0.1	0.1	0.1	0	0	0	0	0	0	0	0.000000000
1504274726.476115942	-0.862097	-0.239301	-1.3499	1.12748	-0.200951	-3.14159	0.612058	0	0	0	0	0	0	0	0	0	0	0	0	0	0	0.000000000	0	0.788798	-0.788798	0	0.828698	-1.5708	0	0.1	0.1	0.1	0.1	0.1	0.1	0.1	0	0	0	0	0	0	0	0.000000000
1504274726.496577978	-0.862097	-0.239301	-1.3499	1.12748	-0.200951	-3.14159	0.612058	0	0	0	0	0	0	0	0	0	0	0	0	0	0	0.000000000	0	0.788798	-0.788798	0	0.828698	-1.5708	0	0.1	0.1	0.1	0.1	0.1	0.1	0.1	0	0	0	0	0	0	0	0.000000000
1504274726.516129016	-0.862097	-0.239301	-1.3499	1.12748	-0.200951	-3.14159	0.612058	0	0	0	0	0	0	0	0	0	0	0	0	0	0	0.000000000	0	0.788798	-0.788798	0	0.828698	-1.5708	0	0.1	0.1	0.1	0.1	0.1	0.1	0.1	0	0	0	0	0	0	0	0.000000000
1504274726.536417961	-0.862097	-0.239301	-1.3499	1.12748	-0.200951	-3.14159	0.612058	0	0	0	0	0	0	0	0	0	0	0	0	0	0	0.000000000	0	0.788798	-0.788798	0	0.828698	-1.5708	0	0.1	0.1	0.1	0.1	0.1	0.1	0.1	0	0	0	0	0	0	0	0.000000000
1504274726.556092023	-0.862097	-0.239301	-1.3499	1.12748	-0.199418	-3.14159	0.612058	0	0	0	0	0	0	0	0	0	0	0	0	0	0	0.000000000	0	0.788798	-0.788798	0	0.828698	-1.5708	0	0.1	0.1	0.1	0.1	0.1	0.1	0.1	0	0	0	0	0	0	0	0.000000000
1504274726.576661109	-0.860563	-0.239301	-1.3499	1.12748	-0.199418	-3.14159	0.612058	0	0	0	0	0	0	0	0	0	0	0	0	0	0	0.000000000	0	0.788798	-0.788798	0	0.828698	-1.5708	0	0.1	0.1	0.1	0.1	0.1	0.1	0.1	0	0	0	0	0	0	0	0.000000000
1504274726.596193075	-0.862097	-0.239301	-1.3499	1.12748	-0.200951	-3.14159	0.612058	0	0	0	0	0	0	0	0	0	0	0	0	0	0	0.000000000	0	0.788798	-0.788798	0	0.828698	-1.5708	0	0.1	0.1	0.1	0.1	0.1	0.1	0.1	0	0	0	0	0	0	0	0.000000000
1504274726.616436004	-0.862097	-0.239301	-1.3499	1.12748	-0.200951	-3.14159	0.612058	0	0	0	0	0	0	0	0	0	0	0	0	0	0	0.000000000	0	0.788798	-0.788798	0	0.828698	-1.5708	0	0.1	0.1	0.1	0.1	0.1	0.1	0.1	0	0	0	0	0	0	0	0.000000000
1504274726.636245965	-0.862097	-0.239301	-1.3499	1.12748	-0.199418	-3.14159	0.612058	0	0	0	0	0	0	0	0	0	0	0	0	0	0	0.000000000	0	0.788798	-0.788798	0	0.828698	-1.5708	0	0.1	0.1	0.1	0.1	0.1	0.1	0.1	0	0	0	0	0	0	0	0.000000000
1504274726.656220912	-0.862097	-0.239301	-1.3499	1.12748	-0.199418	-3.14159	0.612058	0	0	0	0	0	0	0	0	0	0	0	0	0	0	0.000000000	0	0.788798	-0.788798	0	0.828698	-1.5708	0	0.1	0.1	0.1	0.1	0.1	0.1	0.1	0	0	0	0	0	0	0	0.000000000
1504274726.676114082	-0.862097	-0.239301	-1.3499	1.12748	-0.199418	-3.14159	0.612058	0	0	0	0	0	0	0	0	0	0	0	0	0	0	0.000000000	0	0.788798	-0.788798	0	0.828698	-1.5708	0	0.1	0.1	0.1	0.1	0.1	0.1	0.1	0	0	0	0	0	0	0	0.000000000
1504274726.697665929	-0.862097	-0.239301	-1.3499	1.12748	-0.199418	-3.14159	0.612058	0	0	0	0	0	0	0	0	0	0	0	0	0	0	0.000000000	0	0.788798	-0.788798	0	0.828698	-1.5708	0	0.1	0.1	0.1	0.1	0.1	0.1	0.1	0	0	0	0	0	0	0	0.000000000
1504274726.716232061	-0.862097	-0.239301	-1.3499	1.12748	-0.199418	-3.14159	0.612058	0	0	0	0	0	0	0	0	0	0	0	0	0	0	0.000000000	0	0.788798	-0.788798	0	0.828698	-1.5708	0	0.1	0.1	0.1	0.1	0.1	0.1	0.1	0	0	0	0	0	0	0	0.000000000
1504274726.736202955	-0.862097	-0.239301	-1.3499	1.12748	-0.200951	-3.14159	0.612058	0	0	0	0	0	0	0	0	0	0	0	0	0	0	0.000000000	0	0.788798	-0.788798	0	0.828698	-1.5708	0	0.1	0.1	0.1	0.1	0.1	0.1	0.1	0	0	0	0	0	0	0	0.000000000
1504274726.757771015	-0.862097	-0.239301	-1.35144	1.12748	-0.200951	-3.14159	0.612058	0	0	0	0	0	0	0	0	0	0	0	0	0	0	0.000000000	0	0.788798	-0.788798	0	0.828698	-1.5708	0	0.1	0.1	0.1	0.1	0.1	0.1	0.1	0	0	0	0	0	0	0	0.000000000
1504274726.776063919	-0.862097	-0.239301	-1.3499	1.12748	-0.200951	-3.14159	0.612058	0	0	0	0	0	0	0	0	0	0	0	0	0	0	0.000000000	0	0.788798	-0.788798	0	0.828698	-1.5708	0	0.1	0.1	0.1	0.1	0.1	0.1	0.1	0	0	0	0	0	0	0	0.000000000
1504274726.796094894	-0.862097	-0.239301	-1.3499	1.12748	-0.200951	-3.14159	0.612058	0	0	0	0	0	0	0	0	0	0	0	0	0	0	0.000000000	0	0.788798	-0.788798	0	0.828698	-1.5708	0	0.1	0.1	0.1	0.1	0.1	0.1	0.1	0	0	0	0	0	0	0	0.000000000
1504274726.816235065	-0.862097	-0.239301	-1.3499	1.12748	-0.200951	-3.14159	0.612058	0	0	0	0	0	0	0	0	0	0	0	0	0	0	0.000000000	0	0.788798	-0.788798	0	0.828698	-1.5708	0	0.1	0.1	0.1	0.1	0.1	0.1	0.1	0	0	0	0	0	0	0	0.000000000
1504274726.836381912	-0.862097	-0.239301	-1.3499	1.12748	-0.200951	-3.14159	0.612058	0	0	0	0	0	0	0	0	0	0	0	0	0	0	0.000000000	0	0.788798	-0.788798	0	0.828698	-1.5708	0	0.1	0.1	0.1	0.1	0.1	0.1	0.1	0	0	0	0	0	0	0	0.000000000
1504274726.857328891	-0.862097	-0.239301	-1.3499	1.12594	-0.200951	-3.14159	0.612058	0	0	0	0	0	0	0	0	0	0	0	0	0	0	0.000000000	0	0.788798	-0.788798	0	0.828698	-1.5708	0	0.1	0.1	0.1	0.1	0.1	0.1	0.1	0	0	0	0	0	0	0	0.000000000
1504274726.876265048	-0.862097	-0.239301	-1.3499	1.12748	-0.200951	-3.14159	0.612058	0	0	0	0	0	0	0	0	0	0	0	0	0	0	0.000000000	0	0.788798	-0.788798	0	0.828698	-1.5708	0	0.1	0.1	0.1	0.1	0.1	0.1	0.1	0	0	0	0	0	0	0	0.000000000
1504274726.896195888	-0.862097	-0.239301	-1.3499	1.12748	-0.200951	-3.14159	0.612058	0	0	0	0	0	0	0	0	0	0	0	0	0	0	0.000000000	0	0.788798	-0.788798	0	0.828698	-1.5708	0	0.1	0.1	0.1	0.1	0.1	0.1	0.1	0	0	0	0	0	0	0	0.000000000
1504274726.919179916	-0.862097	-0.239301	-1.3499	1.12748	-0.199418	-3.14159	0.612058	0	0	0	0	0	0	0	0	0	0	0	0	0	0	0.000000000	0	0.788798	-0.788798	0	0.828698	-1.5708	0	0.1	0.1	0.1	0.1	0.1	0.1	0.1	0	0	0	0	0	0	0	0.000000000
1504274726.936111927	-0.862097	-0.239301	-1.3499	1.12748	-0.199418	-3.14159	0.612058	0	0	0	0	0	0	0	0	0	0	0	0	0	0	0.000000000	0	0.788798	-0.788798	0	0.828698	-1.5708	0	0.1	0.1	0.1	0.1	0.1	0.1	0.1	0	0	0	0	0	0	0	0.000000000
1504274726.962099075	-0.862097	-0.239301	-1.3499	1.12748	-0.200951	-3.14159	0.612058	0	0	0	0	0	0	0	0	0	0	0	0	0	0	0.000000000	0	0.788798	-0.788798	0	0.828698	-1.5708	0	0.1	0.1	0.1	0.1	0.1	0.1	0.1	0	0	0	0	0	0	0	0.000000000
1504274726.976888895	-0.862097	-0.239301	-1.3499	1.12748	-0.200951	-3.14159	0.612058	0	0	0	0	0	0	0	0	0	0	0	0	0	0	0.000000000	0	0.788798	-0.788798	0	0.828698	-1.5708	0	0.1	0.1	0.1	0.1	0.1	0.1	0.1	0	0	0	0	0	0	0	0.000000000
1504274726.997921943	-0.862097	-0.239301	-1.3499	1.12748	-0.199418	-3.14159	0.612058	0	0	0	0	0	0	0	0	0	0	0	0	0	0	0.000000000	0	0.788798	-0.788798	0	0.828698	-1.5708	0	0.1	0.1	0.1	0.1	0.1	0.1	0.1	0	0	0	0	0	0	0	0.000000000
1504274727.016185045	-0.862097	-0.239301	-1.3499	1.12748	-0.199418	-3.14159	0.612058	0	0	0	0	0	0	0	0	0	0	0	0	0	0	0.000000000	0	0.788798	-0.788798	0	0.828698	-1.5708	0	0.1	0.1	0.1	0.1	0.1	0.1	0.1	0	0	0	0	0	0	0	0.000000000
1504274727.036212921	-0.862097	-0.239301	-1.3499	1.12748	-0.199418	-3.14159	0.612058	0	0	0	0	0	0	0	0	0	0	0	0	0	0	0.000000000	0	0.788798	-0.788798	0	0.828698	-1.5708	0	0.1	0.1	0.1	0.1	0.1	0.1	0.1	0	0	0	0	0	0	0	0.000000000
1504274727.056657075	-0.862097	-0.239301	-1.3499	1.12748	-0.199418	-3.14159	0.612058	0	0	0	0	0	0	0	0	0	0	0	0	0	0	0.000000000	0	0.788798	-0.788798	0	0.828698	-1.5708	0	0.1	0.1	0.1	0.1	0.1	0.1	0.1	0	0	0	0	0	0	0	0.000000000
1504274727.076107978	-0.862097	-0.239301	-1.3499	1.12748	-0.200951	-3.14159	0.612058	0	0	0	0	0	0	0	0	0	0	0	0	0	0	0.000000000	0	0.788798	-0.788798	0	0.828698	-1.5708	0	0.1	0.1	0.1	0.1	0.1	0.1	0.1	0	0	0	0	0	0	0	0.000000000
1504274727.096085071	-0.862097	-0.239301	-1.3499	1.12748	-0.199418	-3.14159	0.612058	0	0	0	0	0	0	0	0	0	0	0	0	0	0	0.000000000	0	0.788798	-0.788798	0	0.828698	-1.5708	0	0.1	0.1	0.1	0.1	0.1	0.1	0.1	0	0	0	0	0	0	0	0.000000000
1504274727.116231918	-0.862097	-0.239301	-1.3499	1.12748	-0.199418	-3.14159	0.612058	0	0	0	0	0	0	0	0	0	0	0	0	0	0	0.000000000	0	0.788798	-0.788798	0	0.828698	-1.5708	0	0.1	0.1	0.1	0.1	0.1	0.1	0.1	0	0	0	0	0	0	0	0.000000000
1504274727.136111974	-0.862097	-0.239301	-1.3499	1.12748	-0.200951	-3.14159	0.612058	0	0	0	0	0	0	0	0	0	0	0	0	0	0	0.000000000	0	0.788798	-0.788798	0	0.828698	-1.5708	0	0.1	0.1	0.1	0.1	0.1	0.1	0.1	0	0	0	0	0	0	0	0.000000000
1504274727.156622886	-0.862097	-0.239301	-1.3499	1.12748	-0.200951	-3.14159	0.612058	0	0	0	0	0	0	0	0	0	0	0	0	0	0	0.000000000	0	0.788798	-0.788798	0	0.828698	-1.5708	0	0.1	0.1	0.1	0.1	0.1	0.1	0.1	0	0	0	0	0	0	0	0.000000000
1504274727.176023960	-0.862097	-0.239301	-1.3499	1.12748	-0.199418	-3.14159	0.612058	0	0	0	0	0	0	0	0	0	0	0	0	0	0	0.000000000	0	0.788798	-0.788798	0	0.828698	-1.5708	0	0.1	0.1	0.1	0.1	0.1	0.1	0.1	0	0	0	0	0	0	0	0.000000000
1504274727.196363925	-0.862097	-0.239301	-1.3499	1.12748	-0.199418	-3.14159	0.612058	0	0	0	0	0	0	0	0	0	0	0	0	0	0	0.000000000	0	0.788798	-0.788798	0	0.828698	-1.5708	0	0.1	0.1	0.1	0.1	0.1	0.1	0.1	0	0	0	0	0	0	0	0.000000000
1504274727.216519117	-0.862097	-0.239301	-1.3499	1.12748	-0.199418	-3.14159	0.612058	0	0	0	0	0	0	0	0	0	0	0	0	0	0	0.000000000	0	0.788798	-0.788798	0	0.828698	-1.5708	0	0.1	0.1	0.1	0.1	0.1	0.1	0.1	0	0	0	0	0	0	0	0.000000000
1504274727.236574888	-0.862097	-0.239301	-1.3499	1.12748	-0.200951	-3.14159	0.612058	0	0	0	0	0	0	0	0	0	0	0	0	0	0	0.000000000	0	0.788798	-0.788798	0	0.828698	-1.5708	0	0.1	0.1	0.1	0.1	0.1	0.1	0.1	0	0	0	0	0	0	0	0.000000000
1504274727.259213924	-0.862097	-0.239301	-1.3499	1.12748	-0.199418	-3.14006	0.610524	0	0	0	0	0	0	0	0	0	0	0	0	0	0	0.000000000	0	0.788798	-0.788798	0	0.828698	-1.5708	0	0.1	0.1	0.1	0.1	0.1	0.1	0.1	0	0	0	0	0	0	0	0.000000000
1504274727.280972957	-0.862097	-0.239301	-1.3499	1.12748	-0.200951	-3.14159	0.612058	0	0	0	0	0	0	0	0	0	0	0	0	0	0	0.000000000	0	0.788798	-0.788798	0	0.828698	-1.5708	0	0.1	0.1	0.1	0.1	0.1	0.1	0.1	0	0	0	0	0	0	0	0.000000000
1504274727.296252965	-0.862097	-0.239301	-1.3499	1.12748	-0.200951	-3.14159	0.612058	0	0	0	0	0	0	0	0	0	0	0	0	0	0	0.000000000	0	0.788798	-0.788798	0	0.828698	-1.5708	0	0.1	0.1	0.1	0.1	0.1	0.1	0.1	0	0	0	0	0	0	0	0.000000000
1504274727.316277027	-0.862097	-0.239301	-1.3499	1.12748	-0.199418	-3.14159	0.612058	0	0	0	0	0	0	0	0	0	0	0	0	0	0	0.000000000	0	0.788798	-0.788798	0	0.828698	-1.5708	0	0.1	0.1	0.1	0.1	0.1	0.1	0.1	0	0	0	0	0	0	0	0.000000000
1504274727.337235927	-0.862097	-0.239301	-1.3499	1.12748	-0.200951	-3.14159	0.612058	0	0	0	0	0	0	0	0	0	0	0	0	0	0	0.000000000	0	0.788798	-0.788798	0	0.828698	-1.5708	0	0.1	0.1	0.1	0.1	0.1	0.1	0.1	0	0	0	0	0	0	0	0.000000000
1504274727.357242107	-0.862097	-0.239301	-1.3499	1.12748	-0.199418	-3.14159	0.612058	0	0	0	0	0	0	0	0	0	0	0	0	0	0	0.000000000	0	0.788798	-0.788798	0	0.828698	-1.5708	0	0.1	0.1	0.1	0.1	0.1	0.1	0.1	0	0	0	0	0	0	0	0.000000000
1504274727.376055955	-0.862097	-0.239301	-1.3499	1.12748	-0.200951	-3.14159	0.612058	0	0	0	0	0	0	0	0	0	0	0	0	0	0	0.000000000	0	0.788798	-0.788798	0	0.828698	-1.5708	0	0.1	0.1	0.1	0.1	0.1	0.1	0.1	0	0	0	0	0	0	0	0.000000000
1504274727.396773099	-0.862097	-0.239301	-1.3499	1.12748	-0.200951	-3.14159	0.612058	0	0	0	0	0	0	0	0	0	0	0	0	0	0	0.000000000	0	0.788798	-0.788798	0	0.828698	-1.5708	0	0.1	0.1	0.1	0.1	0.1	0.1	0.1	0	0	0	0	0	0	0	0.000000000
1504274727.416024923	-0.862097	-0.239301	-1.3499	1.12748	-0.200951	-3.14159	0.612058	0	0	0	0	0	0	0	0	0	0	0	0	0	0	0.000000000	0	0.788798	-0.788798	0	0.828698	-1.5708	0	0.1	0.1	0.1	0.1	0.1	0.1	0.1	0	0	0	0	0	0	0	0.000000000
1504274727.436029911	-0.862097	-0.239301	-1.3499	1.12748	-0.199418	-3.14159	0.612058	0	0	0	0	0	0	0	0	0	0	0	0	0	0	0.000000000	0	0.788798	-0.788798	0	0.828698	-1.5708	0	0.1	0.1	0.1	0.1	0.1	0.1	0.1	0	0	0	0	0	0	0	0.000000000
1504274727.456362009	-0.862097	-0.239301	-1.3499	1.12748	-0.200951	-3.14159	0.612058	0	0	0	0	0	0	0	0	0	0	0	0	0	0	0.000000000	0	0.788798	-0.788798	0	0.828698	-1.5708	0	0.1	0.1	0.1	0.1	0.1	0.1	0.1	0	0	0	0	0	0	0	0.000000000
1504274727.476020097	-0.862097	-0.239301	-1.3499	1.12748	-0.199418	-3.14159	0.610524	0	0	0	0	0	0	0	0	0	0	0	0	0	0	0.000000000	0	0.788798	-0.788798	0	0.828698	-1.5708	0	0.1	0.1	0.1	0.1	0.1	0.1	0.1	0	0	0	0	0	0	0	0.000000000
1504274727.496001958	-0.862097	-0.239301	-1.3499	1.12748	-0.199418	-3.14159	0.612058	0	0	0	0	0	0	0	0	0	0	0	0	0	0	0.000000000	0	0.788798	-0.788798	0	0.828698	-1.5708	0	0.1	0.1	0.1	0.1	0.1	0.1	0.1	0	0	0	0	0	0	0	0.000000000
1504274727.515974998	-0.862097	-0.239301	-1.3499	1.12748	-0.199418	-3.14159	0.612058	0	0	0	0	0	0	0	0	0	0	0	0	0	0	0.000000000	0	0.788798	-0.788798	0	0.828698	-1.5708	0	0.1	0.1	0.1	0.1	0.1	0.1	0.1	0	0	0	0	0	0	0	0.000000000
1504274727.535984039	-0.862097	-0.239301	-1.3499	1.12748	-0.199418	-3.14159	0.612058	0	0	0	0	0	0	0	0	0	0	0	0	0	0	0.000000000	0	0.788798	-0.788798	0	0.828698	-1.5708	0	0.1	0.1	0.1	0.1	0.1	0.1	0.1	0	0	0	0	0	0	0	0.000000000
1504274727.555983066	-0.862097	-0.239301	-1.3499	1.12748	-0.200951	-3.14159	0.612058	0	0	0	0	0	0	0	0	0	0	0	0	0	0	0.000000000	0	0.788798	-0.788798	0	0.828698	-1.5708	0	0.1	0.1	0.1	0.1	0.1	0.1	0.1	0	0	0	0	0	0	0	0.000000000
1504274727.575988054	-0.862097	-0.239301	-1.3499	1.12748	-0.200951	-3.14159	0.612058	0	0	0	0	0	0	0	0	0	0	0	0	0	0	0.000000000	0	0.788798	-0.788798	0	0.828698	-1.5708	0	0.1	0.1	0.1	0.1	0.1	0.1	0.1	0	0	0	0	0	0	0	0.000000000
1504274727.595969915	-0.862097	-0.239301	-1.35144	1.12748	-0.199418	-3.14159	0.612058	0	0	0	0	0	0	0	0	0	0	0	0	0	0	0.000000000	0	0.788798	-0.788798	0	0.828698	-1.5708	0	0.1	0.1	0.1	0.1	0.1	0.1	0.1	0	0	0	0	0	0	0	0.000000000
1504274727.615963935	-0.862097	-0.239301	-1.35144	1.12748	-0.199418	-3.14159	0.612058	0	0	0	0	0	0	0	0	0	0	0	0	0	0	0.000000000	0	0.788798	-0.788798	0	0.828698	-1.5708	0	0.1	0.1	0.1	0.1	0.1	0.1	0.1	0	0	0	0	0	0	0	0.000000000
1504274727.636002063	-0.862097	-0.239301	-1.3499	1.12748	-0.200951	-3.14159	0.612058	0	0	0	0	0	0	0	0	0	0	0	0	0	0	0.000000000	0	0.788798	-0.788798	0	0.828698	-1.5708	0	0.1	0.1	0.1	0.1	0.1	0.1	0.1	0	0	0	0	0	0	0	0.000000000
1504274727.655980110	-0.862097	-0.239301	-1.3499	1.12748	-0.199418	-3.14159	0.612058	0	0	0	0	0	0	0	0	0	0	0	0	0	0	0.000000000	0	0.788798	-0.788798	0	0.828698	-1.5708	0	0.1	0.1	0.1	0.1	0.1	0.1	0.1	0	0	0	0	0	0	0	0.000000000
1504274727.675970077	-0.862097	-0.239301	-1.35144	1.12748	-0.199418	-3.14159	0.612058	0	0	0	0	0	0	0	0	0	0	0	0	0	0	0.000000000	0	0.788798	-0.788798	0	0.828698	-1.5708	0	0.1	0.1	0.1	0.1	0.1	0.1	0.1	0	0	0	0	0	0	0	0.000000000
1504274727.695962905	-0.862097	-0.239301	-1.3499	1.12748	-0.200951	-3.14159	0.612058	0	0	0	0	0	0	0	0	0	0	0	0	0	0	0.000000000	0	0.788798	-0.788798	0	0.828698	-1.5708	0	0.1	0.1	0.1	0.1	0.1	0.1	0.1	0	0	0	0	0	0	0	0.000000000
1504274727.715961933	-0.862097	-0.239301	-1.3499	1.12748	-0.200951	-3.14159	0.612058	0	0	0	0	0	0	0	0	0	0	0	0	0	0	0.000000000	0	0.788798	-0.788798	0	0.828698	-1.5708	0	0.1	0.1	0.1	0.1	0.1	0.1	0.1	0	0	0	0	0	0	0	0.000000000
1504274727.735960960	-0.862097	-0.239301	-1.3499	1.12748	-0.200951	-3.14159	0.612058	0	0	0	0	0	0	0	0	0	0	0	0	0	0	0.000000000	0	0.788798	-0.788798	0	0.828698	-1.5708	0	0.1	0.1	0.1	0.1	0.1	0.1	0.1	0	0	0	0	0	0	0	0.000000000
1504274727.755956888	-0.862097	-0.239301	-1.3499	1.12748	-0.199418	-3.14159	0.612058	0	0	0	0	0	0	0	0	0	0	0	0	0	0	0.000000000	0	0.788798	-0.788798	0	0.828698	-1.5708	0	0.1	0.1	0.1	0.1	0.1	0.1	0.1	0	0	0	0	0	0	0	0.000000000
1504274727.775957107	-0.862097	-0.239301	-1.3499	1.12748	-0.200951	-3.14159	0.612058	0	0	0	0	0	0	0	0	0	0	0	0	0	0	0.000000000	0	0.788798	-0.788798	0	0.828698	-1.5708	0	0.1	0.1	0.1	0.1	0.1	0.1	0.1	0	0	0	0	0	0	0	0.000000000
1504274727.796360969	-0.862097	-0.239301	-1.3499	1.12748	-0.199418	-3.14159	0.612058	0	0	0	0	0	0	0	0	0	0	0	0	0	0	0.000000000	0	0.788798	-0.788798	0	0.828698	-1.5708	0	0.1	0.1	0.1	0.1	0.1	0.1	0.1	0	0	0	0	0	0	0	0.000000000
1504274727.815963029	-0.862097	-0.239301	-1.3499	1.12748	-0.199418	-3.14159	0.612058	0	0	0	0	0	0	0	0	0	0	0	0	0	0	0.000000000	0	0.788798	-0.788798	0	0.828698	-1.5708	0	0.1	0.1	0.1	0.1	0.1	0.1	0.1	0	0	0	0	0	0	0	0.000000000
1504274727.835911035	-0.862097	-0.239301	-1.3499	1.12748	-0.200951	-3.14159	0.612058	0	0	0	0	0	0	0	0	0	0	0	0	0	0	0.000000000	0	0.788798	-0.788798	0	0.828698	-1.5708	0	0.1	0.1	0.1	0.1	0.1	0.1	0.1	0	0	0	0	0	0	0	0.000000000
1504274727.855963945	-0.862097	-0.239301	-1.3499	1.12748	-0.200951	-3.14159	0.612058	0	0	0	0	0	0	0	0	0	0	0	0	0	0	0.000000000	0	0.788798	-0.788798	0	0.828698	-1.5708	0	0.1	0.1	0.1	0.1	0.1	0.1	0.1	0	0	0	0	0	0	0	0.000000000
1504274727.876029014	-0.862097	-0.239301	-1.3499	1.12748	-0.200951	-3.14159	0.612058	0	0	0	0	0	0	0	0	0	0	0	0	0	0	0.000000000	0	0.788798	-0.788798	0	0.828698	-1.5708	0	0.1	0.1	0.1	0.1	0.1	0.1	0.1	0	0	0	0	0	0	0	0.000000000
1504274727.895986080	-0.862097	-0.239301	-1.3499	1.12748	-0.200951	-3.14159	0.612058	0	0	0	0	0	0	0	0	0	0	0	0	0	0	0.000000000	0	0.788798	-0.788798	0	0.828698	-1.5708	0	0.1	0.1	0.1	0.1	0.1	0.1	0.1	0	0	0	0	0	0	0	0.000000000
1504274727.916024923	-0.862097	-0.239301	-1.3499	1.12748	-0.200951	-3.14159	0.612058	0	0	0	0	0	0	0	0	0	0	0	0	0	0	0.000000000	0	0.788798	-0.788798	0	0.828698	-1.5708	0	0.1	0.1	0.1	0.1	0.1	0.1	0.1	0	0	0	0	0	0	0	0.000000000
1504274727.935990095	-0.862097	-0.239301	-1.3499	1.12748	-0.199418	-3.14159	0.612058	0	0	0	0	0	0	0	0	0	0	0	0	0	0	0.000000000	0	0.788798	-0.788798	0	0.828698	-1.5708	0	0.1	0.1	0.1	0.1	0.1	0.1	0.1	0	0	0	0	0	0	0	0.000000000
1504274727.956115007	-0.862097	-0.239301	-1.3499	1.12748	-0.200951	-3.14159	0.612058	0	0	0	0	0	0	0	0	0	0	0	0	0	0	0.000000000	0	0.788798	-0.788798	0	0.828698	-1.5708	0	0.1	0.1	0.1	0.1	0.1	0.1	0.1	0	0	0	0	0	0	0	0.000000000
1504274727.976063966	-0.862097	-0.239301	-1.3499	1.12748	-0.199418	-3.14159	0.612058	0	0	0	0	0	0	0	0	0	0	0	0	0	0	0.000000000	0	0.788798	-0.788798	0	0.828698	-1.5708	0	0.1	0.1	0.1	0.1	0.1	0.1	0.1	0	0	0	0	0	0	0	0.000000000
1504274727.996407985	-0.862097	-0.239301	-1.3499	1.12748	-0.200951	-3.14159	0.612058	0	0	0	0	0	0	0	0	0	0	0	0	0	0	0.000000000	0	0.788798	-0.788798	0	0.828698	-1.5708	0	0.1	0.1	0.1	0.1	0.1	0.1	0.1	0	0	0	0	0	0	0	0.000000000
1504274728.016084909	-0.862097	-0.239301	-1.3499	1.12748	-0.200951	-3.14159	0.612058	0	0	0	0	0	0	0	0	0	0	0	0	0	0	0.000000000	0	0.788798	-0.788798	0	0.828698	-1.5708	0	0.1	0.1	0.1	0.1	0.1	0.1	0.1	0	0	0	0	0	0	0	0.000000000
1504274728.036124944	-0.862097	-0.239301	-1.3499	1.12748	-0.200951	-3.14159	0.612058	0	0	0	0	0	0	0	0	0	0	0	0	0	0	0.000000000	0	0.788798	-0.788798	0	0.828698	-1.5708	0	0.1	0.1	0.1	0.1	0.1	0.1	0.1	0	0	0	0	0	0	0	0.000000000
1504274728.056235074	-0.862097	-0.239301	-1.3499	1.12748	-0.200951	-3.14159	0.612058	0	0	0	0	0	0	0	0	0	0	0	0	0	0	0.000000000	0	0.788798	-0.788798	0	0.828698	-1.5708	0	0.1	0.1	0.1	0.1	0.1	0.1	0.1	0	0	0	0	0	0	0	0.000000000
1504274728.076045989	-0.862097	-0.239301	-1.3499	1.12748	-0.200951	-3.14159	0.612058	0	0	0	0	0	0	0	0	0	0	0	0	0	0	0.000000000	0	0.788798	-0.788798	0	0.828698	-1.5708	0	0.1	0.1	0.1	0.1	0.1	0.1	0.1	0	0	0	0	0	0	0	0.000000000
1504274728.096004962	-0.862097	-0.239301	-1.3499	1.12748	-0.199418	-3.14159	0.612058	0	0	0	0	0	0	0	0	0	0	0	0	0	0	0.000000000	0	0.788798	-0.788798	0	0.828698	-1.5708	0	0.1	0.1	0.1	0.1	0.1	0.1	0.1	0	0	0	0	0	0	0	0.000000000
1504274728.116257905	-0.862097	-0.239301	-1.3499	1.12748	-0.199418	-3.14159	0.612058	0	0	0	0	0	0	0	0	0	0	0	0	0	0	0.000000000	0	0.788798	-0.788798	0	0.828698	-1.5708	0	0.1	0.1	0.1	0.1	0.1	0.1	0.1	0	0	0	0	0	0	0	0.000000000
1504274728.136069059	-0.862097	-0.239301	-1.3499	1.12748	-0.199418	-3.14159	0.612058	0	0	0	0	0	0	0	0	0	0	0	0	0	0	0.000000000	0	0.788798	-0.788798	0	0.828698	-1.5708	0	0.1	0.1	0.1	0.1	0.1	0.1	0.1	0	0	0	0	0	0	0	0.000000000
1504274728.157057046	-0.862097	-0.239301	-1.3499	1.12748	-0.200951	-3.14159	0.612058	0	0	0	0	0	0	0	0	0	0	0	0	0	0	0.000000000	0	0.788798	-0.788798	0	0.828698	-1.5708	0	0.1	0.1	0.1	0.1	0.1	0.1	0.1	0	0	0	0	0	0	0	0.000000000
1504274728.176795959	-0.862097	-0.239301	-1.3499	1.12748	-0.200951	-3.14159	0.612058	0	0	0	0	0	0	0	0	0	0	0	0	0	0	0.000000000	0	0.788798	-0.788798	0	0.828698	-1.5708	0	0.1	0.1	0.1	0.1	0.1	0.1	0.1	0	0	0	0	0	0	0	0.000000000
1504274728.197201967	-0.862097	-0.239301	-1.3499	1.12594	-0.200951	-3.14159	0.612058	0	0	0	0	0	0	0	0	0	0	0	0	0	0	0.000000000	0	0.788798	-0.788798	0	0.828698	-1.5708	0	0.1	0.1	0.1	0.1	0.1	0.1	0.1	0	0	0	0	0	0	0	0.000000000
1504274728.216912031	-0.862097	-0.239301	-1.3499	1.12748	-0.200951	-3.14159	0.612058	0	0	0	0	0	0	0	0	0	0	0	0	0	0	0.000000000	0	0.788798	-0.788798	0	0.828698	-1.5708	0	0.1	0.1	0.1	0.1	0.1	0.1	0.1	0	0	0	0	0	0	0	0.000000000
1504274728.236438035	-0.862097	-0.239301	-1.35144	1.12748	-0.199418	-3.14159	0.612058	0	0	0	0	0	0	0	0	0	0	0	0	0	0	0.000000000	0	0.788798	-0.788798	0	0.828698	-1.5708	0	0.1	0.1	0.1	0.1	0.1	0.1	0.1	0	0	0	0	0	0	0	0.000000000
1504274728.256089925	-0.862097	-0.239301	-1.35144	1.12748	-0.200951	-3.14159	0.612058	0	0	0	0	0	0	0	0	0	0	0	0	0	0	0.000000000	0	0.788798	-0.788798	0	0.828698	-1.5708	0	0.1	0.1	0.1	0.1	0.1	0.1	0.1	0	0	0	0	0	0	0	0.000000000
1504274728.276010990	-0.862097	-0.239301	-1.3499	1.12748	-0.199418	-3.14159	0.612058	0	0	0	0	0	0	0	0	0	0	0	0	0	0	0.000000000	0	0.788798	-0.788798	0	0.828698	-1.5708	0	0.1	0.1	0.1	0.1	0.1	0.1	0.1	0	0	0	0	0	0	0	0.000000000
1504274728.296094894	-0.862097	-0.239301	-1.3499	1.12748	-0.200951	-3.14159	0.610524	0	0	0	0	0	0	0	0	0	0	0	0	0	0	0.000000000	0	0.788798	-0.788798	0	0.828698	-1.5708	0	0.1	0.1	0.1	0.1	0.1	0.1	0.1	0	0	0	0	0	0	0	0.000000000
1504274728.316118001	-0.862097	-0.239301	-1.3499	1.12748	-0.200951	-3.14159	0.610524	0	0	0	0	0	0	0	0	0	0	0	0	0	0	0.000000000	0	0.788798	-0.788798	0	0.828698	-1.5708	0	0.1	0.1	0.1	0.1	0.1	0.1	0.1	0	0	0	0	0	0	0	0.000000000
1504274728.336066007	-0.862097	-0.239301	-1.3499	1.12748	-0.199418	-3.14159	0.610524	0	0	0	0	0	0	0	0	0	0	0	0	0	0	0.000000000	0	0.788798	-0.788798	0	0.828698	-1.5708	0	0.1	0.1	0.1	0.1	0.1	0.1	0.1	0	0	0	0	0	0	0	0.000000000
1504274728.357580900	-0.862097	-0.239301	-1.3499	1.12748	-0.199418	-3.14159	0.612058	0	0	0	0	0	0	0	0	0	0	0	0	0	0	0.000000000	0	0.788798	-0.788798	0	0.828698	-1.5708	0	0.1	0.1	0.1	0.1	0.1	0.1	0.1	0	0	0	0	0	0	0	0.000000000
1504274728.376087903	-0.862097	-0.239301	-1.3499	1.12748	-0.199418	-3.14159	0.612058	0	0	0	0	0	0	0	0	0	0	0	0	0	0	0.000000000	0	0.788798	-0.788798	0	0.828698	-1.5708	0	0.1	0.1	0.1	0.1	0.1	0.1	0.1	0	0	0	0	0	0	0	0.000000000
1504274728.400171041	-0.862097	-0.239301	-1.3499	1.12748	-0.200951	-3.14159	0.612058	0	0	0	0	0	0	0	0	0	0	0	0	0	0	0.000000000	0	0.788798	-0.788798	0	0.828698	-1.5708	0	0.1	0.1	0.1	0.1	0.1	0.1	0.1	0	0	0	0	0	0	0	0.000000000
1504274728.416104078	-0.862097	-0.239301	-1.3499	1.12748	-0.200951	-3.14159	0.612058	0	0	0	0	0	0	0	0	0	0	0	0	0	0	0.000000000	0	0.788798	-0.788798	0	0.828698	-1.5708	0	0.1	0.1	0.1	0.1	0.1	0.1	0.1	0	0	0	0	0	0	0	0.000000000
1504274728.436182975	-0.862097	-0.239301	-1.3499	1.12748	-0.200951	-3.14159	0.612058	0	0	0	0	0	0	0	0	0	0	0	0	0	0	0.000000000	0	0.788798	-0.788798	0	0.828698	-1.5708	0	0.1	0.1	0.1	0.1	0.1	0.1	0.1	0	0	0	0	0	0	0	0.000000000
1504274728.456372976	-0.862097	-0.239301	-1.3499	1.12748	-0.200951	-3.14159	0.612058	0	0	0	0	0	0	0	0	0	0	0	0	0	0	0.000000000	0	0.788798	-0.788798	0	0.828698	-1.5708	0	0.1	0.1	0.1	0.1	0.1	0.1	0.1	0	0	0	0	0	0	0	0.000000000
1504274728.479418992	-0.862097	-0.239301	-1.3499	1.12748	-0.199418	-3.14159	0.612058	0	0	0	0	0	0	0	0	0	0	0	0	0	0	0.000000000	0	0.788798	-0.788798	0	0.828698	-1.5708	0	0.1	0.1	0.1	0.1	0.1	0.1	0.1	0	0	0	0	0	0	0	0.000000000
1504274728.496068954	-0.862097	-0.239301	-1.3499	1.12748	-0.199418	-3.14159	0.612058	0	0	0	0	0	0	0	0	0	0	0	0	0	0	0.000000000	0	0.788798	-0.788798	0	0.828698	-1.5708	0	0.1	0.1	0.1	0.1	0.1	0.1	0.1	0	0	0	0	0	0	0	0.000000000
1504274728.516268968	-0.862097	-0.239301	-1.3499	1.12748	-0.200951	-3.14159	0.612058	0	0	0	0	0	0	0	0	0	0	0	0	0	0	0.000000000	0	0.788798	-0.788798	0	0.828698	-1.5708	0	0.1	0.1	0.1	0.1	0.1	0.1	0.1	0	0	0	0	0	0	0	0.000000000
1504274728.536062002	-0.862097	-0.239301	-1.3499	1.12748	-0.199418	-3.14159	0.612058	0	0	0	0	0	0	0	0	0	0	0	0	0	0	0.000000000	0	0.788798	-0.788798	0	0.828698	-1.5708	0	0.1	0.1	0.1	0.1	0.1	0.1	0.1	0	0	0	0	0	0	0	0.000000000
1504274728.556111097	-0.862097	-0.239301	-1.3499	1.12748	-0.200951	-3.14159	0.612058	0	0	0	0	0	0	0	0	0	0	0	0	0	0	0.000000000	0	0.788798	-0.788798	0	0.828698	-1.5708	0	0.1	0.1	0.1	0.1	0.1	0.1	0.1	0	0	0	0	0	0	0	0.000000000
1504274728.576119899	-0.862097	-0.239301	-1.3499	1.12748	-0.199418	-3.14159	0.610524	0	0	0	0	0	0	0	0	0	0	0	0	0	0	0.000000000	0	0.788798	-0.788798	0	0.828698	-1.5708	0	0.1	0.1	0.1	0.1	0.1	0.1	0.1	0	0	0	0	0	0	0	0.000000000
1504274728.596194028	-0.862097	-0.239301	-1.3499	1.12748	-0.199418	-3.14159	0.610524	0	0	0	0	0	0	0	0	0	0	0	0	0	0	0.000000000	0	0.788798	-0.788798	0	0.828698	-1.5708	0	0.1	0.1	0.1	0.1	0.1	0.1	0.1	0	0	0	0	0	0	0	0.000000000
1504274728.616224050	-0.862097	-0.239301	-1.3499	1.12594	-0.199418	-3.14159	0.612058	0	0	0	0	0	0	0	0	0	0	0	0	0	0	0.000000000	0	0.788798	-0.788798	0	0.828698	-1.5708	0	0.1	0.1	0.1	0.1	0.1	0.1	0.1	0	0	0	0	0	0	0	0.000000000
1504274728.636337041	-0.862097	-0.239301	-1.3499	1.12594	-0.199418	-3.14159	0.612058	0	0	0	0	0	0	0	0	0	0	0	0	0	0	0.000000000	0	0.788798	-0.788798	0	0.828698	-1.5708	0	0.1	0.1	0.1	0.1	0.1	0.1	0.1	0	0	0	0	0	0	0	0.000000000
1504274728.656308889	-0.862097	-0.239301	-1.3499	1.12748	-0.199418	-3.14159	0.612058	0	0	0	0	0	0	0	0	0	0	0	0	0	0	0.000000000	0	0.788798	-0.788798	0	0.828698	-1.5708	0	0.1	0.1	0.1	0.1	0.1	0.1	0.1	0	0	0	0	0	0	0	0.000000000
1504274728.676239967	-0.862097	-0.237767	-1.3499	1.12748	-0.197884	-3.14159	0.612058	0	0	0	0	0	0	0	0	0	0	0	0	0	0	0.000000000	0	0.788798	-0.788798	0	0.828698	-1.5708	0	0.1	0.1	0.1	0.1	0.1	0.1	0.1	0	0	0	0	0	0	0	0.000000000
1504274728.696168899	-0.862097	-0.236233	-1.3499	1.12594	-0.197884	-3.14159	0.612058	0	0	0	0	0	0	0	0	0	0	0	0	0	0	0.000000000	0	0.788798	-0.788798	0	0.828698	-1.5708	0	0.1	0.1	0.1	0.1	0.1	0.1	0.1	0	0	0	0	0	0	0	0.000000000
1504274728.716015100	-0.862097	-0.236233	-1.3499	1.12594	-0.197884	-3.14159	0.612058	0	0	0	0	0	0	0	0	0	0	0	0	0	0	0.000000000	0	0.788798	-0.788798	0	0.828698	-1.5708	0	0.1	0.1	0.1	0.1	0.1	0.1	0.1	0	0	0	0	0	0	0	0.000000000
1504274728.736134052	-0.862097	-0.234699	-1.3499	1.12594	-0.197884	-3.14159	0.612058	0	0.0955044	0	0	0	0	0	0	0	0	0	0	0	0	0.000000000	0	0.788798	-0.788798	0	0.828698	-1.5708	0	0.1	0.1	0.1	0.1	0.1	0.1	0.1	0	0	0	0	0	0	0	0.000000000
1504274728.755981922	-0.862097	-0.234699	-1.3499	1.12594	-0.19635	-3.14159	0.612058	0	0	0	0	0	0	0	0	0	0	0	0	0	0	0.000000000	0	0.788798	-0.788798	0	0.828698	-1.5708	0	0.1	0.1	0.1	0.1	0.1	0.1	0.1	0	0	0	0	0	0	0	0.000000000
1504274728.776010036	-0.862097	-0.234699	-1.3499	1.12594	-0.19635	-3.14159	0.612058	0	0	0	0	0	0	0	0	0	0	0	0	0	0	0.000000000	0	0.788798	-0.788798	0	0.828698	-1.5708	0	0.1	0.1	0.1	0.1	0.1	0.1	0.1	0	0	0	0	0	0	0	0.000000000
1504274728.796109914	-0.862097	-0.233165	-1.3499	1.12594	-0.194816	-3.14159	0.612058	0	0	0	0	0	0	0	0	0	0	0	0	0	0	0.000000000	0	0.788798	-0.788798	0	0.828698	-1.5708	0	0.1	0.1	0.1	0.1	0.1	0.1	0.1	0	0	0	0	0	0	0	0.000000000
1504274728.816122055	-0.862097	-0.233165	-1.3499	1.12594	-0.194816	-3.14159	0.612058	0	0	0	0	0	0	0	0	0	0	0	0	0	0	0.000000000	0	0.788798	-0.788798	0	0.828698	-1.5708	0	0.1	0.1	0.1	0.1	0.1	0.1	0.1	0	0	0	0	0	0	0	0.000000000
1504274728.836030960	-0.862097	-0.230097	-1.3499	1.12594	-0.193282	-3.14159	0.612058	0	0.0955044	0	0	0	0	0	0	0	0	0	0	0	0	0.000000000	0	0.788798	-0.788798	0	0.828698	-1.5708	0	0.1	0.1	0.1	0.1	0.1	0.1	0.1	0	0	0	0	0	0	0	0.000000000
1504274728.856863975	-0.862097	-0.228563	-1.35144	1.12594	-0.191748	-3.14159	0.612058	0	0.0955044	0	0	0	0	0	0	0	0	0	0	0	0	0.000000000	0	0.788798	-0.788798	0	0.828698	-1.5708	0	0.1	0.1	0.1	0.1	0.1	0.1	0.1	0	0	0	0	0	0	0	0.000000000
1504274728.876847982	-0.862097	-0.228563	-1.35144	1.12594	-0.191748	-3.14159	0.612058	0	0.0955044	0	0	0	0	0	0	0	0	0	0	0	0	0.000000000	0	0.788798	-0.788798	0	0.828698	-1.5708	0	0.1	0.1	0.1	0.1	0.1	0.1	0.1	0	0	0	0	0	0	0	0.000000000
1504274728.898340940	-0.862097	-0.227029	-1.35144	1.12594	-0.190214	-3.14159	0.612058	0	0	0	0	0	0	0	0	0	0	0	0	0	0	0.000000000	0	0.788798	-0.788798	0	0.828698	-1.5708	0	0.1	0.1	0.1	0.1	0.1	0.1	0.1	0	0	0	0	0	0	0	0.000000000
1504274728.917134046	-0.862097	-0.225495	-1.35144	1.12594	-0.187146	-3.14159	0.612058	0	0	0	0	0.0955044	0	0	0	0	0	0	0	0	0	0.000000000	0	0.788798	-0.788798	0	0.828698	-1.5708	0	0.1	0.1	0.1	0.1	0.1	0.1	0.1	0	0	0	0	0	0	0	0.000000000
1504274728.937133073	-0.862097	-0.222427	-1.35297	1.12594	-0.185612	-3.14159	0.612058	0	0.143257	0	0	0.0955044	0	0	0	0	0	0	0	0	0	0.000000000	0	0.788798	-0.788798	0	0.828698	-1.5708	0	0.1	0.1	0.1	0.1	0.1	0.1	0.1	0	0	0	0	0	0	0	0.000000000
1504274728.956490993	-0.862097	-0.222427	-1.35297	1.12594	-0.185612	-3.14159	0.612058	0	0.143257	0	0	0.0955044	0	0	0	0	0	0	0	0	0	0.000000000	0	0.788798	-0.788798	0	0.828698	-1.5708	0	0.1	0.1	0.1	0.1	0.1	0.1	0.1	0	0	0	0	0	0	0	0.000000000
1504274728.976157903	-0.860563	-0.217825	-1.35451	1.12441	-0.177942	-3.14159	0.612058	0	0.0955044	0	0	0.0955044	0	0	0	0	0	0	0	0	0	0.000000000	0	0.788798	-0.788798	0	0.828698	-1.5708	0	0.1	0.1	0.1	0.1	0.1	0.1	0.1	0	0	0	0	0	0	0	0.000000000
1504274728.995984077	-0.860563	-0.217825	-1.35451	1.12441	-0.177942	-3.14159	0.612058	0	0.0955044	0	0	0.0955044	0	0	0	0	0	0	0	0	0	0.000000000	0	0.788798	-0.788798	0	0.828698	-1.5708	0	0.1	0.1	0.1	0.1	0.1	0.1	0.1	0	0	0	0	0	0	0	0.000000000
1504274729.016370058	-0.862097	-0.217825	-1.35451	1.12594	-0.176408	-3.14159	0.612058	0	0	0	0	0.0955044	0	0	0	0	0	0	0	0	0	0.000000000	0	0.788798	-0.788798	0	0.828698	-1.5708	0	0.1	0.1	0.1	0.1	0.1	0.1	0.1	0	0	0	0	0	0	0	0.000000000
1504274729.036232948	-0.860563	-0.217825	-1.35451	1.12594	-0.17334	-3.14159	0.612058	0	0	0	0	0	0	0	0	0	0	0	0	0	0	0.000000000	0	0.788798	-0.788798	0	0.828698	-1.5708	0	0.1	0.1	0.1	0.1	0.1	0.1	0.1	0	0	0	0	0	0	0	0.000000000
1504274729.060014963	-0.860563	-0.217825	-1.35451	1.12594	-0.17334	-3.14159	0.612058	0	0	0	0	0	0	0	0	0	0	0	0	0	0	0.000000000	0	0.788798	-0.788798	0	0.828698	-1.5708	0	0.1	0.1	0.1	0.1	0.1	0.1	0.1	0	0	0	0	0	0	0	0.000000000
1504274729.078181028	-0.855961	-0.216291	-1.35451	1.12441	-0.17334	-3.14159	0.610524	0.143257	0	0	0	0	0	0	0	0	0	0	0	0	0	0.000000000	0	0.788798	-0.788798	0	0.828698	-1.5708	0	0.1	0.1	0.1	0.1	0.1	0.1	0.1	0	0	0	0	0	0	0	0.000000000
1504274729.096440076	-0.854427	-0.211689	-1.35604	1.12134	-0.171806	-3.14159	0.612058	0	0.0955044	0	0	0.0955044	0	0	0	0	0	0	0	0	0	0.000000000	0	0.788798	-0.788798	0	0.828698	-1.5708	0	0.1	0.1	0.1	0.1	0.1	0.1	0.1	0	0	0	0	0	0	0	0.000000000
1504274729.117052078	-0.854427	-0.211689	-1.35604	1.12134	-0.171806	-3.14159	0.612058	0	0.0955044	0	0	0.0955044	0	0	0	0	0	0	0	0	0	0.000000000	0	0.788798	-0.788798	0	0.828698	-1.5708	0	0.1	0.1	0.1	0.1	0.1	0.1	0.1	0	0	0	0	0	0	0	0.000000000
1504274729.136039018	-0.851359	-0.210155	-1.35604	1.11674	-0.162602	-3.14159	0.610524	0	0	0	0.107442	0.191009	0	0	0	0	0	0	0	0	0	0.000000000	0	0.788798	-0.788798	0	0.828698	-1.5708	0	0.1	0.1	0.1	0.1	0.1	0.1	0.1	0	0	0	0	0	0	0	0.000000000
1504274729.156116962	-0.851359	-0.211689	-1.35604	1.11367	-0.161068	-3.14159	0.610524	0	0	0	0.107442	0.143257	0	0	0	0	0	0	0	0	0	0.000000000	0	0.788798	-0.788798	0	0.828698	-1.5708	0	0.1	0.1	0.1	0.1	0.1	0.1	0.1	0	0	0	0	0	0	0	0.000000000
1504274729.176165103	-0.851359	-0.210155	-1.35604	1.1106	-0.158	-3.14159	0.610524	0	0	0	0.155195	0.143257	0	0	0	0	0	0	0	0	0	0.000000000	0	0.788798	-0.788798	0	0.828698	-1.5708	0	0.1	0.1	0.1	0.1	0.1	0.1	0.1	0	0	0	0	0	0	0	0.000000000
1504274729.196069955	-0.851359	-0.210155	-1.35604	1.1106	-0.158	-3.14159	0.610524	0	0	0	0.155195	0.143257	0	0	0	0	0	0	0	0	0	0.000000000	0	0.788798	-0.788798	0	0.828698	-1.5708	0	0.1	0.1	0.1	0.1	0.1	0.1	0.1	0	0	0	0	0	0	0	0.000000000
1504274729.216406106	-0.849825	-0.210155	-1.35604	1.10907	-0.154932	-3.14159	0.610524	0	0	0	0.107442	0.143257	0	0	0	0	0	0	0	0	0	0.000000000	0	0.788798	-0.788798	0	0.828698	-1.5708	0	0.1	0.1	0.1	0.1	0.1	0.1	0.1	0	0	0	0	0	0	0	0.000000000
1504274729.236104011	-0.845223	-0.207087	-1.35757	1.106	-0.153398	-3.14159	0.60899	0.143257	0.0955044	0	0.107442	0.0955044	0	0	0	0	0	0	0	0	0	0.000000000	0	0.788798	-0.788798	0	0.828698	-1.5708	0	0.1	0.1	0.1	0.1	0.1	0.1	0.1	0	0	0	0	0	0	0	0.000000000
1504274729.256036043	-0.843689	-0.202485	-1.36217	1.10293	-0.151864	-3.14159	0.607456	0.0955044	0.143257	0.155195	0.107442	0.0955044	0	0	0	0	0	0	0	0	0	0.000000000	0	0.788798	-0.788798	0	0.828698	-1.5708	0	0.1	0.1	0.1	0.1	0.1	0.1	0.1	0	0	0	0	0	0	0	0.000000000
1504274729.276238918	-0.842155	-0.199418	-1.36678	1.09986	-0.148796	-3.14159	0.605922	0	0.0955044	0.202947	0.155195	0.143257	0	0	0	0	0	0	0	0	0	0.000000000	0	0.788798	-0.788798	0	0.828698	-1.5708	0	0.1	0.1	0.1	0.1	0.1	0.1	0.1	0	0	0	0	0	0	0	0.000000000
1504274729.296319961	-0.842155	-0.199418	-1.36678	1.09986	-0.148796	-3.14159	0.605922	0	0.0955044	0.202947	0.155195	0.143257	0	0	0	0	0	0	0	0	0	0.000000000	0	0.788798	-0.788798	0	0.828698	-1.5708	0	0.1	0.1	0.1	0.1	0.1	0.1	0.1	0	0	0	0	0	0	0	0.000000000
1504274729.316032886	-0.840621	-0.193282	-1.37445	1.09526	-0.14266	-3.14159	0.602854	0	0.238761	0.250699	0.155195	0.191009	0	0.107442	0	0	0	0	0	0	0	0.000000000	0	0.788798	-0.788798	0	0.828698	-1.5708	0	0.1	0.1	0.1	0.1	0.1	0.1	0.1	0	0	0	0	0	0	0	0.000000000
1504274729.336143970	-0.839087	-0.187146	-1.38518	1.09219	-0.139592	-3.14159	0.599786	0	0.238761	0.346204	0.107442	0.143257	0	0.107442	0	0	0	0	0	0	0	0.000000000	0	0.788798	-0.788798	0	0.828698	-1.5708	0	0.1	0.1	0.1	0.1	0.1	0.1	0.1	0	0	0	0	0	0	0	0.000000000
1504274729.356128931	-0.832952	-0.18101	-1.39132	1.08913	-0.138058	-3.14159	0.596719	0.191009	0.191009	0.298451	0.107442	0.0955044	0	0.107442	0	0	0	0	0	0	0	0.000000000	0	0.788798	-0.788798	0	0.828698	-1.5708	0	0.1	0.1	0.1	0.1	0.1	0.1	0.1	0	0	0	0	0	0	0	0.000000000
1504274729.376092910	-0.831418	-0.179476	-1.39439	1.08759	-0.136524	-3.14159	0.595185	0.0955044	0.0955044	0.155195	0	0	0	0	0	0	0	0	0	0	0	0.000000000	0	0.788798	-0.788798	0	0.828698	-1.5708	0	0.1	0.1	0.1	0.1	0.1	0.1	0.1	0	0	0	0	0	0	0	0.000000000
1504274729.396576881	-0.82835	-0.177942	-1.39592	1.08299	-0.13499	-3.14159	0.593651	0.0955044	0	0	0.155195	0	0	0	0	0	0	0	0	0	0	0.000000000	0	0.788798	-0.788798	0	0.828698	-1.5708	0	0.1	0.1	0.1	0.1	0.1	0.1	0.1	0	0	0	0	0	0	0	0.000000000
1504274729.416043996	-0.82835	-0.177942	-1.39592	1.08299	-0.13499	-3.14159	0.593651	0.0955044	0	0	0.155195	0	0	0	0	0	0	0	0	0	0	0.000000000	0	0.788798	-0.788798	0	0.828698	-1.5708	0	0.1	0.1	0.1	0.1	0.1	0.1	0.1	0	0	0	0	0	0	0	0.000000000
1504274729.436209917	-0.823748	-0.177942	-1.39592	1.07992	-0.131922	-3.14159	0.592117	0.143257	0	0	0.155195	0.0955044	0	0	0	0	0	0	0	0	0	0.000000000	0	0.788798	-0.788798	0	0.828698	-1.5708	0	0.1	0.1	0.1	0.1	0.1	0.1	0.1	0	0	0	0	0	0	0	0.000000000
1504274729.456494092	-0.82068	-0.177942	-1.39592	1.07685	-0.12732	-3.14159	0.592117	0.143257	0	0	0.107442	0.143257	0	0	0	0	0	0	0	0	0	0.000000000	0	0.788798	-0.788798	0	0.828698	-1.5708	0	0.1	0.1	0.1	0.1	0.1	0.1	0.1	0	0	0	0	0	0	0	0.000000000
1504274729.476150989	-0.817612	-0.177942	-1.39439	1.07225	-0.124252	-3.14159	0.592117	0.0955044	0	0	0.155195	0.143257	0	0	0	0	0	0	0	0	0	0.000000000	0	0.788798	-0.788798	0	0.828698	-1.5708	0	0.1	0.1	0.1	0.1	0.1	0.1	0.1	0	0	0	0	0	0	0	0.000000000
1504274729.498387098	-0.814544	-0.177942	-1.39592	1.06612	-0.121184	-3.14159	0.590583	0.143257	0	0	0.202947	0.143257	0	0	0	0	0	0	0	0	0	0.000000000	0	0.788798	-0.788798	0	0.828698	-1.5708	0	0.1	0.1	0.1	0.1	0.1	0.1	0.1	0	0	0	0	0	0	0	0.000000000
1504274729.516078948	-0.814544	-0.177942	-1.39592	1.06612	-0.121184	-3.14159	0.590583	0.143257	0	0	0.202947	0.143257	0	0	0	0	0	0	0	0	0	0.000000000	0	0.788798	-0.788798	0	0.828698	-1.5708	0	0.1	0.1	0.1	0.1	0.1	0.1	0.1	0	0	0	0	0	0	0	0.000000000
1504274729.536047935	-0.811476	-0.176408	-1.39592	1.05845	-0.119651	-3.14159	0.589049	0.143257	0	0	0.298451	0.0955044	0	0	0	0	0	0	0	0	0	0.000000000	0	0.788798	-0.788798	0	0.828698	-1.5708	0	0.1	0.1	0.1	0.1	0.1	0.1	0.1	0	0	0	0	0	0	0	0.000000000
1504274729.556082963	-0.80534	-0.171806	-1.39746	1.05384	-0.118117	-3.14159	0.585981	0.191009	0.143257	0	0.202947	0	0	0.155195	0	0	0	0	0	0	0	0.000000000	0	0.788798	-0.788798	0	0.828698	-1.5708	0	0.1	0.1	0.1	0.1	0.1	0.1	0.1	0	0	0	0	0	0	0	0.000000000
1504274729.576075077	-0.800738	-0.168738	-1.40206	1.05078	-0.118117	-3.14159	0.582913	0.143257	0.0955044	0.155195	0.155195	0	0	0.155195	0	0	0	0	0	0	0	0.000000000	0	0.788798	-0.788798	0	0.828698	-1.5708	0	0.1	0.1	0.1	0.1	0.1	0.1	0.1	0	0	0	0	0	0	0	0.000000000
1504274729.596194982	-0.799204	-0.162602	-1.40973	1.04924	-0.118117	-3.14159	0.582913	0.0955044	0.191009	0.298451	0.107442	0	0	0.155195	0	0	0	0	0	0	0	0.000000000	0	0.788798	-0.788798	0	0.828698	-1.5708	0	0.1	0.1	0.1	0.1	0.1	0.1	0.1	0	0	0	0	0	0	0	0.000000000
1504274729.616134881	-0.799204	-0.162602	-1.40973	1.04924	-0.115049	-3.14159	0.579845	0.0955044	0.191009	0.298451	0.107442	0.0955044	0	0.155195	0	0	0	0	0	0	0	0.000000000	0	0.788798	-0.788798	0	0.828698	-1.5708	0	0.1	0.1	0.1	0.1	0.1	0.1	0.1	0	0	0	0	0	0	0	0.000000000
1504274729.636277914	-0.79767	-0.156466	-1.4174	1.04464	-0.110447	-3.14159	0.576777	0	0.238761	0.346204	0.155195	0.191009	0	0.107442	0	0	0	0	0	0	0	0.000000000	0	0.788798	-0.788798	0	0.828698	-1.5708	0	0.1	0.1	0.1	0.1	0.1	0.1	0.1	0	0	0	0	0	0	0	0.000000000
1504274729.657496929	-0.791534	-0.148796	-1.42507	1.0385	-0.107379	-3.14159	0.572175	0.191009	0.238761	0.298451	0.250699	0.143257	0	0.155195	0	0	0	0	0	0	0	0.000000000	0	0.788798	-0.788798	0	0.828698	-1.5708	0	0.1	0.1	0.1	0.1	0.1	0.1	0.1	0	0	0	0	0	0	0	0.000000000
1504274729.676630973	-0.791534	-0.148796	-1.42507	1.0385	-0.107379	-3.14159	0.572175	0.191009	0.238761	0.298451	0.250699	0.143257	0	0.155195	0	0	0	0	0	0	0	0.000000000	0	0.788798	-0.788798	0	0.828698	-1.5708	0	0.1	0.1	0.1	0.1	0.1	0.1	0.1	0	0	0	0	0	0	0	0.000000000
1504274729.696261882	-0.786932	-0.145728	-1.42967	1.0293	-0.104311	-3.14159	0.567573	0.143257	0.0955044	0.155195	0.346204	0.0955044	0	0.155195	0	0	0	0	0	0	0	0.000000000	0	0.788798	-0.788798	0	0.828698	-1.5708	0	0.1	0.1	0.1	0.1	0.1	0.1	0.1	0	0	0	0	0	0	0	0.000000000
1504274729.720715045	-0.783864	-0.144194	-1.4312	1.0201	-0.102777	-3.14159	0.559903	0.0955044	0	0	0.298451	0.0955044	0	0.202947	0	0	0	0	0	0	0	0.000000000	0	0.788798	-0.788798	0	0.828698	-1.5708	0	0.1	0.1	0.1	0.1	0.1	0.1	0.1	0	0	0	0	0	0	0	0.000000000
1504274729.739068984	-0.780796	-0.14266	-1.43274	1.0155	-0.102777	-3.14313	0.556835	0.0955044	0	0	0.202947	0	0	0.155195	0	0	0	0	0	0	0	0.000000000	0	0.788798	-0.788798	0	0.828698	-1.5708	0	0.1	0.1	0.1	0.1	0.1	0.1	0.1	0	0	0	0	0	0	0	0.000000000
1504274729.760123968	-0.780796	-0.14266	-1.43274	1.0155	-0.102777	-3.14313	0.556835	0.0955044	0	0	0.202947	0	0	0.155195	0	0	0	0	0	0	0	0.000000000	0	0.788798	-0.788798	0	0.828698	-1.5708	0	0.1	0.1	0.1	0.1	0.1	0.1	0.1	0	0	0	0	0	0	0	0.000000000
1504274729.776520013	-0.777728	-0.14266	-1.4312	1.01396	-0.0997088	-3.14159	0.552233	0.0955044	0	0	0	0.0955044	0	0.155195	0	0	0	0	0	0	0	0.000000000	0	0.788798	-0.788798	0	0.828698	-1.5708	0	0.1	0.1	0.1	0.1	0.1	0.1	0.1	0	0	0	0	0	0	0	0.000000000
1504274729.796019077	-0.771592	-0.141126	-1.43274	1.00936	-0.0951068	-3.14159	0.550699	0.143257	0	0	0.155195	0.143257	0	0.107442	0	0	0	0	0	0	0	0.000000000	0	0.788798	-0.788798	0	0.828698	-1.5708	0	0.1	0.1	0.1	0.1	0.1	0.1	0.1	0	0	0	0	0	0	0	0.000000000
1504274729.816001892	-0.768524	-0.14266	-1.43274	1.00476	-0.0905049	-3.14313	0.550699	0.191009	0	0	0.250699	0.143257	0	0	0	0	0	0	0	0	0	0.000000000	0	0.788798	-0.788798	0	0.828698	-1.5708	0	0.1	0.1	0.1	0.1	0.1	0.1	0.1	0	0	0	0	0	0	0	0.000000000
1504274729.836055994	-0.763922	-0.141126	-1.43274	0.998621	-0.0889709	-3.14159	0.549165	0.238761	0	0	0.298451	0.143257	0	0	0	0	0	0	0	0	0	0.000000000	0	0.788798	-0.788798	0	0.828698	-1.5708	0	0.1	0.1	0.1	0.1	0.1	0.1	0.1	0	0	0	0	0	0	0	0.000000000
1504274729.856061935	-0.757787	-0.141126	-1.4312	0.987884	-0.0859029	-3.14313	0.547631	0.238761	0	0	0.393956	0.143257	0	0	0	0	0	0	0	0	0	0.000000000	0	0.788798	-0.788798	0	0.828698	-1.5708	0	0.1	0.1	0.1	0.1	0.1	0.1	0.1	0	0	0	0	0	0	0	0.000000000
1504274729.876044034	-0.750117	-0.141126	-1.43274	0.980214	-0.082835	-3.14159	0.544563	0.286513	0	0	0.346204	0.0955044	0	0.107442	0	0	0	0	0	0	0	0.000000000	0	0.788798	-0.788798	0	0.828698	-1.5708	0	0.1	0.1	0.1	0.1	0.1	0.1	0.1	0	0	0	0	0	0	0	0.000000000
1504274729.896002054	-0.745515	-0.136524	-1.43427	0.975612	-0.081301	-3.14159	0.541495	0.191009	0.143257	0	0.202947	0.0955044	0	0.155195	0	0	0	0	0	0	0	0.000000000	0	0.788798	-0.788798	0	0.828698	-1.5708	0	0.1	0.1	0.1	0.1	0.1	0.1	0.1	0	0	0	0	0	0	0	0.000000000
1504274729.916053056	-0.745515	-0.136524	-1.43427	0.975612	-0.081301	-3.14159	0.541495	0.191009	0.143257	0	0.202947	0.0955044	0	0.155195	0	0	0	0	0	0	0	0.000000000	0	0.788798	-0.788798	0	0.828698	-1.5708	0	0.1	0.1	0.1	0.1	0.1	0.1	0.1	0	0	0	0	0	0	0	0.000000000
1504274729.936104059	-0.743981	-0.130388	-1.44041	0.972544	-0.079767	-3.14159	0.536893	0.0955044	0.191009	0.202947	0.107442	0	0	0.155195	0	0	0	0	0	0	0	0.000000000	0	0.788798	-0.788798	0	0.828698	-1.5708	0	0.1	0.1	0.1	0.1	0.1	0.1	0.1	0	0	0	0	0	0	0	0.000000000
1504274729.957675933	-0.736311	-0.124252	-1.44961	0.964874	-0.0751651	-3.14313	0.532291	0.238761	0.238761	0.346204	0.298451	0.143257	0	0.155195	0	0	0	0	0	0	0	0.000000000	0	0.788798	-0.788798	0	0.828698	-1.5708	0	0.1	0.1	0.1	0.1	0.1	0.1	0.1	0	0	0	0	0	0	0	0.000000000
1504274729.976126909	-0.730175	-0.116583	-1.46035	0.952602	-0.0720971	-3.14313	0.526155	0.238761	0.238761	0.393956	0.393956	0.0955044	0	0.202947	0	0	0	0	0	0	0	0.000000000	0	0.788798	-0.788798	0	0.828698	-1.5708	0	0.1	0.1	0.1	0.1	0.1	0.1	0.1	0	0	0	0	0	0	0	0.000000000
1504274729.996041059	-0.722505	-0.110447	-1.46649	0.944932	-0.0720971	-3.14159	0.521553	0.286513	0.238761	0.250699	0.346204	0	0	0.202947	0	0	0	0	0	0	0	0.000000000	0	0.788798	-0.788798	0	0.828698	-1.5708	0	0.1	0.1	0.1	0.1	0.1	0.1	0.1	0	0	0	0	0	0	0	0.000000000
1504274730.016033887	-0.722505	-0.110447	-1.46649	0.944932	-0.0720971	-3.14159	0.521553	0.286513	0.238761	0.250699	0.346204	0	0	0.202947	0	0	0	0	0	0	0	0.000000000	0	0.788798	-0.788798	0	0.828698	-1.5708	0	0.1	0.1	0.1	0.1	0.1	0.1	0.1	0	0	0	0	0	0	0	0.000000000
1504274730.036075115	-0.716369	-0.107379	-1.46955	0.94033	-0.0690291	-3.14313	0.515418	0.238761	0.143257	0.155195	0.202947	0.0955044	0	0.202947	0	0	0	0	0	0	0	0.000000000	0	0.788798	-0.788798	0	0.828698	-1.5708	0	0.1	0.1	0.1	0.1	0.1	0.1	0.1	0	0	0	0	0	0	0	0.000000000
1504274730.056330919	-0.711767	-0.105845	-1.47109	0.931126	-0.0644272	-3.14313	0.510816	0.143257	0	0	0.298451	0.143257	0	0.155195	0	0	0	0	0	0	0	0.000000000	0	0.788798	-0.788798	0	0.828698	-1.5708	0	0.1	0.1	0.1	0.1	0.1	0.1	0.1	0	0	0	0	0	0	0	0.000000000
1504274730.076031923	-0.705631	-0.107379	-1.47109	0.923456	-0.0628932	-3.14159	0.506214	0.191009	0	0	0.298451	0.0955044	0	0.202947	0	0	0	0	0	0	0	0.000000000	0	0.788798	-0.788798	0	0.828698	-1.5708	0	0.1	0.1	0.1	0.1	0.1	0.1	0.1	0	0	0	0	0	0	0	0.000000000
1504274730.096295118	-0.697961	-0.107379	-1.47109	0.923456	-0.0628932	-3.14159	0.506214	0.286513	0	0	0.298451	0.0955044	0	0.202947	0	0	0	0	0	0	0	0.000000000	0	0.788798	-0.788798	0	0.828698	-1.5708	0	0.1	0.1	0.1	0.1	0.1	0.1	0.1	0	0	0	0	0	0	0	0.000000000
1504274730.116050004	-0.697961	-0.107379	-1.47109	0.912719	-0.0598253	-3.14313	0.501612	0.286513	0	0	0.346204	0.0955044	0	0.155195	0	0	0	0	0	0	0	0.000000000	0	0.788798	-0.788798	0	0.828698	-1.5708	0	0.1	0.1	0.1	0.1	0.1	0.1	0.1	0	0	0	0	0	0	0	0.000000000
