DingWan/Reconbot3Ddemo/02_MATLAB_Code/sensors_data/encoders_data.txt
time_stamp	actual_pos_joint_4	actual_pos_joint_5	actual_pos_joint_3	actual_pos_joint_1	actual_pos_joint_2	actual_pos_joint_6	actual_pos_joint_7	actual_vel_joint_4	actual_vel_joint_5	actual_vel_joint_3	actual_vel_joint_1	actual_vel_joint_2	actual_vel_joint_6	actual_vel_joint_7	actual_acc_joint_4	actual_acc_joint_5	actual_acc_joint_3	actual_acc_joint_1	actual_acc_joint_2	actual_acc_joint_6	actual_acc_joint_7	actual_time_from_start	desired_pos_joint_4	desired_pos_joint_5	desired_pos_joint_3	desired_pos_joint_1	desired_pos_joint_2	desired_pos_joint_6	desired_pos_joint_7	desired_vel_joint_4	desired_vel_joint_5	desired_vel_joint_3	desired_vel_joint_1	desired_vel_joint_2	desired_vel_joint_6	desired_vel_joint_7	desired_acc_joint_4	desired_acc_joint_5	desired_acc_joint_3	desired_acc_joint_1	desired_acc_joint_2	desired_acc_joint_6	desired_acc_joint_7	desired_time_from_start
1504255360.552124023	-0.713301	-0.493942	-1.08452	-0.222427	-0.48934	-3.14159	-0.00920388	0	0	0	0	0	0	0	0	0	0	0	0	0	0	0.000000000	0	0	0	0	0	0	0	0	0	0	0	0	0	0	0	0	0	0	0	0	0	0.000000000
1504255360.571803092	-0.713301	-0.493942	-1.08452	-0.223961	-0.48934	-3.14159	-0.00920388	0	0	0	0	0	0	0	0	0	0	0	0	0	0	0.000000000	0	0	0	0	0	0	0	0	0	0	0	0	0	0	0	0	0	0	0	0	0	0.000000000
1504255360.591784000	-0.713301	-0.493942	-1.08452	-0.222427	-0.48934	-3.14159	-0.00920388	0	0	0	0	0	0	0	0	0	0	0	0	0	0	0.000000000	0	0	0	0	0	0	0	0	0	0	0	0	0	0	0	0	0	0	0	0	0	0.000000000
1504255360.611798048	-0.713301	-0.495476	-1.08452	-0.222427	-0.48934	-3.14159	-0.00920388	0	0	0	0	0	0	0	0	0	0	0	0	0	0	0.000000000	0	0	0	0	0	0	0	0	0	0	0	0	0	0	0	0	0	0	0	0	0	0.000000000
1504255360.632399082	-0.713301	-0.495476	-1.08452	-0.222427	-0.48934	-3.14159	-0.00920388	0	0	0	0	0	0	0	0	0	0	0	0	0	0	0.000000000	0	0	0	0	0	0	0	0	0	0	0	0	0	0	0	0	0	0	0	0	0	0.000000000
1504255360.651776075	-0.713301	-0.493942	-1.08452	-0.222427	-0.487806	-3.14159	-0.00920388	0	0	0	0	0	0	0	0	0	0	0	0	0	0	0.000000000	0	0	0	0	0	0	0	0	0	0	0	0	0	0	0	0	0	0	0	0	0	0.000000000
1504255360.671801090	-0.714835	-0.493942	-1.08452	-0.223961	-0.48934	-3.14159	-0.00920388	0	0	0	0	0	0	0	0	0	0	0	0	0	0	0.000000000	0	0	0	0	0	0	0	0	0	0	0	0	0	0	0	0	0	0	0	0	0	0.000000000
1504255360.691818952	-0.713301	-0.493942	-1.08452	-0.222427	-0.48934	-3.14159	-0.00920388	0	0	0	0	0	0	0	0	0	0	0	0	0	0	0.000000000	0	0	0	0	0	0	0	0	0	0	0	0	0	0	0	0	0	0	0	0	0	0.000000000
1504255360.711782932	-0.713301	-0.493942	-1.08452	-0.222427	-0.48934	-3.14159	-0.0076699	0	0	0	0	0	0	0	0	0	0	0	0	0	0	0.000000000	0	0	0	0	0	0	0	0	0	0	0	0	0	0	0	0	0	0	0	0	0	0.000000000
1504255360.732065916	-0.713301	-0.493942	-1.08452	-0.222427	-0.48934	-3.14159	-0.0076699	0	0	0	0	0	0	0	0	0	0	0	0	0	0	0.000000000	0	0	0	0	0	0	0	0	0	0	0	0	0	0	0	0	0	0	0	0	0	0.000000000
1504255360.752444982	-0.713301	-0.493942	-1.08452	-0.223961	-0.48934	-3.14159	-0.0076699	0	0	0	0	0	0	0	0	0	0	0	0	0	0	0.000000000	0	0	0	0	0	0	0	0	0	0	0	0	0	0	0	0	0	0	0	0	0	0.000000000
1504255360.772826910	-0.713301	-0.493942	-1.08452	-0.222427	-0.48934	-3.14159	-0.00920388	0	0	0	0	0	0	0	0	0	0	0	0	0	0	0.000000000	0	0	0	0	0	0	0	0	0	0	0	0	0	0	0	0	0	0	0	0	0	0.000000000
1504255360.792033910	-0.713301	-0.493942	-1.08452	-0.222427	-0.48934	-3.14159	-0.00920388	0	0	0	0	0	0	0	0	0	0	0	0	0	0	0.000000000	0	0	0	0	0	0	0	0	0	0	0	0	0	0	0	0	0	0	0	0	0	0.000000000
1504255360.811880111	-0.713301	-0.493942	-1.08452	-0.222427	-0.48934	-3.14159	-0.00920388	0	0	0	0	0	0	0	0	0	0	0	0	0	0	0.000000000	0	0	0	0	0	0	0	0	0	0	0	0	0	0	0	0	0	0	0	0	0	0.000000000
1504255360.832398891	-0.714835	-0.493942	-1.08452	-0.222427	-0.48934	-3.14159	-0.00920388	0	0	0	0	0	0	0	0	0	0	0	0	0	0	0.000000000	0	0	0	0	0	0	0	0	0	0	0	0	0	0	0	0	0	0	0	0	0	0.000000000
1504255360.851949930	-0.714835	-0.493942	-1.08452	-0.223961	-0.48934	-3.14159	-0.00920388	0	0	0	0	0	0	0	0	0	0	0	0	0	0	0.000000000	0	0	0	0	0	0	0	0	0	0	0	0	0	0	0	0	0	0	0	0	0	0.000000000
1504255360.871829032	-0.713301	-0.493942	-1.08452	-0.222427	-0.48934	-3.14159	-0.0076699	0	0	0	0	0	0	0	0	0	0	0	0	0	0	0.000000000	0	0	0	0	0	0	0	0	0	0	0	0	0	0	0	0	0	0	0	0	0	0.000000000
1504255360.891835927	-0.713301	-0.495476	-1.08452	-0.222427	-0.48934	-3.14159	-0.00920388	0	0	0	0	0	0	0	0	0	0	0	0	0	0	0.000000000	0	0	0	0	0	0	0	0	0	0	0	0	0	0	0	0	0	0	0	0	0	0.000000000
1504255360.911845922	-0.713301	-0.493942	-1.08452	-0.223961	-0.48934	-3.14159	-0.00920388	0	0	0	0	0	0	0	0	0	0	0	0	0	0	0.000000000	0	0	0	0	0	0	0	0	0	0	0	0	0	0	0	0	0	0	0	0	0	0.000000000
1504255360.932113885	-0.713301	-0.493942	-1.08452	-0.223961	-0.48934	-3.14159	-0.00920388	0	0	0	0	0	0	0	0	0	0	0	0	0	0	0.000000000	0	0	0	0	0	0	0	0	0	0	0	0	0	0	0	0	0	0	0	0	0	0.000000000
1504255360.951988935	-0.713301	-0.493942	-1.08452	-0.222427	-0.48934	-3.14159	-0.00920388	0	0	0	0	0	0	0	0	0	0	0	0	0	0	0.000000000	0	0	0	0	0	0	0	0	0	0	0	0	0	0	0	0	0	0	0	0	0	0.000000000
1504255360.971976041	-0.713301	-0.493942	-1.08452	-0.223961	-0.48934	-3.14159	-0.00920388	0	0	0	0	0	0	0	0	0	0	0	0	0	0	0.000000000	0	0	0	0	0	0	0	0	0	0	0	0	0	0	0	0	0	0	0	0	0	0.000000000
1504255360.991946935	-0.713301	-0.495476	-1.08452	-0.223961	-0.48934	-3.14159	-0.0076699	0	0	0	0	0	0	0	0	0	0	0	0	0	0	0.000000000	0	0	0	0	0	0	0	0	0	0	0	0	0	0	0	0	0	0	0	0	0	0.000000000
1504255361.013148069	-0.713301	-0.493942	-1.08452	-0.223961	-0.48934	-3.14159	-0.00920388	0	0	0	0	0	0	0	0	0	0	0	0	0	0	0.000000000	0	0	0	0	0	0	0	0	0	0	0	0	0	0	0	0	0	0	0	0	0	0.000000000
1504255361.032785892	-0.713301	-0.493942	-1.08452	-0.223961	-0.48934	-3.14159	-0.00920388	0	0	0	0	0	0	0	0	0	0	0	0	0	0	0.000000000	0	0	0	0	0	0	0	0	0	0	0	0	0	0	0	0	0	0	0	0	0	0.000000000
1504255361.052522897	-0.713301	-0.493942	-1.08452	-0.222427	-0.48934	-3.14159	-0.00920388	0	0	0	0	0	0	0	0	0	0	0	0	0	0	0.000000000	0	0	0	0	0	0	0	0	0	0	0	0	0	0	0	0	0	0	0	0	0	0.000000000
1504255361.073210954	-0.713301	-0.493942	-1.08452	-0.222427	-0.48934	-3.14159	-0.00920388	0	0	0	0	0	0	0	0	0	0	0	0	0	0	0.000000000	0	0	0	0	0	0	0	0	0	0	0	0	0	0	0	0	0	0	0	0	0	0.000000000
1504255361.092055082	-0.713301	-0.495476	-1.08452	-0.222427	-0.48934	-3.14159	-0.00920388	0	0	0	0	0	0	0	0	0	0	0	0	0	0	0.000000000	0	0	0	0	0	0	0	0	0	0	0	0	0	0	0	0	0	0	0	0	0	0.000000000
1504255361.113522052	-0.713301	-0.493942	-1.08452	-0.223961	-0.48934	-3.14159	-0.00920388	0	0	0	0	0	0	0	0	0	0	0	0	0	0	0.000000000	0	0	0	0	0	0	0	0	0	0	0	0	0	0	0	0	0	0	0	0	0	0.000000000
1504255361.131999015	-0.713301	-0.493942	-1.08452	-0.223961	-0.48934	-3.14159	-0.00920388	0	0	0	0	0	0	0	0	0	0	0	0	0	0	0.000000000	0	0	0	0	0	0	0	0	0	0	0	0	0	0	0	0	0	0	0	0	0	0.000000000
1504255361.151942968	-0.713301	-0.493942	-1.08452	-0.223961	-0.48934	-3.14159	-0.00920388	0	0	0	0	0	0	0	0	0	0	0	0	0	0	0.000000000	0	0	0	0	0	0	0	0	0	0	0	0	0	0	0	0	0	0	0	0	0	0.000000000
1504255361.172142028	-0.714835	-0.493942	-1.08299	-0.222427	-0.48934	-3.14159	-0.00920388	0	0	0	0	0	0	0	0	0	0	0	0	0	0	0.000000000	0	0	0	0	0	0	0	0	0	0	0	0	0	0	0	0	0	0	0	0	0	0.000000000
1504255361.192018985	-0.713301	-0.493942	-1.08452	-0.222427	-0.48934	-3.14159	-0.0076699	0	0	0	0	0	0	0	0	0	0	0	0	0	0	0.000000000	0	0	0	0	0	0	0	0	0	0	0	0	0	0	0	0	0	0	0	0	0	0.000000000
1504255361.215949058	-0.713301	-0.493942	-1.08452	-0.222427	-0.48934	-3.14159	-0.00920388	0	0	0	0	0	0	0	0	0	0	0	0	0	0	0.000000000	0	0	0	0	0	0	0	0	0	0	0	0	0	0	0	0	0	0	0	0	0	0.000000000
1504255361.232450008	-0.713301	-0.493942	-1.08452	-0.222427	-0.48934	-3.14159	-0.00920388	0	0	0	0	0	0	0	0	0	0	0	0	0	0	0.000000000	0	0	0	0	0	0	0	0	0	0	0	0	0	0	0	0	0	0	0	0	0	0.000000000
1504255361.254338979	-0.713301	-0.493942	-1.08452	-0.223961	-0.48934	-3.14159	-0.00920388	0	0	0	0	0	0	0	0	0	0	0	0	0	0	0.000000000	0	0	0	0	0	0	0	0	0	0	0	0	0	0	0	0	0	0	0	0	0	0.000000000
1504255361.275136947	-0.713301	-0.493942	-1.08452	-0.222427	-0.48934	-3.14159	-0.00920388	0	0	0	0	0	0	0	0	0	0	0	0	0	0	0.000000000	0	0	0	0	0	0	0	0	0	0	0	0	0	0	0	0	0	0	0	0	0	0.000000000
1504255361.292475938	-0.713301	-0.493942	-1.08452	-0.222427	-0.48934	-3.14159	-0.00920388	0	0	0	0	0	0	0	0	0	0	0	0	0	0	0.000000000	0	0	0	0	0	0	0	0	0	0	0	0	0	0	0	0	0	0	0	0	0	0.000000000
1504255361.312027931	-0.713301	-0.493942	-1.08452	-0.222427	-0.48934	-3.14159	-0.00920388	0	0	0	0	0	0	0	0	0	0	0	0	0	0	0.000000000	0	0	0	0	0	0	0	0	0	0	0	0	0	0	0	0	0	0	0	0	0	0.000000000
1504255361.332058906	-0.713301	-0.493942	-1.08452	-0.222427	-0.48934	-3.14159	-0.00920388	0	0	0	0	0	0	0	0	0	0	0	0	0	0	0.000000000	0	0	0	0	0	0	0	0	0	0	0	0	0	0	0	0	0	0	0	0	0	0.000000000
1504255361.352061986	-0.714835	-0.495476	-1.08452	-0.222427	-0.48934	-3.14159	-0.00920388	0	0	0	0	0	0	0	0	0	0	0	0	0	0	0.000000000	0	0	0	0	0	0	0	0	0	0	0	0	0	0	0	0	0	0	0	0	0	0.000000000
1504255361.372091054	-0.713301	-0.495476	-1.08452	-0.223961	-0.48934	-3.14159	-0.00920388	0	0	0	0	0	0	0	0	0	0	0	0	0	0	0.000000000	0	0	0	0	0	0	0	0	0	0	0	0	0	0	0	0	0	0	0	0	0	0.000000000
1504255361.392024993	-0.713301	-0.495476	-1.08452	-0.223961	-0.48934	-3.14159	-0.00920388	0	0	0	0	0	0	0	0	0	0	0	0	0	0	0.000000000	0	0	0	0	0	0	0	0	0	0	0	0	0	0	0	0	0	0	0	0	0	0.000000000
1504255361.412714004	-0.713301	-0.493942	-1.08452	-0.222427	-0.487806	-3.14159	-0.00920388	0	0	0	0	0	0	0	0	0	0	0	0	0	0	0.000000000	0	0	0	0	0	0	0	0	0	0	0	0	0	0	0	0	0	0	0	0	0	0.000000000
1504255361.432013988	-0.713301	-0.493942	-1.08452	-0.222427	-0.487806	-3.14159	-0.00920388	0	0	0	0	0	0	0	0	0	0	0	0	0	0	0.000000000	0	0	0	0	0	0	0	0	0	0	0	0	0	0	0	0	0	0	0	0	0	0.000000000
1504255361.452480077	-0.713301	-0.493942	-1.08452	-0.223961	-0.487806	-3.14159	-0.00920388	0	0	0	0	0	0	0	0	0	0	0	0	0	0	0.000000000	0	0	0	0	0	0	0	0	0	0	0	0	0	0	0	0	0	0	0	0	0	0.000000000
1504255361.472091913	-0.713301	-0.493942	-1.08452	-0.222427	-0.48934	-3.14159	-0.00920388	0	0	0	0	0	0	0	0	0	0	0	0	0	0	0.000000000	0	0	0	0	0	0	0	0	0	0	0	0	0	0	0	0	0	0	0	0	0	0.000000000
1504255361.492037057	-0.713301	-0.495476	-1.08452	-0.222427	-0.48934	-3.14159	-0.00920388	0	0	0	0	0	0	0	0	0	0	0	0	0	0	0.000000000	0	0	0	0	0	0	0	0	0	0	0	0	0	0	0	0	0	0	0	0	0	0.000000000
1504255361.514281988	-0.713301	-0.493942	-1.08452	-0.222427	-0.48934	-3.14159	-0.00920388	0	0	0	0	0	0	0	0	0	0	0	0	0	0	0.000000000	0	0	0	0	0	0	0	0	0	0	0	0	0	0	0	0	0	0	0	0	0	0.000000000
1504255361.532007932	-0.713301	-0.493942	-1.08452	-0.222427	-0.48934	-3.14159	-0.00920388	0	0	0	0	0	0	0	0	0	0	0	0	0	0	0.000000000	0	0	0	0	0	0	0	0	0	0	0	0	0	0	0	0	0	0	0	0	0	0.000000000
1504255361.552963972	-0.713301	-0.495476	-1.08452	-0.223961	-0.48934	-3.14159	-0.00920388	0	0	0	0	0	0	0	0	0	0	0	0	0	0	0.000000000	0	0	0	0	0	0	0	0	0	0	0	0	0	0	0	0	0	0	0	0	0	0.000000000
1504255361.572113037	-0.713301	-0.493942	-1.08452	-0.222427	-0.48934	-3.14159	-0.0076699	0	0	0	0	0	0	0	0	0	0	0	0	0	0	0.000000000	0	0	0	0	0	0	0	0	0	0	0	0	0	0	0	0	0	0	0	0	0	0.000000000
1504255361.591994047	-0.713301	-0.493942	-1.08452	-0.222427	-0.48934	-3.14159	-0.00920388	0	0	0	0	0	0	0	0	0	0	0	0	0	0	0.000000000	0	0	0	0	0	0	0	0	0	0	0	0	0	0	0	0	0	0	0	0	0	0.000000000
1504255361.613240003	-0.713301	-0.493942	-1.08452	-0.222427	-0.48934	-3.14159	-0.00920388	0	0	0	0	0	0	0	0	0	0	0	0	0	0	0.000000000	0	0	0	0	0	0	0	0	0	0	0	0	0	0	0	0	0	0	0	0	0	0.000000000
1504255361.632453918	-0.713301	-0.495476	-1.08452	-0.223961	-0.48934	-3.14159	-0.00920388	0	0	0	0	0	0	0	0	0	0	0	0	0	0	0.000000000	0	0	0	0	0	0	0	0	0	0	0	0	0	0	0	0	0	0	0	0	0	0.000000000
1504255361.652642011	-0.713301	-0.495476	-1.08452	-0.223961	-0.48934	-3.14159	-0.00920388	0	0	0	0	0	0	0	0	0	0	0	0	0	0	0.000000000	0	0	0	0	0	0	0	0	0	0	0	0	0	0	0	0	0	0	0	0	0	0.000000000
1504255361.672585010	-0.713301	-0.495476	-1.08452	-0.223961	-0.48934	-3.14159	-0.00920388	0	0	0	0	0	0	0	0	0	0	0	0	0	0	0.000000000	0	0	0	0	0	0	0	0	0	0	0	0	0	0	0	0	0	0	0	0	0	0.000000000
1504255361.692461967	-0.713301	-0.495476	-1.08452	-0.223961	-0.48934	-3.14159	-0.00920388	0	0	0	0	0	0	0	0	0	0	0	0	0	0	0.000000000	0	0	0	0	0	0	0	0	0	0	0	0	0	0	0	0	0	0	0	0	0	0.000000000
1504255361.712909936	-0.713301	-0.495476	-1.08452	-0.223961	-0.48934	-3.14159	-0.00920388	0	0	0	0	0	0	0	0	0	0	0	0	0	0	0.000000000	0	0	0	0	0	0	0	0	0	0	0	0	0	0	0	0	0	0	0	0	0	0.000000000
1504255361.732295036	-0.713301	-0.493942	-1.08452	-0.222427	-0.48934	-3.14159	-0.00920388	0	0	0	0	0	0	0	0	0	0	0	0	0	0	0.000000000	0	0	0	0	0	0	0	0	0	0	0	0	0	0	0	0	0	0	0	0	0	0.000000000
1504255361.753361940	-0.713301	-0.493942	-1.08452	-0.223961	-0.48934	-3.14159	-0.00920388	0	0	0	0	0	0	0	0	0	0	0	0	0	0	0.000000000	0	0	0	0	0	0	0	0	0	0	0	0	0	0	0	0	0	0	0	0	0	0.000000000
1504255361.771997928	-0.713301	-0.493942	-1.08452	-0.223961	-0.48934	-3.14159	-0.00920388	0	0	0	0	0	0	0	0	0	0	0	0	0	0	0.000000000	0	0	0	0	0	0	0	0	0	0	0	0	0	0	0	0	0	0	0	0	0	0.000000000
1504255361.791914939	-0.713301	-0.493942	-1.08452	-0.222427	-0.48934	-3.14159	-0.00920388	0	0	0	0	0	0	0	0	0	0	0	0	0	0	0.000000000	0	0	0	0	0	0	0	0	0	0	0	0	0	0	0	0	0	0	0	0	0	0.000000000
1504255361.812130928	-0.713301	-0.493942	-1.08452	-0.222427	-0.48934	-3.14159	-0.00920388	0	0	0	0	0	0	0	0	0	0	0	0	0	0	0.000000000	0	0	0	0	0	0	0	0	0	0	0	0	0	0	0	0	0	0	0	0	0	0.000000000
1504255361.832483053	-0.713301	-0.495476	-1.08452	-0.223961	-0.48934	-3.14159	-0.0076699	0	0	0	0	0	0	0	0	0	0	0	0	0	0	0.000000000	0	0	0	0	0	0	0	0	0	0	0	0	0	0	0	0	0	0	0	0	0	0.000000000
1504255361.852610111	-0.713301	-0.493942	-1.08452	-0.223961	-0.48934	-3.14159	-0.0076699	0	0	0	0	0	0	0	0	0	0	0	0	0	0	0.000000000	0	0	0	0	0	0	0	0	0	0	0	0	0	0	0	0	0	0	0	0	0	0.000000000
1504255361.871958017	-0.713301	-0.495476	-1.08452	-0.223961	-0.48934	-3.14159	-0.00920388	0	0	0	0	0	0	0	0	0	0	0	0	0	0	0.000000000	0	0	0	0	0	0	0	0	0	0	0	0	0	0	0	0	0	0	0	0	0	0.000000000
1504255361.892019033	-0.713301	-0.493942	-1.08452	-0.223961	-0.48934	-3.14159	-0.0076699	0	0	0	0	0	0	0	0	0	0	0	0	0	0	0.000000000	0	0	0	0	0	0	0	0	0	0	0	0	0	0	0	0	0	0	0	0	0	0.000000000
1504255361.913451910	-0.713301	-0.495476	-1.08452	-0.222427	-0.48934	-3.14159	-0.00920388	0	0	0	0	0	0	0	0	0	0	0	0	0	0	0.000000000	0	0	0	0	0	0	0	0	0	0	0	0	0	0	0	0	0	0	0	0	0	0.000000000
1504255361.932137966	-0.713301	-0.495476	-1.08452	-0.222427	-0.48934	-3.14159	-0.00920388	0	0	0	0	0	0	0	0	0	0	0	0	0	0	0.000000000	0	0	0	0	0	0	0	0	0	0	0	0	0	0	0	0	0	0	0	0	0	0.000000000
1504255361.952357053	-0.713301	-0.495476	-1.08452	-0.222427	-0.48934	-3.14159	-0.00920388	0	0	0	0	0	0	0	0	0	0	0	0	0	0	0.000000000	0	0	0	0	0	0	0	0	0	0	0	0	0	0	0	0	0	0	0	0	0	0.000000000
1504255361.972506999	-0.713301	-0.493942	-1.08452	-0.222427	-0.48934	-3.14159	-0.00920388	0	0	0	0	0	0	0	0	0	0	0	0	0	0	0.000000000	0	0	0	0	0	0	0	0	0	0	0	0	0	0	0	0	0	0	0	0	0	0.000000000
1504255361.991956949	-0.713301	-0.493942	-1.08452	-0.223961	-0.48934	-3.14159	-0.00920388	0	0	0	0	0	0	0	0	0	0	0	0	0	0	0.000000000	0	0	0	0	0	0	0	0	0	0	0	0	0	0	0	0	0	0	0	0	0	0.000000000
1504255362.013067960	-0.713301	-0.493942	-1.08452	-0.222427	-0.48934	-3.14159	-0.00920388	0	0	0	0	0	0	0	0	0	0	0	0	0	0	0.000000000	0	0	0	0	0	0	0	0	0	0	0	0	0	0	0	0	0	0	0	0	0	0.000000000
1504255362.032416105	-0.713301	-0.493942	-1.08452	-0.222427	-0.48934	-3.14159	-0.00920388	0	0	0	0	0	0	0	0	0	0	0	0	0	0	0.000000000	0	0	0	0	0	0	0	0	0	0	0	0	0	0	0	0	0	0	0	0	0	0.000000000
1504255362.052604913	-0.713301	-0.493942	-1.08452	-0.223961	-0.48934	-3.14159	-0.00920388	0	0	0	0	0	0	0	0	0	0	0	0	0	0	0.000000000	0	0	0	0	0	0	0	0	0	0	0	0	0	0	0	0	0	0	0	0	0	0.000000000
1504255362.072160005	-0.713301	-0.493942	-1.08452	-0.222427	-0.48934	-3.14159	-0.00920388	0	0	0	0	0	0	0	0	0	0	0	0	0	0	0.000000000	0	0	0	0	0	0	0	0	0	0	0	0	0	0	0	0	0	0	0	0	0	0.000000000
1504255362.094466924	-0.713301	-0.493942	-1.08452	-0.222427	-0.48934	-3.14159	-0.00920388	0	0	0	0	0	0	0	0	0	0	0	0	0	0	0.000000000	0	0	0	0	0	0	0	0	0	0	0	0	0	0	0	0	0	0	0	0	0	0.000000000
1504255362.113331079	-0.713301	-0.493942	-1.08452	-0.222427	-0.48934	-3.14159	-0.00920388	0	0	0	0	0	0	0	0	0	0	0	0	0	0	0.000000000	0	0	0	0	0	0	0	0	0	0	0	0	0	0	0	0	0	0	0	0	0	0.000000000
1504255362.135184049	-0.713301	-0.493942	-1.08452	-0.222427	-0.48934	-3.14159	-0.00920388	0	0	0	0	0	0	0	0	0	0	0	0	0	0	0.000000000	0	0	0	0	0	0	0	0	0	0	0	0	0	0	0	0	0	0	0	0	0	0.000000000
1504255362.152142047	-0.713301	-0.493942	-1.08452	-0.223961	-0.48934	-3.14159	-0.00920388	0	0	0	0	0	0	0	0	0	0	0	0	0	0	0.000000000	0	0	0	0	0	0	0	0	0	0	0	0	0	0	0	0	0	0	0	0	0	0.000000000
1504255362.172085046	-0.713301	-0.493942	-1.08452	-0.222427	-0.48934	-3.14159	-0.00920388	0	0	0	0	0	0	0	0	0	0	0	0	0	0	0.000000000	0	0	0	0	0	0	0	0	0	0	0	0	0	0	0	0	0	0	0	0	0	0.000000000
1504255362.192044019	-0.713301	-0.493942	-1.08452	-0.223961	-0.48934	-3.14159	-0.00920388	0	0	0	0	0	0	0	0	0	0	0	0	0	0	0.000000000	0	0	0	0	0	0	0	0	0	0	0	0	0	0	0	0	0	0	0	0	0	0.000000000
1504255362.212675094	-0.713301	-0.495476	-1.08452	-0.222427	-0.48934	-3.14159	-0.00920388	0	0	0	0	0	0	0	0	0	0	0	0	0	0	0.000000000	0	0	0	0	0	0	0	0	0	0	0	0	0	0	0	0	0	0	0	0	0	0.000000000
1504255362.234193086	-0.713301	-0.495476	-1.08452	-0.222427	-0.48934	-3.14159	-0.00920388	0	0	0	0	0	0	0	0	0	0	0	0	0	0	0.000000000	0	0	0	0	0	0	0	0	0	0	0	0	0	0	0	0	0	0	0	0	0	0.000000000
1504255362.255752086	-0.713301	-0.495476	-1.08452	-0.222427	-0.48934	-3.14159	-0.00920388	0	0	0	0	0	0	0	0	0	0	0	0	0	0	0.000000000	0	0	0	0	0	0	0	0	0	0	0	0	0	0	0	0	0	0	0	0	0	0.000000000
1504255362.272557020	-0.713301	-0.493942	-1.08452	-0.222427	-0.48934	-3.14159	-0.00920388	0	0	0	0	0	0	0	0	0	0	0	0	0	0	0.000000000	0	0	0	0	0	0	0	0	0	0	0	0	0	0	0	0	0	0	0	0	0	0.000000000
1504255362.292268037	-0.713301	-0.495476	-1.08452	-0.222427	-0.48934	-3.14159	-0.0076699	0	0	0	0	0	0	0	0	0	0	0	0	0	0	0.000000000	0	0	0	0	0	0	0	0	0	0	0	0	0	0	0	0	0	0	0	0	0	0.000000000
1504255362.312124967	-0.713301	-0.493942	-1.08452	-0.222427	-0.48934	-3.14159	-0.00920388	0	0	0	0	0	0	0	0	0	0	0	0	0	0	0.000000000	0	0	0	0	0	0	0	0	0	0	0	0	0	0	0	0	0	0	0	0	0	0.000000000
1504255362.332007884	-0.713301	-0.493942	-1.08452	-0.222427	-0.48934	-3.14159	-0.00920388	0	0	0	0	0	0	0	0	0	0	0	0	0	0	0.000000000	0	0	0	0	0	0	0	0	0	0	0	0	0	0	0	0	0	0	0	0	0	0.000000000
1504255362.352718114	-0.713301	-0.493942	-1.08452	-0.222427	-0.48934	-3.14159	-0.00920388	0	0	0	0	0	0	0	0	0	0	0	0	0	0	0.000000000	0	0	0	0	0	0	0	0	0	0	0	0	0	0	0	0	0	0	0	0	0	0.000000000
1504255362.372662067	-0.713301	-0.493942	-1.08452	-0.223961	-0.48934	-3.14159	-0.00920388	0	0	0	0	0	0	0	0	0	0	0	0	0	0	0.000000000	0	0	0	0	0	0	0	0	0	0	0	0	0	0	0	0	0	0	0	0	0	0.000000000
1504255362.392067909	-0.713301	-0.495476	-1.08452	-0.222427	-0.487806	-3.14159	-0.0076699	0	0	0	0	0	0	0	0	0	0	0	0	0	0	0.000000000	0	0	0	0	0	0	0	0	0	0	0	0	0	0	0	0	0	0	0	0	0	0.000000000
1504255362.412013053	-0.713301	-0.495476	-1.08452	-0.222427	-0.487806	-3.14159	-0.0076699	0	0	0	0	0	0	0	0	0	0	0	0	0	0	0.000000000	0	0	0	0	0	0	0	0	0	0	0	0	0	0	0	0	0	0	0	0	0	0.000000000
1504255362.432024002	-0.714835	-0.493942	-1.08452	-0.223961	-0.48934	-3.14159	-0.00920388	0	0	0	0	0	0	0	0	0	0	0	0	0	0	0.000000000	0	0	0	0	0	0	0	0	0	0	0	0	0	0	0	0	0	0	0	0	0	0.000000000
1504255362.452157020	-0.713301	-0.493942	-1.08452	-0.222427	-0.48934	-3.14159	-0.00920388	0	0	0	0	0	0	0	0	0	0	0	0	0	0	0.000000000	0	0	0	0	0	0	0	0	0	0	0	0	0	0	0	0	0	0	0	0	0	0.000000000
1504255362.472796916	-0.713301	-0.493942	-1.08452	-0.222427	-0.48934	-3.14159	-0.00920388	0	0	0	0	0	0	0	0	0	0	0	0	0	0	0.000000000	0	0	0	0	0	0	0	0	0	0	0	0	0	0	0	0	0	0	0	0	0	0.000000000
1504255362.492033004	-0.713301	-0.495476	-1.08452	-0.222427	-0.48934	-3.14159	-0.00920388	0	0	0	0	0	0	0	0	0	0	0	0	0	0	0.000000000	0	0	0	0	0	0	0	0	0	0	0	0	0	0	0	0	0	0	0	0	0	0.000000000
1504255362.512078046	-0.713301	-0.495476	-1.08452	-0.222427	-0.48934	-3.14159	-0.00920388	0	0	0	0	0	0	0	0	0	0	0	0	0	0	0.000000000	0	0	0	0	0	0	0	0	0	0	0	0	0	0	0	0	0	0	0	0	0	0.000000000
1504255362.532633066	-0.713301	-0.493942	-1.08452	-0.223961	-0.48934	-3.14159	-0.00920388	0	0	0	0	0	0	0	0	0	0	0	0	0	0	0.000000000	0	0	0	0	0	0	0	0	0	0	0	0	0	0	0	0	0	0	0	0	0	0.000000000
1504255362.556137084	-0.713301	-0.493942	-1.08452	-0.222427	-0.48934	-3.14159	-0.00920388	0	0	0	0	0	0	0	0	0	0	0	0	0	0	0.000000000	0	0	0	0	0	0	0	0	0	0	0	0	0	0	0	0	0	0	0	0	0	0.000000000
1504255362.571994066	-0.713301	-0.493942	-1.08452	-0.223961	-0.48934	-3.14159	-0.00920388	0	0	0	0	0	0	0	0	0	0	0	0	0	0	0.000000000	0	0	0	0	0	0	0	0	0	0	0	0	0	0	0	0	0	0	0	0	0	0.000000000
1504255362.592017889	-0.713301	-0.495476	-1.08452	-0.222427	-0.48934	-3.14159	-0.00920388	0	0	0	0	0	0	0	0	0	0	0	0	0	0	0.000000000	0	0	0	0	0	0	0	0	0	0	0	0	0	0	0	0	0	0	0	0	0	0.000000000
1504255362.611988067	-0.713301	-0.493942	-1.08452	-0.223961	-0.48934	-3.14159	-0.00920388	0	0	0	0	0	0	0	0	0	0	0	0	0	0	0.000000000	0	0	0	0	0	0	0	0	0	0	0	0	0	0	0	0	0	0	0	0	0	0.000000000
1504255362.632059097	-0.713301	-0.493942	-1.08452	-0.223961	-0.48934	-3.14159	-0.00920388	0	0	0	0	0	0	0	0	0	0	0	0	0	0	0.000000000	0	0	0	0	0	0	0	0	0	0	0	0	0	0	0	0	0	0	0	0	0	0.000000000
1504255362.652086973	-0.713301	-0.493942	-1.08452	-0.223961	-0.48934	-3.14159	-0.00920388	0	0	0	0	0	0	0	0	0	0	0	0	0	0	0.000000000	0	0	0	0	0	0	0	0	0	0	0	0	0	0	0	0	0	0	0	0	0	0.000000000
1504255362.672477006	-0.713301	-0.495476	-1.08452	-0.222427	-0.48934	-3.14159	-0.00920388	0	0	0	0	0	0	0	0	0	0	0	0	0	0	0.000000000	0	0	0	0	0	0	0	0	0	0	0	0	0	0	0	0	0	0	0	0	0	0.000000000
1504255362.692742109	-0.713301	-0.493942	-1.08452	-0.222427	-0.48934	-3.14159	-0.00920388	0	0	0	0	0	0	0	0	0	0	0	0	0	0	0.000000000	0	0	0	0	0	0	0	0	0	0	0	0	0	0	0	0	0	0	0	0	0	0.000000000
1504255362.712793111	-0.713301	-0.493942	-1.08452	-0.223961	-0.48934	-3.14159	-0.00920388	0	0	0	0	0	0	0	0	0	0	0	0	0	0	0.000000000	0	0	0	0	0	0	0	0	0	0	0	0	0	0	0	0	0	0	0	0	0	0.000000000
1504255362.732723951	-0.713301	-0.493942	-1.08452	-0.223961	-0.48934	-3.14159	-0.00920388	0	0	0	0	0	0	0	0	0	0	0	0	0	0	0.000000000	0	0	0	0	0	0	0	0	0	0	0	0	0	0	0	0	0	0	0	0	0	0.000000000
1504255362.753067016	-0.713301	-0.495476	-1.08452	-0.222427	-0.48934	-3.14159	-0.00920388	0	0	0	0	0	0	0	0	0	0	0	0	0	0	0.000000000	0	0	0	0	0	0	0	0	0	0	0	0	0	0	0	0	0	0	0	0	0	0.000000000
1504255362.772309064	-0.713301	-0.493942	-1.08452	-0.222427	-0.48934	-3.14159	-0.00920388	0	0	0	0	0	0	0	0	0	0	0	0	0	0	0.000000000	0	0	0	0	0	0	0	0	0	0	0	0	0	0	0	0	0	0	0	0	0	0.000000000
1504255362.792164087	-0.713301	-0.493942	-1.08299	-0.223961	-0.48934	-3.14159	-0.00920388	0	0	0	0	0	0	0	0	0	0	0	0	0	0	0.000000000	0	0	0	0	0	0	0	0	0	0	0	0	0	0	0	0	0	0	0	0	0	0.000000000
1504255362.814470052	-0.713301	-0.493942	-1.08452	-0.223961	-0.48934	-3.14159	-0.00920388	0	0	0	0	0	0	0	0	0	0	0	0	0	0	0.000000000	0	0	0	0	0	0	0	0	0	0	0	0	0	0	0	0	0	0	0	0	0	0.000000000
1504255362.832726955	-0.713301	-0.493942	-1.08452	-0.223961	-0.48934	-3.14159	-0.00920388	0	0	0	0	0	0	0	0	0	0	0	0	0	0	0.000000000	0	0	0	0	0	0	0	0	0	0	0	0	0	0	0	0	0	0	0	0	0	0.000000000
1504255362.852051019	-0.713301	-0.493942	-1.08452	-0.223961	-0.48934	-3.14159	-0.00920388	0	0	0	0	0	0	0	0	0	0	0	0	0	0	0.000000000	0	0	0	0	0	0	0	0	0	0	0	0	0	0	0	0	0	0	0	0	0	0.000000000
1504255362.872060060	-0.713301	-0.493942	-1.08452	-0.222427	-0.48934	-3.14159	-0.00920388	0	0	0	0	0	0	0	0	0	0	0	0	0	0	0.000000000	0	0	0	0	0	0	0	0	0	0	0	0	0	0	0	0	0	0	0	0	0	0.000000000
1504255362.892029047	-0.713301	-0.493942	-1.08452	-0.222427	-0.48934	-3.14159	-0.00920388	0	0	0	0	0	0	0	0	0	0	0	0	0	0	0.000000000	0	0	0	0	0	0	0	0	0	0	0	0	0	0	0	0	0	0	0	0	0	0.000000000
1504255362.912241935	-0.713301	-0.493942	-1.08452	-0.222427	-0.48934	-3.14159	-0.00920388	0	0	0	0	0	0	0	0	0	0	0	0	0	0	0.000000000	0	0	0	0	0	0	0	0	0	0	0	0	0	0	0	0	0	0	0	0	0	0.000000000
1504255362.934287071	-0.713301	-0.495476	-1.08452	-0.222427	-0.48934	-3.14159	-0.00920388	0	0	0	0	0	0	0	0	0	0	0	0	0	0	0.000000000	0	0	0	0	0	0	0	0	0	0	0	0	0	0	0	0	0	0	0	0	0	0.000000000
1504255362.952406883	-0.713301	-0.495476	-1.08452	-0.222427	-0.48934	-3.14159	-0.00920388	0	0	0	0	0	0	0	0	0	0	0	0	0	0	0.000000000	0	0	0	0	0	0	0	0	0	0	0	0	0	0	0	0	0	0	0	0	0	0.000000000
1504255362.974119901	-0.713301	-0.493942	-1.08452	-0.222427	-0.48934	-3.14159	-0.00920388	0	0	0	0	0	0	0	0	0	0	0	0	0	0	0.000000000	0	0	0	0	0	0	0	0	0	0	0	0	0	0	0	0	0	0	0	0	0	0.000000000
1504255362.992249965	-0.713301	-0.493942	-1.08452	-0.222427	-0.48934	-3.14159	-0.00920388	0	0	0	0	0	0	0	0	0	0	0	0	0	0	0.000000000	0	0	0	0	0	0	0	0	0	0	0	0	0	0	0	0	0	0	0	0	0	0.000000000
1504255363.011957883	-0.713301	-0.493942	-1.08452	-0.223961	-0.48934	-3.14159	-0.00920388	0	0	0	0	0	0	0	0	0	0	0	0	0	0	0.000000000	0	0	0	0	0	0	0	0	0	0	0	0	0	0	0	0	0	0	0	0	0	0.000000000
1504255363.032179117	-0.713301	-0.493942	-1.08452	-0.223961	-0.48934	-3.14159	-0.00920388	0	0	0	0	0	0	0	0	0	0	0	0	0	0	0.000000000	0	0	0	0	0	0	0	0	0	0	0	0	0	0	0	0	0	0	0	0	0	0.000000000
1504255363.052505970	-0.713301	-0.495476	-1.08452	-0.223961	-0.48934	-3.14159	-0.00920388	0	0	0	0	0	0	0	0	0	0	0	0	0	0	0.000000000	0	0	0	0	0	0	0	0	0	0	0	0	0	0	0	0	0	0	0	0	0	0.000000000
1504255363.072108983	-0.713301	-0.493942	-1.08452	-0.222427	-0.48934	-3.14159	-0.00920388	0	0	0	0	0	0	0	0	0	0	0	0	0	0	0.000000000	0	0	0	0	0	0	0	0	0	0	0	0	0	0	0	0	0	0	0	0	0	0.000000000
1504255363.092006921	-0.713301	-0.495476	-1.08452	-0.223961	-0.48934	-3.14159	-0.00920388	0	0	0	0	0	0	0	0	0	0	0	0	0	0	0.000000000	0	0	0	0	0	0	0	0	0	0	0	0	0	0	0	0	0	0	0	0	0	0.000000000
1504255363.113135099	-0.713301	-0.493942	-1.08452	-0.223961	-0.48934	-3.14159	-0.00920388	0	0	0	0	0	0	0	0	0	0	0	0	0	0	0.000000000	0	0	0	0	0	0	0	0	0	0	0	0	0	0	0	0	0	0	0	0	0	0.000000000
1504255363.132085084	-0.713301	-0.493942	-1.08452	-0.222427	-0.48934	-3.14159	-0.00920388	0	0	0	0	0	0	0	0	0	0	0	0	0	0	0.000000000	0	0	0	0	0	0	0	0	0	0	0	0	0	0	0	0	0	0	0	0	0	0.000000000
1504255363.153642892	-0.713301	-0.493942	-1.08452	-0.222427	-0.48934	-3.14159	-0.00920388	0	0	0	0	0	0	0	0	0	0	0	0	0	0	0.000000000	0	0	0	0	0	0	0	0	0	0	0	0	0	0	0	0	0	0	0	0	0	0.000000000
1504255363.172585964	-0.713301	-0.493942	-1.08452	-0.222427	-0.487806	-3.14159	-0.00920388	0	0	0	0	0	0	0	0	0	0	0	0	0	0	0.000000000	0	0	0	0	0	0	0	0	0	0	0	0	0	0	0	0	0	0	0	0	0	0.000000000
1504255363.192064046	-0.713301	-0.493942	-1.08452	-0.222427	-0.48934	-3.14159	-0.00920388	0	0	0	0	0	0	0	0	0	0	0	0	0	0	0.000000000	0	0	0	0	0	0	0	0	0	0	0	0	0	0	0	0	0	0	0	0	0	0.000000000
1504255363.212764024	-0.713301	-0.493942	-1.08452	-0.223961	-0.48934	-3.14159	-0.00920388	0	0	0	0	0	0	0	0	0	0	0	0	0	0	0.000000000	0	0	0	0	0	0	0	0	0	0	0	0	0	0	0	0	0	0	0	0	0	0.000000000
1504255363.232456922	-0.713301	-0.493942	-1.08452	-0.223961	-0.48934	-3.14159	-0.00920388	0	0	0	0	0	0	0	0	0	0	0	0	0	0	0.000000000	0	0	0	0	0	0	0	0	0	0	0	0	0	0	0	0	0	0	0	0	0	0.000000000
1504255363.252876043	-0.713301	-0.493942	-1.08452	-0.222427	-0.48934	-3.14159	-0.00920388	0	0	0	0	0	0	0	0	0	0	0	0	0	0	0.000000000	0	0	0	0	0	0	0	0	0	0	0	0	0	0	0	0	0	0	0	0	0	0.000000000
1504255363.272865056	-0.713301	-0.495476	-1.08452	-0.223961	-0.48934	-3.14159	-0.00920388	0	0	0	0	0	0	0	0	0	0	0	0	0	0	0.000000000	0	0	0	0	0	0	0	0	0	0	0	0	0	0	0	0	0	0	0	0	0	0.000000000
1504255363.292077064	-0.713301	-0.495476	-1.08452	-0.222427	-0.48934	-3.14159	-0.00920388	0	0	0	0	0	0	0	0	0	0	0	0	0	0	0.000000000	0	0	0	0	0	0	0	0	0	0	0	0	0	0	0	0	0	0	0	0	0	0.000000000
1504255363.315162897	-0.713301	-0.493942	-1.08452	-0.222427	-0.48934	-3.14159	-0.00920388	0	0	0	0	0	0	0	0	0	0	0	0	0	0	0.000000000	0	0	0	0	0	0	0	0	0	0	0	0	0	0	0	0	0	0	0	0	0	0.000000000
1504255363.333477973	-0.713301	-0.493942	-1.08452	-0.222427	-0.48934	-3.14159	-0.00920388	0	0	0	0	0	0	0	0	0	0	0	0	0	0	0.000000000	0	0	0	0	0	0	0	0	0	0	0	0	0	0	0	0	0	0	0	0	0	0.000000000
1504255363.353205919	-0.713301	-0.495476	-1.08452	-0.222427	-0.48934	-3.14159	-0.00920388	0	0	0	0	0	0	0	0	0	0	0	0	0	0	0.000000000	0	0	0	0	0	0	0	0	0	0	0	0	0	0	0	0	0	0	0	0	0	0.000000000
1504255363.372543096	-0.713301	-0.495476	-1.08452	-0.222427	-0.48934	-3.14159	-0.00920388	0	0	0	0	0	0	0	0	0	0	0	0	0	0	0.000000000	0	0	0	0	0	0	0	0	0	0	0	0	0	0	0	0	0	0	0	0	0	0.000000000
1504255363.392060995	-0.713301	-0.493942	-1.08299	-0.223961	-0.48934	-3.14159	-0.00920388	0	0	0	0	0	0	0	0	0	0	0	0	0	0	0.000000000	0	0	0	0	0	0	0	0	0	0	0	0	0	0	0	0	0	0	0	0	0	0.000000000
1504255363.411988973	-0.713301	-0.493942	-1.08452	-0.222427	-0.48934	-3.14159	-0.00920388	0	0	0	0	0	0	0	0	0	0	0	0	0	0	0.000000000	0	0	0	0	0	0	0	0	0	0	0	0	0	0	0	0	0	0	0	0	0	0.000000000
1504255363.432528972	-0.713301	-0.493942	-1.08452	-0.222427	-0.48934	-3.14159	-0.00920388	0	0	0	0	0	0	0	0	0	0	0	0	0	0	0.000000000	0	0	0	0	0	0	0	0	0	0	0	0	0	0	0	0	0	0	0	0	0	0.000000000
1504255363.452752113	-0.713301	-0.493942	-1.08452	-0.222427	-0.48934	-3.14159	-0.00920388	0	0	0	0	0	0	0	0	0	0	0	0	0	0	0.000000000	0	0	0	0	0	0	0	0	0	0	0	0	0	0	0	0	0	0	0	0	0	0.000000000
1504255363.472217082	-0.713301	-0.493942	-1.08452	-0.222427	-0.487806	-3.14159	-0.00920388	0	0	0	0	0	0	0	0	0	0	0	0	0	0	0.000000000	0	0	0	0	0	0	0	0	0	0	0	0	0	0	0	0	0	0	0	0	0	0.000000000
1504255363.492429971	-0.713301	-0.493942	-1.08452	-0.223961	-0.48934	-3.14159	-0.00920388	0	0	0	0	0	0	0	0	0	0	0	0	0	0	0.000000000	0	0	0	0	0	0	0	0	0	0	0	0	0	0	0	0	0	0	0	0	0	0.000000000
1504255363.512866973	-0.713301	-0.493942	-1.08452	-0.223961	-0.48934	-3.14159	-0.00920388	0	0	0	0	0	0	0	0	0	0	0	0	0	0	0.000000000	0	0	0	0	0	0	0	0	0	0	0	0	0	0	0	0	0	0	0	0	0	0.000000000
1504255363.532352924	-0.713301	-0.493942	-1.08452	-0.223961	-0.48934	-3.14159	-0.00920388	0	0	0	0	0	0	0	0	0	0	0	0	0	0	0.000000000	0	0	0	0	0	0	0	0	0	0	0	0	0	0	0	0	0	0	0	0	0	0.000000000
1504255363.552757024	-0.713301	-0.493942	-1.08452	-0.223961	-0.48934	-3.14159	-0.00920388	0	0	0	0	0	0	0	0	0	0	0	0	0	0	0.000000000	0	0	0	0	0	0	0	0	0	0	0	0	0	0	0	0	0	0	0	0	0	0.000000000
1504255363.572658061	-0.713301	-0.495476	-1.08452	-0.223961	-0.48934	-3.14159	-0.00920388	0	0	0	0	0	0	0	0	0	0	0	0	0	0	0.000000000	0	0	0	0	0	0	0	0	0	0	0	0	0	0	0	0	0	0	0	0	0	0.000000000
1504255363.592080116	-0.713301	-0.493942	-1.08452	-0.222427	-0.48934	-3.14159	-0.00920388	0	0	0	0	0	0	0	0	0	0	0	0	0	0	0.000000000	0	0	0	0	0	0	0	0	0	0	0	0	0	0	0	0	0	0	0	0	0	0.000000000
1504255363.612082004	-0.713301	-0.493942	-1.08452	-0.222427	-0.48934	-3.14159	-0.00920388	0	0	0	0	0	0	0	0	0	0	0	0	0	0	0.000000000	0	0	0	0	0	0	0	0	0	0	0	0	0	0	0	0	0	0	0	0	0	0.000000000
1504255363.632247924	-0.713301	-0.493942	-1.08452	-0.222427	-0.48934	-3.14159	-0.00920388	0	0	0	0	0	0	0	0	0	0	0	0	0	0	0.000000000	0	0	0	0	0	0	0	0	0	0	0	0	0	0	0	0	0	0	0	0	0	0.000000000
1504255363.653901100	-0.713301	-0.493942	-1.08452	-0.223961	-0.48934	-3.14159	-0.00920388	0	0	0	0	0	0	0	0	0	0	0	0	0	0	0.000000000	0	0	0	0	0	0	0	0	0	0	0	0	0	0	0	0	0	0	0	0	0	0.000000000
1504255363.672013998	-0.713301	-0.493942	-1.08452	-0.223961	-0.48934	-3.14159	-0.00920388	0	0	0	0	0	0	0	0	0	0	0	0	0	0	0.000000000	0	0	0	0	0	0	0	0	0	0	0	0	0	0	0	0	0	0	0	0	0	0.000000000
1504255363.691960096	-0.713301	-0.495476	-1.08452	-0.223961	-0.48934	-3.14159	-0.0076699	0	0	0	0	0	0	0	0	0	0	0	0	0	0	0.000000000	0	0	0	0	0	0	0	0	0	0	0	0	0	0	0	0	0	0	0	0	0	0.000000000
1504255363.711977958	-0.713301	-0.495476	-1.08452	-0.223961	-0.48934	-3.14159	-0.0076699	0	0	0	0	0	0	0	0	0	0	0	0	0	0	0.000000000	0	0	0	0	0	0	0	0	0	0	0	0	0	0	0	0	0	0	0	0	0	0.000000000
1504255363.732887029	-0.713301	-0.493942	-1.08452	-0.223961	-0.48934	-3.14159	-0.0076699	0	0	0	0	0	0	0	0	0	0	0	0	0	0	0.000000000	0	0	0	0	0	0	0	0	0	0	0	0	0	0	0	0	0	0	0	0	0	0.000000000
1504255363.753014087	-0.713301	-0.493942	-1.08452	-0.222427	-0.48934	-3.14159	-0.00920388	0	0	0	0	0	0	0	0	0	0	0	0	0	0	0.000000000	0	0	0	0	0	0	0	0	0	0	0	0	0	0	0	0	0	0	0	0	0	0.000000000
1504255363.772049903	-0.713301	-0.493942	-1.08452	-0.223961	-0.48934	-3.14159	-0.00920388	0	0	0	0	0	0	0	0	0	0	0	0	0	0	0.000000000	0	0	0	0	0	0	0	0	0	0	0	0	0	0	0	0	0	0	0	0	0	0.000000000
1504255363.792207956	-0.713301	-0.493942	-1.08452	-0.223961	-0.48934	-3.14159	-0.00920388	0	0	0	0	0	0	0	0	0	0	0	0	0	0	0.000000000	0	0	0	0	0	0	0	0	0	0	0	0	0	0	0	0	0	0	0	0	0	0.000000000
1504255363.812402009	-0.713301	-0.493942	-1.08452	-0.223961	-0.48934	-3.14159	-0.00920388	0	0	0	0	0	0	0	0	0	0	0	0	0	0	0.000000000	0	0	0	0	0	0	0	0	0	0	0	0	0	0	0	0	0	0	0	0	0	0.000000000
1504255363.832710027	-0.713301	-0.493942	-1.08452	-0.222427	-0.48934	-3.14159	-0.0076699	0	0	0	0	0	0	0	0	0	0	0	0	0	0	0.000000000	0	0	0	0	0	0	0	0	0	0	0	0	0	0	0	0	0	0	0	0	0	0.000000000
1504255363.852096080	-0.713301	-0.495476	-1.08452	-0.222427	-0.48934	-3.14159	-0.00920388	0	0	0	0	0	0	0	0	0	0	0	0	0	0	0.000000000	0	0	0	0	0	0	0	0	0	0	0	0	0	0	0	0	0	0	0	0	0	0.000000000
1504255363.872071027	-0.713301	-0.493942	-1.08452	-0.222427	-0.48934	-3.14159	-0.00920388	0	0	0	0	0	0	0	0	0	0	0	0	0	0	0.000000000	0	0	0	0	0	0	0	0	0	0	0	0	0	0	0	0	0	0	0	0	0	0.000000000
1504255363.892009019	-0.713301	-0.493942	-1.08452	-0.222427	-0.48934	-3.14159	-0.00920388	0	0	0	0	0	0	0	0	0	0	0	0	0	0	0.000000000	0	0	0	0	0	0	0	0	0	0	0	0	0	0	0	0	0	0	0	0	0	0.000000000
1504255363.915611982	-0.713301	-0.495476	-1.08452	-0.222427	-0.48934	-3.14159	-0.00920388	0	0	0	0	0	0	0	0	0	0	0	0	0	0	0.000000000	0	0	0	0	0	0	0	0	0	0	0	0	0	0	0	0	0	0	0	0	0	0.000000000
1504255363.932122945	-0.713301	-0.495476	-1.08452	-0.222427	-0.48934	-3.14159	-0.00920388	0	0	0	0	0	0	0	0	0	0	0	0	0	0	0.000000000	0	0	0	0	0	0	0	0	0	0	0	0	0	0	0	0	0	0	0	0	0	0.000000000
1504255363.952006101	-0.713301	-0.493942	-1.08452	-0.222427	-0.48934	-3.14159	-0.00920388	0	0	0	0	0	0	0	0	0	0	0	0	0	0	0.000000000	0	0	0	0	0	0	0	0	0	0	0	0	0	0	0	0	0	0	0	0	0	0.000000000
1504255363.972675085	-0.713301	-0.493942	-1.08452	-0.223961	-0.48934	-3.14159	-0.0076699	0	0	0	0	0	0	0	0	0	0	0	0	0	0	0.000000000	0	0	0	0	0	0	0	0	0	0	0	0	0	0	0	0	0	0	0	0	0	0.000000000
1504255363.992024898	-0.713301	-0.493942	-1.08452	-0.223961	-0.48934	-3.14159	-0.00920388	0	0	0	0	0	0	0	0	0	0	0	0	0	0	0.000000000	0	0	0	0	0	0	0	0	0	0	0	0	0	0	0	0	0	0	0	0	0	0.000000000
1504255364.012074947	-0.713301	-0.493942	-1.08452	-0.223961	-0.48934	-3.14159	-0.00920388	0	0	0	0	0	0	0	0	0	0	0	0	0	0	0.000000000	0	0	0	0	0	0	0	0	0	0	0	0	0	0	0	0	0	0	0	0	0	0.000000000
1504255364.033261060	-0.713301	-0.495476	-1.08452	-0.222427	-0.48934	-3.14159	-0.00920388	0	0	0	0	0	0	0	0	0	0	0	0	0	0	0.000000000	0	0	0	0	0	0	0	0	0	0	0	0	0	0	0	0	0	0	0	0	0	0.000000000
1504255364.052000999	-0.713301	-0.495476	-1.08452	-0.222427	-0.48934	-3.14159	-0.00920388	0	0	0	0	0	0	0	0	0	0	0	0	0	0	0.000000000	0	0	0	0	0	0	0	0	0	0	0	0	0	0	0	0	0	0	0	0	0	0.000000000
1504255364.071971893	-0.713301	-0.493942	-1.08452	-0.222427	-0.48934	-3.14159	-0.00920388	0	0	0	0	0	0	0	0	0	0	0	0	0	0	0.000000000	0	0	0	0	0	0	0	0	0	0	0	0	0	0	0	0	0	0	0	0	0	0.000000000
1504255364.091974020	-0.713301	-0.495476	-1.08452	-0.223961	-0.487806	-3.14159	-0.0076699	0	0	0	0	0	0	0	0	0	0	0	0	0	0	0.000000000	0	0	0	0	0	0	0	0	0	0	0	0	0	0	0	0	0	0	0	0	0	0.000000000
1504255364.112313032	-0.713301	-0.495476	-1.08452	-0.223961	-0.487806	-3.14159	-0.0076699	0	0	0	0	0	0	0	0	0	0	0	0	0	0	0.000000000	0	0	0	0	0	0	0	0	0	0	0	0	0	0	0	0	0	0	0	0	0	0.000000000
1504255364.132456064	-0.713301	-0.493942	-1.08452	-0.222427	-0.48934	-3.14159	-0.00920388	0	0	0	0	0	0	0	0	0	0	0	0	0	0	0.000000000	0	0	0	0	0	0	0	0	0	0	0	0	0	0	0	0	0	0	0	0	0	0.000000000
1504255364.154077053	-0.713301	-0.493942	-1.08452	-0.222427	-0.48934	-3.14159	-0.00920388	0	0	0	0	0	0	0	0	0	0	0	0	0	0	0.000000000	0	0	0	0	0	0	0	0	0	0	0	0	0	0	0	0	0	0	0	0	0	0.000000000
1504255364.172043085	-0.713301	-0.493942	-1.08452	-0.222427	-0.48934	-3.14159	-0.00920388	0	0	0	0	0	0	0	0	0	0	0	0	0	0	0.000000000	0	0	0	0	0	0	0	0	0	0	0	0	0	0	0	0	0	0	0	0	0	0.000000000
1504255364.192650079	-0.713301	-0.495476	-1.08452	-0.222427	-0.48934	-3.14159	-0.00920388	0	0	0	0	0	0	0	0	0	0	0	0	0	0	0.000000000	0	0	0	0	0	0	0	0	0	0	0	0	0	0	0	0	0	0	0	0	0	0.000000000
1504255364.212795972	-0.713301	-0.495476	-1.08452	-0.222427	-0.48934	-3.14159	-0.00920388	0	0	0	0	0	0	0	0	0	0	0	0	0	0	0.000000000	0	0	0	0	0	0	0	0	0	0	0	0	0	0	0	0	0	0	0	0	0	0.000000000
1504255364.232132911	-0.713301	-0.493942	-1.08452	-0.222427	-0.48934	-3.14159	-0.00920388	0	0	0	0	0	0	0	0	0	0	0	0	0	0	0.000000000	0	0	0	0	0	0	0	0	0	0	0	0	0	0	0	0	0	0	0	0	0	0.000000000
1504255364.252058029	-0.713301	-0.493942	-1.08452	-0.222427	-0.48934	-3.14159	-0.00920388	0	0	0	0	0	0	0	0	0	0	0	0	0	0	0.000000000	0	0	0	0	0	0	0	0	0	0	0	0	0	0	0	0	0	0	0	0	0	0.000000000
1504255364.272080898	-0.713301	-0.493942	-1.08452	-0.222427	-0.48934	-3.14159	-0.00920388	0	0	0	0	0	0	0	0	0	0	0	0	0	0	0.000000000	0	0	0	0	0	0	0	0	0	0	0	0	0	0	0	0	0	0	0	0	0	0.000000000
1504255364.291939020	-0.713301	-0.493942	-1.08452	-0.222427	-0.48934	-3.14159	-0.00920388	0	0	0	0	0	0	0	0	0	0	0	0	0	0	0.000000000	0	0	0	0	0	0	0	0	0	0	0	0	0	0	0	0	0	0	0	0	0	0.000000000
1504255364.311985969	-0.713301	-0.493942	-1.08452	-0.223961	-0.48934	-3.14159	-0.00920388	0	0	0	0	0	0	0	0	0	0	0	0	0	0	0.000000000	0	0	0	0	0	0	0	0	0	0	0	0	0	0	0	0	0	0	0	0	0	0.000000000
1504255364.331991910	-0.713301	-0.493942	-1.08452	-0.223961	-0.48934	-3.14159	-0.00920388	0	0	0	0	0	0	0	0	0	0	0	0	0	0	0.000000000	0	0	0	0	0	0	0	0	0	0	0	0	0	0	0	0	0	0	0	0	0	0.000000000
1504255364.351974964	-0.713301	-0.493942	-1.08452	-0.222427	-0.48934	-3.14159	-0.00920388	0	0	0	0	0	0	0	0	0	0	0	0	0	0	0.000000000	0	0	0	0	0	0	0	0	0	0	0	0	0	0	0	0	0	0	0	0	0	0.000000000
1504255364.372060060	-0.713301	-0.495476	-1.08452	-0.223961	-0.48934	-3.14159	-0.00920388	0	0	0	0	0	0	0	0	0	0	0	0	0	0	0.000000000	0	0	0	0	0	0	0	0	0	0	0	0	0	0	0	0	0	0	0	0	0	0.000000000
1504255364.392046928	-0.713301	-0.493942	-1.08452	-0.222427	-0.48934	-3.14159	-0.00920388	0	0	0	0	0	0	0	0	0	0	0	0	0	0	0.000000000	0	0	0	0	0	0	0	0	0	0	0	0	0	0	0	0	0	0	0	0	0	0.000000000
1504255364.412606954	-0.713301	-0.493942	-1.08452	-0.222427	-0.48934	-3.14159	-0.00920388	0	0	0	0	0	0	0	0	0	0	0	0	0	0	0.000000000	0	0	0	0	0	0	0	0	0	0	0	0	0	0	0	0	0	0	0	0	0	0.000000000
1504255364.432356119	-0.713301	-0.493942	-1.08452	-0.222427	-0.48934	-3.14159	-0.00920388	0	0	0	0	0	0	0	0	0	0	0	0	0	0	0.000000000	0	0	0	0	0	0	0	0	0	0	0	0	0	0	0	0	0	0	0	0	0	0.000000000
1504255364.452061891	-0.713301	-0.493942	-1.08452	-0.222427	-0.48934	-3.14159	-0.00920388	0	0	0	0	0	0	0	0	0	0	0	0	0	0	0.000000000	0	0	0	0	0	0	0	0	0	0	0	0	0	0	0	0	0	0	0	0	0	0.000000000
1504255364.472255945	-0.713301	-0.493942	-1.08452	-0.222427	-0.48934	-3.14159	-0.00920388	0	0	0	0	0	0	0	0	0	0	0	0	0	0	0.000000000	0	0	0	0	0	0	0	0	0	0	0	0	0	0	0	0	0	0	0	0	0	0.000000000
1504255364.492537975	-0.713301	-0.495476	-1.08452	-0.222427	-0.48934	-3.14159	-0.00920388	0	0	0	0	0	0	0	0	0	0	0	0	0	0	0.000000000	0	0	0	0	0	0	0	0	0	0	0	0	0	0	0	0	0	0	0	0	0	0.000000000
1504255364.512065887	-0.713301	-0.495476	-1.08452	-0.222427	-0.48934	-3.14159	-0.00920388	0	0	0	0	0	0	0	0	0	0	0	0	0	0	0.000000000	0	0	0	0	0	0	0	0	0	0	0	0	0	0	0	0	0	0	0	0	0	0.000000000
1504255364.532582044	-0.713301	-0.495476	-1.08452	-0.223961	-0.48934	-3.14159	-0.00920388	0	0	0	0	0	0	0	0	0	0	0	0	0	0	0.000000000	0	0	0	0	0	0	0	0	0	0	0	0	0	0	0	0	0	0	0	0	0	0.000000000
1504255364.553220033	-0.713301	-0.493942	-1.08452	-0.223961	-0.48934	-3.14159	-0.00920388	0	0	0	0	0	0	0	0	0	0	0	0	0	0	0.000000000	0	0	0	0	0	0	0	0	0	0	0	0	0	0	0	0	0	0	0	0	0	0.000000000
1504255364.572432041	-0.713301	-0.493942	-1.08452	-0.222427	-0.48934	-3.14159	-0.00920388	0	0	0	0	0	0	0	0	0	0	0	0	0	0	0.000000000	0	0	0	0	0	0	0	0	0	0	0	0	0	0	0	0	0	0	0	0	0	0.000000000
1504255364.591967105	-0.713301	-0.493942	-1.08452	-0.222427	-0.48934	-3.14159	-0.00920388	0	0	0	0	0	0	0	0	0	0	0	0	0	0	0.000000000	0	0	0	0	0	0	0	0	0	0	0	0	0	0	0	0	0	0	0	0	0	0.000000000
1504255364.612276077	-0.713301	-0.493942	-1.08452	-0.222427	-0.48934	-3.14159	-0.00920388	0	0	0	0	0	0	0	0	0	0	0	0	0	0	0.000000000	0	0	0	0	0	0	0	0	0	0	0	0	0	0	0	0	0	0	0	0	0	0.000000000
1504255364.632770061	-0.713301	-0.493942	-1.08452	-0.222427	-0.48934	-3.14159	-0.00920388	0	0	0	0	0	0	0	0	0	0	0	0	0	0	0.000000000	0	0	0	0	0	0	0	0	0	0	0	0	0	0	0	0	0	0	0	0	0	0.000000000
1504255364.652043104	-0.713301	-0.495476	-1.08452	-0.223961	-0.48934	-3.14159	-0.00920388	0	0	0	0	0	0	0	0	0	0	0	0	0	0	0.000000000	0	0	0	0	0	0	0	0	0	0	0	0	0	0	0	0	0	0	0	0	0	0.000000000
1504255364.672512054	-0.713301	-0.495476	-1.08452	-0.222427	-0.48934	-3.14159	-0.00920388	0	0	0	0	0	0	0	0	0	0	0	0	0	0	0.000000000	0	0	0	0	0	0	0	0	0	0	0	0	0	0	0	0	0	0	0	0	0	0.000000000
1504255364.693383932	-0.713301	-0.493942	-1.08452	-0.223961	-0.48934	-3.14159	-0.00920388	0	0	0	0	0	0	0	0	0	0	0	0	0	0	0.000000000	0	0	0	0	0	0	0	0	0	0	0	0	0	0	0	0	0	0	0	0	0	0.000000000
1504255364.715369939	-0.713301	-0.493942	-1.08452	-0.222427	-0.48934	-3.14159	-0.00920388	0	0	0	0	0	0	0	0	0	0	0	0	0	0	0.000000000	0	0	0	0	0	0	0	0	0	0	0	0	0	0	0	0	0	0	0	0	0	0.000000000
1504255364.732038974	-0.713301	-0.493942	-1.08452	-0.222427	-0.48934	-3.14159	-0.00920388	0	0	0	0	0	0	0	0	0	0	0	0	0	0	0.000000000	0	0	0	0	0	0	0	0	0	0	0	0	0	0	0	0	0	0	0	0	0	0.000000000
1504255364.752080917	-0.713301	-0.493942	-1.08452	-0.222427	-0.487806	-3.14159	-0.00920388	0	0	0	0	0	0	0	0	0	0	0	0	0	0	0.000000000	0	0	0	0	0	0	0	0	0	0	0	0	0	0	0	0	0	0	0	0	0	0.000000000
1504255364.772875070	-0.713301	-0.493942	-1.08452	-0.222427	-0.48934	-3.14159	-0.00920388	0	0	0	0	0	0	0	0	0	0	0	0	0	0	0.000000000	0	0	0	0	0	0	0	0	0	0	0	0	0	0	0	0	0	0	0	0	0	0.000000000
1504255364.792395114	-0.713301	-0.495476	-1.08452	-0.223961	-0.48934	-3.14159	-0.00920388	0	0	0	0	0	0	0	0	0	0	0	0	0	0	0.000000000	0	0	0	0	0	0	0	0	0	0	0	0	0	0	0	0	0	0	0	0	0	0.000000000
1504255364.812519073	-0.713301	-0.493942	-1.08452	-0.223961	-0.48934	-3.14159	-0.00920388	0	0	0	0	0	0	0	0	0	0	0	0	0	0	0.000000000	0	0	0	0	0	0	0	0	0	0	0	0	0	0	0	0	0	0	0	0	0	0.000000000
1504255364.833273887	-0.713301	-0.493942	-1.08452	-0.223961	-0.48934	-3.14159	-0.00920388	0	0	0	0	0	0	0	0	0	0	0	0	0	0	0.000000000	0	0	0	0	0	0	0	0	0	0	0	0	0	0	0	0	0	0	0	0	0	0.000000000
1504255364.852022886	-0.713301	-0.495476	-1.08452	-0.223961	-0.48934	-3.14159	-0.00920388	0	0	0	0	0	0	0	0	0	0	0	0	0	0	0.000000000	0	0	0	0	0	0	0	0	0	0	0	0	0	0	0	0	0	0	0	0	0	0.000000000
1504255364.871918916	-0.713301	-0.495476	-1.08452	-0.222427	-0.48934	-3.14159	-0.00920388	0	0	0	0	0	0	0	0	0	0	0	0	0	0	0.000000000	0	0	0	0	0	0	0	0	0	0	0	0	0	0	0	0	0	0	0	0	0	0.000000000
1504255364.892019987	-0.713301	-0.493942	-1.08452	-0.222427	-0.48934	-3.14159	-0.00920388	0	0	0	0	0	0	0	0	0	0	0	0	0	0	0.000000000	0	0	0	0	0	0	0	0	0	0	0	0	0	0	0	0	0	0	0	0	0	0.000000000
1504255364.913316965	-0.713301	-0.495476	-1.08452	-0.222427	-0.48934	-3.14159	-0.00920388	0	0	0	0	0	0	0	0	0	0	0	0	0	0	0.000000000	0	0	0	0	0	0	0	0	0	0	0	0	0	0	0	0	0	0	0	0	0	0.000000000
1504255364.935895919	-0.713301	-0.495476	-1.08452	-0.222427	-0.48934	-3.14159	-0.00920388	0	0	0	0	0	0	0	0	0	0	0	0	0	0	0.000000000	0	0	0	0	0	0	0	0	0	0	0	0	0	0	0	0	0	0	0	0	0	0.000000000
1504255364.951958894	-0.713301	-0.493942	-1.08452	-0.222427	-0.48934	-3.14159	-0.00920388	0	0	0	0	0	0	0	0	0	0	0	0	0	0	0.000000000	0	0	0	0	0	0	0	0	0	0	0	0	0	0	0	0	0	0	0	0	0	0.000000000
1504255364.972289085	-0.713301	-0.495476	-1.08452	-0.222427	-0.48934	-3.14159	-0.00920388	0	0	0	0	0	0	0	0	0	0	0	0	0	0	0.000000000	0	0	0	0	0	0	0	0	0	0	0	0	0	0	0	0	0	0	0	0	0	0.000000000
1504255364.991992950	-0.713301	-0.493942	-1.08452	-0.222427	-0.48934	-3.14159	-0.00920388	0	0	0	0	0	0	0	0	0	0	0	0	0	0	0.000000000	0	0	0	0	0	0	0	0	0	0	0	0	0	0	0	0	0	0	0	0	0	0.000000000
1504255365.012911081	-0.713301	-0.493942	-1.08452	-0.222427	-0.48934	-3.14159	-0.00920388	0	0	0	0	0	0	0	0	0	0	0	0	0	0	0.000000000	0	0	0	0	0	0	0	0	0	0	0	0	0	0	0	0	0	0	0	0	0	0.000000000
1504255365.034123897	-0.713301	-0.493942	-1.08452	-0.222427	-0.48934	-3.14159	-0.00920388	0	0	0	0	0	0	0	0	0	0	0	0	0	0	0.000000000	0	0	0	0	0	0	0	0	0	0	0	0	0	0	0	0	0	0	0	0	0	0.000000000
1504255365.052189111	-0.713301	-0.495476	-1.08452	-0.222427	-0.48934	-3.14159	-0.00920388	0	0	0	0	0	0	0	0	0	0	0	0	0	0	0.000000000	0	0	0	0	0	0	0	0	0	0	0	0	0	0	0	0	0	0	0	0	0	0.000000000
1504255365.071969985	-0.713301	-0.493942	-1.08452	-0.222427	-0.48934	-3.14159	-0.0076699	0	0	0	0	0	0	0	0	0	0	0	0	0	0	0.000000000	0	0	0	0	0	0	0	0	0	0	0	0	0	0	0	0	0	0	0	0	0	0.000000000
1504255365.091998100	-0.713301	-0.495476	-1.08452	-0.222427	-0.48934	-3.14159	-0.00920388	0	0	0	0	0	0	0	0	0	0	0	0	0	0	0.000000000	0	0	0	0	0	0	0	0	0	0	0	0	0	0	0	0	0	0	0	0	0	0.000000000
1504255365.112930059	-0.713301	-0.495476	-1.08452	-0.222427	-0.48934	-3.14159	-0.00920388	0	0	0	0	0	0	0	0	0	0	0	0	0	0	0.000000000	0	0	0	0	0	0	0	0	0	0	0	0	0	0	0	0	0	0	0	0	0	0.000000000
1504255365.131998062	-0.713301	-0.495476	-1.08452	-0.223961	-0.48934	-3.14159	-0.00920388	0	0	0	0	0	0	0	0	0	0	0	0	0	0	0.000000000	0	0	0	0	0	0	0	0	0	0	0	0	0	0	0	0	0	0	0	0	0	0.000000000
1504255365.152966022	-0.713301	-0.493942	-1.08452	-0.223961	-0.48934	-3.14159	-0.00920388	0	0	0	0	0	0	0	0	0	0	0	0	0	0	0.000000000	0	0	0	0	0	0	0	0	0	0	0	0	0	0	0	0	0	0	0	0	0	0.000000000
1504255365.171968936	-0.713301	-0.493942	-1.08452	-0.222427	-0.48934	-3.14159	-0.00920388	0	0	0	0	0	0	0	0	0	0	0	0	0	0	0.000000000	0	0	0	0	0	0	0	0	0	0	0	0	0	0	0	0	0	0	0	0	0	0.000000000
1504255365.191924095	-0.713301	-0.493942	-1.08452	-0.223961	-0.48934	-3.14159	-0.00920388	0	0	0	0	0	0	0	0	0	0	0	0	0	0	0.000000000	0	0	0	0	0	0	0	0	0	0	0	0	0	0	0	0	0	0	0	0	0	0.000000000
1504255365.216739892	-0.713301	-0.493942	-1.08452	-0.223961	-0.48934	-3.14159	-0.00920388	0	0	0	0	0	0	0	0	0	0	0	0	0	0	0.000000000	0	0	0	0	0	0	0	0	0	0	0	0	0	0	0	0	0	0	0	0	0	0.000000000
1504255365.232582092	-0.713301	-0.493942	-1.08452	-0.223961	-0.48934	-3.14159	-0.00920388	0	0	0	0	0	0	0	0	0	0	0	0	0	0	0.000000000	0	0	0	0	0	0	0	0	0	0	0	0	0	0	0	0	0	0	0	0	0	0.000000000
1504255365.252026081	-0.713301	-0.495476	-1.08452	-0.223961	-0.48934	-3.14159	-0.00920388	0	0	0	0	0	0	0	0	0	0	0	0	0	0	0.000000000	0	0	0	0	0	0	0	0	0	0	0	0	0	0	0	0	0	0	0	0	0	0.000000000
1504255365.272105932	-0.713301	-0.495476	-1.08452	-0.223961	-0.48934	-3.14159	-0.00920388	0	0	0	0	0	0	0	0	0	0	0	0	0	0	0.000000000	0	0	0	0	0	0	0	0	0	0	0	0	0	0	0	0	0	0	0	0	0	0.000000000
1504255365.292825937	-0.713301	-0.493942	-1.08452	-0.222427	-0.48934	-3.14159	-0.00920388	0	0	0	0	0	0	0	0	0	0	0	0	0	0	0.000000000	0	0	0	0	0	0	0	0	0	0	0	0	0	0	0	0	0	0	0	0	0	0.000000000
1504255365.313174009	-0.713301	-0.493942	-1.08452	-0.222427	-0.48934	-3.14159	-0.00920388	0	0	0	0	0	0	0	0	0	0	0	0	0	0	0.000000000	0	0	0	0	0	0	0	0	0	0	0	0	0	0	0	0	0	0	0	0	0	0.000000000
1504255365.331986904	-0.713301	-0.493942	-1.08452	-0.222427	-0.48934	-3.14159	-0.00920388	0	0	0	0	0	0	0	0	0	0	0	0	0	0	0.000000000	0	0	0	0	0	0	0	0	0	0	0	0	0	0	0	0	0	0	0	0	0	0.000000000
1504255365.352180004	-0.713301	-0.493942	-1.08452	-0.222427	-0.48934	-3.14159	-0.00920388	0	0	0	0	0	0	0	0	0	0	0	0	0	0	0.000000000	0	0	0	0	0	0	0	0	0	0	0	0	0	0	0	0	0	0	0	0	0	0.000000000
1504255365.372787952	-0.713301	-0.493942	-1.08452	-0.223961	-0.48934	-3.14159	-0.00920388	0	0	0	0	0	0	0	0	0	0	0	0	0	0	0.000000000	0	0	0	0	0	0	0	0	0	0	0	0	0	0	0	0	0	0	0	0	0	0.000000000
1504255365.392631053	-0.713301	-0.495476	-1.08452	-0.223961	-0.48934	-3.14159	-0.00920388	0	0	0	0	0	0	0	0	0	0	0	0	0	0	0.000000000	0	0	0	0	0	0	0	0	0	0	0	0	0	0	0	0	0	0	0	0	0	0.000000000
1504255365.411966085	-0.713301	-0.495476	-1.08452	-0.223961	-0.48934	-3.14159	-0.00920388	0	0	0	0	0	0	0	0	0	0	0	0	0	0	0.000000000	0	0	0	0	0	0	0	0	0	0	0	0	0	0	0	0	0	0	0	0	0	0.000000000
1504255365.432099103	-0.713301	-0.495476	-1.08452	-0.222427	-0.48934	-3.14159	-0.00920388	0	0	0	0	0	0	0	0	0	0	0	0	0	0	0.000000000	0	0	0	0	0	0	0	0	0	0	0	0	0	0	0	0	0	0	0	0	0	0.000000000
1504255365.451944112	-0.713301	-0.493942	-1.08452	-0.222427	-0.48934	-3.14159	-0.00920388	0	0	0	0	0	0	0	0	0	0	0	0	0	0	0.000000000	0	0	0	0	0	0	0	0	0	0	0	0	0	0	0	0	0	0	0	0	0	0.000000000
1504255365.472785949	-0.713301	-0.493942	-1.08452	-0.222427	-0.48934	-3.14159	-0.00920388	0	0	0	0	0	0	0	0	0	0	0	0	0	0	0.000000000	0	0	0	0	0	0	0	0	0	0	0	0	0	0	0	0	0	0	0	0	0	0.000000000
1504255365.492486000	-0.713301	-0.493942	-1.08452	-0.222427	-0.48934	-3.14159	-0.00920388	0	0	0	0	0	0	0	0	0	0	0	0	0	0	0.000000000	0	0	0	0	0	0	0	0	0	0	0	0	0	0	0	0	0	0	0	0	0	0.000000000
1504255365.512243986	-0.713301	-0.493942	-1.08452	-0.223961	-0.48934	-3.14159	-0.00920388	0	0	0	0	0	0	0	0	0	0	0	0	0	0	0.000000000	0	0	0	0	0	0	0	0	0	0	0	0	0	0	0	0	0	0	0	0	0	0.000000000
1504255365.532032012	-0.713301	-0.493942	-1.08452	-0.223961	-0.48934	-3.14159	-0.00920388	0	0	0	0	0	0	0	0	0	0	0	0	0	0	0.000000000	0	0	0	0	0	0	0	0	0	0	0	0	0	0	0	0	0	0	0	0	0	0.000000000
1504255365.552963972	-0.713301	-0.493942	-1.08452	-0.223961	-0.48934	-3.14159	-0.00920388	0	0	0	0	0	0	0	0	0	0	0	0	0	0	0.000000000	0	0	0	0	0	0	0	0	0	0	0	0	0	0	0	0	0	0	0	0	0	0.000000000
1504255365.572107076	-0.713301	-0.493942	-1.08452	-0.222427	-0.48934	-3.14159	-0.00920388	0	0	0	0	0	0	0	0	0	0	0	0	0	0	0.000000000	0	0	0	0	0	0	0	0	0	0	0	0	0	0	0	0	0	0	0	0	0	0.000000000
1504255365.592103958	-0.713301	-0.495476	-1.08452	-0.222427	-0.48934	-3.14159	-0.00920388	0	0	0	0	0	0	0	0	0	0	0	0	0	0	0.000000000	0	0	0	0	0	0	0	0	0	0	0	0	0	0	0	0	0	0	0	0	0	0.000000000
1504255365.612209081	-0.713301	-0.493942	-1.08452	-0.222427	-0.487806	-3.14159	-0.00920388	0	0	0	0	0	0	0	0	0	0	0	0	0	0	0.000000000	0	0	0	0	0	0	0	0	0	0	0	0	0	0	0	0	0	0	0	0	0	0.000000000
1504255365.632731914	-0.713301	-0.493942	-1.08452	-0.222427	-0.487806	-3.14159	-0.00920388	0	0	0	0	0	0	0	0	0	0	0	0	0	0	0.000000000	0	0	0	0	0	0	0	0	0	0	0	0	0	0	0	0	0	0	0	0	0	0.000000000
1504255365.652036905	-0.713301	-0.493942	-1.08452	-0.222427	-0.48934	-3.14159	-0.00920388	0	0	0	0	0	0	0	0	0	0	0	0	0	0	0.000000000	0	0	0	0	0	0	0	0	0	0	0	0	0	0	0	0	0	0	0	0	0	0.000000000
1504255365.671983957	-0.713301	-0.495476	-1.08452	-0.222427	-0.48934	-3.14159	-0.00920388	0	0	0	0	0	0	0	0	0	0	0	0	0	0	0.000000000	0	0	0	0	0	0	0	0	0	0	0	0	0	0	0	0	0	0	0	0	0	0.000000000
1504255365.692050933	-0.713301	-0.495476	-1.08452	-0.223961	-0.48934	-3.14159	-0.00920388	0	0	0	0	0	0	0	0	0	0	0	0	0	0	0.000000000	0	0	0	0	0	0	0	0	0	0	0	0	0	0	0	0	0	0	0	0	0	0.000000000
1504255365.714132070	-0.713301	-0.495476	-1.08452	-0.223961	-0.48934	-3.14159	-0.00920388	0	0	0	0	0	0	0	0	0	0	0	0	0	0	0.000000000	0	0	0	0	0	0	0	0	0	0	0	0	0	0	0	0	0	0	0	0	0	0.000000000
1504255365.732040882	-0.713301	-0.495476	-1.08452	-0.222427	-0.48934	-3.14159	-0.00920388	0	0	0	0	0	0	0	0	0	0	0	0	0	0	0.000000000	0	0	0	0	0	0	0	0	0	0	0	0	0	0	0	0	0	0	0	0	0	0.000000000
1504255365.753118991	-0.713301	-0.495476	-1.08452	-0.223961	-0.48934	-3.14159	-0.00920388	0	0	0	0	0	0	0	0	0	0	0	0	0	0	0.000000000	0	0	0	0	0	0	0	0	0	0	0	0	0	0	0	0	0	0	0	0	0	0.000000000
1504255365.772309064	-0.713301	-0.493942	-1.08452	-0.222427	-0.48934	-3.14159	-0.00920388	0	0	0	0	0	0	0	0	0	0	0	0	0	0	0.000000000	0	0	0	0	0	0	0	0	0	0	0	0	0	0	0	0	0	0	0	0	0	0.000000000
1504255365.792077064	-0.714835	-0.493942	-1.08452	-0.222427	-0.48934	-3.14159	-0.00920388	0	0	0	0	0	0	0	0	0	0	0	0	0	0	0.000000000	0	0	0	0	0	0	0	0	0	0	0	0	0	0	0	0	0	0	0	0	0	0.000000000
1504255365.812561035	-0.714835	-0.493942	-1.08452	-0.222427	-0.48934	-3.14159	-0.00920388	0	0	0	0	0	0	0	0	0	0	0	0	0	0	0.000000000	0	0	0	0	0	0	0	0	0	0	0	0	0	0	0	0	0	0	0	0	0	0.000000000
1504255365.832578897	-0.713301	-0.493942	-1.08452	-0.223961	-0.48934	-3.14159	-0.00920388	0	0	0	0	0	0	0	0	0	0	0	0	0	0	0.000000000	0	0	0	0	0	0	0	0	0	0	0	0	0	0	0	0	0	0	0	0	0	0.000000000
1504255365.852248907	-0.713301	-0.493942	-1.08452	-0.222427	-0.48934	-3.14159	-0.0076699	0	0	0	0	0	0	0	0	0	0	0	0	0	0	0.000000000	0	0	0	0	0	0	0	0	0	0	0	0	0	0	0	0	0	0	0	0	0	0.000000000
1504255365.872879981	-0.713301	-0.495476	-1.08452	-0.223961	-0.48934	-3.14159	-0.00920388	0	0	0	0	0	0	0	0	0	0	0	0	0	0	0.000000000	0	0	0	0	0	0	0	0	0	0	0	0	0	0	0	0	0	0	0	0	0	0.000000000
1504255365.891947984	-0.713301	-0.493942	-1.08452	-0.222427	-0.48934	-3.14159	-0.00920388	0	0	0	0	0	0	0	0	0	0	0	0	0	0	0.000000000	0	0	0	0	0	0	0	0	0	0	0	0	0	0	0	0	0	0	0	0	0	0.000000000
1504255365.912286996	-0.713301	-0.493942	-1.08452	-0.222427	-0.48934	-3.14159	-0.00920388	0	0	0	0	0	0	0	0	0	0	0	0	0	0	0.000000000	0	0	0	0	0	0	0	0	0	0	0	0	0	0	0	0	0	0	0	0	0	0.000000000
1504255365.932028055	-0.713301	-0.493942	-1.08452	-0.223961	-0.48934	-3.14159	-0.00920388	0	0	0	0	0	0	0	0	0	0	0	0	0	0	0.000000000	0	0	0	0	0	0	0	0	0	0	0	0	0	0	0	0	0	0	0	0	0	0.000000000
1504255365.952178001	-0.713301	-0.493942	-1.08452	-0.222427	-0.48934	-3.14159	-0.00920388	0	0	0	0	0	0	0	0	0	0	0	0	0	0	0.000000000	0	0	0	0	0	0	0	0	0	0	0	0	0	0	0	0	0	0	0	0	0	0.000000000
1504255365.973423004	-0.713301	-0.493942	-1.08452	-0.223961	-0.48934	-3.14159	-0.00920388	0	0	0	0	0	0	0	0	0	0	0	0	0	0	0.000000000	0	0	0	0	0	0	0	0	0	0	0	0	0	0	0	0	0	0	0	0	0	0.000000000
1504255365.991935014	-0.713301	-0.493942	-1.08452	-0.222427	-0.48934	-3.14159	-0.00920388	0	0	0	0	0	0	0	0	0	0	0	0	0	0	0.000000000	0	0	0	0	0	0	0	0	0	0	0	0	0	0	0	0	0	0	0	0	0	0.000000000
1504255366.013305902	-0.713301	-0.493942	-1.08452	-0.223961	-0.48934	-3.14159	-0.00920388	0	0	0	0	0	0	0	0	0	0	0	0	0	0	0.000000000	0	0	0	0	0	0	0	0	0	0	0	0	0	0	0	0	0	0	0	0	0	0.000000000
1504255366.032347917	-0.713301	-0.493942	-1.08452	-0.223961	-0.48934	-3.14159	-0.00920388	0	0	0	0	0	0	0	0	0	0	0	0	0	0	0.000000000	0	0	0	0	0	0	0	0	0	0	0	0	0	0	0	0	0	0	0	0	0	0.000000000
1504255366.051963090	-0.713301	-0.495476	-1.08452	-0.222427	-0.48934	-3.14159	-0.00920388	0	0	0	0	0	0	0	0	0	0	0	0	0	0	0.000000000	0	0	0	0	0	0	0	0	0	0	0	0	0	0	0	0	0	0	0	0	0	0.000000000
1504255366.072088003	-0.713301	-0.493942	-1.08452	-0.222427	-0.48934	-3.14159	-0.00920388	0	0	0	0	0	0	0	0	0	0	0	0	0	0	0.000000000	0	0	0	0	0	0	0	0	0	0	0	0	0	0	0	0	0	0	0	0	0	0.000000000
1504255366.092767953	-0.713301	-0.495476	-1.08452	-0.222427	-0.48934	-3.14159	-0.0076699	0	0	0	0	0	0	0	0	0	0	0	0	0	0	0.000000000	0	0	0	0	0	0	0	0	0	0	0	0	0	0	0	0	0	0	0	0	0	0.000000000
1504255366.112138986	-0.713301	-0.493942	-1.08452	-0.222427	-0.48934	-3.14159	-0.0076699	0	0	0	0	0	0	0	0	0	0	0	0	0	0	0.000000000	0	0	0	0	0	0	0	0	0	0	0	0	0	0	0	0	0	0	0	0	0	0.000000000
1504255366.132016897	-0.713301	-0.493942	-1.08452	-0.222427	-0.48934	-3.14159	-0.00920388	0	0	0	0	0	0	0	0	0	0	0	0	0	0	0.000000000	0	0	0	0	0	0	0	0	0	0	0	0	0	0	0	0	0	0	0	0	0	0.000000000
1504255366.152054071	-0.713301	-0.493942	-1.08452	-0.223961	-0.48934	-3.14159	-0.00920388	0	0	0	0	0	0	0	0	0	0	0	0	0	0	0.000000000	0	0	0	0	0	0	0	0	0	0	0	0	0	0	0	0	0	0	0	0	0	0.000000000
1504255366.171888113	-0.713301	-0.493942	-1.08452	-0.222427	-0.48934	-3.14159	-0.00920388	0	0	0	0	0	0	0	0	0	0	0	0	0	0	0.000000000	0	0	0	0	0	0	0	0	0	0	0	0	0	0	0	0	0	0	0	0	0	0.000000000
1504255366.191953897	-0.713301	-0.493942	-1.08452	-0.222427	-0.48934	-3.14159	-0.00920388	0	0	0	0	0	0	0	0	0	0	0	0	0	0	0.000000000	0	0	0	0	0	0	0	0	0	0	0	0	0	0	0	0	0	0	0	0	0	0.000000000
1504255366.211997032	-0.713301	-0.493942	-1.08452	-0.222427	-0.48934	-3.14159	-0.00920388	0	0	0	0	0	0	0	0	0	0	0	0	0	0	0.000000000	0	0	0	0	0	0	0	0	0	0	0	0	0	0	0	0	0	0	0	0	0	0.000000000
1504255366.233597040	-0.713301	-0.493942	-1.08452	-0.222427	-0.48934	-3.14159	-0.00920388	0	0	0	0	0	0	0	0	0	0	0	0	0	0	0.000000000	0	0	0	0	0	0	0	0	0	0	0	0	0	0	0	0	0	0	0	0	0	0.000000000
1504255366.252461910	-0.713301	-0.493942	-1.08452	-0.223961	-0.48934	-3.14159	-0.00920388	0	0	0	0	0	0	0	0	0	0	0	0	0	0	0.000000000	0	0	0	0	0	0	0	0	0	0	0	0	0	0	0	0	0	0	0	0	0	0.000000000
1504255366.271981954	-0.713301	-0.493942	-1.08452	-0.222427	-0.48934	-3.14159	-0.00920388	0	0	0	0	0	0	0	0	0	0	0	0	0	0	0.000000000	0	0	0	0	0	0	0	0	0	0	0	0	0	0	0	0	0	0	0	0	0	0.000000000
1504255366.292059898	-0.713301	-0.495476	-1.08452	-0.223961	-0.48934	-3.14159	-0.00920388	0	0	0	0	0	0	0	0	0	0	0	0	0	0	0.000000000	0	0	0	0	0	0	0	0	0	0	0	0	0	0	0	0	0	0	0	0	0	0.000000000
1504255366.311965942	-0.713301	-0.493942	-1.08452	-0.222427	-0.48934	-3.14159	-0.00920388	0	0	0	0	0	0	0	0	0	0	0	0	0	0	0.000000000	0	0	0	0	0	0	0	0	0	0	0	0	0	0	0	0	0	0	0	0	0	0.000000000
1504255366.332024097	-0.713301	-0.493942	-1.08452	-0.222427	-0.48934	-3.14159	-0.00920388	0	0	0	0	0	0	0	0	0	0	0	0	0	0	0.000000000	0	0	0	0	0	0	0	0	0	0	0	0	0	0	0	0	0	0	0	0	0	0.000000000
1504255366.352508068	-0.713301	-0.493942	-1.08452	-0.223961	-0.48934	-3.14159	-0.00920388	0	0	0	0	0	0	0	0	0	0	0	0	0	0	0.000000000	0	0	0	0	0	0	0	0	0	0	0	0	0	0	0	0	0	0	0	0	0	0.000000000
1504255366.373090028	-0.713301	-0.493942	-1.08452	-0.222427	-0.48934	-3.14159	-0.0076699	0	0	0	0	0	0	0	0	0	0	0	0	0	0	0.000000000	0	0	0	0	0	0	0	0	0	0	0	0	0	0	0	0	0	0	0	0	0	0.000000000
1504255366.391962051	-0.713301	-0.493942	-1.08452	-0.223961	-0.48934	-3.14159	-0.00920388	0	0	0	0	0	0	0	0	0	0	0	0	0	0	0.000000000	0	0	0	0	0	0	0	0	0	0	0	0	0	0	0	0	0	0	0	0	0	0.000000000
1504255366.412169933	-0.713301	-0.493942	-1.08452	-0.223961	-0.48934	-3.14159	-0.00920388	0	0	0	0	0	0	0	0	0	0	0	0	0	0	0.000000000	0	0	0	0	0	0	0	0	0	0	0	0	0	0	0	0	0	0	0	0	0	0.000000000
1504255366.438601970	-0.713301	-0.493942	-1.08452	-0.223961	-0.48934	-3.14159	-0.00920388	0	0	0	0	0	0	0	0	0	0	0	0	0	0	0.000000000	0	0	0	0	0	0	0	0	0	0	0	0	0	0	0	0	0	0	0	0	0	0.000000000
1504255366.451996088	-0.713301	-0.495476	-1.08452	-0.222427	-0.48934	-3.14159	-0.00920388	0	0	0	0	0	0	0	0	0	0	0	0	0	0	0.000000000	0	0	0	0	0	0	0	0	0	0	0	0	0	0	0	0	0	0	0	0	0	0.000000000
1504255366.472121000	-0.713301	-0.493942	-1.08452	-0.222427	-0.48934	-3.14159	-0.00920388	0	0	0	0	0	0	0	0	0	0	0	0	0	0	0.000000000	0	0	0	0	0	0	0	0	0	0	0	0	0	0	0	0	0	0	0	0	0	0.000000000
1504255366.492599010	-0.713301	-0.493942	-1.08452	-0.222427	-0.48934	-3.14159	-0.00920388	0	0	0	0	0	0	0	0	0	0	0	0	0	0	0.000000000	0	0	0	0	0	0	0	0	0	0	0	0	0	0	0	0	0	0	0	0	0	0.000000000
1504255366.511898994	-0.713301	-0.493942	-1.08452	-0.222427	-0.48934	-3.14159	-0.00920388	0	0	0	0	0	0	0	0	0	0	0	0	0	0	0.000000000	0	0	0	0	0	0	0	0	0	0	0	0	0	0	0	0	0	0	0	0	0	0.000000000
1504255366.534564971	-0.713301	-0.493942	-1.08452	-0.222427	-0.48934	-3.14159	-0.00920388	0	0	0	0	0	0	0	0	0	0	0	0	0	0	0.000000000	0	0	0	0	0	0	0	0	0	0	0	0	0	0	0	0	0	0	0	0	0	0.000000000
1504255366.552071094	-0.713301	-0.493942	-1.08452	-0.222427	-0.48934	-3.14159	-0.00920388	0	0	0	0	0	0	0	0	0	0	0	0	0	0	0.000000000	0	0	0	0	0	0	0	0	0	0	0	0	0	0	0	0	0	0	0	0	0	0.000000000
1504255366.572832107	-0.713301	-0.493942	-1.08452	-0.222427	-0.48934	-3.14159	-0.00920388	0	0	0	0	0	0	0	0	0	0	0	0	0	0	0.000000000	0	0	0	0	0	0	0	0	0	0	0	0	0	0	0	0	0	0	0	0	0	0.000000000
1504255366.591953992	-0.713301	-0.493942	-1.08452	-0.223961	-0.48934	-3.14159	-0.00920388	0	0	0	0	0	0	0	0	0	0	0	0	0	0	0.000000000	0	0	0	0	0	0	0	0	0	0	0	0	0	0	0	0	0	0	0	0	0	0.000000000
1504255366.611977100	-0.713301	-0.493942	-1.08452	-0.222427	-0.48934	-3.14159	-0.00920388	0	0	0	0	0	0	0	0	0	0	0	0	0	0	0.000000000	0	0	0	0	0	0	0	0	0	0	0	0	0	0	0	0	0	0	0	0	0	0.000000000
1504255366.633099079	-0.713301	-0.493942	-1.08452	-0.222427	-0.48934	-3.14159	-0.00920388	0	0	0	0	0	0	0	0	0	0	0	0	0	0	0.000000000	0	0	0	0	0	0	0	0	0	0	0	0	0	0	0	0	0	0	0	0	0	0.000000000
1504255366.652004957	-0.713301	-0.493942	-1.08452	-0.222427	-0.48934	-3.14159	-0.0076699	0	0	0	0	0	0	0	0	0	0	0	0	0	0	0.000000000	0	0	0	0	0	0	0	0	0	0	0	0	0	0	0	0	0	0	0	0	0	0.000000000
1504255366.673031091	-0.713301	-0.493942	-1.08452	-0.223961	-0.48934	-3.14159	-0.00920388	0	0	0	0	0	0	0	0	0	0	0	0	0	0	0.000000000	0	0	0	0	0	0	0	0	0	0	0	0	0	0	0	0	0	0	0	0	0	0.000000000
1504255366.691936016	-0.714835	-0.493942	-1.08452	-0.223961	-0.48934	-3.14159	-0.00920388	0	0	0	0	0	0	0	0	0	0	0	0	0	0	0.000000000	0	0	0	0	0	0	0	0	0	0	0	0	0	0	0	0	0	0	0	0	0	0.000000000
1504255366.711985111	-0.713301	-0.493942	-1.08452	-0.222427	-0.487806	-3.14159	-0.00920388	0	0	0	0	0	0	0	0	0	0	0	0	0	0	0.000000000	0	0	0	0	0	0	0	0	0	0	0	0	0	0	0	0	0	0	0	0	0	0.000000000
1504255366.732620000	-0.713301	-0.493942	-1.08452	-0.222427	-0.487806	-3.14159	-0.00920388	0	0	0	0	0	0	0	0	0	0	0	0	0	0	0.000000000	0	0	0	0	0	0	0	0	0	0	0	0	0	0	0	0	0	0	0	0	0	0.000000000
1504255366.752068996	-0.713301	-0.493942	-1.08452	-0.223961	-0.48934	-3.14159	-0.00920388	0	0	0	0	0	0	0	0	0	0	0	0	0	0	0.000000000	0	0	0	0	0	0	0	0	0	0	0	0	0	0	0	0	0	0	0	0	0	0.000000000
1504255366.772011995	-0.713301	-0.493942	-1.08452	-0.223961	-0.48934	-3.14159	-0.0076699	0	0	0	0	0	0	0	0	0	0	0	0	0	0	0.000000000	0	0	0	0	0	0	0	0	0	0	0	0	0	0	0	0	0	0	0	0	0	0.000000000
1504255366.792813062	-0.713301	-0.493942	-1.08452	-0.223961	-0.48934	-3.14159	-0.00920388	0	0	0	0	0	0	0	0	0	0	0	0	0	0	0.000000000	0	0	0	0	0	0	0	0	0	0	0	0	0	0	0	0	0	0	0	0	0	0.000000000
1504255366.812097072	-0.713301	-0.493942	-1.08452	-0.223961	-0.48934	-3.14159	-0.00920388	0	0	0	0	0	0	0	0	0	0	0	0	0	0	0.000000000	0	0	0	0	0	0	0	0	0	0	0	0	0	0	0	0	0	0	0	0	0	0.000000000
1504255366.831983089	-0.713301	-0.495476	-1.08452	-0.222427	-0.48934	-3.14159	-0.00920388	0	0	0	0	0	0	0	0	0	0	0	0	0	0	0.000000000	0	0	0	0	0	0	0	0	0	0	0	0	0	0	0	0	0	0	0	0	0	0.000000000
1504255366.851969003	-0.713301	-0.493942	-1.08452	-0.222427	-0.48934	-3.14159	-0.00920388	0	0	0	0	0	0	0	0	0	0	0	0	0	0	0.000000000	0	0	0	0	0	0	0	0	0	0	0	0	0	0	0	0	0	0	0	0	0	0.000000000
1504255366.872159004	-0.713301	-0.493942	-1.08452	-0.223961	-0.48934	-3.14159	-0.00920388	0	0	0	0	0	0	0	0	0	0	0	0	0	0	0.000000000	0	0	0	0	0	0	0	0	0	0	0	0	0	0	0	0	0	0	0	0	0	0.000000000
1504255366.891952037	-0.713301	-0.493942	-1.08452	-0.222427	-0.48934	-3.14159	-0.00920388	0	0	0	0	0	0	0	0	0	0	0	0	0	0	0.000000000	0	0	0	0	0	0	0	0	0	0	0	0	0	0	0	0	0	0	0	0	0	0.000000000
1504255366.912961006	-0.713301	-0.493942	-1.08452	-0.223961	-0.48934	-3.14159	-0.00920388	0	0	0	0	0	0	0	0	0	0	0	0	0	0	0.000000000	0	0	0	0	0	0	0	0	0	0	0	0	0	0	0	0	0	0	0	0	0	0.000000000
1504255366.932090044	-0.713301	-0.493942	-1.08452	-0.223961	-0.48934	-3.14159	-0.00920388	0	0	0	0	0	0	0	0	0	0	0	0	0	0	0.000000000	0	0	0	0	0	0	0	0	0	0	0	0	0	0	0	0	0	0	0	0	0	0.000000000
1504255366.952601909	-0.714835	-0.495476	-1.08452	-0.223961	-0.48934	-3.14159	-0.0076699	0	0	0	0	0	0	0	0	0	0	0	0	0	0	0.000000000	0	0	0	0	0	0	0	0	0	0	0	0	0	0	0	0	0	0	0	0	0	0.000000000
1504255366.972126960	-0.713301	-0.495476	-1.08452	-0.223961	-0.48934	-3.14159	-0.00920388	0	0	0	0	0	0	0	0	0	0	0	0	0	0	0.000000000	0	0	0	0	0	0	0	0	0	0	0	0	0	0	0	0	0	0	0	0	0	0.000000000
1504255366.992026090	-0.713301	-0.493942	-1.08452	-0.223961	-0.48934	-3.14159	-0.00920388	0	0	0	0	0	0	0	0	0	0	0	0	0	0	0.000000000	0	0	0	0	0	0	0	0	0	0	0	0	0	0	0	0	0	0	0	0	0	0.000000000
1504255367.012336015	-0.713301	-0.493942	-1.08452	-0.222427	-0.48934	-3.14159	-0.00920388	0	0	0	0	0	0	0	0	0	0	0	0	0	0	0.000000000	0	0	0	0	0	0	0	0	0	0	0	0	0	0	0	0	0	0	0	0	0	0.000000000
1504255367.032563924	-0.713301	-0.493942	-1.08452	-0.222427	-0.48934	-3.14159	-0.00920388	0	0	0	0	0	0	0	0	0	0	0	0	0	0	0.000000000	0	0	0	0	0	0	0	0	0	0	0	0	0	0	0	0	0	0	0	0	0	0.000000000
1504255367.052001953	-0.713301	-0.493942	-1.08452	-0.222427	-0.48934	-3.14159	-0.00920388	0	0	0	0	0	0	0	0	0	0	0	0	0	0	0.000000000	0	0	0	0	0	0	0	0	0	0	0	0	0	0	0	0	0	0	0	0	0	0.000000000
1504255367.072715997	-0.713301	-0.493942	-1.08452	-0.223961	-0.48934	-3.14159	-0.0076699	0	0	0	0	0	0	0	0	0	0	0	0	0	0	0.000000000	0	0	0	0	0	0	0	0	0	0	0	0	0	0	0	0	0	0	0	0	0	0.000000000
1504255367.091936111	-0.713301	-0.495476	-1.08452	-0.222427	-0.48934	-3.14159	-0.00920388	0	0	0	0	0	0	0	0	0	0	0	0	0	0	0.000000000	0	0	0	0	0	0	0	0	0	0	0	0	0	0	0	0	0	0	0	0	0	0.000000000
1504255367.111951112	-0.713301	-0.495476	-1.08452	-0.223961	-0.48934	-3.14159	-0.0076699	0	0	0	0	0	0	0	0	0	0	0	0	0	0	0.000000000	0	0	0	0	0	0	0	0	0	0	0	0	0	0	0	0	0	0	0	0	0	0.000000000
1504255367.133285045	-0.713301	-0.495476	-1.08452	-0.223961	-0.48934	-3.14159	-0.0076699	0	0	0	0	0	0	0	0	0	0	0	0	0	0	0.000000000	0	0	0	0	0	0	0	0	0	0	0	0	0	0	0	0	0	0	0	0	0	0.000000000
1504255367.151966094	-0.713301	-0.493942	-1.08452	-0.222427	-0.48934	-3.14159	-0.00920388	0	0	0	0	0	0	0	0	0	0	0	0	0	0	0.000000000	0	0	0	0	0	0	0	0	0	0	0	0	0	0	0	0	0	0	0	0	0	0.000000000
1504255367.173830032	-0.713301	-0.495476	-1.08452	-0.222427	-0.48934	-3.14159	-0.00920388	0	0	0	0	0	0	0	0	0	0	0	0	0	0	0.000000000	0	0	0	0	0	0	0	0	0	0	0	0	0	0	0	0	0	0	0	0	0	0.000000000
1504255367.198477983	-0.714835	-0.493942	-1.08452	-0.222427	-0.48934	-3.14159	-0.00920388	0	0	0	0	0	0	0	0	0	0	0	0	0	0	0.000000000	0	0	0	0	0	0	0	0	0	0	0	0	0	0	0	0	0	0	0	0	0	0.000000000
1504255367.212121009	-0.714835	-0.493942	-1.08452	-0.222427	-0.48934	-3.14159	-0.00920388	0	0	0	0	0	0	0	0	0	0	0	0	0	0	0.000000000	0	0	0	0	0	0	0	0	0	0	0	0	0	0	0	0	0	0	0	0	0	0.000000000
1504255367.232321977	-0.713301	-0.495476	-1.08452	-0.222427	-0.48934	-3.14159	-0.00920388	0	0	0	0	0	0	0	0	0	0	0	0	0	0	0.000000000	0	0	0	0	0	0	0	0	0	0	0	0	0	0	0	0	0	0	0	0	0	0.000000000
1504255367.252578973	-0.713301	-0.493942	-1.08452	-0.222427	-0.48934	-3.14159	-0.00920388	0	0	0	0	0	0	0	0	0	0	0	0	0	0	0.000000000	0	0	0	0	0	0	0	0	0	0	0	0	0	0	0	0	0	0	0	0	0	0.000000000
1504255367.271954059	-0.713301	-0.493942	-1.08452	-0.222427	-0.48934	-3.14159	-0.00920388	0	0	0	0	0	0	0	0	0	0	0	0	0	0	0.000000000	0	0	0	0	0	0	0	0	0	0	0	0	0	0	0	0	0	0	0	0	0	0.000000000
1504255367.292011022	-0.713301	-0.493942	-1.08452	-0.222427	-0.48934	-3.14159	-0.00920388	0	0	0	0	0	0	0	0	0	0	0	0	0	0	0.000000000	0	0	0	0	0	0	0	0	0	0	0	0	0	0	0	0	0	0	0	0	0	0.000000000
1504255367.313713073	-0.713301	-0.493942	-1.08452	-0.222427	-0.48934	-3.14159	-0.00920388	0	0	0	0	0	0	0	0	0	0	0	0	0	0	0.000000000	0	0	0	0	0	0	0	0	0	0	0	0	0	0	0	0	0	0	0	0	0	0.000000000
1504255367.333570957	-0.713301	-0.493942	-1.08452	-0.222427	-0.48934	-3.14159	-0.00920388	0	0	0	0	0	0	0	0	0	0	0	0	0	0	0.000000000	0	0	0	0	0	0	0	0	0	0	0	0	0	0	0	0	0	0	0	0	0	0.000000000
1504255367.353024005	-0.713301	-0.495476	-1.08452	-0.222427	-0.48934	-3.14159	-0.00920388	0	0	0	0	0	0	0	0	0	0	0	0	0	0	0.000000000	0	0	0	0	0	0	0	0	0	0	0	0	0	0	0	0	0	0	0	0	0	0.000000000
1504255367.371982097	-0.713301	-0.495476	-1.08452	-0.223961	-0.48934	-3.14159	-0.00920388	0	0	0	0	0	0	0	0	0	0	0	0	0	0	0.000000000	0	0	0	0	0	0	0	0	0	0	0	0	0	0	0	0	0	0	0	0	0	0.000000000
1504255367.392204046	-0.713301	-0.495476	-1.08299	-0.222427	-0.48934	-3.14159	-0.00920388	0	0	0	0	0	0	0	0	0	0	0	0	0	0	0.000000000	0	0	0	0	0	0	0	0	0	0	0	0	0	0	0	0	0	0	0	0	0	0.000000000
1504255367.414339065	-0.713301	-0.493942	-1.08452	-0.223961	-0.48934	-3.14159	-0.0076699	0	0	0	0	0	0	0	0	0	0	0	0	0	0	0.000000000	0	0	0	0	0	0	0	0	0	0	0	0	0	0	0	0	0	0	0	0	0	0.000000000
1504255367.432106971	-0.713301	-0.493942	-1.08452	-0.223961	-0.48934	-3.14159	-0.0076699	0	0	0	0	0	0	0	0	0	0	0	0	0	0	0.000000000	0	0	0	0	0	0	0	0	0	0	0	0	0	0	0	0	0	0	0	0	0	0.000000000
1504255367.452096939	-0.713301	-0.495476	-1.08452	-0.222427	-0.48934	-3.14159	-0.00920388	0	0	0	0	0	0	0	0	0	0	0	0	0	0	0.000000000	0	0	0	0	0	0	0	0	0	0	0	0	0	0	0	0	0	0	0	0	0	0.000000000
1504255367.472054958	-0.713301	-0.493942	-1.08452	-0.222427	-0.48934	-3.14159	-0.00920388	0	0	0	0	0	0	0	0	0	0	0	0	0	0	0.000000000	0	0	0	0	0	0	0	0	0	0	0	0	0	0	0	0	0	0	0	0	0	0.000000000
1504255367.491892099	-0.713301	-0.493942	-1.08452	-0.222427	-0.48934	-3.14159	-0.0076699	0	0	0	0	0	0	0	0	0	0	0	0	0	0	0.000000000	0	0	0	0	0	0	0	0	0	0	0	0	0	0	0	0	0	0	0	0	0	0.000000000
1504255367.513245105	-0.713301	-0.493942	-1.08452	-0.222427	-0.48934	-3.14159	-0.0076699	0	0	0	0	0	0	0	0	0	0	0	0	0	0	0.000000000	0	0	0	0	0	0	0	0	0	0	0	0	0	0	0	0	0	0	0	0	0	0.000000000
1504255367.532416105	-0.713301	-0.493942	-1.08452	-0.222427	-0.48934	-3.14159	-0.00920388	0	0	0	0	0	0	0	0	0	0	0	0	0	0	0.000000000	0	0	0	0	0	0	0	0	0	0	0	0	0	0	0	0	0	0	0	0	0	0.000000000
1504255367.552896976	-0.713301	-0.493942	-1.08452	-0.223961	-0.48934	-3.14159	-0.0076699	0	0	0	0	0	0	0	0	0	0	0	0	0	0	0.000000000	0	0	0	0	0	0	0	0	0	0	0	0	0	0	0	0	0	0	0	0	0	0.000000000
1504255367.574001073	-0.713301	-0.493942	-1.08452	-0.223961	-0.487806	-3.14159	-0.0076699	0	0	0	0	0	0	0	0	0	0	0	0	0	0	0.000000000	0	0	0	0	0	0	0	0	0	0	0	0	0	0	0	0	0	0	0	0	0	0.000000000
1504255367.592010974	-0.713301	-0.493942	-1.08452	-0.222427	-0.48934	-3.14159	-0.0076699	0	0	0	0	0	0	0	0	0	0	0	0	0	0	0.000000000	0	0	0	0	0	0	0	0	0	0	0	0	0	0	0	0	0	0	0	0	0	0.000000000
1504255367.612226963	-0.713301	-0.493942	-1.08452	-0.222427	-0.48934	-3.14159	-0.0076699	0	0	0	0	0	0	0	0	0	0	0	0	0	0	0.000000000	0	0	0	0	0	0	0	0	0	0	0	0	0	0	0	0	0	0	0	0	0	0.000000000
1504255367.632013082	-0.713301	-0.490874	-1.08452	-0.223961	-0.48934	-3.14159	-0.0076699	0	0	0	0	0	0	0	0	0	0	0	0	0	0	0.000000000	0	0	0	0	0	0	0	0	0	0	0	0	0	0	0	0	0	0	0	0	0	0.000000000
1504255367.652000904	-0.713301	-0.490874	-1.08452	-0.223961	-0.48934	-3.14159	-0.00920388	0	0	0	0	0	0	0	0	0	0	0	0	0	0	0.000000000	0	0	0	0	0	0	0	0	0	0	0	0	0	0	0	0	0	0	0	0	0	0.000000000
1504255367.672456979	-0.713301	-0.490874	-1.08452	-0.222427	-0.48934	-3.14159	-0.00920388	0	0	0	0	0	0	0	0	0	0	0	0	0	0	0.000000000	0	0	0	0	0	0	0	0	0	0	0	0	0	0	0	0	0	0	0	0	0	0.000000000
1504255367.692019939	-0.713301	-0.48934	-1.08452	-0.222427	-0.48934	-3.14159	-0.00920388	0	0.0955044	0	0	0	0	0	0	0	0	0	0	0	0	0.000000000	0	0	0	0	0	0	0	0	0	0	0	0	0	0	0	0	0	0	0	0	0	0.000000000
1504255367.711935997	-0.714835	-0.487806	-1.08606	-0.223961	-0.48934	-3.14159	-0.00920388	0	0.0955044	0	0	0	0	0	0	0	0	0	0	0	0	0.000000000	0	0	0	0	0	0	0	0	0	0	0	0	0	0	0	0	0	0	0	0	0	0.000000000
1504255367.733191967	-0.714835	-0.487806	-1.08606	-0.223961	-0.48934	-3.14159	-0.00920388	0	0.0955044	0	0	0	0	0	0	0	0	0	0	0	0	0.000000000	0	0	0	0	0	0	0	0	0	0	0	0	0	0	0	0	0	0	0	0	0	0.000000000
1504255367.752765893	-0.714835	-0.484738	-1.09066	-0.223961	-0.48934	-3.14159	-0.00920388	0	0.0955044	0.155195	0	0	0	0	0	0	0	0	0	0	0	0.000000000	0	0	0	0	0	0	0	0	0	0	0	0	0	0	0	0	0	0	0	0	0	0.000000000
1504255367.772077083	-0.714835	-0.478602	-1.0968	-0.223961	-0.48934	-3.14159	-0.00920388	0	0.191009	0.202947	0	0	0	0	0	0	0	0	0	0	0	0.000000000	0	0	0	0	0	0	0	0	0	0	0	0	0	0	0	0	0	0	0	0	0	0.000000000
1504255367.793134927	-0.714835	-0.470932	-1.10293	-0.223961	-0.48934	-3.14159	-0.00920388	0	0.286513	0.250699	0	0	0	0	0	0	0	0	0	0	0	0.000000000	0	0	0	0	0	0	0	0	0	0	0	0	0	0	0	0	0	0	0	0	0	0.000000000
1504255367.813817024	-0.714835	-0.461728	-1.11367	-0.223961	-0.48934	-3.14159	-0.00920388	0	0.334265	0.346204	0	0	0	0	0	0	0	0	0	0	0	0.000000000	0	0	0	0	0	0	0	0	0	0	0	0	0	0	0	0	0	0	0	0	0	0.000000000
1504255367.832870960	-0.714835	-0.461728	-1.11367	-0.223961	-0.48934	-3.14159	-0.00920388	0	0.334265	0.346204	0	0	0	0	0	0	0	0	0	0	0	0.000000000	0	0	0	0	0	0	0	0	0	0	0	0	0	0	0	0	0	0	0	0	0	0.000000000
1504255367.852284908	-0.714835	-0.449456	-1.12441	-0.223961	-0.48934	-3.14159	-0.00920388	0	0.477522	0.441708	0	0	0	0	0	0	0	0	0	0	0	0.000000000	0	0	0	0	0	0	0	0	0	0	0	0	0	0	0	0	0	0	0	0	0	0.000000000
1504255367.872000932	-0.713301	-0.435651	-1.13668	-0.223961	-0.48934	-3.14159	-0.00920388	0	0.477522	0.48946	0	0	0	0	0	0	0	0	0	0	0	0.000000000	0	0	0	0	0	0	0	0	0	0	0	0	0	0	0	0	0	0	0	0	0	0.000000000
1504255367.892043113	-0.714835	-0.420311	-1.15355	-0.223961	-0.48934	-3.14159	-0.00920388	0	0.525274	0.537212	0	0	0	0	0	0	0	0	0	0	0	0.000000000	0	0	0	0	0	0	0	0	0	0	0	0	0	0	0	0	0	0	0	0	0	0.000000000
1504255367.913419961	-0.714835	-0.406505	-1.15355	-0.223961	-0.48934	-3.14159	-0.00920388	0	0.525274	0.537212	0	0	0	0	0	0	0	0	0	0	0	0.000000000	0	0	0	0	0	0	0	0	0	0	0	0	0	0	0	0	0	0	0	0	0	0.000000000
1504255367.934365034	-0.714835	-0.406505	-1.16736	-0.223961	-0.48934	-3.14159	-0.00920388	0	0.525274	0.537212	0	0	0	0	0	0	0	0	0	0	0	0.000000000	0	0	0	0	0	0	0	0	0	0	0	0	0	0	0	0	0	0	0	0	0	0.000000000
1504255367.952721118	-0.714835	-0.394233	-1.18117	-0.223961	-0.48934	-3.14159	-0.00920388	0	0.477522	0.537212	0	0	0	0	0	0	0	0	0	0	0	0.000000000	0	0	0	0	0	0	0	0	0	0	0	0	0	0	0	0	0	0	0	0	0	0.000000000
1504255367.972168922	-0.714835	-0.383495	-1.19037	-0.223961	-0.48934	-3.14159	-0.00920388	0	0.382018	0.346204	0	0	0	0	0	0	0	0	0	0	0	0.000000000	0	0	0	0	0	0	0	0	0	0	0	0	0	0	0	0	0	0	0	0	0	0.000000000
1504255367.992022037	-0.713301	-0.369689	-1.20264	-0.223961	-0.48934	-3.14159	-0.0076699	0	0.477522	0.393956	0	0	0	0	0	0	0	0	0	0	0	0.000000000	0	0	0	0	0	0	0	0	0	0	0	0	0	0	0	0	0	0	0	0	0	0.000000000
1504255368.012614011	-0.713301	-0.369689	-1.20264	-0.223961	-0.48934	-3.14159	-0.0076699	0	0.477522	0.393956	0	0	0	0	0	0	0	0	0	0	0	0.000000000	0	0	0	0	0	0	0	0	0	0	0	0	0	0	0	0	0	0	0	0	0	0.000000000
1504255368.035701990	-0.713301	-0.358952	-1.21645	-0.223961	-0.48934	-3.14159	-0.0076699	0	0.42977	0.441708	0	0	0	0	0	0	0	0	0	0	0	0.000000000	0	0	0	0	0	0	0	0	0	0	0	0	0	0	0	0	0	0	0	0	0	0.000000000
1504255368.052037000	-0.711767	-0.345146	-1.22872	-0.223961	-0.48934	-3.14159	-0.0076699	0	0.525274	0.48946	0	0	0	0	0	0	0	0	0	0	0	0.000000000	0	0	0	0	0	0	0	0	0	0	0	0	0	0	0	0	0	0	0	0	0	0.000000000
1504255368.072017908	-0.713301	-0.328272	-1.24406	-0.222427	-0.48934	-3.14159	-0.0076699	0	0.573026	0.584965	0	0	0	0	0	0	0	0	0	0	0	0.000000000	0	0	0	0	0	0	0	0	0	0	0	0	0	0	0	0	0	0	0	0	0	0.000000000
1504255368.091994047	-0.713301	-0.309864	-1.26247	-0.223961	-0.48934	-3.14159	-0.0076699	0	0.668531	0.680469	0	0	0	0	0	0	0	0	0	0	0	0.000000000	0	0	0	0	0	0	0	0	0	0	0	0	0	0	0	0	0	0	0	0	0	0.000000000
1504255368.113295078	-0.713301	-0.288388	-1.28394	-0.222427	-0.48934	-3.14159	-0.0076699	0	0.764035	0.728221	0	0	0	0	0	0	0	0	0	0	0	0.000000000	0	0	0	0	0	0	0	0	0	0	0	0	0	0	0	0	0	0	0	0	0	0.000000000
1504255368.132726907	-0.713301	-0.288388	-1.28394	-0.222427	-0.48934	-3.14159	-0.0076699	0	0.764035	0.728221	0	0	0	0	0	0	0	0	0	0	0	0.000000000	0	0	0	0	0	0	0	0	0	0	0	0	0	0	0	0	0	0	0	0	0	0.000000000
1504255368.152018070	-0.713301	-0.266913	-1.30695	-0.222427	-0.48934	-3.14159	-0.0076699	0	0.85954	0.871478	0	0	0	0	0	0	0	0	0	0	0	0.000000000	0	0	0	0	0	0	0	0	0	0	0	0	0	0	0	0	0	0	0	0	0	0.000000000
1504255368.172307968	-0.713301	-0.237767	-1.33456	-0.223961	-0.48934	-3.14159	-0.0076699	0	1.0028	1.01473	0	0	0	0	0	0	0	0	0	0	0	0.000000000	0	0	0	0	0	0	0	0	0	0	0	0	0	0	0	0	0	0	0	0	0	0.000000000
1504255368.192153930	-0.713301	-0.207087	-1.36524	-0.223961	-0.48934	-3.14159	-0.0076699	0	1.14605	1.11024	0	0	0	0	0	0	0	0	0	0	0	0.000000000	0	0	0	0	0	0	0	0	0	0	0	0	0	0	0	0	0	0	0	0	0	0.000000000
1504255368.212002992	-0.711767	-0.177942	-1.39746	-0.223961	-0.48934	-3.14159	-0.0076699	0	1.14605	1.2535	0	0	0	0	0	0	0	0	0	0	0	0.000000000	0	0	0	0	0	0	0	0	0	0	0	0	0	0	0	0	0	0	0	0	0	0.000000000
1504255368.233032941	-0.711767	-0.177942	-1.39746	-0.223961	-0.48934	-3.14159	-0.0076699	0	1.14605	1.2535	0	0	0	0	0	0	0	0	0	0	0	0.000000000	0	0	0	0	0	0	0	0	0	0	0	0	0	0	0	0	0	0	0	0	0	0.000000000
1504255368.252002000	-0.711767	-0.139592	-1.43427	-0.223961	-0.48934	-3.14159	-0.0076699	0	1.28931	1.30125	0	0	0	0	0	0	0	0	0	0	0	0.000000000	0	0	0	0	0	0	0	0	0	0	0	0	0	0	0	0	0	0	0	0	0	0.000000000
1504255368.272315979	-0.711767	-0.102777	-1.46955	-0.223961	-0.48934	-3.14159	-0.0076699	0	1.33706	1.349	0	0	0	0	0	0	0	0	0	0	0	0.000000000	0	0	0	0	0	0	0	0	0	0	0	0	0	0	0	0	0	0	0	0	0	0.000000000
1504255368.291999101	-0.711767	-0.0628932	-1.50637	-0.222427	-0.48934	-3.14159	-0.0076699	0	1.38481	1.39675	0	0	0	0	0	0	0	0	0	0	0	0.000000000	0	0	0	0	0	0	0	0	0	0	0	0	0	0	0	0	0	0	0	0	0	0.000000000
1504255368.312699079	-0.711767	-0.0276117	-1.50637	-0.222427	-0.48934	-3.14159	-0.0076699	0	1.33706	1.39675	0	0	0	0	0	0	0	0	0	0	0	0.000000000	0	0	0	0	0	0	0	0	0	0	0	0	0	0	0	0	0	0	0	0	0	0.000000000
1504255368.332256078	-0.711767	-0.0276117	-1.54625	-0.222427	-0.48934	-3.14159	-0.0076699	0	1.33706	1.39675	0	0	0	0	0	0	0	0	0	0	0	0.000000000	0	0	0	0	0	0	0	0	0	0	0	0	0	0	0	0	0	0	0	0	0	0.000000000
1504255368.352724075	-0.711767	0.00306796	-1.58	-0.222427	-0.48934	-3.14159	-0.0076699	0	1.24156	1.30125	0	0	0	0	0	0	0	0	0	0	0	0.000000000	0	0	0	0	0	0	0	0	0	0	0	0	0	0	0	0	0	0	0	0	0	0.000000000
1504255368.372344017	-0.711767	0.0368155	-1.61375	-0.222427	-0.48934	-3.14159	-0.0076699	0	1.19381	1.20574	0	0	0	0	0	0	0	0	0	0	0	0.000000000	0	0	0	0	0	0	0	0	0	0	0	0	0	0	0	0	0	0	0	0	0	0.000000000
1504255368.391966104	-0.711767	0.0644272	-1.64443	-0.222427	-0.48934	-3.14159	-0.00613592	0	1.05055	1.15799	0	0	0	0	0	0	0	0	0	0	0	0.000000000	0	0	0	0	0	0	0	0	0	0	0	0	0	0	0	0	0	0	0	0	0	0.000000000
1504255368.412120103	-0.711767	0.0644272	-1.64443	-0.222427	-0.48934	-3.14159	-0.00613592	0	1.05055	1.15799	0	0	0	0	0	0	0	0	0	0	0	0.000000000	0	0	0	0	0	0	0	0	0	0	0	0	0	0	0	0	0	0	0	0	0	0.000000000
1504255368.436317920	-0.710233	0.0981748	-1.67817	-0.223961	-0.48934	-3.14159	-0.00613592	0	1.05055	1.06249	0	0	0	0	0	0	0	0	0	0	0	0.000000000	0	0	0	0	0	0	0	0	0	0	0	0	0	0	0	0	0	0	0	0	0	0.000000000
1504255368.451978921	-0.710233	0.119651	-1.69812	-0.222427	-0.48934	-3.14159	-0.00613592	0	0.907292	0.966982	0	0	0	0	0	0	0	0	0	0	0	0.000000000	0	0	0	0	0	0	0	0	0	0	0	0	0	0	0	0	0	0	0	0	0	0.000000000
1504255368.472624063	-0.711767	0.148796	-1.72419	-0.223961	-0.48934	-3.14159	-0.00613592	0	0.907292	0.966982	0	0	0	0	0	0	0	0	0	0	0	0.000000000	0	0	0	0	0	0	0	0	0	0	0	0	0	0	0	0	0	0	0	0	0	0.000000000
1504255368.491987943	-0.711767	0.171806	-1.75027	-0.222427	-0.48934	-3.14159	-0.00613592	0	0.907292	0.966982	0	0	0	0	0	0	0	0	0	0	0	0.000000000	0	0	0	0	0	0	0	0	0	0	0	0	0	0	0	0	0	0	0	0	0	0.000000000
1504255368.512042999	-0.711767	0.171806	-1.75027	-0.222427	-0.48934	-3.14159	-0.00613592	0	0.907292	0.966982	0	0	0	0	0	0	0	0	0	0	0	0.000000000	0	0	0	0	0	0	0	0	0	0	0	0	0	0	0	0	0	0	0	0	0	0.000000000
1504255368.533667087	-0.711767	0.199418	-1.77482	-0.222427	-0.48934	-3.14159	-0.0076699	0	0.907292	0.871478	0	0	0	0	0	0	0	0	0	0	0	0.000000000	0	0	0	0	0	0	0	0	0	0	0	0	0	0	0	0	0	0	0	0	0	0.000000000
1504255368.552788019	-0.711767	0.222427	-1.79936	-0.222427	-0.48934	-3.14159	-0.00613592	0	0.907292	0.91923	0	0	0	0	0	0	0	0	0	0	0	0.000000000	0	0	0	0	0	0	0	0	0	0	0	0	0	0	0	0	0	0	0	0	0	0.000000000
1504255368.572726964	-0.711767	0.248505	-1.8239	-0.222427	-0.48934	-3.14159	-0.00613592	0	0.85954	0.91923	0	0	0	0	0	0	0	0	0	0	0	0.000000000	0	0	0	0	0	0	0	0	0	0	0	0	0	0	0	0	0	0	0	0	0	0.000000000
1504255368.592154026	-0.711767	0.271515	-1.84691	-0.222427	-0.48934	-3.14159	-0.00613592	0	0.85954	0.871478	0	0	0	0	0	0	0	0	0	0	0	0.000000000	0	0	0	0	0	0	0	0	0	0	0	0	0	0	0	0	0	0	0	0	0	0.000000000
1504255368.620907068	-0.710233	0.29299	-1.87146	-0.222427	-0.48934	-3.14159	-0.0076699	0	0.811788	0.871478	0	0	0	0	0	0	0	0	0	0	0	0.000000000	0	0	0	0	0	0	0	0	0	0	0	0	0	0	0	0	0	0	0	0	0	0.000000000
1504255368.632766008	-0.710233	0.29299	-1.87146	-0.222427	-0.48934	-3.14159	-0.0076699	0	0.811788	0.871478	0	0	0	0	0	0	0	0	0	0	0	0.000000000	0	0	0	0	0	0	0	0	0	0	0	0	0	0	0	0	0	0	0	0	0	0.000000000
1504255368.651987075	-0.710233	0.316	-1.89293	-0.222427	-0.48934	-3.14159	-0.00613592	0	0.811788	0.871478	0	0	0	0	0	0	0	0	0	0	0	0.000000000	0	0	0	0	0	0	0	0	0	0	0	0	0	0	0	0	0	0	0	0	0	0.000000000
1504255368.672823905	-0.711767	0.340544	-1.91287	-0.222427	-0.48934	-3.14159	-0.00613592	0	0.764035	0.823726	0	0	0	0	0	0	0	0	0	0	0	0.000000000	0	0	0	0	0	0	0	0	0	0	0	0	0	0	0	0	0	0	0	0	0	0.000000000
1504255368.692076921	-0.711767	0.357418	-1.93435	-0.222427	-0.48934	-3.14159	-0.00613592	0	0.764035	0.775973	0	0	0	0	0	0	0	0	0	0	0	0.000000000	0	0	0	0	0	0	0	0	0	0	0	0	0	0	0	0	0	0	0	0	0	0.000000000
1504255368.713049888	-0.711767	0.375825	-1.95276	-0.222427	-0.48934	-3.14159	-0.00613592	0	0.668531	0.728221	0	0	0	0	0	0	0	0	0	0	0	0.000000000	0	0	0	0	0	0	0	0	0	0	0	0	0	0	0	0	0	0	0	0	0	0.000000000
1504255368.732031106	-0.711767	0.375825	-1.95276	-0.222427	-0.48934	-3.14159	-0.00613592	0	0.668531	0.728221	0	0	0	0	0	0	0	0	0	0	0	0.000000000	0	0	0	0	0	0	0	0	0	0	0	0	0	0	0	0	0	0	0	0	0	0.000000000
1504255368.752255916	-0.710233	0.394233	-1.9727	-0.222427	-0.48934	-3.14159	-0.00613592	0	0.668531	0.728221	0	0	0	0	0	0	0	0	0	0	0	0.000000000	0	0	0	0	0	0	0	0	0	0	0	0	0	0	0	0	0	0	0	0	0	0.000000000
1504255368.771981000	-0.711767	0.412641	-1.99264	-0.222427	-0.48934	-3.14159	-0.00613592	0	0.620779	0.728221	0	0	0	0	0	0	0	0	0	0	0	0.000000000	0	0	0	0	0	0	0	0	0	0	0	0	0	0	0	0	0	0	0	0	0	0.000000000
1504255368.795165061	-0.711767	0.427981	-2.00798	-0.223961	-0.48934	-3.14159	-0.00613592	0	0.525274	0.584965	0	0	0	0	0	0	0	0	0	0	0	0.000000000	0	0	0	0	0	0	0	0	0	0	0	0	0	0	0	0	0	0	0	0	0	0.000000000
1504255368.811964988	-0.711767	0.427981	-2.00798	-0.223961	-0.48934	-3.14159	-0.00613592	0	0.525274	0.584965	0	0	0	0	0	0	0	0	0	0	0	0.000000000	0	0	0	0	0	0	0	0	0	0	0	0	0	0	0	0	0	0	0	0	0	0.000000000
1504255368.833314895	-0.711767	0.441786	-2.02179	-0.222427	-0.48934	-3.14159	-0.00613592	0	0.42977	0.441708	0	0	0	0	0	0	0	0	0	0	0	0.000000000	0	0	0	0	0	0	0	0	0	0	0	0	0	0	0	0	0	0	0	0	0	0.000000000
1504255368.851917028	-0.710233	0.447922	-2.02792	-0.223961	-0.48934	-3.14159	-0.00613592	0	0.334265	0.346204	0	0	0	0	0	0	0	0	0	0	0	0.000000000	0	0	0	0	0	0	0	0	0	0	0	0	0	0	0	0	0	0	0	0	0	0.000000000
1504255368.872587919	-0.710233	0.452524	-2.03252	-0.222427	-0.48934	-3.14159	-0.00613592	0	0.143257	0.155195	0	0	0	0	0	0	0	0	0	0	0	0.000000000	0	0	0	0	0	0	0	0	0	0	0	0	0	0	0	0	0	0	0	0	0	0.000000000
1504255368.892873048	-0.710233	0.452524	-2.03406	-0.222427	-0.48934	-3.14159	-0.00613592	0	0	0	0	0	0	0	0	0	0	0	0	0	0	0.000000000	0	0	0	0	0	0	0	0	0	0	0	0	0	0	0	0	0	0	0	0	0	0.000000000
1504255368.913710117	-0.710233	0.452524	-2.03406	-0.222427	-0.48934	-3.14159	-0.00613592	0	0	0	0	0	0	0	0	0	0	0	0	0	0	0.000000000	0	0	0	0	0	0	0	0	0	0	0	0	0	0	0	0	0	0	0	0	0	0.000000000
1504255368.932128906	-0.710233	0.45099	-2.03406	-0.222427	-0.48934	-3.14159	-0.00613592	0	0	0	0	0	0	0	0	0	0	0	0	0	0	0.000000000	0	0	0	0	0	0	0	0	0	0	0	0	0	0	0	0	0	0	0	0	0	0.000000000
1504255368.952651977	-0.710233	0.449456	-2.03099	-0.223961	-0.48934	-3.14159	-0.00613592	0	0	0.0955044	0	0	0	0	0	0	0	0	0	0	0	0.000000000	0	0	0	0	0	0	0	0	0	0	0	0	0	0	0	0	0	0	0	0	0	0.000000000
1504255368.972464084	-0.710233	0.447922	-2.03099	-0.222427	-0.48934	-3.14159	-0.0076699	0	0	0	0	0	0	0	0	0	0	0	0	0	0	0.000000000	0	0	0	0	0	0	0	0	0	0	0	0	0	0	0	0	0	0	0	0	0	0.000000000
1504255368.991987943	-0.710233	0.446388	-2.03099	-0.222427	-0.487806	-3.14159	-0.0076699	0	0	0	0	0	0	0	0	0	0	0	0	0	0	0.000000000	0	0	0	0	0	0	0	0	0	0	0	0	0	0	0	0	0	0	0	0	0	0.000000000
1504255369.012114048	-0.710233	0.444854	-2.02946	-0.222427	-0.48934	-3.14159	-0.0076699	0	0.107442	0	0	0	0	0	0	0	0	0	0	0	0	0.000000000	0	0	0	0	0	0	0	0	0	0	0	0	0	0	0	0	0	0	0	0	0	0.000000000
1504255369.031932115	-0.710233	0.444854	-2.02946	-0.222427	-0.48934	-3.14159	-0.0076699	0	0.107442	0	0	0	0	0	0	0	0	0	0	0	0	0.000000000	0	0	0	0	0	0	0	0	0	0	0	0	0	0	0	0	0	0	0	0	0	0.000000000
1504255369.053874015	-0.710233	0.441786	-2.02639	-0.222427	-0.48934	-3.14159	-0.0076699	0	0.107442	0.0955044	0	0	0	0	0	0	0	0	0	0	0	0.000000000	0	0	0	0	0	0	0	0	0	0	0	0	0	0	0	0	0	0	0	0	0	0.000000000
1504255369.072099924	-0.710233	0.435651	-2.02179	-0.222427	-0.48934	-3.14159	-0.00613592	0	0.202947	0.191009	0	0	0	0	0	0	0	0	0	0	0	0.000000000	0	0	0	0	0	0	0	0	0	0	0	0	0	0	0	0	0	0	0	0	0	0.000000000
1504255369.091963052	-0.710233	0.426447	-2.01258	-0.222427	-0.48934	-3.14159	-0.00613592	0	0.346204	0.286513	0	0	0	0	0	0	0	0	0	0	0	0.000000000	0	0	0	0	0	0	0	0	0	0	0	0	0	0	0	0	0	0	0	0	0	0.000000000
1504255369.113049983	-0.710233	0.415709	-2.00031	-0.222427	-0.48934	-3.14159	-0.00613592	0	0.393956	0.42977	0	0	0	0	0	0	0	0	0	0	0	0.000000000	0	0	0	0	0	0	0	0	0	0	0	0	0	0	0	0	0	0	0	0	0	0.000000000
1504255369.132213115	-0.710233	0.415709	-2.00031	-0.222427	-0.48934	-3.14159	-0.00613592	0	0.393956	0.42977	0	0	0	0	0	0	0	0	0	0	0	0.000000000	0	0	0	0	0	0	0	0	0	0	0	0	0	0	0	0	0	0	0	0	0	0.000000000
1504255369.152302980	-0.710233	0.401903	-1.98804	-0.222427	-0.48934	-3.14159	-0.00613592	0	0.48946	0.525274	0	0	0	0	0	0	0	0	0	0	0	0.000000000	0	0	0	0	0	0	0	0	0	0	0	0	0	0	0	0	0	0	0	0	0	0.000000000
1504255369.172184944	-0.710233	0.380427	-1.96963	-0.223961	-0.48934	-3.14159	-0.00613592	0	0.680469	0.620779	0	0	0	0	0	0	0	0	0	0	0	0.000000000	0	0	0	0	0	0	0	0	0	0	0	0	0	0	0	0	0	0	0	0	0	0.000000000
1504255369.192063093	-0.710233	0.380427	-1.96963	-0.223961	-0.48934	-3.14159	-0.00613592	0	0.680469	0.620779	0	0	0	0	0	0	0	0	0	0	0	0.000000000	0	0	0	0	0	0	0	0	0	0	0	0	0	0	0	0	0	0	0	0	0	0.000000000
1504255369.213892936	-0.708699	0.340544	-1.92668	-0.222427	-0.48934	-3.14159	-0.00613592	0	0.823726	0.811788	0	0	0	0	0	0	0	0	0	0	0	0.000000000	0	0	0	0	0	0	0	0	0	0	0	0	0	0	0	0	0	0	0	0	0	0.000000000
1504255369.233021020	-0.708699	0.340544	-1.92668	-0.222427	-0.48934	-3.14159	-0.00613592	0	0.823726	0.811788	0	0	0	0	0	0	0	0	0	0	0	0.000000000	0	0	0	0	0	0	0	0	0	0	0	0	0	0	0	0	0	0	0	0	0	0.000000000
1504255369.252029895	-0.710233	0.316	-1.90214	-0.222427	-0.48934	-3.14159	-0.00613592	0	0.823726	0.85954	0	0	0	0	0	0	0	0	0	0	0	0.000000000	0	0	0	0	0	0	0	0	0	0	0	0	0	0	0	0	0	0	0	0	0	0.000000000
1504255369.272043943	-0.710233	0.291456	-1.87759	-0.222427	-0.48934	-3.14159	-0.0076699	0	0.871478	0.907292	0	0	0	0	0	0	0	0	0	0	0	0.000000000	0	0	0	0	0	0	0	0	0	0	0	0	0	0	0	0	0	0	0	0	0	0.000000000
1504255369.292057037	-0.710233	0.268447	-1.85612	-0.222427	-0.48934	-3.14159	-0.00613592	0	0.871478	0.907292	0	0	0	0	0	0	0	0	0	0	0	0.000000000	0	0	0	0	0	0	0	0	0	0	0	0	0	0	0	0	0	0	0	0	0	0.000000000
1504255369.312433958	-0.710233	0.246971	-1.83311	-0.222427	-0.48934	-3.14159	-0.00613592	0	0.823726	0.85954	0	0	0	0	0	0	0	0	0	0	0	0.000000000	0	0	0	0	0	0	0	0	0	0	0	0	0	0	0	0	0	0	0	0	0	0.000000000
1504255369.332555055	-0.710233	0.246971	-1.83311	-0.222427	-0.48934	-3.14159	-0.00613592	0	0.823726	0.85954	0	0	0	0	0	0	0	0	0	0	0	0.000000000	0	0	0	0	0	0	0	0	0	0	0	0	0	0	0	0	0	0	0	0	0	0.000000000
1504255369.351950883	-0.710233	0.220893	-1.80856	-0.222427	-0.48934	-3.14159	-0.00613592	0	0.823726	0.811788	0	0	0	0	0	0	0	0	0	0	0	0.000000000	0	0	0	0	0	0	0	0	0	0	0	0	0	0	0	0	0	0	0	0	0	0.000000000
1504255369.372977018	-0.708699	0.204019	-1.79016	-0.222427	-0.48934	-3.14159	-0.00613592	0	0.775973	0.764035	0	0	0	0	0	0	0	0	0	0	0	0.000000000	0	0	0	0	0	0	0	0	0	0	0	0	0	0	0	0	0	0	0	0	0	0.000000000
1504255369.392010927	-0.710233	0.184078	-1.76868	-0.222427	-0.48934	-3.14159	-0.00613592	0	0.680469	0.764035	0	0	0	0	0	0	0	0	0	0	0	0.000000000	0	0	0	0	0	0	0	0	0	0	0	0	0	0	0	0	0	0	0	0	0	0.000000000
1504255369.412029027	-0.708699	0.167204	-1.75334	-0.222427	-0.48934	-3.14159	-0.00613592	0	0.680469	0.620779	0	0	0	0	0	0	0	0	0	0	0	0.000000000	0	0	0	0	0	0	0	0	0	0	0	0	0	0	0	0	0	0	0	0	0	0.000000000
1504255369.432405948	-0.708699	0.167204	-1.75334	-0.222427	-0.48934	-3.14159	-0.00613592	0	0.680469	0.620779	0	0	0	0	0	0	0	0	0	0	0	0.000000000	0	0	0	0	0	0	0	0	0	0	0	0	0	0	0	0	0	0	0	0	0	0.000000000
1504255369.452013969	-0.710233	0.145728	-1.73186	-0.222427	-0.48934	-3.14159	-0.00613592	0	0.680469	0.716283	0	0	0	0	0	0	0	0	0	0	0	0.000000000	0	0	0	0	0	0	0	0	0	0	0	0	0	0	0	0	0	0	0	0	0	0.000000000
1504255369.472568988	-0.710233	0.125786	-1.71499	-0.223961	-0.487806	-3.14159	-0.00613592	0	0.680469	0.668531	0	0	0	0	0	0	0	0	0	0	0	0.000000000	0	0	0	0	0	0	0	0	0	0	0	0	0	0	0	0	0	0	0	0	0	0.000000000
1504255369.491981029	-0.710233	0.104311	-1.69198	-0.222427	-0.48934	-3.14159	-0.00613592	0	0.775973	0.764035	0	0	0	0	0	0	0	0	0	0	0	0.000000000	0	0	0	0	0	0	0	0	0	0	0	0	0	0	0	0	0	0	0	0	0	0.000000000
1504255369.513524055	-0.710233	0.0874369	-1.67511	-0.222427	-0.48934	-3.14159	-0.00613592	0	0.728221	0.716283	0	0	0	0	0	0	0	0	0	0	0	0.000000000	0	0	0	0	0	0	0	0	0	0	0	0	0	0	0	0	0	0	0	0	0	0.000000000
1504255369.531985044	-0.710233	0.0874369	-1.67511	-0.222427	-0.48934	-3.14159	-0.0076699	0	0.728221	0.716283	0	0	0	0	0	0	0	0	0	0	0	0.000000000	0	0	0	0	0	0	0	0	0	0	0	0	0	0	0	0	0	0	0	0	0	0.000000000
1504255369.552057027	-0.710233	0.0690291	-1.6567	-0.222427	-0.48934	-3.14159	-0.0076699	0	0.680469	0.668531	0	0	0	0	0	0	0	0	0	0	0	0.000000000	0	0	0	0	0	0	0	0	0	0	0	0	0	0	0	0	0	0	0	0	0	0.000000000
1504255369.572376966	-0.710233	0.0475534	-1.63829	-0.222427	-0.48934	-3.14159	-0.00613592	0	0.680469	0.620779	0	0	0	0	0	0	0	0	0	0	0	0.000000000	0	0	0	0	0	0	0	0	0	0	0	0	0	0	0	0	0	0	0	0	0	0.000000000
1504255369.592072963	-0.710233	0.0306796	-1.61988	-0.222427	-0.48934	-3.14159	-0.00613592	0	0.680469	0.668531	0	0	0	0	0	0	0	0	0	0	0	0.000000000	0	0	0	0	0	0	0	0	0	0	0	0	0	0	0	0	0	0	0	0	0	0.000000000
1504255369.612004995	-0.710233	0.0138058	-1.60148	-0.222427	-0.487806	-3.14159	-0.00613592	0	0.680469	0.668531	0	0	0	0	0	0	0	0	0	0	0	0.000000000	0	0	0	0	0	0	0	0	0	0	0	0	0	0	0	0	0	0	0	0	0	0.000000000
1504255369.633326053	-0.710233	0.0138058	-1.60148	-0.222427	-0.487806	-3.14159	-0.00613592	0	0.680469	0.668531	0	0	0	0	0	0	0	0	0	0	0	0.000000000	0	0	0	0	0	0	0	0	0	0	0	0	0	0	0	0	0	0	0	0	0	0.000000000
1504255369.652204990	-0.710233	-0.00460194	-1.58153	-0.222427	-0.48934	-3.14159	-0.00613592	0	0.680469	0.668531	0	0	0	0	0	0	0	0	0	0	0	0.000000000	0	0	0	0	0	0	0	0	0	0	0	0	0	0	0	0	0	0	0	0	0	0.000000000
1504255369.672528028	-0.708699	-0.0260777	-1.56313	-0.222427	-0.48934	-3.14159	-0.00613592	0	0.728221	0.668531	0	0	0	0	0	0	0	0	0	0	0	0.000000000	0	0	0	0	0	0	0	0	0	0	0	0	0	0	0	0	0	0	0	0	0	0.000000000
1504255369.692028045	-0.710233	-0.0444854	-1.54318	-0.222427	-0.48934	-3.14159	-0.00613592	0	0.728221	0.716283	0	0	0	0	0	0	0	0	0	0	0	0.000000000	0	0	0	0	0	0	0	0	0	0	0	0	0	0	0	0	0	0	0	0	0	0.000000000
1504255369.712692975	-0.710233	-0.0628932	-1.52478	-0.222427	-0.48934	-3.14159	-0.0076699	0	0.728221	0.668531	0	0	0	0	0	0	0	0	0	0	0	0.000000000	0	0	0	0	0	0	0	0	0	0	0	0	0	0	0	0	0	0	0	0	0	0.000000000
1504255369.734543085	-0.710233	-0.0628932	-1.52478	-0.222427	-0.48934	-3.14159	-0.0076699	0	0.728221	0.668531	0	0	0	0	0	0	0	0	0	0	0	0.000000000	0	0	0	0	0	0	0	0	0	0	0	0	0	0	0	0	0	0	0	0	0	0.000000000
1504255369.753279924	-0.710233	-0.079767	-1.50637	-0.222427	-0.48934	-3.14159	-0.0076699	0	0.632717	0.620779	0	0	0	0	0	0	0	0	0	0	0	0.000000000	0	0	0	0	0	0	0	0	0	0	0	0	0	0	0	0	0	0	0	0	0	0.000000000
1504255369.772619962	-0.710233	-0.0997088	-1.4895	-0.223961	-0.48934	-3.14159	-0.0076699	0	0.632717	0.620779	0	0	0	0	0	0	0	0	0	0	0	0.000000000	0	0	0	0	0	0	0	0	0	0	0	0	0	0	0	0	0	0	0	0	0	0.000000000
1504255369.792272090	-0.710233	-0.115049	-1.47109	-0.222427	-0.48934	-3.14159	-0.0076699	0	0.584965	0.573026	0	0	0	0	0	0	0	0	0	0	0	0.000000000	0	0	0	0	0	0	0	0	0	0	0	0	0	0	0	0	0	0	0	0	0	0.000000000
1504255369.811992883	-0.710233	-0.115049	-1.47109	-0.222427	-0.48934	-3.14159	-0.0076699	0	0.584965	0.573026	0	0	0	0	0	0	0	0	0	0	0	0.000000000	0	0	0	0	0	0	0	0	0	0	0	0	0	0	0	0	0	0	0	0	0	0.000000000
1504255369.833823919	-0.710233	-0.12732	-1.45882	-0.222427	-0.48934	-3.14159	-0.0076699	0	0.537212	0.573026	0	0	0	0	0	0	0	0	0	0	0	0.000000000	0	0	0	0	0	0	0	0	0	0	0	0	0	0	0	0	0	0	0	0	0	0.000000000
1504255369.851994037	-0.710233	-0.141126	-1.44501	-0.222427	-0.487806	-3.14159	-0.0076699	0	0.48946	0.477522	0	0	0	0	0	0	0	0	0	0	0	0.000000000	0	0	0	0	0	0	0	0	0	0	0	0	0	0	0	0	0	0	0	0	0	0.000000000
1504255369.872551918	-0.710233	-0.151864	-1.43427	-0.222427	-0.48934	-3.14159	-0.0076699	0	0.441708	0.42977	0	0	0	0	0	0	0	0	0	0	0	0.000000000	0	0	0	0	0	0	0	0	0	0	0	0	0	0	0	0	0	0	0	0	0	0.000000000
1504255369.892013072	-0.710233	-0.161068	-1.42507	-0.222427	-0.48934	-3.14159	-0.0076699	0	0.346204	0.334265	0	0	0	0	0	0	0	0	0	0	0	0.000000000	0	0	0	0	0	0	0	0	0	0	0	0	0	0	0	0	0	0	0	0	0	0.000000000
1504255369.912710905	-0.710233	-0.161068	-1.42507	-0.222427	-0.48934	-3.14159	-0.0076699	0	0.346204	0.334265	0	0	0	0	0	0	0	0	0	0	0	0.000000000	0	0	0	0	0	0	0	0	0	0	0	0	0	0	0	0	0	0	0	0	0	0.000000000
1504255369.932086944	-0.710233	-0.168738	-1.4174	-0.222427	-0.48934	-3.14159	-0.0076699	0	0.298451	0.286513	0	0	0	0	0	0	0	0	0	0	0	0.000000000	0	0	0	0	0	0	0	0	0	0	0	0	0	0	0	0	0	0	0	0	0	0.000000000
1504255369.952069997	-0.710233	-0.171806	-1.4128	-0.223961	-0.48934	-3.14159	-0.0076699	0	0.155195	0.191009	0	0	0	0	0	0	0	0	0	0	0	0.000000000	0	0	0	0	0	0	0	0	0	0	0	0	0	0	0	0	0	0	0	0	0	0.000000000
1504255369.973536014	-0.710233	-0.176408	-1.40973	-0.222427	-0.48934	-3.14006	-0.0076699	0	0.155195	0.0955044	0	0	0	0	0	0	0	0	0	0	0	0.000000000	0	0	0	0	0	0	0	0	0	0	0	0	0	0	0	0	0	0	0	0	0	0.000000000
1504255369.992053985	-0.710233	-0.174874	-1.40819	-0.222427	-0.48934	-3.14159	-0.0076699	0	0	0	0	0	0	0	0	0	0	0	0	0	0	0.000000000	0	0	0	0	0	0	0	0	0	0	0	0	0	0	0	0	0	0	0	0	0	0.000000000
1504255370.012646913	-0.710233	-0.176408	-1.40819	-0.222427	-0.48934	-3.14006	-0.0076699	0	0	0	0	0	0	0	0	0	0	0	0	0	0	0.000000000	0	0	0	0	0	0	0	0	0	0	0	0	0	0	0	0	0	0	0	0	0	0.000000000
1504255370.032839059	-0.710233	-0.176408	-1.40819	-0.222427	-0.48934	-3.14006	-0.0076699	0	0	0	0	0	0	0	0	0	0	0	0	0	0	0.000000000	0	0	0	0	0	0	0	0	0	0	0	0	0	0	0	0	0	0	0	0	0	0.000000000
1504255370.054270982	-0.710233	-0.174874	-1.40819	-0.223961	-0.48934	-3.14159	-0.00613592	0	0	0	0	0	0	0	0	0	0	0	0	0	0	0.000000000	0	0	0	0	0	0	0	0	0	0	0	0	0	0	0	0	0	0	0	0	0	0.000000000
1504255370.071949958	-0.710233	-0.174874	-1.40819	-0.222427	-0.48934	-3.14006	-0.00613592	0	0	0	0	0	0	0	0	0	0	0	0	0	0	0.000000000	0	0	0	0	0	0	0	0	0	0	0	0	0	0	0	0	0	0	0	0	0	0.000000000
1504255370.092037916	-0.710233	-0.174874	-1.40973	-0.222427	-0.48934	-3.14006	-0.00613592	0	0	0	0	0	0	0	0	0	0	0	0	0	0	0.000000000	0	0	0	0	0	0	0	0	0	0	0	0	0	0	0	0	0	0	0	0	0	0.000000000
1504255370.112102985	-0.710233	-0.176408	-1.40973	-0.222427	-0.487806	-3.13699	-0.00613592	0	0	0	0	0	0.0955044	0	0	0	0	0	0	0	0	0.000000000	0	0	0	0	0	0	0	0	0	0	0	0	0	0	0	0	0	0	0	0	0	0.000000000
1504255370.132635116	-0.710233	-0.176408	-1.40973	-0.222427	-0.487806	-3.13699	-0.00613592	0	0	0	0	0	0.0955044	0	0	0	0	0	0	0	0	0.000000000	0	0	0	0	0	0	0	0	0	0	0	0	0	0	0	0	0	0	0	0	0	0.000000000
1504255370.152519941	-0.710233	-0.176408	-1.40973	-0.222427	-0.48934	-3.13392	-0.00613592	0	0	0	0	0	0.0955044	0	0	0	0	0	0	0	0	0.000000000	0	0	0	0	0	0	0	0	0	0	0	0	0	0	0	0	0	0	0	0	0	0.000000000
1504255370.171971082	-0.710233	-0.17334	-1.4128	-0.223961	-0.487806	-3.12932	-0.0076699	0	0	0.107442	0	0	0.143257	0	0	0	0	0	0	0	0	0.000000000	0	0	0	0	0	0	0	0	0	0	0	0	0	0	0	0	0	0	0	0	0	0.000000000
1504255370.191929101	-0.710233	-0.17334	-1.41433	-0.222427	-0.487806	-3.12625	-0.0076699	0	0	0	0	0	0.0955044	0	0	0	0	0	0	0	0	0.000000000	0	0	0	0	0	0	0	0	0	0	0	0	0	0	0	0	0	0	0	0	0	0.000000000
1504255370.211963891	-0.710233	-0.171806	-1.41586	-0.223961	-0.487806	-3.12625	-0.0076699	0	0	0	0	0	0	0	0	0	0	0	0	0	0	0.000000000	0	0	0	0	0	0	0	0	0	0	0	0	0	0	0	0	0	0	0	0	0	0.000000000
1504255370.233165979	-0.710233	-0.171806	-1.41586	-0.223961	-0.487806	-3.12625	-0.0076699	0	0	0	0	0	0	0	0	0	0	0	0	0	0	0.000000000	0	0	0	0	0	0	0	0	0	0	0	0	0	0	0	0	0	0	0	0	0	0.000000000
1504255370.252064943	-0.710233	-0.170272	-1.41433	-0.223961	-0.487806	-3.12625	-0.0076699	0	0	0	0	0	0	0	0	0	0	0	0	0	0	0.000000000	0	0	0	0	0	0	0	0	0	0	0	0	0	0	0	0	0	0	0	0	0	0.000000000
1504255370.272562980	-0.710233	-0.170272	-1.41586	-0.223961	-0.487806	-3.12625	-0.0076699	0	0	0	0	0	0	0	0	0	0	0	0	0	0	0.000000000	0	0	0	0	0	0	0	0	0	0	0	0	0	0	0	0	0	0	0	0	0	0.000000000
1504255370.292045116	-0.710233	-0.168738	-1.41586	-0.222427	-0.487806	-3.12472	-0.0076699	0	0	0	0	0	0	0	0	0	0	0	0	0	0	0.000000000	0	0	0	0	0	0	0	0	0	0	0	0	0	0	0	0	0	0	0	0	0	0.000000000
1504255370.311909914	-0.710233	-0.168738	-1.41586	-0.223961	-0.487806	-3.12318	-0.0076699	0	0	0	0	0	0	0	0	0	0	0	0	0	0	0.000000000	0	0	0	0	0	0	0	0	0	0	0	0	0	0	0	0	0	0	0	0	0	0.000000000
1504255370.332004070	-0.710233	-0.168738	-1.41586	-0.223961	-0.487806	-3.12318	-0.0076699	0	0	0	0	0	0	0	0	0	0	0	0	0	0	0.000000000	0	0	0	0	0	0	0	0	0	0	0	0	0	0	0	0	0	0	0	0	0	0.000000000
1504255370.352139949	-0.711767	-0.167204	-1.41586	-0.222427	-0.487806	-3.12165	-0.0076699	0	0	0	0	0	0.0955044	0	0	0	0	0	0	0	0	0.000000000	0	0	0	0	0	0	0	0	0	0	0	0	0	0	0	0	0	0	0	0	0	0.000000000
1504255370.372603893	-0.711767	-0.162602	-1.41586	-0.222427	-0.487806	-3.12165	-0.0076699	0	0.143257	0	0	0	0	0	0	0	0	0	0	0	0	0.000000000	0	0	0	0	0	0	0	0	0	0	0	0	0	0	0	0	0	0	0	0	0	0.000000000
1504255370.391948938	-0.711767	-0.158	-1.41586	-0.222427	-0.487806	-3.12165	-0.0076699	0	0.191009	0	0	0	0	0	0	0	0	0	0	0	0	0.000000000	0	0	0	0	0	0	0	0	0	0	0	0	0	0	0	0	0	0	0	0	0	0.000000000
1504255370.411983966	-0.710233	-0.158	-1.41586	-0.222427	-0.487806	-3.12165	-0.0076699	0	0.191009	0	0	0	0	0	0	0	0	0	0	0	0	0.000000000	0	0	0	0	0	0	0	0	0	0	0	0	0	0	0	0	0	0	0	0	0	0.000000000
1504255370.432028055	-0.710233	-0.153398	-1.41586	-0.223961	-0.487806	-3.12165	-0.0076699	0	0.191009	0	0	0	0	0	0	0	0	0	0	0	0	0.000000000	0	0	0	0	0	0	0	0	0	0	0	0	0	0	0	0	0	0	0	0	0	0.000000000
1504255370.451953887	-0.710233	-0.147262	-1.41586	-0.223961	-0.487806	-3.12165	-0.00613592	0	0.191009	0	0	0	0	0	0	0	0	0	0	0	0	0.000000000	0	0	0	0	0	0	0	0	0	0	0	0	0	0	0	0	0	0	0	0	0	0.000000000
1504255370.472707033	-0.710233	-0.139592	-1.41586	-0.223961	-0.487806	-3.12165	-0.00613592	0	0.286513	0	0	0	0	0	0	0	0	0	0	0	0	0.000000000	0	0	0	0	0	0	0	0	0	0	0	0	0	0	0	0	0	0	0	0	0	0.000000000
1504255370.492074966	-0.710233	-0.130388	-1.41586	-0.222427	-0.486272	-3.12165	-0.00613592	0	0.334265	0	0	0	0	0	0	0	0	0	0	0	0	0.000000000	0	0	0	0	0	0	0	0	0	0	0	0	0	0	0	0	0	0	0	0	0	0.000000000
1504255370.517443895	-0.708699	-0.121184	-1.41893	-0.223961	-0.486272	-3.12165	-0.00613592	0	0.334265	0	0	0	0	0	0	0	0	0	0	0	0	0.000000000	0	0	0	0	0	0	0	0	0	0	0	0	0	0	0	0	0	0	0	0	0	0.000000000
1504255370.531999111	-0.708699	-0.121184	-1.41893	-0.223961	-0.486272	-3.12165	-0.00613592	0	0.334265	0	0	0	0	0	0	0	0	0	0	0	0	0.000000000	0	0	0	0	0	0	0	0	0	0	0	0	0	0	0	0	0	0	0	0	0	0.000000000
1504255370.552350044	-0.710233	-0.110447	-1.41893	-0.223961	-0.486272	-3.12165	-0.00613592	0	0.382018	0	0	0	0	0	0	0	0	0	0	0	0	0.000000000	0	0	0	0	0	0	0	0	0	0	0	0	0	0	0	0	0	0	0	0	0	0.000000000
1504255370.571876049	-0.708699	-0.0966408	-1.42353	-0.222427	-0.486272	-3.12318	-0.00613592	0	0.42977	0.155195	0	0	0	0	0	0	0	0	0	0	0	0.000000000	0	0	0	0	0	0	0	0	0	0	0	0	0	0	0	0	0	0	0	0	0	0.000000000
1504255370.592035055	-0.710233	-0.0859029	-1.43274	-0.223961	-0.487806	-3.12165	-0.00613592	0	0.42977	0.298451	0	0	0	0	0	0	0	0	0	0	0	0.000000000	0	0	0	0	0	0	0	0	0	0	0	0	0	0	0	0	0	0	0	0	0	0.000000000
1504255370.613509893	-0.710233	-0.0859029	-1.43274	-0.223961	-0.487806	-3.12165	-0.00613592	0	0.42977	0.298451	0	0	0	0	0	0	0	0	0	0	0	0.000000000	0	0	0	0	0	0	0	0	0	0	0	0	0	0	0	0	0	0	0	0	0	0.000000000
1504255370.632394075	-0.708699	-0.0705631	-1.44194	-0.222427	-0.487806	-3.12165	-0.00613592	0	0.525274	0.346204	0	0	0	0	0	0	0	0	0	0	0	0.000000000	0	0	0	0	0	0	0	0	0	0	0	0	0	0	0	0	0	0	0	0	0	0.000000000
1504255370.652091979	-0.708699	-0.0567573	-1.45421	-0.223961	-0.486272	-3.12012	-0.00613592	0	0.525274	0.441708	0	0	0	0	0	0	0	0	0	0	0	0.000000000	0	0	0	0	0	0	0	0	0	0	0	0	0	0	0	0	0	0	0	0	0	0.000000000
1504255370.672034025	-0.710233	-0.0383495	-1.46955	-0.223961	-0.486272	-3.12012	-0.00613592	0	0.620779	0.537212	0	0	0	0	0	0	0	0	0	0	0	0.000000000	0	0	0	0	0	0	0	0	0	0	0	0	0	0	0	0	0	0	0	0	0	0.000000000
1504255370.692022085	-0.708699	-0.0199418	-1.48489	-0.223961	-0.486272	-3.11858	-0.00613592	0	0.668531	0.537212	0	0	0	0	0	0	0	0	0	0	0	0.000000000	0	0	0	0	0	0	0	0	0	0	0	0	0	0	0	0	0	0	0	0	0	0.000000000
1504255370.712162971	-0.708699	-0.0199418	-1.48489	-0.223961	-0.486272	-3.11858	-0.00613592	0	0.668531	0.537212	0	0	0	0	0	0	0	0	0	0	0	0.000000000	0	0	0	0	0	0	0	0	0	0	0	0	0	0	0	0	0	0	0	0	0	0.000000000
1504255370.732105016	-0.710233	0	-1.50177	-0.223961	-0.486272	-3.11705	-0.00613592	0	0.764035	0.584965	0	0	0	0	0	0	0	0	0	0	0	0.000000000	0	0	0	0	0	0	0	0	0	0	0	0	0	0	0	0	0	0	0	0	0	0.000000000
1504255370.753120899	-0.710233	0.0199418	-1.51711	-0.223961	-0.486272	-3.11551	-0.00613592	0	0.85954	0.632717	0	0	0	0	0	0	0	0	0	0	0	0.000000000	0	0	0	0	0	0	0	0	0	0	0	0	0	0	0	0	0	0	0	0	0	0.000000000
1504255370.772598028	-0.708699	0.0475534	-1.53245	-0.223961	-0.487806	-3.11398	-0.00613592	0	0.907292	0.584965	0	0	0	0	0	0	0	0	0	0	0	0.000000000	0	0	0	0	0	0	0	0	0	0	0	0	0	0	0	0	0	0	0	0	0	0.000000000
1504255370.791966915	-0.708699	0.0720971	-1.54932	-0.223961	-0.486272	-3.11245	-0.00613592	0	0.955044	0.584965	0	0	0.0955044	0	0	0	0	0	0	0	0	0.000000000	0	0	0	0	0	0	0	0	0	0	0	0	0	0	0	0	0	0	0	0	0	0.000000000
1504255370.812015056	-0.708699	0.0720971	-1.54932	-0.223961	-0.486272	-3.11245	-0.00613592	0	0.955044	0.584965	0	0	0.0955044	0	0	0	0	0	0	0	0	0.000000000	0	0	0	0	0	0	0	0	0	0	0	0	0	0	0	0	0	0	0	0	0	0.000000000
1504255370.832127094	-0.708699	0.104311	-1.56619	-0.223961	-0.486272	-3.10938	-0.00613592	0	1.0028	0.48946	0	0	0.0955044	0	0	0	0	0	0	0	0	0.000000000	0	0	0	0	0	0	0	0	0	0	0	0	0	0	0	0	0	0	0	0	0	0.000000000
1504255370.852586030	-0.708699	0.138058	-1.57847	-0.223961	-0.486272	-3.10631	-0.0076699	0	1.0983	0.441708	0	0	0.0955044	0	0	0	0	0	0	0	0	0.000000000	0	0	0	0	0	0	0	0	0	0	0	0	0	0	0	0	0	0	0	0	0	0.000000000
1504255370.872222900	-0.708699	0.162602	-1.58767	-0.223961	-0.487806	-3.10324	-0.00613592	0	1.0983	0.441708	0	0	0.143257	0	0	0	0	0	0	0	0	0.000000000	0	0	0	0	0	0	0	0	0	0	0	0	0	0	0	0	0	0	0	0	0	0.000000000
1504255370.892039060	-0.708699	0.193282	-1.59994	-0.223961	-0.486272	-3.09864	-0.00613592	0	1.0983	0.441708	0	0	0.191009	0	0	0	0	0	0	0	0	0.000000000	0	0	0	0	0	0	0	0	0	0	0	0	0	0	0	0	0	0	0	0	0	0.000000000
1504255370.912415981	-0.708699	0.222427	-1.61068	-0.223961	-0.486272	-3.09404	-0.00613592	0	1.14605	0.393956	0	0	0.191009	0	0	0	0	0	0	0	0	0.000000000	0	0	0	0	0	0	0	0	0	0	0	0	0	0	0	0	0	0	0	0	0	0.000000000
1504255370.931963920	-0.708699	0.222427	-1.61068	-0.223961	-0.486272	-3.09404	-0.00613592	0	1.14605	0.393956	0	0	0.191009	0	0	0	0	0	0	0	0	0.000000000	0	0	0	0	0	0	0	0	0	0	0	0	0	0	0	0	0	0	0	0	0	0.000000000
1504255370.952188968	-0.708699	0.256175	-1.62295	-0.223961	-0.486272	-3.08637	-0.00613592	0	1.0983	0.441708	0	0	0.238761	0	0	0	0	0	0	0	0	0.000000000	0	0	0	0	0	0	0	0	0	0	0	0	0	0	0	0	0	0	0	0	0	0.000000000
1504255370.974339962	-0.708699	0.286854	-1.63522	-0.223961	-0.487806	-3.08177	-0.00613592	0	1.14605	0.48946	0	0	0.191009	0	0	0	0	0	0	0	0	0.000000000	0	0	0	0	0	0	0	0	0	0	0	0	0	0	0	0	0	0	0	0	0	0.000000000
1504255370.992006063	-0.708699	0.317534	-1.64903	-0.223961	-0.487806	-3.07717	-0.00613592	0	1.14605	0.48946	0	0	0.191009	0	0	0	0	0	0	0	0	0.000000000	0	0	0	0	0	0	0	0	0	0	0	0	0	0	0	0	0	0	0	0	0	0.000000000
1504255371.013385057	-0.708699	0.345146	-1.66284	-0.223961	-0.487806	-3.06796	-0.00613592	0	1.0983	0.537212	0	0	0.286513	0	0	0	0	0	0	0	0	0.000000000	0	0	0	0	0	0	0	0	0	0	0	0	0	0	0	0	0	0	0	0	0	0.000000000
1504255371.032057046	-0.708699	0.345146	-1.66284	-0.223961	-0.487806	-3.06796	-0.00613592	0	1.0983	0.537212	0	0	0.286513	0	0	0	0	0	0	0	0	0.000000000	0	0	0	0	0	0	0	0	0	0	0	0	0	0	0	0	0	0	0	0	0	0.000000000
1504255371.052031040	-0.708699	0.369689	-1.67817	-0.223961	-0.487806	-3.05722	-0.00613592	0	0.955044	0.632717	0	0	0.382018	0	0	0	0	0	0	0	0	0.000000000	0	0	0	0	0	0	0	0	0	0	0	0	0	0	0	0	0	0	0	0	0	0.000000000
1504255371.072047948	-0.708699	0.400369	-1.69658	-0.223961	-0.487806	-3.04802	-0.00613592	0	1.05055	0.680469	0	0	0.334265	0	0	0	0	0	0	0	0	0.000000000	0	0	0	0	0	0	0	0	0	0	0	0	0	0	0	0	0	0	0	0	0	0.000000000
1504255371.092056035	-0.708699	0.429515	-1.71652	-0.223961	-0.487806	-3.03728	-0.0076699	0	1.0983	0.728221	0	0	0.382018	0	0	0	0	0	0	0	0	0.000000000	0	0	0	0	0	0	0	0	0	0	0	0	0	0	0	0	0	0	0	0	0	0.000000000
