DingWan/Reconbot3Ddemo/02_MATLAB_Code/sensors_data/Home2FixFold_0905_encoders_data.txt
time_stamp	actual_pos_joint_4	actual_pos_joint_5	actual_pos_joint_3	actual_pos_joint_1	actual_pos_joint_2	actual_pos_joint_6	actual_pos_joint_7	actual_vel_joint_4	actual_vel_joint_5	actual_vel_joint_3	actual_vel_joint_1	actual_vel_joint_2	actual_vel_joint_6	actual_vel_joint_7	actual_acc_joint_4	actual_acc_joint_5	actual_acc_joint_3	actual_acc_joint_1	actual_acc_joint_2	actual_acc_joint_6	actual_acc_joint_7	actual_time_from_start	desired_pos_joint_4	desired_pos_joint_5	desired_pos_joint_3	desired_pos_joint_1	desired_pos_joint_2	desired_pos_joint_6	desired_pos_joint_7	desired_vel_joint_4	desired_vel_joint_5	desired_vel_joint_3	desired_vel_joint_1	desired_vel_joint_2	desired_vel_joint_6	desired_vel_joint_7	desired_acc_joint_4	desired_acc_joint_5	desired_acc_joint_3	desired_acc_joint_1	desired_acc_joint_2	desired_acc_joint_6	desired_acc_joint_7	desired_time_from_start
1504622261.291655063	0.00306796	0.742447	-0.816078	0.00920388	0.802272	-1.61221	-0.0122718	0	0	0	0	0	0	0	0	0	0	0	0	0	0	0.000000000	0	0.788798	-0.788798	0	0.828698	-1.5708	0	0.1	0.1	0.1	0.1	0.1	0.1	0.1	0	0	0	0	0	0	0	0.000000000
1504622261.311666965	0.00306796	0.742447	-0.816078	0.00920388	0.802272	-1.61221	-0.0122718	0	0	0	0	0	0	0	0	0	0	0	0	0	0	0.000000000	0	0.788798	-0.788798	0	0.828698	-1.5708	0	0.1	0.1	0.1	0.1	0.1	0.1	0.1	0	0	0	0	0	0	0	0.000000000
1504622261.331311941	0.00306796	0.740913	-0.816078	0.00920388	0.802272	-1.61221	-0.0122718	0	0	0	0	0	0	0	0	0	0	0	0	0	0	0.000000000	0	0.788798	-0.788798	0	0.828698	-1.5708	0	0.1	0.1	0.1	0.1	0.1	0.1	0.1	0	0	0	0	0	0	0	0.000000000
1504622261.351212978	0.00306796	0.742447	-0.816078	0.00920388	0.802272	-1.61221	-0.0122718	0	0	0	0	0	0	0	0	0	0	0	0	0	0	0.000000000	0	0.788798	-0.788798	0	0.828698	-1.5708	0	0.1	0.1	0.1	0.1	0.1	0.1	0.1	0	0	0	0	0	0	0	0.000000000
1504622261.371531009	0.00306796	0.742447	-0.816078	0.00920388	0.802272	-1.61221	-0.0122718	0	0	0	0	0	0	0	0	0	0	0	0	0	0	0.000000000	0	0.788798	-0.788798	0	0.828698	-1.5708	0	0.1	0.1	0.1	0.1	0.1	0.1	0.1	0	0	0	0	0	0	0	0.000000000
1504622261.392915010	0.00306796	0.742447	-0.816078	0.00920388	0.802272	-1.61221	-0.0122718	0	0	0	0	0	0	0	0	0	0	0	0	0	0	0.000000000	0	0.788798	-0.788798	0	0.828698	-1.5708	0	0.1	0.1	0.1	0.1	0.1	0.1	0.1	0	0	0	0	0	0	0	0.000000000
1504622261.411292076	0.00306796	0.740913	-0.816078	0.00920388	0.802272	-1.61221	-0.0122718	0	0	0	0	0	0	0	0	0	0	0	0	0	0	0.000000000	0	0.788798	-0.788798	0	0.828698	-1.5708	0	0.1	0.1	0.1	0.1	0.1	0.1	0.1	0	0	0	0	0	0	0	0.000000000
1504622261.431011915	0.00306796	0.740913	-0.816078	0.00920388	0.802272	-1.61221	-0.0122718	0	0	0	0	0	0	0	0	0	0	0	0	0	0	0.000000000	0	0.788798	-0.788798	0	0.828698	-1.5708	0	0.1	0.1	0.1	0.1	0.1	0.1	0.1	0	0	0	0	0	0	0	0.000000000
1504622261.451102018	0.00306796	0.742447	-0.816078	0.00920388	0.802272	-1.61221	-0.0122718	0	0	0	0	0	0	0	0	0	0	0	0	0	0	0.000000000	0	0.788798	-0.788798	0	0.828698	-1.5708	0	0.1	0.1	0.1	0.1	0.1	0.1	0.1	0	0	0	0	0	0	0	0.000000000
1504622261.471127986	0.00306796	0.740913	-0.816078	0.00920388	0.802272	-1.61221	-0.0122718	0	0	0	0	0	0	0	0	0	0	0	0	0	0	0.000000000	0	0.788798	-0.788798	0	0.828698	-1.5708	0	0.1	0.1	0.1	0.1	0.1	0.1	0.1	0	0	0	0	0	0	0	0.000000000
1504622261.491027116	0.00306796	0.742447	-0.816078	0.00920388	0.802272	-1.61221	-0.0122718	0	0	0	0	0	0	0	0	0	0	0	0	0	0	0.000000000	0	0.788798	-0.788798	0	0.828698	-1.5708	0	0.1	0.1	0.1	0.1	0.1	0.1	0.1	0	0	0	0	0	0	0	0.000000000
1504622261.511085987	0.00306796	0.742447	-0.816078	0.00920388	0.802272	-1.61221	-0.0122718	0	0	0	0	0	0	0	0	0	0	0	0	0	0	0.000000000	0	0.788798	-0.788798	0	0.828698	-1.5708	0	0.1	0.1	0.1	0.1	0.1	0.1	0.1	0	0	0	0	0	0	0	0.000000000
1504622261.530966043	0.00306796	0.742447	-0.816078	0.00920388	0.802272	-1.61221	-0.0122718	0	0	0	0	0	0	0	0	0	0	0	0	0	0	0.000000000	0	0.788798	-0.788798	0	0.828698	-1.5708	0	0.1	0.1	0.1	0.1	0.1	0.1	0.1	0	0	0	0	0	0	0	0.000000000
1504622261.551065921	0.00306796	0.740913	-0.816078	0.00920388	0.802272	-1.61221	-0.0122718	0	0	0	0	0	0	0	0	0	0	0	0	0	0	0.000000000	0	0.788798	-0.788798	0	0.828698	-1.5708	0	0.1	0.1	0.1	0.1	0.1	0.1	0.1	0	0	0	0	0	0	0	0.000000000
1504622261.571099042	0.00306796	0.740913	-0.816078	0.00920388	0.802272	-1.61221	-0.0122718	0	0	0	0	0	0	0	0	0	0	0	0	0	0	0.000000000	0	0.788798	-0.788798	0	0.828698	-1.5708	0	0.1	0.1	0.1	0.1	0.1	0.1	0.1	0	0	0	0	0	0	0	0.000000000
1504622261.591053962	0.00460194	0.742447	-0.816078	0.00920388	0.802272	-1.61221	-0.0122718	0	0	0	0	0	0	0	0	0	0	0	0	0	0	0.000000000	0	0.788798	-0.788798	0	0.828698	-1.5708	0	0.1	0.1	0.1	0.1	0.1	0.1	0.1	0	0	0	0	0	0	0	0.000000000
1504622261.611116886	0.00306796	0.742447	-0.816078	0.00920388	0.802272	-1.61221	-0.0122718	0	0	0	0	0	0	0	0	0	0	0	0	0	0	0.000000000	0	0.788798	-0.788798	0	0.828698	-1.5708	0	0.1	0.1	0.1	0.1	0.1	0.1	0.1	0	0	0	0	0	0	0	0.000000000
1504622261.631347894	0.00306796	0.742447	-0.816078	0.00920388	0.802272	-1.61221	-0.0122718	0	0	0	0	0	0	0	0	0	0	0	0	0	0	0.000000000	0	0.788798	-0.788798	0	0.828698	-1.5708	0	0.1	0.1	0.1	0.1	0.1	0.1	0.1	0	0	0	0	0	0	0	0.000000000
1504622261.652584075	0.00306796	0.740913	-0.816078	0.00920388	0.802272	-1.61221	-0.0122718	0	0	0	0	0	0	0	0	0	0	0	0	0	0	0.000000000	0	0.788798	-0.788798	0	0.828698	-1.5708	0	0.1	0.1	0.1	0.1	0.1	0.1	0.1	0	0	0	0	0	0	0	0.000000000
1504622261.671674013	0.00460194	0.742447	-0.816078	0.00920388	0.802272	-1.61221	-0.0122718	0	0	0	0	0	0	0	0	0	0	0	0	0	0	0.000000000	0	0.788798	-0.788798	0	0.828698	-1.5708	0	0.1	0.1	0.1	0.1	0.1	0.1	0.1	0	0	0	0	0	0	0	0.000000000
1504622261.691338062	0.00306796	0.742447	-0.816078	0.00920388	0.802272	-1.61221	-0.0122718	0	0	0	0	0	0	0	0	0	0	0	0	0	0	0.000000000	0	0.788798	-0.788798	0	0.828698	-1.5708	0	0.1	0.1	0.1	0.1	0.1	0.1	0.1	0	0	0	0	0	0	0	0.000000000
1504622261.711167097	0.00306796	0.742447	-0.816078	0.00920388	0.802272	-1.61221	-0.0122718	0	0	0	0	0	0	0	0	0	0	0	0	0	0	0.000000000	0	0.788798	-0.788798	0	0.828698	-1.5708	0	0.1	0.1	0.1	0.1	0.1	0.1	0.1	0	0	0	0	0	0	0	0.000000000
1504622261.731170892	0.00306796	0.742447	-0.816078	0.00920388	0.802272	-1.61221	-0.0122718	0	0	0	0	0	0	0	0	0	0	0	0	0	0	0.000000000	0	0.788798	-0.788798	0	0.828698	-1.5708	0	0.1	0.1	0.1	0.1	0.1	0.1	0.1	0	0	0	0	0	0	0	0.000000000
1504622261.751221895	0.00306796	0.740913	-0.816078	0.00920388	0.802272	-1.61221	-0.0122718	0	0	0	0	0	0	0	0	0	0	0	0	0	0	0.000000000	0	0.788798	-0.788798	0	0.828698	-1.5708	0	0.1	0.1	0.1	0.1	0.1	0.1	0.1	0	0	0	0	0	0	0	0.000000000
1504622261.771888017	0.00306796	0.740913	-0.816078	0.00920388	0.802272	-1.61221	-0.0122718	0	0	0	0	0	0	0	0	0	0	0	0	0	0	0.000000000	0	0.788798	-0.788798	0	0.828698	-1.5708	0	0.1	0.1	0.1	0.1	0.1	0.1	0.1	0	0	0	0	0	0	0	0.000000000
1504622261.791215896	0.00306796	0.740913	-0.816078	0.00920388	0.802272	-1.61221	-0.0122718	0	0	0	0	0	0	0	0	0	0	0	0	0	0	0.000000000	0	0.788798	-0.788798	0	0.828698	-1.5708	0	0.1	0.1	0.1	0.1	0.1	0.1	0.1	0	0	0	0	0	0	0	0.000000000
1504622261.811503887	0.00306796	0.742447	-0.816078	0.00920388	0.802272	-1.61221	-0.0122718	0	0	0	0	0	0	0	0	0	0	0	0	0	0	0.000000000	0	0.788798	-0.788798	0	0.828698	-1.5708	0	0.1	0.1	0.1	0.1	0.1	0.1	0.1	0	0	0	0	0	0	0	0.000000000
1504622261.831415891	0.00306796	0.742447	-0.816078	0.00920388	0.802272	-1.61221	-0.0122718	0	0	0	0	0	0	0	0	0	0	0	0	0	0	0.000000000	0	0.788798	-0.788798	0	0.828698	-1.5708	0	0.1	0.1	0.1	0.1	0.1	0.1	0.1	0	0	0	0	0	0	0	0.000000000
1504622261.851501941	0.00306796	0.742447	-0.816078	0.00920388	0.803806	-1.61221	-0.0122718	0	0	0	0	0	0	0	0	0	0	0	0	0	0	0.000000000	0	0.788798	-0.788798	0	0.828698	-1.5708	0	0.1	0.1	0.1	0.1	0.1	0.1	0.1	0	0	0	0	0	0	0	0.000000000
1504622261.873220920	0.00306796	0.742447	-0.816078	0.00920388	0.803806	-1.61221	-0.0122718	0	0	0	0	0	0	0	0	0	0	0	0	0	0	0.000000000	0	0.788798	-0.788798	0	0.828698	-1.5708	0	0.1	0.1	0.1	0.1	0.1	0.1	0.1	0	0	0	0	0	0	0	0.000000000
1504622261.892296075	0.00306796	0.742447	-0.816078	0.00920388	0.802272	-1.61221	-0.0122718	0	0	0	0	0	0	0	0	0	0	0	0	0	0	0.000000000	0	0.788798	-0.788798	0	0.828698	-1.5708	0	0.1	0.1	0.1	0.1	0.1	0.1	0.1	0	0	0	0	0	0	0	0.000000000
1504622261.911628961	0.00306796	0.742447	-0.816078	0.00920388	0.802272	-1.61221	-0.0122718	0	0	0	0	0	0	0	0	0	0	0	0	0	0	0.000000000	0	0.788798	-0.788798	0	0.828698	-1.5708	0	0.1	0.1	0.1	0.1	0.1	0.1	0.1	0	0	0	0	0	0	0	0.000000000
1504622261.931473970	0.00306796	0.742447	-0.816078	0.00920388	0.802272	-1.61221	-0.0122718	0	0	0	0	0	0	0	0	0	0	0	0	0	0	0.000000000	0	0.788798	-0.788798	0	0.828698	-1.5708	0	0.1	0.1	0.1	0.1	0.1	0.1	0.1	0	0	0	0	0	0	0	0.000000000
1504622261.951489925	0.00306796	0.742447	-0.816078	0.0076699	0.802272	-1.61221	-0.0122718	0	0	0	0	0	0	0	0	0	0	0	0	0	0	0.000000000	0	0.788798	-0.788798	0	0.828698	-1.5708	0	0.1	0.1	0.1	0.1	0.1	0.1	0.1	0	0	0	0	0	0	0	0.000000000
1504622261.971678972	0.00306796	0.740913	-0.816078	0.0076699	0.802272	-1.61221	-0.0122718	0	0	0	0	0	0	0	0	0	0	0	0	0	0	0.000000000	0	0.788798	-0.788798	0	0.828698	-1.5708	0	0.1	0.1	0.1	0.1	0.1	0.1	0.1	0	0	0	0	0	0	0	0.000000000
1504622261.992316007	0.00306796	0.742447	-0.816078	0.00920388	0.802272	-1.61221	-0.0122718	0	0	0	0	0	0	0	0	0	0	0	0	0	0	0.000000000	0	0.788798	-0.788798	0	0.828698	-1.5708	0	0.1	0.1	0.1	0.1	0.1	0.1	0.1	0	0	0	0	0	0	0	0.000000000
1504622262.011224985	0.00306796	0.742447	-0.816078	0.00920388	0.802272	-1.61221	-0.0122718	0	0	0	0	0	0	0	0	0	0	0	0	0	0	0.000000000	0	0.788798	-0.788798	0	0.828698	-1.5708	0	0.1	0.1	0.1	0.1	0.1	0.1	0.1	0	0	0	0	0	0	0	0.000000000
1504622262.031393051	0.00306796	0.740913	-0.816078	0.00920388	0.802272	-1.61221	-0.0122718	0	0	0	0	0	0	0	0	0	0	0	0	0	0	0.000000000	0	0.788798	-0.788798	0	0.828698	-1.5708	0	0.1	0.1	0.1	0.1	0.1	0.1	0.1	0	0	0	0	0	0	0	0.000000000
1504622262.051337003	0.00306796	0.740913	-0.816078	0.00920388	0.803806	-1.61221	-0.0122718	0	0	0	0	0	0	0	0	0	0	0	0	0	0	0.000000000	0	0.788798	-0.788798	0	0.828698	-1.5708	0	0.1	0.1	0.1	0.1	0.1	0.1	0.1	0	0	0	0	0	0	0	0.000000000
1504622262.071381092	0.00306796	0.742447	-0.816078	0.00920388	0.802272	-1.61221	-0.0122718	0	0	0	0	0	0	0	0	0	0	0	0	0	0	0.000000000	0	0.788798	-0.788798	0	0.828698	-1.5708	0	0.1	0.1	0.1	0.1	0.1	0.1	0.1	0	0	0	0	0	0	0	0.000000000
1504622262.092847108	0.00306796	0.742447	-0.816078	0.00920388	0.802272	-1.61221	-0.0122718	0	0	0	0	0	0	0	0	0	0	0	0	0	0	0.000000000	0	0.788798	-0.788798	0	0.828698	-1.5708	0	0.1	0.1	0.1	0.1	0.1	0.1	0.1	0	0	0	0	0	0	0	0.000000000
1504622262.111349105	0.00306796	0.742447	-0.816078	0.00920388	0.802272	-1.61221	-0.0122718	0	0	0	0	0	0	0	0	0	0	0	0	0	0	0.000000000	0	0.788798	-0.788798	0	0.828698	-1.5708	0	0.1	0.1	0.1	0.1	0.1	0.1	0.1	0	0	0	0	0	0	0	0.000000000
1504622262.131225109	0.00306796	0.740913	-0.816078	0.00920388	0.802272	-1.61221	-0.0122718	0	0	0	0	0	0	0	0	0	0	0	0	0	0	0.000000000	0	0.788798	-0.788798	0	0.828698	-1.5708	0	0.1	0.1	0.1	0.1	0.1	0.1	0.1	0	0	0	0	0	0	0	0.000000000
1504622262.153671979	0.00306796	0.742447	-0.816078	0.00920388	0.802272	-1.61221	-0.0122718	0	0	0	0	0	0	0	0	0	0	0	0	0	0	0.000000000	0	0.788798	-0.788798	0	0.828698	-1.5708	0	0.1	0.1	0.1	0.1	0.1	0.1	0.1	0	0	0	0	0	0	0	0.000000000
1504622262.171200037	0.00306796	0.742447	-0.816078	0.00920388	0.802272	-1.61221	-0.0122718	0	0	0	0	0	0	0	0	0	0	0	0	0	0	0.000000000	0	0.788798	-0.788798	0	0.828698	-1.5708	0	0.1	0.1	0.1	0.1	0.1	0.1	0.1	0	0	0	0	0	0	0	0.000000000
1504622262.192928075	0.00306796	0.742447	-0.816078	0.00920388	0.802272	-1.61221	-0.0122718	0	0	0	0	0	0	0	0	0	0	0	0	0	0	0.000000000	0	0.788798	-0.788798	0	0.828698	-1.5708	0	0.1	0.1	0.1	0.1	0.1	0.1	0.1	0	0	0	0	0	0	0	0.000000000
1504622262.211061954	0.00306796	0.742447	-0.816078	0.00920388	0.802272	-1.61221	-0.0122718	0	0	0	0	0	0	0	0	0	0	0	0	0	0	0.000000000	0	0.788798	-0.788798	0	0.828698	-1.5708	0	0.1	0.1	0.1	0.1	0.1	0.1	0.1	0	0	0	0	0	0	0	0.000000000
1504622262.231034994	0.00306796	0.742447	-0.816078	0.00920388	0.802272	-1.61221	-0.0122718	0	0	0	0	0	0	0	0	0	0	0	0	0	0	0.000000000	0	0.788798	-0.788798	0	0.828698	-1.5708	0	0.1	0.1	0.1	0.1	0.1	0.1	0.1	0	0	0	0	0	0	0	0.000000000
1504622262.251182079	0.00306796	0.742447	-0.816078	0.00920388	0.802272	-1.61221	-0.0122718	0	0	0	0	0	0	0	0	0	0	0	0	0	0	0.000000000	0	0.788798	-0.788798	0	0.828698	-1.5708	0	0.1	0.1	0.1	0.1	0.1	0.1	0.1	0	0	0	0	0	0	0	0.000000000
1504622262.271532058	0.00306796	0.742447	-0.816078	0.00920388	0.802272	-1.61221	-0.0122718	0	0	0	0	0	0	0	0	0	0	0	0	0	0	0.000000000	0	0.788798	-0.788798	0	0.828698	-1.5708	0	0.1	0.1	0.1	0.1	0.1	0.1	0.1	0	0	0	0	0	0	0	0.000000000
1504622262.291563987	0.00306796	0.742447	-0.816078	0.00920388	0.802272	-1.61221	-0.0122718	0	0	0	0	0	0	0	0	0	0	0	0	0	0	0.000000000	0	0.788798	-0.788798	0	0.828698	-1.5708	0	0.1	0.1	0.1	0.1	0.1	0.1	0.1	0	0	0	0	0	0	0	0.000000000
1504622262.312340021	0.00306796	0.740913	-0.816078	0.00920388	0.802272	-1.61221	-0.0122718	0	0	0	0	0	0	0	0	0	0	0	0	0	0	0.000000000	0	0.788798	-0.788798	0	0.828698	-1.5708	0	0.1	0.1	0.1	0.1	0.1	0.1	0.1	0	0	0	0	0	0	0	0.000000000
1504622262.331454038	0.00306796	0.742447	-0.816078	0.00920388	0.802272	-1.61221	-0.0122718	0	0	0	0	0	0	0	0	0	0	0	0	0	0	0.000000000	0	0.788798	-0.788798	0	0.828698	-1.5708	0	0.1	0.1	0.1	0.1	0.1	0.1	0.1	0	0	0	0	0	0	0	0.000000000
1504622262.351295948	0.00306796	0.740913	-0.816078	0.00920388	0.802272	-1.61221	-0.0122718	0	0	0	0	0	0	0	0	0	0	0	0	0	0	0.000000000	0	0.788798	-0.788798	0	0.828698	-1.5708	0	0.1	0.1	0.1	0.1	0.1	0.1	0.1	0	0	0	0	0	0	0	0.000000000
1504622262.371951103	0.00306796	0.740913	-0.816078	0.00920388	0.802272	-1.61221	-0.0122718	0	0	0	0	0	0	0	0	0	0	0	0	0	0	0.000000000	0	0.788798	-0.788798	0	0.828698	-1.5708	0	0.1	0.1	0.1	0.1	0.1	0.1	0.1	0	0	0	0	0	0	0	0.000000000
1504622262.391776084	0.00306796	0.742447	-0.816078	0.00920388	0.802272	-1.61221	-0.0122718	0	0	0	0	0	0	0	0	0	0	0	0	0	0	0.000000000	0	0.788798	-0.788798	0	0.828698	-1.5708	0	0.1	0.1	0.1	0.1	0.1	0.1	0.1	0	0	0	0	0	0	0	0.000000000
1504622262.411402940	0.00306796	0.742447	-0.816078	0.00920388	0.802272	-1.61221	-0.0122718	0	0	0	0	0	0	0	0	0	0	0	0	0	0	0.000000000	0	0.788798	-0.788798	0	0.828698	-1.5708	0	0.1	0.1	0.1	0.1	0.1	0.1	0.1	0	0	0	0	0	0	0	0.000000000
1504622262.431365013	0.00306796	0.740913	-0.816078	0.00920388	0.802272	-1.61221	-0.0122718	0	0	0	0	0	0	0	0	0	0	0	0	0	0	0.000000000	0	0.788798	-0.788798	0	0.828698	-1.5708	0	0.1	0.1	0.1	0.1	0.1	0.1	0.1	0	0	0	0	0	0	0	0.000000000
1504622262.451186895	0.00306796	0.742447	-0.816078	0.00920388	0.802272	-1.61221	-0.0122718	0	0	0	0	0	0	0	0	0	0	0	0	0	0	0.000000000	0	0.788798	-0.788798	0	0.828698	-1.5708	0	0.1	0.1	0.1	0.1	0.1	0.1	0.1	0	0	0	0	0	0	0	0.000000000
1504622262.471338033	0.00306796	0.742447	-0.816078	0.00920388	0.802272	-1.61221	-0.0122718	0	0	0	0	0	0	0	0	0	0	0	0	0	0	0.000000000	0	0.788798	-0.788798	0	0.828698	-1.5708	0	0.1	0.1	0.1	0.1	0.1	0.1	0.1	0	0	0	0	0	0	0	0.000000000
1504622262.491218090	0.00306796	0.742447	-0.816078	0.00920388	0.802272	-1.61221	-0.0122718	0	0	0	0	0	0	0	0	0	0	0	0	0	0	0.000000000	0	0.788798	-0.788798	0	0.828698	-1.5708	0	0.1	0.1	0.1	0.1	0.1	0.1	0.1	0	0	0	0	0	0	0	0.000000000
1504622262.511306047	0.00306796	0.740913	-0.816078	0.00920388	0.802272	-1.61221	-0.0122718	0	0	0	0	0	0	0	0	0	0	0	0	0	0	0.000000000	0	0.788798	-0.788798	0	0.828698	-1.5708	0	0.1	0.1	0.1	0.1	0.1	0.1	0.1	0	0	0	0	0	0	0	0.000000000
1504622262.531232118	0.00306796	0.742447	-0.816078	0.00920388	0.802272	-1.61221	-0.0122718	0	0	0	0	0	0	0	0	0	0	0	0	0	0	0.000000000	0	0.788798	-0.788798	0	0.828698	-1.5708	0	0.1	0.1	0.1	0.1	0.1	0.1	0.1	0	0	0	0	0	0	0	0.000000000
1504622262.551228046	0.00306796	0.742447	-0.816078	0.00920388	0.802272	-1.61221	-0.0122718	0	0	0	0	0	0	0	0	0	0	0	0	0	0	0.000000000	0	0.788798	-0.788798	0	0.828698	-1.5708	0	0.1	0.1	0.1	0.1	0.1	0.1	0.1	0	0	0	0	0	0	0	0.000000000
1504622262.571170091	0.00306796	0.742447	-0.816078	0.00920388	0.802272	-1.61221	-0.0122718	0	0	0	0	0	0	0	0	0	0	0	0	0	0	0.000000000	0	0.788798	-0.788798	0	0.828698	-1.5708	0	0.1	0.1	0.1	0.1	0.1	0.1	0.1	0	0	0	0	0	0	0	0.000000000
1504622262.591973066	0.00306796	0.742447	-0.816078	0.00920388	0.802272	-1.61221	-0.0122718	0	0	0	0	0	0	0	0	0	0	0	0	0	0	0.000000000	0	0.788798	-0.788798	0	0.828698	-1.5708	0	0.1	0.1	0.1	0.1	0.1	0.1	0.1	0	0	0	0	0	0	0	0.000000000
1504622262.611200094	0.00306796	0.740913	-0.816078	0.00920388	0.802272	-1.61221	-0.0122718	0	0	0	0	0	0	0	0	0	0	0	0	0	0	0.000000000	0	0.788798	-0.788798	0	0.828698	-1.5708	0	0.1	0.1	0.1	0.1	0.1	0.1	0.1	0	0	0	0	0	0	0	0.000000000
1504622262.632556915	0.00306796	0.740913	-0.816078	0.0076699	0.802272	-1.61221	-0.0138058	0	0	0	0	0	0	0	0	0	0	0	0	0	0	0.000000000	0	0.788798	-0.788798	0	0.828698	-1.5708	0	0.1	0.1	0.1	0.1	0.1	0.1	0.1	0	0	0	0	0	0	0	0.000000000
1504622262.654247045	0.00306796	0.742447	-0.816078	0.00920388	0.802272	-1.61221	-0.0122718	0	0	0	0	0	0	0	0	0	0	0	0	0	0	0.000000000	0	0.788798	-0.788798	0	0.828698	-1.5708	0	0.1	0.1	0.1	0.1	0.1	0.1	0.1	0	0	0	0	0	0	0	0.000000000
1504622262.671336889	0.00306796	0.742447	-0.816078	0.00920388	0.802272	-1.61221	-0.0122718	0	0	0	0	0	0	0	0	0	0	0	0	0	0	0.000000000	0	0.788798	-0.788798	0	0.828698	-1.5708	0	0.1	0.1	0.1	0.1	0.1	0.1	0.1	0	0	0	0	0	0	0	0.000000000
1504622262.691217899	0.00306796	0.740913	-0.816078	0.00920388	0.802272	-1.61221	-0.0122718	0	0	0	0	0	0	0	0	0	0	0	0	0	0	0.000000000	0	0.788798	-0.788798	0	0.828698	-1.5708	0	0.1	0.1	0.1	0.1	0.1	0.1	0.1	0	0	0	0	0	0	0	0.000000000
1504622262.713557958	0.00306796	0.742447	-0.816078	0.00920388	0.802272	-1.61221	-0.0122718	0	0	0	0	0	0	0	0	0	0	0	0	0	0	0.000000000	0	0.788798	-0.788798	0	0.828698	-1.5708	0	0.1	0.1	0.1	0.1	0.1	0.1	0.1	0	0	0	0	0	0	0	0.000000000
1504622262.731488943	0.00306796	0.742447	-0.816078	0.00920388	0.802272	-1.61221	-0.0122718	0	0	0	0	0	0	0	0	0	0	0	0	0	0	0.000000000	0	0.788798	-0.788798	0	0.828698	-1.5708	0	0.1	0.1	0.1	0.1	0.1	0.1	0.1	0	0	0	0	0	0	0	0.000000000
1504622262.753042936	0.00306796	0.740913	-0.816078	0.00920388	0.802272	-1.61221	-0.0122718	0	0	0	0	0	0	0	0	0	0	0	0	0	0	0.000000000	0	0.788798	-0.788798	0	0.828698	-1.5708	0	0.1	0.1	0.1	0.1	0.1	0.1	0.1	0	0	0	0	0	0	0	0.000000000
1504622262.771532058	0.00306796	0.742447	-0.816078	0.00920388	0.802272	-1.61221	-0.0122718	0	0	0	0	0	0	0	0	0	0	0	0	0	0	0.000000000	0	0.788798	-0.788798	0	0.828698	-1.5708	0	0.1	0.1	0.1	0.1	0.1	0.1	0.1	0	0	0	0	0	0	0	0.000000000
1504622262.791131973	0.00306796	0.742447	-0.816078	0.00920388	0.802272	-1.61221	-0.0122718	0	0	0	0	0	0	0	0	0	0	0	0	0	0	0.000000000	0	0.788798	-0.788798	0	0.828698	-1.5708	0	0.1	0.1	0.1	0.1	0.1	0.1	0.1	0	0	0	0	0	0	0	0.000000000
1504622262.811212062	0.00306796	0.742447	-0.816078	0.00920388	0.802272	-1.61221	-0.0122718	0	0	0	0	0	0	0	0	0	0	0	0	0	0	0.000000000	0	0.788798	-0.788798	0	0.828698	-1.5708	0	0.1	0.1	0.1	0.1	0.1	0.1	0.1	0	0	0	0	0	0	0	0.000000000
1504622262.831368923	0.00306796	0.742447	-0.816078	0.00920388	0.802272	-1.61221	-0.0122718	0	0	0	0	0	0	0	0	0	0	0	0	0	0	0.000000000	0	0.788798	-0.788798	0	0.828698	-1.5708	0	0.1	0.1	0.1	0.1	0.1	0.1	0.1	0	0	0	0	0	0	0	0.000000000
1504622262.851236104	0.00306796	0.742447	-0.816078	0.00920388	0.802272	-1.61221	-0.0122718	0	0	0	0	0	0	0	0	0	0	0	0	0	0	0.000000000	0	0.788798	-0.788798	0	0.828698	-1.5708	0	0.1	0.1	0.1	0.1	0.1	0.1	0.1	0	0	0	0	0	0	0	0.000000000
1504622262.871644973	0.00306796	0.742447	-0.816078	0.00920388	0.802272	-1.61221	-0.0122718	0	0	0	0	0	0	0	0	0	0	0	0	0	0	0.000000000	0	0.788798	-0.788798	0	0.828698	-1.5708	0	0.1	0.1	0.1	0.1	0.1	0.1	0.1	0	0	0	0	0	0	0	0.000000000
1504622262.891799926	0.00306796	0.742447	-0.816078	0.00920388	0.802272	-1.61221	-0.0122718	0	0	0	0	0	0	0	0	0	0	0	0	0	0	0.000000000	0	0.788798	-0.788798	0	0.828698	-1.5708	0	0.1	0.1	0.1	0.1	0.1	0.1	0.1	0	0	0	0	0	0	0	0.000000000
1504622262.911429882	0.00306796	0.742447	-0.816078	0.00920388	0.802272	-1.61221	-0.0122718	0	0	0	0	0	0	0	0	0	0	0	0	0	0	0.000000000	0	0.788798	-0.788798	0	0.828698	-1.5708	0	0.1	0.1	0.1	0.1	0.1	0.1	0.1	0	0	0	0	0	0	0	0.000000000
1504622262.932346105	0.00306796	0.742447	-0.816078	0.00920388	0.802272	-1.61221	-0.0122718	0	0	0	0	0	0	0	0	0	0	0	0	0	0	0.000000000	0	0.788798	-0.788798	0	0.828698	-1.5708	0	0.1	0.1	0.1	0.1	0.1	0.1	0.1	0	0	0	0	0	0	0	0.000000000
1504622262.952155113	0.00306796	0.742447	-0.816078	0.00920388	0.802272	-1.61221	-0.0122718	0	0	0	0	0	0	0	0	0	0	0	0	0	0	0.000000000	0	0.788798	-0.788798	0	0.828698	-1.5708	0	0.1	0.1	0.1	0.1	0.1	0.1	0.1	0	0	0	0	0	0	0	0.000000000
1504622262.971134901	0.00306796	0.742447	-0.816078	0.00920388	0.802272	-1.61221	-0.0122718	0	0	0	0	0	0	0	0	0	0	0	0	0	0	0.000000000	0	0.788798	-0.788798	0	0.828698	-1.5708	0	0.1	0.1	0.1	0.1	0.1	0.1	0.1	0	0	0	0	0	0	0	0.000000000
1504622262.994132995	0.00306796	0.742447	-0.816078	0.00920388	0.802272	-1.61221	-0.0122718	0	0	0	0	0	0	0	0	0	0	0	0	0	0	0.000000000	0	0.788798	-0.788798	0	0.828698	-1.5708	0	0.1	0.1	0.1	0.1	0.1	0.1	0.1	0	0	0	0	0	0	0	0.000000000
1504622263.011343002	0.00306796	0.742447	-0.816078	0.00920388	0.802272	-1.61221	-0.0122718	0	0	0	0	0	0	0	0	0	0	0	0	0	0	0.000000000	0	0.788798	-0.788798	0	0.828698	-1.5708	0	0.1	0.1	0.1	0.1	0.1	0.1	0.1	0	0	0	0	0	0	0	0.000000000
1504622263.031303882	0.00306796	0.742447	-0.816078	0.00920388	0.802272	-1.61221	-0.0122718	0	0	0	0	0	0	0	0	0	0	0	0	0	0	0.000000000	0	0.788798	-0.788798	0	0.828698	-1.5708	0	0.1	0.1	0.1	0.1	0.1	0.1	0.1	0	0	0	0	0	0	0	0.000000000
1504622263.051182031	0.00306796	0.742447	-0.816078	0.00920388	0.802272	-1.61221	-0.0122718	0	0	0	0	0	0	0	0	0	0	0	0	0	0	0.000000000	0	0.788798	-0.788798	0	0.828698	-1.5708	0	0.1	0.1	0.1	0.1	0.1	0.1	0.1	0	0	0	0	0	0	0	0.000000000
1504622263.071429967	0.00306796	0.742447	-0.816078	0.00920388	0.802272	-1.61221	-0.0122718	0	0	0	0	0	0	0	0	0	0	0	0	0	0	0.000000000	0	0.788798	-0.788798	0	0.828698	-1.5708	0	0.1	0.1	0.1	0.1	0.1	0.1	0.1	0	0	0	0	0	0	0	0.000000000
1504622263.092915058	0.00306796	0.740913	-0.816078	0.00920388	0.802272	-1.61221	-0.0122718	0	0	0	0	0	0	0	0	0	0	0	0	0	0	0.000000000	0	0.788798	-0.788798	0	0.828698	-1.5708	0	0.1	0.1	0.1	0.1	0.1	0.1	0.1	0	0	0	0	0	0	0	0.000000000
1504622263.112308025	0.00306796	0.742447	-0.816078	0.00920388	0.802272	-1.61221	-0.0122718	0	0	0	0	0	0	0	0	0	0	0	0	0	0	0.000000000	0	0.788798	-0.788798	0	0.828698	-1.5708	0	0.1	0.1	0.1	0.1	0.1	0.1	0.1	0	0	0	0	0	0	0	0.000000000
1504622263.133532047	0.00306796	0.742447	-0.816078	0.00920388	0.802272	-1.61221	-0.0122718	0	0	0	0	0	0	0	0	0	0	0	0	0	0	0.000000000	0	0.788798	-0.788798	0	0.828698	-1.5708	0	0.1	0.1	0.1	0.1	0.1	0.1	0.1	0	0	0	0	0	0	0	0.000000000
1504622263.151345014	0.00306796	0.740913	-0.816078	0.00920388	0.802272	-1.61221	-0.0122718	0	0	0	0	0	0	0	0	0	0	0	0	0	0	0.000000000	0	0.788798	-0.788798	0	0.828698	-1.5708	0	0.1	0.1	0.1	0.1	0.1	0.1	0.1	0	0	0	0	0	0	0	0.000000000
1504622263.172183990	0.00306796	0.740913	-0.816078	0.00920388	0.802272	-1.61221	-0.0122718	0	0	0	0	0	0	0	0	0	0	0	0	0	0	0.000000000	0	0.788798	-0.788798	0	0.828698	-1.5708	0	0.1	0.1	0.1	0.1	0.1	0.1	0.1	0	0	0	0	0	0	0	0.000000000
1504622263.191216945	0.00306796	0.742447	-0.816078	0.00920388	0.802272	-1.61221	-0.0122718	0	0	0	0	0	0	0	0	0	0	0	0	0	0	0.000000000	0	0.788798	-0.788798	0	0.828698	-1.5708	0	0.1	0.1	0.1	0.1	0.1	0.1	0.1	0	0	0	0	0	0	0	0.000000000
1504622263.214083909	0.00306796	0.740913	-0.816078	0.00920388	0.802272	-1.61221	-0.0122718	0	0	0	0	0	0	0	0	0	0	0	0	0	0	0.000000000	0	0.788798	-0.788798	0	0.828698	-1.5708	0	0.1	0.1	0.1	0.1	0.1	0.1	0.1	0	0	0	0	0	0	0	0.000000000
1504622263.231419086	0.00306796	0.740913	-0.816078	0.00920388	0.802272	-1.61221	-0.0122718	0	0	0	0	0	0	0	0	0	0	0	0	0	0	0.000000000	0	0.788798	-0.788798	0	0.828698	-1.5708	0	0.1	0.1	0.1	0.1	0.1	0.1	0.1	0	0	0	0	0	0	0	0.000000000
1504622263.251339912	0.00306796	0.740913	-0.816078	0.00920388	0.802272	-1.61221	-0.0122718	0	0	0	0	0	0	0	0	0	0	0	0	0	0	0.000000000	0	0.788798	-0.788798	0	0.828698	-1.5708	0	0.1	0.1	0.1	0.1	0.1	0.1	0.1	0	0	0	0	0	0	0	0.000000000
1504622263.271219015	0.00306796	0.742447	-0.816078	0.00920388	0.802272	-1.61221	-0.0122718	0	0	0	0	0	0	0	0	0	0	0	0	0	0	0.000000000	0	0.788798	-0.788798	0	0.828698	-1.5708	0	0.1	0.1	0.1	0.1	0.1	0.1	0.1	0	0	0	0	0	0	0	0.000000000
1504622263.291631937	0.00306796	0.742447	-0.816078	0.00920388	0.802272	-1.61221	-0.0122718	0	0	0	0	0	0	0	0	0	0	0	0	0	0	0.000000000	0	0.788798	-0.788798	0	0.828698	-1.5708	0	0.1	0.1	0.1	0.1	0.1	0.1	0.1	0	0	0	0	0	0	0	0.000000000
1504622263.311222076	0.00306796	0.742447	-0.816078	0.00920388	0.802272	-1.61221	-0.0122718	0	0	0	0	0	0	0	0	0	0	0	0	0	0	0.000000000	0	0.788798	-0.788798	0	0.828698	-1.5708	0	0.1	0.1	0.1	0.1	0.1	0.1	0.1	0	0	0	0	0	0	0	0.000000000
1504622263.331340074	0.00306796	0.742447	-0.816078	0.00920388	0.802272	-1.61221	-0.0122718	0	0	0	0	0	0	0	0	0	0	0	0	0	0	0.000000000	0	0.788798	-0.788798	0	0.828698	-1.5708	0	0.1	0.1	0.1	0.1	0.1	0.1	0.1	0	0	0	0	0	0	0	0.000000000
1504622263.351509094	0.00306796	0.742447	-0.816078	0.00920388	0.802272	-1.61221	-0.0122718	0	0	0	0	0	0	0	0	0	0	0	0	0	0	0.000000000	0	0.788798	-0.788798	0	0.828698	-1.5708	0	0.1	0.1	0.1	0.1	0.1	0.1	0.1	0	0	0	0	0	0	0	0.000000000
1504622263.371165037	0.00306796	0.742447	-0.816078	0.00920388	0.802272	-1.61221	-0.0122718	0	0	0	0	0	0	0	0	0	0	0	0	0	0	0.000000000	0	0.788798	-0.788798	0	0.828698	-1.5708	0	0.1	0.1	0.1	0.1	0.1	0.1	0.1	0	0	0	0	0	0	0	0.000000000
1504622263.391463994	0.00306796	0.740913	-0.816078	0.00920388	0.802272	-1.61221	-0.0122718	0	0	0	0	0	0	0	0	0	0	0	0	0	0	0.000000000	0	0.788798	-0.788798	0	0.828698	-1.5708	0	0.1	0.1	0.1	0.1	0.1	0.1	0.1	0	0	0	0	0	0	0	0.000000000
1504622263.411302089	0.00306796	0.740913	-0.816078	0.00920388	0.802272	-1.61221	-0.0122718	0	0	0	0	0	0	0	0	0	0	0	0	0	0	0.000000000	0	0.788798	-0.788798	0	0.828698	-1.5708	0	0.1	0.1	0.1	0.1	0.1	0.1	0.1	0	0	0	0	0	0	0	0.000000000
1504622263.431369066	0.00306796	0.742447	-0.816078	0.00920388	0.802272	-1.61221	-0.0122718	0	0	0	0	0	0	0	0	0	0	0	0	0	0	0.000000000	0	0.788798	-0.788798	0	0.828698	-1.5708	0	0.1	0.1	0.1	0.1	0.1	0.1	0.1	0	0	0	0	0	0	0	0.000000000
1504622263.451380014	0.00306796	0.742447	-0.816078	0.00920388	0.802272	-1.61221	-0.0122718	0	0	0	0	0	0	0	0	0	0	0	0	0	0	0.000000000	0	0.788798	-0.788798	0	0.828698	-1.5708	0	0.1	0.1	0.1	0.1	0.1	0.1	0.1	0	0	0	0	0	0	0	0.000000000
1504622263.476569890	0.00306796	0.740913	-0.816078	0.00920388	0.802272	-1.61068	-0.0122718	0	0	0	0	0	0	0	0	0	0	0	0	0	0	0.000000000	0	0.788798	-0.788798	0	0.828698	-1.5708	0	0.1	0.1	0.1	0.1	0.1	0.1	0.1	0	0	0	0	0	0	0	0.000000000
1504622263.491492033	0.00306796	0.740913	-0.816078	0.00920388	0.802272	-1.61068	-0.0122718	0	0	0	0	0	0	0	0	0	0	0	0	0	0	0.000000000	0	0.788798	-0.788798	0	0.828698	-1.5708	0	0.1	0.1	0.1	0.1	0.1	0.1	0.1	0	0	0	0	0	0	0	0.000000000
1504622263.513245105	0.00306796	0.742447	-0.816078	0.00920388	0.802272	-1.61221	-0.0122718	0	0	0	0	0	0	0	0	0	0	0	0	0	0	0.000000000	0	0.788798	-0.788798	0	0.828698	-1.5708	0	0.1	0.1	0.1	0.1	0.1	0.1	0.1	0	0	0	0	0	0	0	0.000000000
1504622263.531348943	0.00306796	0.742447	-0.816078	0.00920388	0.802272	-1.61221	-0.0122718	0	0	0	0	0	0	0	0	0	0	0	0	0	0	0.000000000	0	0.788798	-0.788798	0	0.828698	-1.5708	0	0.1	0.1	0.1	0.1	0.1	0.1	0.1	0	0	0	0	0	0	0	0.000000000
1504622263.551413059	0.00306796	0.742447	-0.816078	0.00920388	0.802272	-1.61221	-0.0122718	0	0	0	0	0	0	0	0	0	0	0	0	0	0	0.000000000	0	0.788798	-0.788798	0	0.828698	-1.5708	0	0.1	0.1	0.1	0.1	0.1	0.1	0.1	0	0	0	0	0	0	0	0.000000000
1504622263.574110031	0.00306796	0.742447	-0.816078	0.00920388	0.802272	-1.61221	-0.0122718	0	0	0	0	0	0	0	0	0	0	0	0	0	0	0.000000000	0	0.788798	-0.788798	0	0.828698	-1.5708	0	0.1	0.1	0.1	0.1	0.1	0.1	0.1	0	0	0	0	0	0	0	0.000000000
1504622263.596045970	0.00306796	0.740913	-0.816078	0.00920388	0.802272	-1.61221	-0.0122718	0	0	0	0	0	0	0	0	0	0	0	0	0	0	0.000000000	0	0.788798	-0.788798	0	0.828698	-1.5708	0	0.1	0.1	0.1	0.1	0.1	0.1	0.1	0	0	0	0	0	0	0	0.000000000
1504622263.611366987	0.00306796	0.740913	-0.816078	0.00920388	0.802272	-1.61221	-0.0122718	0	0	0	0	0	0	0	0	0	0	0	0	0	0	0.000000000	0	0.788798	-0.788798	0	0.828698	-1.5708	0	0.1	0.1	0.1	0.1	0.1	0.1	0.1	0	0	0	0	0	0	0	0.000000000
1504622263.631325960	0.00306796	0.740913	-0.816078	0.00920388	0.802272	-1.61221	-0.0122718	0	0	0	0	0	0	0	0	0	0	0	0	0	0	0.000000000	0	0.788798	-0.788798	0	0.828698	-1.5708	0	0.1	0.1	0.1	0.1	0.1	0.1	0.1	0	0	0	0	0	0	0	0.000000000
1504622263.658030033	0.00306796	0.740913	-0.816078	0.00920388	0.802272	-1.61221	-0.0122718	0	0	0	0	0	0	0	0	0	0	0	0	0	0	0.000000000	0	0.788798	-0.788798	0	0.828698	-1.5708	0	0.1	0.1	0.1	0.1	0.1	0.1	0.1	0	0	0	0	0	0	0	0.000000000
1504622263.671338081	0.00306796	0.742447	-0.816078	0.00920388	0.802272	-1.61221	-0.0122718	0	0	0	0	0	0	0	0	0	0	0	0	0	0	0.000000000	0	0.788798	-0.788798	0	0.828698	-1.5708	0	0.1	0.1	0.1	0.1	0.1	0.1	0.1	0	0	0	0	0	0	0	0.000000000
1504622263.691123962	0.00306796	0.742447	-0.816078	0.00920388	0.803806	-1.61221	-0.0122718	0	0	0	0	0	0	0	0	0	0	0	0	0	0	0.000000000	0	0.788798	-0.788798	0	0.828698	-1.5708	0	0.1	0.1	0.1	0.1	0.1	0.1	0.1	0	0	0	0	0	0	0	0.000000000
1504622263.711199045	0.00306796	0.742447	-0.816078	0.00920388	0.803806	-1.61221	-0.0122718	0	0	0	0	0	0	0	0	0	0	0	0	0	0	0.000000000	0	0.788798	-0.788798	0	0.828698	-1.5708	0	0.1	0.1	0.1	0.1	0.1	0.1	0.1	0	0	0	0	0	0	0	0.000000000
1504622263.731213092	0.00306796	0.742447	-0.816078	0.00920388	0.802272	-1.61221	-0.0122718	0	0	0	0	0	0	0	0	0	0	0	0	0	0	0.000000000	0	0.788798	-0.788798	0	0.828698	-1.5708	0	0.1	0.1	0.1	0.1	0.1	0.1	0.1	0	0	0	0	0	0	0	0.000000000
1504622263.753263950	0.00306796	0.742447	-0.816078	0.00920388	0.802272	-1.61221	-0.0122718	0	0	0	0	0	0	0	0	0	0	0	0	0	0	0.000000000	0	0.788798	-0.788798	0	0.828698	-1.5708	0	0.1	0.1	0.1	0.1	0.1	0.1	0.1	0	0	0	0	0	0	0	0.000000000
1504622263.771220922	0.00306796	0.740913	-0.816078	0.00920388	0.802272	-1.61221	-0.0122718	0	0	0	0	0	0	0	0	0	0	0	0	0	0	0.000000000	0	0.788798	-0.788798	0	0.828698	-1.5708	0	0.1	0.1	0.1	0.1	0.1	0.1	0.1	0	0	0	0	0	0	0	0.000000000
1504622263.791217088	0.00306796	0.740913	-0.816078	0.00920388	0.802272	-1.61221	-0.0122718	0	0	0	0	0	0	0	0	0	0	0	0	0	0	0.000000000	0	0.788798	-0.788798	0	0.828698	-1.5708	0	0.1	0.1	0.1	0.1	0.1	0.1	0.1	0	0	0	0	0	0	0	0.000000000
1504622263.812273025	0.00306796	0.742447	-0.816078	0.00920388	0.802272	-1.61221	-0.0122718	0	0	0	0	0	0	0	0	0	0	0	0	0	0	0.000000000	0	0.788798	-0.788798	0	0.828698	-1.5708	0	0.1	0.1	0.1	0.1	0.1	0.1	0.1	0	0	0	0	0	0	0	0.000000000
1504622263.831420898	0.00306796	0.742447	-0.816078	0.00920388	0.802272	-1.61221	-0.0122718	0	0	0	0	0	0	0	0	0	0	0	0	0	0	0.000000000	0	0.788798	-0.788798	0	0.828698	-1.5708	0	0.1	0.1	0.1	0.1	0.1	0.1	0.1	0	0	0	0	0	0	0	0.000000000
1504622263.851100921	0.00306796	0.742447	-0.816078	0.00920388	0.802272	-1.61221	-0.0122718	0	0	0	0	0	0	0	0	0	0	0	0	0	0	0.000000000	0	0.788798	-0.788798	0	0.828698	-1.5708	0	0.1	0.1	0.1	0.1	0.1	0.1	0.1	0	0	0	0	0	0	0	0.000000000
1504622263.871092081	0.00306796	0.742447	-0.816078	0.00920388	0.802272	-1.61221	-0.0122718	0	0	0	0	0	0	0	0	0	0	0	0	0	0	0.000000000	0	0.788798	-0.788798	0	0.828698	-1.5708	0	0.1	0.1	0.1	0.1	0.1	0.1	0.1	0	0	0	0	0	0	0	0.000000000
1504622263.891005992	0.00306796	0.740913	-0.816078	0.00920388	0.802272	-1.61221	-0.0122718	0	0	0	0	0	0	0	0	0	0	0	0	0	0	0.000000000	0	0.788798	-0.788798	0	0.828698	-1.5708	0	0.1	0.1	0.1	0.1	0.1	0.1	0.1	0	0	0	0	0	0	0	0.000000000
1504622263.910994052	0.00306796	0.740913	-0.816078	0.00920388	0.802272	-1.61221	-0.0122718	0	0	0	0	0	0	0	0	0	0	0	0	0	0	0.000000000	0	0.788798	-0.788798	0	0.828698	-1.5708	0	0.1	0.1	0.1	0.1	0.1	0.1	0.1	0	0	0	0	0	0	0	0.000000000
1504622263.930968999	0.00306796	0.740913	-0.816078	0.00920388	0.802272	-1.61221	-0.0122718	0	0	0	0	0	0	0	0	0	0	0	0	0	0	0.000000000	0	0.788798	-0.788798	0	0.828698	-1.5708	0	0.1	0.1	0.1	0.1	0.1	0.1	0.1	0	0	0	0	0	0	0	0.000000000
1504622263.950985908	0.00306796	0.742447	-0.816078	0.00920388	0.802272	-1.61221	-0.0122718	0	0	0	0	0	0	0	0	0	0	0	0	0	0	0.000000000	0	0.788798	-0.788798	0	0.828698	-1.5708	0	0.1	0.1	0.1	0.1	0.1	0.1	0.1	0	0	0	0	0	0	0	0.000000000
1504622263.970998048	0.00306796	0.742447	-0.816078	0.00920388	0.802272	-1.61221	-0.0122718	0	0	0	0	0	0	0	0	0	0	0	0	0	0	0.000000000	0	0.788798	-0.788798	0	0.828698	-1.5708	0	0.1	0.1	0.1	0.1	0.1	0.1	0.1	0	0	0	0	0	0	0	0.000000000
1504622263.991080045	0.00306796	0.742447	-0.816078	0.00920388	0.802272	-1.61221	-0.0122718	0	0	0	0	0	0	0	0	0	0	0	0	0	0	0.000000000	0	0.788798	-0.788798	0	0.828698	-1.5708	0	0.1	0.1	0.1	0.1	0.1	0.1	0.1	0	0	0	0	0	0	0	0.000000000
1504622264.010998964	0.00306796	0.742447	-0.816078	0.00920388	0.802272	-1.61221	-0.0122718	0	0	0	0	0	0	0	0	0	0	0	0	0	0	0.000000000	0	0.788798	-0.788798	0	0.828698	-1.5708	0	0.1	0.1	0.1	0.1	0.1	0.1	0.1	0	0	0	0	0	0	0	0.000000000
1504622264.030976057	0.00306796	0.742447	-0.816078	0.00920388	0.802272	-1.61221	-0.0122718	0	0	0	0	0	0	0	0	0	0	0	0	0	0	0.000000000	0	0.788798	-0.788798	0	0.828698	-1.5708	0	0.1	0.1	0.1	0.1	0.1	0.1	0.1	0	0	0	0	0	0	0	0.000000000
1504622264.051018953	0.00306796	0.742447	-0.816078	0.00920388	0.802272	-1.61221	-0.0122718	0	0	0	0	0	0	0	0	0	0	0	0	0	0	0.000000000	0	0.788798	-0.788798	0	0.828698	-1.5708	0	0.1	0.1	0.1	0.1	0.1	0.1	0.1	0	0	0	0	0	0	0	0.000000000
1504622264.071010112	0.00306796	0.740913	-0.816078	0.00920388	0.802272	-1.61221	-0.0122718	0	0	0	0	0	0	0	0	0	0	0	0	0	0	0.000000000	0	0.788798	-0.788798	0	0.828698	-1.5708	0	0.1	0.1	0.1	0.1	0.1	0.1	0.1	0	0	0	0	0	0	0	0.000000000
1504622264.090996980	0.00306796	0.742447	-0.816078	0.00920388	0.802272	-1.61221	-0.0122718	0	0	0	0	0	0	0	0	0	0	0	0	0	0	0.000000000	0	0.788798	-0.788798	0	0.828698	-1.5708	0	0.1	0.1	0.1	0.1	0.1	0.1	0.1	0	0	0	0	0	0	0	0.000000000
1504622264.110999107	0.00306796	0.742447	-0.816078	0.00920388	0.802272	-1.61221	-0.0122718	0	0	0	0	0	0	0	0	0	0	0	0	0	0	0.000000000	0	0.788798	-0.788798	0	0.828698	-1.5708	0	0.1	0.1	0.1	0.1	0.1	0.1	0.1	0	0	0	0	0	0	0	0.000000000
1504622264.131026029	0.00306796	0.742447	-0.816078	0.00920388	0.802272	-1.61221	-0.0122718	0	0	0	0	0	0	0	0	0	0	0	0	0	0	0.000000000	0	0.788798	-0.788798	0	0.828698	-1.5708	0	0.1	0.1	0.1	0.1	0.1	0.1	0.1	0	0	0	0	0	0	0	0.000000000
1504622264.150962114	0.00306796	0.740913	-0.816078	0.00920388	0.802272	-1.61221	-0.0122718	0	0	0	0	0	0	0	0	0	0	0	0	0	0	0.000000000	0	0.788798	-0.788798	0	0.828698	-1.5708	0	0.1	0.1	0.1	0.1	0.1	0.1	0.1	0	0	0	0	0	0	0	0.000000000
1504622264.170962095	0.00306796	0.742447	-0.816078	0.00920388	0.802272	-1.61221	-0.0122718	0	0	0	0	0	0	0	0	0	0	0	0	0	0	0.000000000	0	0.788798	-0.788798	0	0.828698	-1.5708	0	0.1	0.1	0.1	0.1	0.1	0.1	0.1	0	0	0	0	0	0	0	0.000000000
1504622264.190988063	0.00306796	0.742447	-0.816078	0.00920388	0.802272	-1.61221	-0.0122718	0	0	0	0	0	0	0	0	0	0	0	0	0	0	0.000000000	0	0.788798	-0.788798	0	0.828698	-1.5708	0	0.1	0.1	0.1	0.1	0.1	0.1	0.1	0	0	0	0	0	0	0	0.000000000
1504622264.211044073	0.00306796	0.742447	-0.816078	0.00920388	0.802272	-1.61221	-0.0122718	0	0	0	0	0	0	0	0	0	0	0	0	0	0	0.000000000	0	0.788798	-0.788798	0	0.828698	-1.5708	0	0.1	0.1	0.1	0.1	0.1	0.1	0.1	0	0	0	0	0	0	0	0.000000000
1504622264.231076955	0.00306796	0.742447	-0.816078	0.00920388	0.802272	-1.61221	-0.0122718	0	0	0	0	0	0	0	0	0	0	0	0	0	0	0.000000000	0	0.788798	-0.788798	0	0.828698	-1.5708	0	0.1	0.1	0.1	0.1	0.1	0.1	0.1	0	0	0	0	0	0	0	0.000000000
1504622264.251008033	0.00306796	0.740913	-0.816078	0.00920388	0.802272	-1.61221	-0.0122718	0	0	0	0	0	0	0	0	0	0	0	0	0	0	0.000000000	0	0.788798	-0.788798	0	0.828698	-1.5708	0	0.1	0.1	0.1	0.1	0.1	0.1	0.1	0	0	0	0	0	0	0	0.000000000
1504622264.271121978	0.00306796	0.742447	-0.816078	0.00920388	0.802272	-1.61221	-0.0122718	0	0	0	0	0	0	0	0	0	0	0	0	0	0	0.000000000	0	0.788798	-0.788798	0	0.828698	-1.5708	0	0.1	0.1	0.1	0.1	0.1	0.1	0.1	0	0	0	0	0	0	0	0.000000000
1504622264.291091918	0.00460194	0.742447	-0.816078	0.00920388	0.802272	-1.61221	-0.0122718	0	0	0	0	0	0	0	0	0	0	0	0	0	0	0.000000000	0	0.788798	-0.788798	0	0.828698	-1.5708	0	0.1	0.1	0.1	0.1	0.1	0.1	0.1	0	0	0	0	0	0	0	0.000000000
1504622264.311505079	0.00460194	0.742447	-0.816078	0.00920388	0.802272	-1.61221	-0.0122718	0	0	0	0	0	0	0	0	0	0	0	0	0	0	0.000000000	0	0.788798	-0.788798	0	0.828698	-1.5708	0	0.1	0.1	0.1	0.1	0.1	0.1	0.1	0	0	0	0	0	0	0	0.000000000
1504622264.331192970	0.00306796	0.742447	-0.816078	0.00920388	0.802272	-1.61221	-0.0122718	0	0	0	0	0	0	0	0	0	0	0	0	0	0	0.000000000	0	0.788798	-0.788798	0	0.828698	-1.5708	0	0.1	0.1	0.1	0.1	0.1	0.1	0.1	0	0	0	0	0	0	0	0.000000000
1504622264.351135015	0.00306796	0.740913	-0.816078	0.00920388	0.802272	-1.61221	-0.0122718	0	0	0	0	0	0	0	0	0	0	0	0	0	0	0.000000000	0	0.788798	-0.788798	0	0.828698	-1.5708	0	0.1	0.1	0.1	0.1	0.1	0.1	0.1	0	0	0	0	0	0	0	0.000000000
1504622264.371191978	0.00306796	0.740913	-0.816078	0.00920388	0.802272	-1.61221	-0.0122718	0	0	0	0	0	0	0	0	0	0	0	0	0	0	0.000000000	0	0.788798	-0.788798	0	0.828698	-1.5708	0	0.1	0.1	0.1	0.1	0.1	0.1	0.1	0	0	0	0	0	0	0	0.000000000
1504622264.391304016	0.00306796	0.742447	-0.816078	0.00920388	0.802272	-1.61221	-0.0122718	0	0	0	0	0	0	0	0	0	0	0	0	0	0	0.000000000	0	0.788798	-0.788798	0	0.828698	-1.5708	0	0.1	0.1	0.1	0.1	0.1	0.1	0.1	0	0	0	0	0	0	0	0.000000000
1504622264.411079883	0.00306796	0.742447	-0.816078	0.00920388	0.802272	-1.61221	-0.0122718	0	0	0	0	0	0	0	0	0	0	0	0	0	0	0.000000000	0	0.788798	-0.788798	0	0.828698	-1.5708	0	0.1	0.1	0.1	0.1	0.1	0.1	0.1	0	0	0	0	0	0	0	0.000000000
1504622264.431128978	0.00306796	0.742447	-0.816078	0.00920388	0.802272	-1.61221	-0.0122718	0	0	0	0	0	0	0	0	0	0	0	0	0	0	0.000000000	0	0.788798	-0.788798	0	0.828698	-1.5708	0	0.1	0.1	0.1	0.1	0.1	0.1	0.1	0	0	0	0	0	0	0	0.000000000
1504622264.451020956	0.00306796	0.742447	-0.816078	0.00920388	0.802272	-1.61221	-0.0122718	0	0	0	0	0	0	0	0	0	0	0	0	0	0	0.000000000	0	0.788798	-0.788798	0	0.828698	-1.5708	0	0.1	0.1	0.1	0.1	0.1	0.1	0.1	0	0	0	0	0	0	0	0.000000000
1504622264.471014976	0.00306796	0.742447	-0.816078	0.00920388	0.802272	-1.61221	-0.0122718	0	0	0	0	0	0	0	0	0	0	0	0	0	0	0.000000000	0	0.788798	-0.788798	0	0.828698	-1.5708	0	0.1	0.1	0.1	0.1	0.1	0.1	0.1	0	0	0	0	0	0	0	0.000000000
1504622264.491285085	0.00306796	0.740913	-0.816078	0.00920388	0.802272	-1.61221	-0.0122718	0	0	0	0	0	0	0	0	0	0	0	0	0	0	0.000000000	0	0.788798	-0.788798	0	0.828698	-1.5708	0	0.1	0.1	0.1	0.1	0.1	0.1	0.1	0	0	0	0	0	0	0	0.000000000
1504622264.511423110	0.00306796	0.740913	-0.816078	0.00920388	0.802272	-1.61221	-0.0122718	0	0	0	0	0	0	0	0	0	0	0	0	0	0	0.000000000	0	0.788798	-0.788798	0	0.828698	-1.5708	0	0.1	0.1	0.1	0.1	0.1	0.1	0.1	0	0	0	0	0	0	0	0.000000000
1504622264.531196117	0.00306796	0.742447	-0.816078	0.00920388	0.802272	-1.61221	-0.0122718	0	0	0	0	0	0	0	0	0	0	0	0	0	0	0.000000000	0	0.788798	-0.788798	0	0.828698	-1.5708	0	0.1	0.1	0.1	0.1	0.1	0.1	0.1	0	0	0	0	0	0	0	0.000000000
1504622264.552177906	0.00306796	0.742447	-0.816078	0.00920388	0.802272	-1.61221	-0.0122718	0	0	0	0	0	0	0	0	0	0	0	0	0	0	0.000000000	0	0.788798	-0.788798	0	0.828698	-1.5708	0	0.1	0.1	0.1	0.1	0.1	0.1	0.1	0	0	0	0	0	0	0	0.000000000
1504622264.571204900	0.00306796	0.742447	-0.816078	0.00920388	0.802272	-1.61221	-0.0122718	0	0	0	0	0	0	0	0	0	0	0	0	0	0	0.000000000	0	0.788798	-0.788798	0	0.828698	-1.5708	0	0.1	0.1	0.1	0.1	0.1	0.1	0.1	0	0	0	0	0	0	0	0.000000000
1504622264.592323064	0.00306796	0.742447	-0.816078	0.00920388	0.802272	-1.61221	-0.0122718	0	0	0	0	0	0	0	0	0	0	0	0	0	0	0.000000000	0	0.788798	-0.788798	0	0.828698	-1.5708	0	0.1	0.1	0.1	0.1	0.1	0.1	0.1	0	0	0	0	0	0	0	0.000000000
1504622264.611011028	0.00306796	0.740913	-0.816078	0.00920388	0.802272	-1.61221	-0.0122718	0	0	0	0	0	0	0	0	0	0	0	0	0	0	0.000000000	0	0.788798	-0.788798	0	0.828698	-1.5708	0	0.1	0.1	0.1	0.1	0.1	0.1	0.1	0	0	0	0	0	0	0	0.000000000
1504622264.631016016	0.00306796	0.740913	-0.816078	0.00920388	0.802272	-1.61221	-0.0122718	0	0	0	0	0	0	0	0	0	0	0	0	0	0	0.000000000	0	0.788798	-0.788798	0	0.828698	-1.5708	0	0.1	0.1	0.1	0.1	0.1	0.1	0.1	0	0	0	0	0	0	0	0.000000000
1504622264.651041030	0.00306796	0.742447	-0.816078	0.00920388	0.802272	-1.61221	-0.0122718	0	0	0	0	0	0	0	0	0	0	0	0	0	0	0.000000000	0	0.788798	-0.788798	0	0.828698	-1.5708	0	0.1	0.1	0.1	0.1	0.1	0.1	0.1	0	0	0	0	0	0	0	0.000000000
1504622264.670989990	0.00306796	0.740913	-0.816078	0.00920388	0.802272	-1.61221	-0.0122718	0	0	0	0	0	0	0	0	0	0	0	0	0	0	0.000000000	0	0.788798	-0.788798	0	0.828698	-1.5708	0	0.1	0.1	0.1	0.1	0.1	0.1	0.1	0	0	0	0	0	0	0	0.000000000
1504622264.691042900	0.00306796	0.742447	-0.816078	0.00920388	0.802272	-1.61221	-0.0122718	0	0	0	0	0	0	0	0	0	0	0	0	0	0	0.000000000	0	0.788798	-0.788798	0	0.828698	-1.5708	0	0.1	0.1	0.1	0.1	0.1	0.1	0.1	0	0	0	0	0	0	0	0.000000000
1504622264.711014032	0.00306796	0.740913	-0.816078	0.00920388	0.802272	-1.61221	-0.0122718	0	0	0	0	0	0	0	0	0	0	0	0	0	0	0.000000000	0	0.788798	-0.788798	0	0.828698	-1.5708	0	0.1	0.1	0.1	0.1	0.1	0.1	0.1	0	0	0	0	0	0	0	0.000000000
1504622264.731556892	0.00306796	0.740913	-0.816078	0.00920388	0.802272	-1.61221	-0.0122718	0	0	0	0	0	0	0	0	0	0	0	0	0	0	0.000000000	0	0.788798	-0.788798	0	0.828698	-1.5708	0	0.1	0.1	0.1	0.1	0.1	0.1	0.1	0	0	0	0	0	0	0	0.000000000
1504622264.751815080	0.00306796	0.742447	-0.816078	0.00920388	0.802272	-1.61221	-0.0122718	0	0	0	0	0	0	0	0	0	0	0	0	0	0	0.000000000	0	0.788798	-0.788798	0	0.828698	-1.5708	0	0.1	0.1	0.1	0.1	0.1	0.1	0.1	0	0	0	0	0	0	0	0.000000000
1504622264.771550893	0.00306796	0.742447	-0.816078	0.00920388	0.802272	-1.61221	-0.0122718	0	0	0	0	0	0	0	0	0	0	0	0	0	0	0.000000000	0	0.788798	-0.788798	0	0.828698	-1.5708	0	0.1	0.1	0.1	0.1	0.1	0.1	0.1	0	0	0	0	0	0	0	0.000000000
1504622264.793036937	0.00306796	0.742447	-0.816078	0.00920388	0.802272	-1.61221	-0.0122718	0	0	0	0	0	0	0	0	0	0	0	0	0	0	0.000000000	0	0.788798	-0.788798	0	0.828698	-1.5708	0	0.1	0.1	0.1	0.1	0.1	0.1	0.1	0	0	0	0	0	0	0	0.000000000
1504622264.812174081	0.00306796	0.742447	-0.816078	0.00920388	0.802272	-1.61221	-0.0122718	0	0	0	0	0	0	0	0	0	0	0	0	0	0	0.000000000	0	0.788798	-0.788798	0	0.828698	-1.5708	0	0.1	0.1	0.1	0.1	0.1	0.1	0.1	0	0	0	0	0	0	0	0.000000000
1504622264.831458091	0.00306796	0.742447	-0.816078	0.00920388	0.802272	-1.61221	-0.0122718	0	0	0	0	0	0	0	0	0	0	0	0	0	0	0.000000000	0	0.788798	-0.788798	0	0.828698	-1.5708	0	0.1	0.1	0.1	0.1	0.1	0.1	0.1	0	0	0	0	0	0	0	0.000000000
1504622264.851587057	0.00306796	0.740913	-0.816078	0.00920388	0.802272	-1.61221	-0.0122718	0	0	0	0	0	0	0	0	0	0	0	0	0	0	0.000000000	0	0.788798	-0.788798	0	0.828698	-1.5708	0	0.1	0.1	0.1	0.1	0.1	0.1	0.1	0	0	0	0	0	0	0	0.000000000
1504622264.871232032	0.00306796	0.742447	-0.816078	0.00920388	0.803806	-1.61221	-0.0122718	0	0	0	0	0	0	0	0	0	0	0	0	0	0	0.000000000	0	0.788798	-0.788798	0	0.828698	-1.5708	0	0.1	0.1	0.1	0.1	0.1	0.1	0.1	0	0	0	0	0	0	0	0.000000000
1504622264.893858909	0.00306796	0.742447	-0.816078	0.00920388	0.803806	-1.61221	-0.0122718	0	0	0	0	0	0	0	0	0	0	0	0	0	0	0.000000000	0	0.788798	-0.788798	0	0.828698	-1.5708	0	0.1	0.1	0.1	0.1	0.1	0.1	0.1	0	0	0	0	0	0	0	0.000000000
1504622264.911226034	0.00306796	0.742447	-0.816078	0.00920388	0.802272	-1.61221	-0.0122718	0	0	0	0	0	0	0	0	0	0	0	0	0	0	0.000000000	0	0.788798	-0.788798	0	0.828698	-1.5708	0	0.1	0.1	0.1	0.1	0.1	0.1	0.1	0	0	0	0	0	0	0	0.000000000
1504622264.931711912	0.00306796	0.740913	-0.816078	0.00920388	0.802272	-1.61221	-0.0122718	0	0	0	0	0	0	0	0	0	0	0	0	0	0	0.000000000	0	0.788798	-0.788798	0	0.828698	-1.5708	0	0.1	0.1	0.1	0.1	0.1	0.1	0.1	0	0	0	0	0	0	0	0.000000000
1504622264.951294898	0.00306796	0.742447	-0.816078	0.00920388	0.802272	-1.61221	-0.0122718	0	0	0	0	0	0	0	0	0	0	0	0	0	0	0.000000000	0	0.788798	-0.788798	0	0.828698	-1.5708	0	0.1	0.1	0.1	0.1	0.1	0.1	0.1	0	0	0	0	0	0	0	0.000000000
1504622264.971386909	0.00306796	0.740913	-0.816078	0.00920388	0.802272	-1.61221	-0.0122718	0	0	0	0	0	0	0	0	0	0	0	0	0	0	0.000000000	0	0.788798	-0.788798	0	0.828698	-1.5708	0	0.1	0.1	0.1	0.1	0.1	0.1	0.1	0	0	0	0	0	0	0	0.000000000
1504622264.991211891	0.00306796	0.742447	-0.816078	0.00920388	0.802272	-1.61221	-0.0122718	0	0	0	0	0	0	0	0	0	0	0	0	0	0	0.000000000	0	0.788798	-0.788798	0	0.828698	-1.5708	0	0.1	0.1	0.1	0.1	0.1	0.1	0.1	0	0	0	0	0	0	0	0.000000000
1504622265.011281967	0.00306796	0.742447	-0.816078	0.00920388	0.802272	-1.61221	-0.0122718	0	0	0	0	0	0	0	0	0	0	0	0	0	0	0.000000000	0	0.788798	-0.788798	0	0.828698	-1.5708	0	0.1	0.1	0.1	0.1	0.1	0.1	0.1	0	0	0	0	0	0	0	0.000000000
1504622265.031127929	0.00460194	0.742447	-0.816078	0.00920388	0.802272	-1.61221	-0.0122718	0	0	0	0	0	0	0	0	0	0	0	0	0	0	0.000000000	0	0.788798	-0.788798	0	0.828698	-1.5708	0	0.1	0.1	0.1	0.1	0.1	0.1	0.1	0	0	0	0	0	0	0	0.000000000
1504622265.051088094	0.00306796	0.742447	-0.816078	0.00920388	0.802272	-1.61221	-0.0122718	0	0	0	0	0	0	0	0	0	0	0	0	0	0	0.000000000	0	0.788798	-0.788798	0	0.828698	-1.5708	0	0.1	0.1	0.1	0.1	0.1	0.1	0.1	0	0	0	0	0	0	0	0.000000000
1504622265.071201086	0.00306796	0.742447	-0.816078	0.00920388	0.802272	-1.61221	-0.0122718	0	0	0	0	0	0	0	0	0	0	0	0	0	0	0.000000000	0	0.788798	-0.788798	0	0.828698	-1.5708	0	0.1	0.1	0.1	0.1	0.1	0.1	0.1	0	0	0	0	0	0	0	0.000000000
1504622265.091073989	0.00306796	0.742447	-0.816078	0.00920388	0.802272	-1.61221	-0.0122718	0	0	0	0	0	0	0	0	0	0	0	0	0	0	0.000000000	0	0.788798	-0.788798	0	0.828698	-1.5708	0	0.1	0.1	0.1	0.1	0.1	0.1	0.1	0	0	0	0	0	0	0	0.000000000
1504622265.111068964	0.00306796	0.742447	-0.816078	0.00920388	0.802272	-1.61221	-0.0122718	0	0	0	0	0	0	0	0	0	0	0	0	0	0	0.000000000	0	0.788798	-0.788798	0	0.828698	-1.5708	0	0.1	0.1	0.1	0.1	0.1	0.1	0.1	0	0	0	0	0	0	0	0.000000000
1504622265.131124019	0.00306796	0.742447	-0.816078	0.00920388	0.802272	-1.61221	-0.0122718	0	0	0	0	0	0	0	0	0	0	0	0	0	0	0.000000000	0	0.788798	-0.788798	0	0.828698	-1.5708	0	0.1	0.1	0.1	0.1	0.1	0.1	0.1	0	0	0	0	0	0	0	0.000000000
1504622265.151135921	0.00306796	0.742447	-0.816078	0.00920388	0.802272	-1.61221	-0.0122718	0	0	0	0	0	0	0	0	0	0	0	0	0	0	0.000000000	0	0.788798	-0.788798	0	0.828698	-1.5708	0	0.1	0.1	0.1	0.1	0.1	0.1	0.1	0	0	0	0	0	0	0	0.000000000
1504622265.171083927	0.00306796	0.742447	-0.816078	0.00920388	0.802272	-1.61221	-0.0122718	0	0	0	0	0	0	0	0	0	0	0	0	0	0	0.000000000	0	0.788798	-0.788798	0	0.828698	-1.5708	0	0.1	0.1	0.1	0.1	0.1	0.1	0.1	0	0	0	0	0	0	0	0.000000000
1504622265.191410064	0.00306796	0.742447	-0.816078	0.00920388	0.802272	-1.61221	-0.0122718	0	0	0	0	0	0	0	0	0	0	0	0	0	0	0.000000000	0	0.788798	-0.788798	0	0.828698	-1.5708	0	0.1	0.1	0.1	0.1	0.1	0.1	0.1	0	0	0	0	0	0	0	0.000000000
1504622265.211061954	0.00306796	0.742447	-0.816078	0.00920388	0.802272	-1.61221	-0.0122718	0	0	0	0	0	0	0	0	0	0	0	0	0	0	0.000000000	0	0.788798	-0.788798	0	0.828698	-1.5708	0	0.1	0.1	0.1	0.1	0.1	0.1	0.1	0	0	0	0	0	0	0	0.000000000
1504622265.231111049	0.00306796	0.742447	-0.816078	0.00920388	0.802272	-1.61221	-0.0122718	0	0	0	0	0	0	0	0	0	0	0	0	0	0	0.000000000	0	0.788798	-0.788798	0	0.828698	-1.5708	0	0.1	0.1	0.1	0.1	0.1	0.1	0.1	0	0	0	0	0	0	0	0.000000000
1504622265.251106023	0.00306796	0.742447	-0.816078	0.00920388	0.802272	-1.61221	-0.0122718	0	0	0	0	0	0	0	0	0	0	0	0	0	0	0.000000000	0	0.788798	-0.788798	0	0.828698	-1.5708	0	0.1	0.1	0.1	0.1	0.1	0.1	0.1	0	0	0	0	0	0	0	0.000000000
1504622265.271538972	0.00306796	0.742447	-0.816078	0.00920388	0.802272	-1.61221	-0.0122718	0	0	0	0	0	0	0	0	0	0	0	0	0	0	0.000000000	0	0.788798	-0.788798	0	0.828698	-1.5708	0	0.1	0.1	0.1	0.1	0.1	0.1	0.1	0	0	0	0	0	0	0	0.000000000
1504622265.293989896	0.00306796	0.742447	-0.816078	0.00920388	0.802272	-1.61221	-0.0122718	0	0	0	0	0	0	0	0	0	0	0	0	0	0	0.000000000	0	0.788798	-0.788798	0	0.828698	-1.5708	0	0.1	0.1	0.1	0.1	0.1	0.1	0.1	0	0	0	0	0	0	0	0.000000000
1504622265.313384056	0.00306796	0.742447	-0.816078	0.00920388	0.802272	-1.61221	-0.0122718	0	0	0	0	0	0	0	0	0	0	0	0	0	0	0.000000000	0	0.788798	-0.788798	0	0.828698	-1.5708	0	0.1	0.1	0.1	0.1	0.1	0.1	0.1	0	0	0	0	0	0	0	0.000000000
1504622265.331602096	0.00306796	0.742447	-0.816078	0.00920388	0.802272	-1.61221	-0.0122718	0	0	0	0	0	0	0	0	0	0	0	0	0	0	0.000000000	0	0.788718	-0.788878	0	0.828618	-1.57096	0	0.1	0.1	0.1	0.1	0.1	0.1	0.1	0	0	0	0	0	0	0	0.000000000
1504622265.351288080	0.00306796	0.742447	-0.816078	0.00920388	0.802272	-1.61221	-0.0122718	0	0	0	0	0	0	0	0	0	0	0	0	0	0	0.000000000	0	0.788178	-0.789418	0	0.828078	-1.57204	0	0.1	0.1	0.1	0.1	0.1	0.1	0.1	0	0	0	0	0	0	0	0.000000000
1504622265.371011018	0.00306796	0.740913	-0.816078	0.00920388	0.802272	-1.61221	-0.0122718	0	0	0	0	0	0	0	0	0	0	0	0	0	0	0.000000000	0	0.788178	-0.789418	0	0.828078	-1.57204	0	0.1	0.1	0.1	0.1	0.1	0.1	0.1	0	0	0	0	0	0	0	0.000000000
1504622265.390974044	0.00306796	0.740913	-0.816078	0.00920388	0.802272	-1.61221	-0.0122718	0	0	0	0	0	0	0	0	0	0	0	0	0	0	0.000000000	0	0.787606	-0.78999	0	0.827506	-1.57318	0	0.1	0.1	0.1	0.1	0.1	0.1	0.1	0	0	0	0	0	0	0	0.000000000
1504622265.411041021	0.00306796	0.740913	-0.816078	0.00920388	0.802272	-1.61221	-0.0122718	0	0	0	0	0	0	0	0	0	0	0	0	0	0	0.000000000	0	0.787606	-0.78999	0	0.827506	-1.57318	0	0.1	0.1	0.1	0.1	0.1	0.1	0.1	0	0	0	0	0	0	0	0.000000000
1504622265.431094884	0.00306796	0.742447	-0.816078	0.00920388	0.802272	-1.61221	-0.0122718	0	0	0	0	0	0	0	0	0	0	0	0	0	0	0.000000000	0	0.786772	-0.790825	0	0.826672	-1.57485	0	0.1	0.1	0.1	0.1	0.1	0.1	0.1	0	0	0	0	0	0	0	0.000000000
1504622265.451028108	0.00306796	0.742447	-0.816078	0.00920388	0.802272	-1.61221	-0.0122718	0	0	0	0	0	0	0	0	0	0	0	0	0	0	0.000000000	0	0.785632	-0.791964	0	0.825532	-1.57713	0	0.1	0.1	0.1	0.1	0.1	0.1	0.1	0	0	0	0	0	0	0	0.000000000
1504622265.471029996	0.00306796	0.740913	-0.816078	0.00920388	0.802272	-1.61221	-0.0122718	0	0	0	0	0	0	0	0	0	0	0	0	0	0	0.000000000	0	0.785632	-0.791964	0	0.825532	-1.57713	0	0.1	0.1	0.1	0.1	0.1	0.1	0.1	0	0	0	0	0	0	0	0.000000000
1504622265.491081953	0.00306796	0.740913	-0.816078	0.00920388	0.802272	-1.61221	-0.0122718	0	0	0	0	0	0	0	0	0	0	0	0	0	0	0.000000000	0	0.784151	-0.793445	0	0.824051	-1.58009	0	0.1	0.1	0.1	0.1	0.1	0.1	0.1	0	0	0	0	0	0	0	0.000000000
1504622265.511087894	0.00306796	0.740913	-0.816078	0.00920388	0.802272	-1.61221	-0.0122718	0	0	0	0	0	0	0	0	0	0	0	0	0	0	0.000000000	0	0.782293	-0.795303	0	0.822193	-1.58381	0	0.1	0.1	0.1	0.1	0.1	0.122612	0.1	0	0	0	0	0	0	0	0.000000000
1504622265.531052112	0.00306796	0.742447	-0.816078	0.00920388	0.802272	-1.61221	-0.0122718	0	0	0	0	0	0	0	0	0	0	0	0	0	0	0.000000000	0	0.782293	-0.795303	0	0.822193	-1.58381	0	0.1	0.1	0.1	0.1	0.1	0.122612	0.1	0	0	0	0	0	0	0	0.000000000
1504622265.551049947	0.00306796	0.742447	-0.816078	0.00920388	0.802272	-1.61221	-0.0122718	0	0	0	0	0	0	0	0	0	0	0	0	0	0	0.000000000	0	0.780029	-0.797567	0	0.819929	-1.58833	0	0.1	0.1	0.1	0.1	0.1	0.149457	0.1	0	0	0	0	0	0	0	0.000000000
1504622265.571062088	0.00306796	0.742447	-0.816078	0.00920388	0.802272	-1.61221	-0.0122718	0	0	0	0	0	0	0	0	0	0	0	0	0	0	0.000000000	0	0.777331	-0.800265	0	0.817231	-1.59373	0	0.1	0.1	0.1	0.1	0.1	0.178068	0.1	0	0	0	0	0	0	0	0.000000000
1504622265.591392040	0.00306796	0.742447	-0.816078	0.00920388	0.802272	-1.61221	-0.0122718	0	0	0	0	0	0	0	0	0	0	0	0	0	0	0.000000000	0	0.777331	-0.800265	0	0.817231	-1.59373	0	0.1	0.1	0.1	0.1	0.1	0.178068	0.1	0	0	0	0	0	0	0	0.000000000
1504622265.611120939	0.00306796	0.742447	-0.816078	0.00920388	0.802272	-1.61221	-0.0122718	0	0	0	0	0	0	0	0	0	0	0	0	0	0	0.000000000	0	0.774177	-0.80342	0	0.814077	-1.60004	0	0.1	0.104091	0.104091	0.1	0.104091	0.208182	0.1	0	0	0	0	0	0	0	0.000000000
1504622265.631329059	0.00306796	0.742447	-0.816078	0.00920388	0.802272	-1.61221	-0.0122718	0	0	0	0	0	0	0	0	0	0	0	0	0	0	0.000000000	0	0.770547	-0.80705	0	0.810447	-1.6073	0	0.1	0.119782	0.119784	0.1	0.119784	0.239563	0.1	0	0	0	0	0	0	0	0.000000000
1504622265.651146888	0.00306796	0.742447	-0.816078	0.00920388	0.802272	-1.61221	-0.0122718	0	0	0	0	0	0	0	0	0	0	0	0	0	0	0.000000000	0	0.770547	-0.80705	0	0.810447	-1.6073	0	0.1	0.119782	0.119784	0.1	0.119784	0.239563	0.1	0	0	0	0	0	0	0	0.000000000
1504622265.671154022	0.00306796	0.740913	-0.816078	0.00920388	0.802272	-1.61375	-0.0122718	0	0	0	0	0	0	0	0	0	0	0	0	0	0	0.000000000	0	0.766426	-0.81117	0	0.806326	-1.61554	0	0.1	0.135987	0.135985	0.1	0.135985	0.271971	0.1	0	0	0	0	0	0	0	0.000000000
1504622265.691056013	0.00306796	0.740913	-0.816078	0.00920388	0.802272	-1.61988	-0.0122718	0	0	0	0	0	0.202947	0	0	0	0	0	0	0	0	0.000000000	0	0.761802	-0.815794	0	0.801702	-1.62479	0	0.1	0.152582	0.152584	0.1	0.152582	0.305169	0.1	0	0	0	0	0	0	0	0.000000000
1504622265.711164951	0.00306796	0.740913	-0.816078	0.00920388	0.799204	-1.62602	-0.0122718	0	0	0	0	0.107442	0.250699	0	0	0	0	0	0	0	0	0.000000000	0	0.761802	-0.815794	0	0.801702	-1.62479	0	0.1	0.152582	0.152584	0.1	0.152582	0.305169	0.1	0	0	0	0	0	0	0	0.000000000
1504622265.731041908	0.00306796	0.740913	-0.816078	0.00920388	0.799204	-1.62602	-0.0122718	0	0	0	0	0.107442	0.250699	0	0	0	0	0	0	0	0	0.000000000	0	0.756667	-0.820929	0	0.796567	-1.63506	0	0.1	0.169463	0.169461	0.1	0.169463	0.338926	0.1	0	0	0	0	0	0	0	0.000000000
1504622265.751049995	0.00306796	0.740913	-0.816078	0.00920388	0.796136	-1.63062	-0.0122718	0	0	0	0	0.107442	0.202947	0	0	0	0	0	0	0	0	0.000000000	0	0.751015	-0.826581	0	0.790915	-1.64636	0	0.1	0.186511	0.186513	0.1	0.186511	0.373021	0.1	0	0	0	0	0	0	0	0.000000000
1504622265.771039962	0.00306796	0.740913	-0.817612	0.00920388	0.79	-1.63829	-0.0122718	0	0	0	0	0.202947	0.298451	0	0	0	0	0	0	0	0	0.000000000	0	0.751015	-0.826581	0	0.790915	-1.64636	0	0.1	0.186511	0.186513	0.1	0.186511	0.373021	0.1	0	0	0	0	0	0	0	0.000000000
1504622265.791023969	0.00306796	0.740913	-0.822214	0.00920388	0.78233	-1.64596	-0.0122718	0	0	0.155195	0	0.250699	0.298451	0	0	0	0	0	0	0	0	0.000000000	0	0.744845	-0.832752	0	0.784745	-1.6587	0	0.1	0.203625	0.203625	0.1	0.203625	0.407249	0.1	0	0	0	0	0	0	0	0.000000000
1504622265.811187028	0.00306796	0.739379	-0.826816	0.00920388	0.78233	-1.6567	-0.0122718	0	0	0.202947	0	0.250699	0.346204	0	0	0	0	0	0	0	0	0.000000000	0	0.738157	-0.83944	0	0.778057	-1.67208	0	0.1	0.220704	0.220704	0.1	0.220706	0.441408	0.1	0	0	0	0	0	0	0	0.000000000
1504622265.831410884	0.00306796	0.739379	-0.826816	0.00920388	0.776194	-1.6567	-0.0122718	0	0	0.202947	0	0.250699	0.346204	0	0	0	0	0	0	0	0	0.000000000	0	0.738157	-0.83944	0	0.778057	-1.67208	0	0.1	0.220704	0.220704	0.1	0.220706	0.441408	0.1	0	0	0	0	0	0	0	0.000000000
1504622265.851032972	0.00306796	0.734777	-0.832952	0.00920388	0.770058	-1.66284	-0.0122718	0	0.155195	0.202947	0	0.250699	0.346204	0	0	0	0	0	0	0	0	0.000000000	0	0.730955	-0.846641	0	0.770855	-1.68648	0	0.1	0.237657	0.237655	0.1	0.237655	0.47531	0.1	0	0	0	0	0	0	0	0.000000000
1504622265.871005058	0.00306796	0.727107	-0.839087	0.00920388	0.765456	-1.67664	-0.0122718	0	0.250699	0.250699	0	0.202947	0.441708	0	0	0	0	0	0	0	0	0.000000000	0	0.723246	-0.85435	0	0.763146	-1.7019	0	0.1	0.254392	0.254392	0.1	0.254392	0.508788	0.1	0	0	0	0	0	0	0	0.000000000
1504622265.891062021	0.00306796	0.717903	-0.845223	0.00920388	0.760854	-1.68891	-0.0122718	0	0.346204	0.202947	0	0.155195	0.441708	0	0	0	0	0	0	0	0	0.000000000	0	0.723246	-0.85435	0	0.763146	-1.7019	0	0.1	0.254392	0.254392	0.1	0.254392	0.508788	0.1	0	0	0	0	0	0	0	0.000000000
1504622265.911042928	0.00306796	0.710233	-0.851359	0.00920388	0.754719	-1.70272	-0.0122718	0	0.298451	0.250699	0	0.202947	0.48946	0	0	0	0	0	0	0	0	0.000000000	0	0.715039	-0.862557	0	0.754939	-1.71831	0	0.1	0.270833	0.270833	0.1	0.270833	0.541667	0.1	0	0	0	0	0	0	0	0.000000000
1504622265.931102991	0.00306796	0.710233	-0.851359	0.00920388	0.754719	-1.70272	-0.0122718	0	0.298451	0.250699	0	0.202947	0.48946	0	0	0	0	0	0	0	0	0.000000000	0	0.706345	-0.871251	0	0.746245	-1.7357	0	0.1	0.286908	0.286908	0.1	0.286908	0.573816	0.1	0	0	0	0	0	0	0	0.000000000
1504622265.951109886	0.00306796	0.704097	-0.857495	0.00920388	0.748583	-1.71499	-0.0122718	0	0.250699	0.250699	0	0.250699	0.441708	0	0	0	0	0	0	0	0	0.000000000	0	0.706345	-0.871251	0	0.746245	-1.7357	0	0.1	0.286908	0.286908	0.1	0.286908	0.573816	0.1	0	0	0	0	0	0	0	0.000000000
1504622265.971155881	0.00306796	0.696427	-0.865165	0.00920388	0.740913	-1.73186	-0.0122718	0	0.250699	0.250699	0	0.298451	0.537212	0	0	0	0	0	0	0	0	0.000000000	0	0.697177	-0.880419	0	0.737077	-1.75404	0	0.1	0.302549	0.302549	0.1	0.302549	0.605097	0.1	0	0	0	0	0	0	0	0.000000000
1504622265.991205930	0.00306796	0.696427	-0.865165	0.00920388	0.740913	-1.73186	-0.0122718	0	0.250699	0.250699	0	0.298451	0.537212	0	0	0	0	0	0	0	0	0.000000000	0	0.68755	-0.890047	0	0.72745	-1.77329	0	0.1	0.317697	0.317699	0.1	0.317697	0.635393	0.1	0	0	0	0	0	0	0	0.000000000
1504622266.011101007	0.00306796	0.679553	-0.878971	0.00920388	0.727107	-1.75794	-0.0122718	0	0.298451	0.298451	0	0.250699	0.537212	0	0	0	0	0	0	0	0	0.000000000	0	0.68755	-0.890047	0	0.72745	-1.77329	0	0.1	0.317697	0.317699	0.1	0.317697	0.635393	0.1	0	0	0	0	0	0	0	0.000000000
1504622266.031316041	0.00306796	0.679553	-0.878971	0.00920388	0.727107	-1.75794	-0.0122718	0	0.298451	0.298451	0	0.250699	0.537212	0	0	0	0	0	0	0	0	0.000000000	0	0.67748	-0.900117	0	0.71738	-1.79343	0	0.1	0.332305	0.332303	0.1	0.332305	0.664605	0.1	0	0	0	0	0	0	0	0.000000000
1504622266.051012992	0.00306796	0.673418	-0.886641	0.00920388	0.720971	-1.77175	-0.0122718	0	0.250699	0.298451	0	0.250699	0.441708	0	0	0	0	0	0	0	0	0.000000000	0	0.666985	-0.910611	0	0.706885	-1.81442	0	0.1	0.34632	0.346322	0.1	0.34632	0.692644	0.1	0	0	0	0	0	0	0	0.000000000
1504622266.072896003	0.00306796	0.664214	-0.894311	0.00920388	0.713301	-1.78862	-0.0122718	0	0.298451	0.250699	0	0.250699	0.584965	0	0	0	0	0	0	0	0	0.000000000	0	0.666985	-0.910611	0	0.706885	-1.81442	0	0.1	0.34632	0.346322	0.1	0.34632	0.692644	0.1	0	0	0	0	0	0	0	0.000000000
1504622266.092686891	0.00306796	0.65501	-0.894311	0.00920388	0.713301	-1.78862	-0.0122718	0	0.346204	0.250699	0	0.250699	0.584965	0	0	0	0	0	0	0	0	0.000000000	0	0.656085	-0.921511	0	0.695985	-1.83622	0	0.1	0.359712	0.35971	0.1	0.359712	0.719424	0.1	0	0	0	0	0	0	0	0.000000000
1504622266.111223936	0.00306796	0.65501	-0.905049	0.00920388	0.704097	-1.80856	-0.0122718	0	0.346204	0.346204	0	0.346204	0.680469	0	0	0	0	0	0	0	0	0.000000000	0	0.644799	-0.932798	0	0.684699	-1.8588	0	0.1	0.372445	0.372445	0.1	0.372445	0.74489	0.1	0	0	0	0	0	0	0	0.000000000
1504622266.134176015	0.00306796	0.64734	-0.912719	0.00920388	0.694893	-1.82544	-0.0122718	0	0.346204	0.346204	0	0.393956	0.728221	0	0	0	0	0	0	0	0	0.000000000	0	0.644799	-0.932798	0	0.684699	-1.8588	0	0.1	0.372445	0.372445	0.1	0.372445	0.74489	0.1	0	0	0	0	0	0	0	0.000000000
1504622266.151526927	0.00306796	0.638136	-0.921922	0.00920388	0.685689	-1.84691	-0.0122718	0	0.298451	0.346204	0	0.346204	0.680469	0	0	0	0	0	0	0	0	0.000000000	0	0.633147	-0.944449	0	0.673047	-1.8821	0	0.1	0.384492	0.384492	0.1	0.384492	0.768984	0.1	0	0	0	0	0	0	0	0.000000000
1504622266.171787977	0.00306796	0.638136	-0.921922	0.00920388	0.685689	-1.84691	-0.0122718	0	0.298451	0.346204	0	0.346204	0.680469	0	0	0	0	0	0	0	0	0.000000000	0	0.621152	-0.956444	0	0.661052	-1.90609	0	0.1	0.395834	0.395834	0.1	0.395834	0.791668	0.1	0	0	0	0	0	0	0	0.000000000
1504622266.191237926	0.00306796	0.628932	-0.93266	0.00920388	0.674952	-1.86532	-0.0122718	0	0.298451	0.298451	0	0.346204	0.632717	0	0	0	0	0	0	0	0	0.000000000	0	0.621152	-0.956444	0	0.661052	-1.90609	0	0.1	0.395834	0.395834	0.1	0.395834	0.791668	0.1	0	0	0	0	0	0	0	0.000000000
1504622266.212383985	0.00306796	0.618194	-0.941864	0.00920388	0.665748	-1.88526	-0.0122718	0	0.346204	0.346204	0	0.346204	0.728221	0	0	0	0	0	0	0	0	0.000000000	0	0.608836	-0.968761	0	0.648736	-1.93072	0	0.1	0.406453	0.406453	0.1	0.406453	0.812902	0.1	0	0	0	0	0	0	0	0.000000000
1504622266.231419086	0.00306796	0.60899	-0.951068	0.00920388	0.656544	-1.90367	-0.0122718	0	0.346204	0.393956	0	0.346204	0.775973	0	0	0	0	0	0	0	0	0.000000000	0	0.59622	-0.981377	0	0.636119	-1.95595	0	0.1	0.416334	0.416336	0.1	0.416336	0.832671	0.1	0	0	0	0	0	0	0	0.000000000
1504622266.251230001	0.00306796	0.60899	-0.951068	0.00920388	0.656544	-1.90367	-0.0122718	0	0.346204	0.393956	0	0.346204	0.775973	0	0	0	0	0	0	0	0	0.000000000	0	0.59622	-0.981377	0	0.636119	-1.95595	0	0.1	0.416334	0.416336	0.1	0.416336	0.832671	0.1	0	0	0	0	0	0	0	0.000000000
1504622266.273951053	0.00306796	0.593651	-0.96334	0.00920388	0.645806	-1.92821	-0.0122718	0	0.393956	0.346204	0	0.346204	0.728221	0	0	0	0	0	0	0	0	0.000000000	0	0.583326	-0.99427	0	0.623226	-1.98174	0	0.1	0.425476	0.425474	0.1	0.425474	0.850952	0.1	0	0	0	0	0	0	0	0.000000000
1504622266.291372060	0.00306796	0.582913	-0.972544	0.00920388	0.638136	-1.94816	-0.0122718	0	0.393956	0.346204	0	0.346204	0.728221	0	0	0	0	0	0	0	0	0.000000000	0	0.570179	-1.00742	0	0.610079	-2.00803	0	0.1	0.433865	0.433867	0.1	0.433865	0.867726	0.1	0	0	0	0	0	0	0	0.000000000
1504622266.311814069	0.00306796	0.570641	-0.983282	0.00920388	0.627398	-1.97577	-0.0122718	0	0.346204	0.346204	0	0.346204	0.775973	0	0	0	0	0	0	0	0	0.000000000	0	0.570179	-1.00742	0	0.610079	-2.00803	0	0.1	0.433865	0.433867	0.1	0.433865	0.867726	0.1	0	0	0	0	0	0	0	0.000000000
1504622266.331307888	0.00306796	0.562971	-0.995554	0.00920388	0.615126	-1.99264	-0.0122718	0	0.346204	0.393956	0	0.393956	0.775973	0	0	0	0	0	0	0	0	0.000000000	0	0.5568	-1.0208	0	0.5967	-2.03479	0	0.1	0.441503	0.441501	0.1	0.441503	0.88301	0.1	0	0	0	0	0	0	0	0.000000000
1504622266.351210117	0.00306796	0.555301	-1.00169	0.00920388	0.607456	-2.01105	-0.0122718	0	0.346204	0.346204	0	0.441708	0.823726	0	0	0	0	0	0	0	0	0.000000000	0	0.5568	-1.0208	0	0.5967	-2.03479	0	0.1	0.441503	0.441501	0.1	0.441503	0.88301	0.1	0	0	0	0	0	0	0	0.000000000
1504622266.371141910	0.00306796	0.544563	-1.0155	0.00920388	0.595185	-2.03099	-0.0122718	0	0.393956	0.441708	0	0.441708	0.728221	0	0	0	0	0	0	0	0	0.000000000	0	0.543212	-1.03438	0	0.583112	-2.06197	0	0.1	0.448395	0.448395	0.1	0.448395	0.89679	0.1	0	0	0	0	0	0	0	0.000000000
1504622266.391155004	0.00306796	0.544563	-1.0155	0.00920388	0.595185	-2.03099	-0.0122718	0	0.393956	0.441708	0	0.441708	0.728221	0	0	0	0	0	0	0	0	0.000000000	0	0.529439	-1.04816	0	0.569339	-2.08952	0	0.1	0.454534	0.454536	0.1	0.454534	0.909064	0.1	0	0	0	0	0	0	0	0.000000000
1504622266.411206960	0.00306796	0.536893	-1.02317	0.00920388	0.582913	-2.0494	-0.0122718	0	0.346204	0.393956	0	0.441708	0.775973	0	0	0	0	0	0	0	0	0.000000000	0	0.515501	-1.0621	0	0.555401	-2.11739	0	0.1	0.459931	0.459929	0.1	0.459931	0.919866	0.1	0	0	0	0	0	0	0	0.000000000
1504622266.431479930	0.00306796	0.524621	-1.03697	0.00920388	0.570641	-2.07854	-0.0122718	0	0.393956	0.441708	0	0.441708	0.871478	0	0	0	0	0	0	0	0	0.000000000	0	0.515501	-1.0621	0	0.555401	-2.11739	0	0.1	0.459931	0.459929	0.1	0.459931	0.919866	0.1	0	0	0	0	0	0	0	0.000000000
1504622266.456625938	0.00306796	0.507748	-1.03697	0.00920388	0.570641	-2.07854	-0.0122718	0	0.48946	0.441708	0	0.441708	0.871478	0	0	0	0	0	0	0	0	0.000000000	0	0.501423	-1.07617	0	0.541323	-2.14555	0	0.1	0.464585	0.464585	0.1	0.464585	0.92917	0.1	0	0	0	0	0	0	0	0.000000000
1504622266.471384048	0.00306796	0.507748	-1.05231	0.00920388	0.556835	-2.10922	-0.0138058	0	0.48946	0.441708	0	0.441708	0.91923	0	0	0	0	0	0	0	0	0.000000000	0	0.501423	-1.07617	0	0.541323	-2.14555	0	0.1	0.464585	0.464585	0.1	0.464585	0.92917	0.1	0	0	0	0	0	0	0	0.000000000
1504622266.491316080	0.00306796	0.493942	-1.06458	0.00920388	0.544563	-2.1307	-0.0122718	0	0.48946	0.48946	0	0.393956	0.871478	0	0	0	0	0	0	0	0	0.000000000	0	0.487225	-1.09037	0	0.527125	-2.17394	0	0.1	0.468516	0.468517	0.1	0.468517	0.937034	0.1	0	0	0	0	0	0	0	0.000000000
1504622266.511585950	0.00306796	0.48167	-1.07685	0.00920388	0.533825	-2.15524	-0.0122718	0	0.48946	0.48946	0	0.393956	0.871478	0	0	0	0	0	0	0	0	0.000000000	0	0.472931	-1.10467	0	0.512831	-2.20253	0	0.1	0.471718	0.471719	0.1	0.471717	0.94343	0.1	0	0	0	0	0	0	0	0.000000000
1504622266.531590938	0.00306796	0.472466	-1.08452	0.00920388	0.526155	-2.17212	-0.0122718	0	0.393956	0.441708	0	0.393956	0.775973	0	0	0	0	0	0	0	0	0.000000000	0	0.472931	-1.10467	0	0.512831	-2.20253	0	0.1	0.471718	0.471719	0.1	0.471717	0.94343	0.1	0	0	0	0	0	0	0	0.000000000
1504622266.551387071	0.00306796	0.464796	-1.09373	0.00920388	0.516952	-2.19206	-0.0122718	0	0.346204	0.441708	0	0.393956	0.823726	0	0	0	0	0	0	0	0	0.000000000	0	0.458561	-1.11904	0	0.498461	-2.23127	0	0.1	0.474205	0.474205	0.1	0.474205	0.948411	0.1	0	0	0	0	0	0	0	0.000000000
1504622266.572062015	0.00306796	0.464796	-1.09373	0.00920388	0.516952	-2.19206	-0.0122718	0	0.346204	0.441708	0	0.393956	0.823726	0	0	0	0	0	0	0	0	0.000000000	0	0.444137	-1.13346	0	0.484037	-2.26012	0	0.1	0.475987	0.475986	0.1	0.475987	0.951979	0.1	0	0	0	0	0	0	0	0.000000000
1504622266.592998027	0.00306796	0.454058	-1.10447	0.00920388	0.50468	-2.21353	-0.0122718	0	0.393956	0.393956	0	0.441708	0.871478	0	0	0	0	0	0	0	0	0.000000000	0	0.42968	-1.14792	0	0.46958	-2.28903	0	0.1	0.477075	0.477077	0.1	0.477075	0.954146	0.1	0	0	0	0	0	0	0	0.000000000
1504622266.611129999	0.00306796	0.440252	-1.11827	0.00920388	0.490874	-2.24421	-0.0122718	0	0.441708	0.393956	0	0.393956	0.871478	0	0	0	0	0	0	0	0	0.000000000	0	0.42968	-1.14792	0	0.46958	-2.28903	0	0.1	0.477075	0.477077	0.1	0.477075	0.954146	0.1	0	0	0	0	0	0	0	0.000000000
1504622266.631146907	0.00306796	0.427981	-1.13208	0.00920388	0.478602	-2.26722	-0.0122718	0	0.48946	0.48946	0	0.441708	0.91923	0	0	0	0	0	0	0	0	0.000000000	0	0.415211	-1.16238	0	0.455111	-2.31797	0	0.1	0.477476	0.477474	0.1	0.477475	0.954957	0.1	0	0	0	0	0	0	0	0.000000000
1504622266.652165889	0.00306796	0.415709	-1.14282	0.00920388	0.467864	-2.29023	-0.0122718	0	0.48946	0.48946	0	0.48946	0.91923	0	0	0	0	0	0	0	0	0.000000000	0	0.415211	-1.16238	0	0.455111	-2.31797	0	0.1	0.477476	0.477474	0.1	0.477475	0.954957	0.1	0	0	0	0	0	0	0	0.000000000
1504622266.671380996	0.00306796	0.415709	-1.14282	0.00920388	0.467864	-2.29023	-0.0122718	0	0.48946	0.48946	0	0.48946	0.91923	0	0	0	0	0	0	0	0	0.000000000	0	0.400751	-1.17685	0	0.440651	-2.34689	0	0.1	0.477201	0.477203	0.1	0.477202	0.954398	0.1	0	0	0	0	0	0	0	0.000000000
1504622266.691137075	0.00306796	0.400369	-1.15816	0.00920388	0.454058	-2.31784	-0.0122718	0	0.537212	0.48946	0	0.441708	0.91923	0	0	0	0	0	0	0	0	0.000000000	0	0.386319	-1.19128	0	0.426219	-2.37576	0	0.1	0.47626	0.476257	0.1	0.476259	0.952522	0.1	0	0	0	0	0	0	0	0.000000000
1504622266.711524963	0.00306796	0.388097	-1.16889	0.00920388	0.44332	-2.34392	-0.0122718	0	0.48946	0.48946	0	0.441708	0.91923	0	0	0	0	0	0	0	0	0.000000000	0	0.386319	-1.19128	0	0.426219	-2.37576	0	0.1	0.47626	0.476257	0.1	0.476259	0.952522	0.1	0	0	0	0	0	0	0	0.000000000
1504622266.731447935	0.00306796	0.377359	-1.17963	0.00920388	0.432583	-2.36386	-0.0122718	0	0.441708	0.393956	0	0.441708	0.871478	0	0	0	0	0	0	0	0	0.000000000	0	0.371935	-1.20566	0	0.411835	-2.40452	0	0.1	0.474668	0.47467	0.1	0.474668	0.949331	0.1	0	0	0	0	0	0	0	0.000000000
1504622266.751229047	0.00306796	0.368155	-1.18884	0.00920388	0.421845	-2.38687	-0.0122718	0	0.346204	0.393956	0	0.441708	0.823726	0	0	0	0	0	0	0	0	0.000000000	0	0.357619	-1.21998	0	0.397519	-2.43316	0	0.1	0.47243	0.472427	0.1	0.47243	0.944862	0.1	0	0	0	0	0	0	0	0.000000000
1504622266.771243095	0.00306796	0.360485	-1.20111	0.00920388	0.409573	-2.40221	-0.0122718	0	0.298451	0.441708	0	0.441708	0.728221	0	0	0	0	0	0	0	0	0.000000000	0	0.357619	-1.21998	0	0.397519	-2.43316	0	0.1	0.47243	0.472427	0.1	0.47243	0.944862	0.1	0	0	0	0	0	0	0	0.000000000
1504622266.791362047	0.00460194	0.352816	-1.21031	0.00920388	0.400369	-2.42062	-0.0122718	0	0.346204	0.393956	0	0.441708	0.728221	0	0	0	0	0	0	0	0	0.000000000	0	0.34339	-1.23421	0	0.38329	-2.46161	0	0.1	0.469558	0.469559	0.1	0.469558	0.939119	0.1	0	0	0	0	0	0	0	0.000000000
1504622266.811157941	0.00460194	0.352816	-1.21031	0.00920388	0.400369	-2.42062	-0.0122718	0	0.346204	0.393956	0	0.441708	0.728221	0	0	0	0	0	0	0	0	0.000000000	0	0.329267	-1.24833	0	0.369167	-2.48986	0	0.1	0.466064	0.466064	0.1	0.466064	0.932129	0.1	0	0	0	0	0	0	0	0.000000000
1504622266.831142902	0.00306796	0.33901	-1.22258	0.00920388	0.388097	-2.44823	-0.0122718	0	0.441708	0.441708	0	0.48946	0.91923	0	0	0	0	0	0	0	0	0.000000000	0	0.329267	-1.24833	0	0.369167	-2.48986	0	0.1	0.466064	0.466064	0.1	0.466064	0.932129	0.1	0	0	0	0	0	0	0	0.000000000
1504622266.851162910	0.00306796	0.33901	-1.22258	0.00920388	0.388097	-2.48351	-0.0122718	0	0.441708	0.441708	0	0.48946	0.966982	0	0	0	0	0	0	0	0	0.000000000	0	0.315268	-1.26233	0	0.355168	-2.51786	0	0.1	0.461963	0.461963	0.1	0.461963	0.923926	0.1	0	0	0	0	0	0	0	0.000000000
1504622266.871150016	0.00306796	0.320602	-1.23946	0.00920388	0.372757	-2.48351	-0.0122718	0	0.537212	0.48946	0	0.48946	0.966982	0	0	0	0	0	0	0	0	0.000000000	0	0.301411	-1.27618	0	0.341311	-2.54557	0	0.1	0.457258	0.457258	0.1	0.457259	0.914516	0.1	0	0	0	0	0	0	0	0.000000000
1504622266.891125917	0.00306796	0.305262	-1.25326	0.00920388	0.357418	-2.50806	-0.0122718	0	0.48946	0.393956	0	0.48946	0.871478	0	0	0	0	0	0	0	0	0.000000000	0	0.301411	-1.27618	0	0.341311	-2.54557	0	0.1	0.457258	0.457258	0.1	0.457259	0.914516	0.1	0	0	0	0	0	0	0	0.000000000
1504622266.911468982	0.00306796	0.296058	-1.26247	0.00920388	0.349748	-2.52647	-0.0122718	0	0.393956	0.393956	0	0.393956	0.823726	0	0	0	0	0	0	0	0	0.000000000	0	0.287715	-1.28988	0	0.327615	-2.57296	0	0.1	0.451968	0.451967	0.1	0.451967	0.903934	0.1	0	0	0	0	0	0	0	0.000000000
1504622266.931473016	0.00306796	0.288388	-1.27014	0.00920388	0.342078	-2.54794	-0.0122718	0	0.346204	0.393956	0	0.346204	0.823726	0	0	0	0	0	0	0	0	0.000000000	0	0.274197	-1.3034	0	0.314097	-2.6	0	0.1	0.446097	0.4461	0.1	0.446097	0.892192	0.1	0	0	0	0	0	0	0	0.000000000
1504622266.951246976	0.00306796	0.274583	-1.28241	0.00920388	0.329806	-2.57402	-0.0122718	0	0.441708	0.393956	0	0.441708	0.871478	0	0	0	0	0	0	0	0	0.000000000	0	0.274197	-1.3034	0	0.314097	-2.6	0	0.1	0.446097	0.4461	0.1	0.446097	0.892192	0.1	0	0	0	0	0	0	0	0.000000000
1504622266.971544981	0.00306796	0.274583	-1.28241	0.00920388	0.329806	-2.57402	-0.0122718	0	0.441708	0.393956	0	0.441708	0.871478	0	0	0	0	0	0	0	0	0.000000000	0	0.260874	-1.31672	0	0.300774	-2.62664	0	0.1	0.439666	0.439666	0.1	0.439667	0.879339	0.1	0	0	0	0	0	0	0	0.000000000
1504622266.991575956	0.00306796	0.265379	-1.29621	0.00920388	0.316	-2.59703	-0.0138058	0	0.393956	0.441708	0	0.441708	0.91923	0	0	0	0	0	0	0	0	0.000000000	0	0.247763	-1.32983	0	0.287663	-2.65287	0	0.1	0.432682	0.432679	0.1	0.432681	0.865358	0.1	0	0	0	0	0	0	0	0.000000000
1504622267.011401891	0.00306796	0.254641	-1.30849	0.00920388	0.305262	-2.61851	-0.0122718	0	0.441708	0.48946	0	0.441708	0.823726	0	0	0	0	0	0	0	0	0.000000000	0	0.247763	-1.32983	0	0.287663	-2.65287	0	0.1	0.432682	0.432679	0.1	0.432681	0.865358	0.1	0	0	0	0	0	0	0	0.000000000
1504622267.031193971	0.00306796	0.242369	-1.31922	0.00920388	0.294524	-2.64305	-0.0122718	0	0.441708	0.393956	0	0.346204	0.823726	0	0	0	0	0	0	0	0	0.000000000	0	0.234879	-1.34272	0	0.274779	-2.67863	0	0.1	0.425158	0.425161	0.1	0.425158	0.850315	0.1	0	0	0	0	0	0	0	0.000000000
1504622267.051182031	0.00460194	0.228563	-1.3315	0.00920388	0.294524	-2.64305	-0.0122718	0	0.441708	0.346204	0	0.346204	0.823726	0	0	0	0	0	0	0	0	0.000000000	0	0.222239	-1.35536	0	0.262139	-2.70391	0	0.1	0.417108	0.417107	0.1	0.417108	0.834222	0.1	0	0	0	0	0	0	0	0.000000000
1504622267.071418046	0.00460194	0.228563	-1.3315	0.00920388	0.280718	-2.66759	-0.0122718	0	0.441708	0.346204	0	0.393956	0.775973	0	0	0	0	0	0	0	0	0.000000000	0	0.222239	-1.35536	0	0.262139	-2.70391	0	0.1	0.417108	0.417107	0.1	0.417108	0.834222	0.1	0	0	0	0	0	0	0	0.000000000
1504622267.091185092	0.00306796	0.217825	-1.34223	0.00920388	0.271515	-2.68753	-0.0122718	0	0.393956	0.393956	0	0.346204	0.775973	0	0	0	0	0	0	0	0	0.000000000	0	0.209859	-1.36774	0	0.249759	-2.72867	0	0.1	0.40855	0.408552	0.1	0.408551	0.817097	0.1	0	0	0	0	0	0	0	0.000000000
1504622267.111402988	0.00306796	0.207087	-1.35297	0.00920388	0.262311	-2.71054	-0.0122718	0	0.393956	0.346204	0	0.346204	0.775973	0	0	0	0	0	0	0	0	0.000000000	0	0.197753	-1.37984	0	0.237653	-2.75289	0	0.1	0.399496	0.399496	0.1	0.399496	0.798993	0.1	0	0	0	0	0	0	0	0.000000000
1504622267.131129980	0.00306796	0.197884	-1.36217	0.00920388	0.251573	-2.73049	-0.0122718	0	0.346204	0.393956	0	0.393956	0.775973	0	0	0	0	0	0	0	0	0.000000000	0	0.197753	-1.37984	0	0.237653	-2.75289	0	0.1	0.399496	0.399496	0.1	0.399496	0.798993	0.1	0	0	0	0	0	0	0	0.000000000
1504622267.151092052	0.00306796	0.191748	-1.37138	0.00920388	0.243903	-2.74429	-0.0122718	0	0.346204	0.393956	0	0.346204	0.728221	0	0	0	0	0	0	0	0	0.000000000	0	0.185936	-1.39166	0	0.225836	-2.77652	0	0.1	0.389963	0.389961	0.1	0.389963	0.779929	0.1	0	0	0	0	0	0	0	0.000000000
1504622267.171072959	0.00306796	0.184078	-1.38058	0.00920388	0.234699	-2.75963	-0.0122718	0	0.346204	0.441708	0	0.393956	0.728221	0	0	0	0	0	0	0	0	0.000000000	0	0.174422	-1.40317	0	0.214322	-2.79955	0	0.1	0.379966	0.379967	0.1	0.379966	0.759934	0.1	0	0	0	0	0	0	0	0.000000000
1504622267.191054105	0.00306796	0.174874	-1.39132	0.00920388	0.223961	-2.78264	-0.0122718	0	0.346204	0.393956	0	0.393956	0.823726	0	0	0	0	0	0	0	0	0.000000000	0	0.174422	-1.40317	0	0.214322	-2.79955	0	0.1	0.379966	0.379967	0.1	0.379966	0.759934	0.1	0	0	0	0	0	0	0	0.000000000
1504622267.211062908	0.00306796	0.162602	-1.40206	0.00920388	0.213223	-2.80258	-0.0122718	0	0.441708	0.393956	0	0.393956	0.775973	0	0	0	0	0	0	0	0	0.000000000	0	0.163224	-1.41437	0	0.203124	-2.82194	0	0.1	0.369528	0.369528	0.1	0.369529	0.739056	0.1	0	0	0	0	0	0	0	0.000000000
1504622267.231024026	0.00306796	0.162602	-1.40206	0.00920388	0.213223	-2.80258	-0.0122718	0	0.441708	0.393956	0	0.393956	0.775973	0	0	0	0	0	0	0	0	0.000000000	0	0.152355	-1.42524	0	0.192255	-2.84368	0	0.1	0.358666	0.358666	0.1	0.358666	0.717333	0.1	0	0	0	0	0	0	0	0.000000000
1504622267.251039981	0.00306796	0.153398	-1.4128	0.00920388	0.202485	-2.82099	-0.0122718	0	0.393956	0.393956	0	0.393956	0.680469	0	0	0	0	0	0	0	0	0.000000000	0	0.152355	-1.42524	0	0.192255	-2.84368	0	0.1	0.358666	0.358666	0.1	0.358666	0.717333	0.1	0	0	0	0	0	0	0	0.000000000
1504622267.271049976	0.00306796	0.144194	-1.42047	0.00920388	0.194816	-2.8394	-0.0122718	0	0.393956	0.346204	0	0.298451	0.632717	0	0	0	0	0	0	0	0	0.000000000	0	0.141828	-1.43577	0	0.181728	-2.86474	0	0.1	0.347401	0.3474	0.1	0.347401	0.694799	0.1	0	0	0	0	0	0	0	0.000000000
1504622267.291224956	0.00306796	0.13499	-1.42967	0.00920388	0.184078	-2.85627	-0.0122718	0	0.346204	0.298451	0	0.346204	0.632717	0	0	0	0	0	0	0	0	0.000000000	0	0.131654	-1.44594	0	0.171554	-2.88509	0	0.1	0.335756	0.335755	0.1	0.335756	0.671511	0.1	0	0	0	0	0	0	0	0.000000000
1504622267.311393976	0.00306796	0.125786	-1.43734	0.00920388	0.176408	-2.87621	-0.0122718	0	0.346204	0.298451	0	0.298451	0.632717	0	0	0	0	0	0	0	0	0.000000000	0	0.131654	-1.44594	0	0.171554	-2.88509	0	0.1	0.335756	0.335755	0.1	0.335756	0.671511	0.1	0	0	0	0	0	0	0	0.000000000
1504622267.331056118	0.00306796	0.125786	-1.43734	0.00920388	0.176408	-2.87621	-0.0122718	0	0.346204	0.298451	0	0.298451	0.632717	0	0	0	0	0	0	0	0	0.000000000	0	0.121843	-1.45575	0	0.161743	-2.90471	0	0.1	0.323755	0.323757	0.1	0.323755	0.647514	0.1	0	0	0	0	0	0	0	0.000000000
1504622267.351186037	0.00306796	0.118117	-1.44654	0.00920388	0.168738	-2.89309	-0.0122718	0	0.298451	0.346204	0	0.298451	0.632717	0	0	0	0	0	0	0	0	0.000000000	0	0.112406	-1.46519	0	0.152306	-2.92358	0	0.1	0.311425	0.311424	0.1	0.311425	0.622848	0.1	0	0	0	0	0	0	0	0.000000000
1504622267.371009111	0.00306796	0.110447	-1.45421	0.00920388	0.159534	-2.9115	-0.0122718	0	0.250699	0.346204	0	0.298451	0.680469	0	0	0	0	0	0	0	0	0.000000000	0	0.112406	-1.46519	0	0.152306	-2.92358	0	0.1	0.311425	0.311424	0.1	0.311425	0.622848	0.1	0	0	0	0	0	0	0	0.000000000
1504622267.390995025	0.00306796	0.102777	-1.46188	0.00920388	0.153398	-2.92837	-0.0122718	0	0.298451	0.298451	0	0.298451	0.632717	0	0	0	0	0	0	0	0	0.000000000	0	0.103351	-1.47424	0	0.143251	-2.94169	0	0.1	0.298789	0.29879	0.1	0.298789	0.59758	0.1	0	0	0	0	0	0	0	0.000000000
1504622267.411014080	0.00306796	0.0951068	-1.46955	0.00920388	0.145728	-2.94371	-0.0122718	0	0.298451	0.250699	0	0.250699	0.537212	0	0	0	0	0	0	0	0	0.000000000	0	0.103351	-1.47424	0	0.143251	-2.94169	0	0.1	0.298789	0.29879	0.1	0.298789	0.59758	0.1	0	0	0	0	0	0	0	0.000000000
1504622267.431025981	0.00306796	0.0951068	-1.46955	0.00920388	0.145728	-2.94371	-0.0122718	0	0.298451	0.250699	0	0.250699	0.537212	0	0	0	0	0	0	0	0	0.000000000	0	0.0946883	-1.48291	0	0.134588	-2.95902	0	0.1	0.285886	0.285885	0.1	0.285886	0.57177	0.1	0	0	0	0	0	0	0	0.000000000
1504622267.451009988	0.00306796	0.0905049	-1.47722	0.00920388	0.138058	-2.95751	-0.0122718	0	0.202947	0.298451	0	0.250699	0.48946	0	0	0	0	0	0	0	0	0.000000000	0	0.0864235	-1.49117	0	0.126323	-2.97555	0	0.1	0.27274	0.272742	0.1	0.272739	0.545476	0.1	0	0	0	0	0	0	0	0.000000000
1504622267.471193075	0.00306796	0.082835	-1.48489	0.00920388	0.130388	-2.97132	-0.0122718	0	0.250699	0.298451	0	0.298451	0.537212	0	0	0	0	0	0	0	0	0.000000000	0	0.0864235	-1.49117	0	0.126323	-2.97555	0	0.1	0.27274	0.272742	0.1	0.272739	0.545476	0.1	0	0	0	0	0	0	0	0.000000000
1504622267.491153001	0.00306796	0.0751651	-1.4941	0.00920388	0.122718	-2.98819	-0.0122718	0	0.298451	0.298451	0	0.298451	0.537212	0	0	0	0	0	0	0	0	0.000000000	0	0.0785633	-1.49903	0	0.118463	-2.99127	0	0.1	0.259386	0.259382	0.1	0.259386	0.518773	0.1	0	0	0	0	0	0	0	0.000000000
1504622267.511135101	0.00306796	0.0751651	-1.4941	0.00920388	0.122718	-2.98819	-0.0122718	0	0.298451	0.298451	0	0.298451	0.537212	0	0	0	0	0	0	0	0	0.000000000	0	0.071113	-1.50648	0	0.111013	-3.00617	0	0.1	0.24586	0.245862	0.1	0.245859	0.491723	0.1	0	0	0	0	0	0	0	0.000000000
1504622267.531096935	0.00306796	0.0659612	-1.50177	0.00920388	0.116583	-3.002	-0.0122718	0	0.346204	0.298451	0	0.250699	0.537212	0	0	0	0	0	0	0	0	0.000000000	0	0.071113	-1.50648	0	0.111013	-3.00617	0	0.1	0.24586	0.245862	0.1	0.245859	0.491723	0.1	0	0	0	0	0	0	0	0.000000000
1504622267.551136016	0.00306796	0.0598253	-1.50944	0.00920388	0.108913	-3.01427	-0.0122718	0	0.250699	0.250699	0	0.250699	0.48946	0	0	0	0	0	0	0	0	0.000000000	0	0.0640767	-1.51352	0	0.103977	-3.02024	0	0.1	0.232199	0.232199	0.1	0.232199	0.464398	0.1	0	0	0	0	0	0	0	0.000000000
1504622267.571023941	0.00306796	0.0536893	-1.51557	0.00920388	0.102777	-3.02654	-0.0122718	0	0.250699	0.250699	0	0.250699	0.441708	0	0	0	0	0	0	0	0	0.000000000	0	0.0574571	-1.52014	0	0.0973571	-3.03348	0	0.1	0.218445	0.218446	0.1	0.218445	0.436884	0.1	0	0	0	0	0	0	0	0.000000000
1504622267.591495990	0.00306796	0.0490874	-1.51864	0.00920388	0.0981748	-3.03728	-0.0122718	0	0.250699	0.155195	0	0.250699	0.393956	0	0	0	0	0	0	0	0	0.000000000	0	0.0574571	-1.52014	0	0.0973571	-3.03348	0	0.1	0.218445	0.218446	0.1	0.218445	0.436884	0.1	0	0	0	0	0	0	0	0.000000000
1504622267.611073970	0.00306796	0.0444854	-1.52478	0.00920388	0.0935728	-3.04955	-0.0122718	0	0.202947	0.202947	0	0.202947	0.441708	0	0	0	0	0	0	0	0	0.000000000	0	0.051256	-1.52634	0	0.091156	-3.04588	0	0.1	0.204638	0.204638	0.1	0.204638	0.409284	0.1	0	0	0	0	0	0	0	0.000000000
1504622267.631078958	0.00306796	0.0444854	-1.52478	0.00920388	0.0935728	-3.04955	-0.0122718	0	0.202947	0.202947	0	0.202947	0.441708	0	0	0	0	0	0	0	0	0.000000000	0	0.0454734	-1.53212	0	0.0853734	-3.05745	0	0.1	0.190823	0.190821	0.1	0.190823	0.381641	0.1	0	0	0	0	0	0	0	0.000000000
1504622267.651029109	0.00306796	0.0383495	-1.53091	0.00920388	0.0874369	-3.05876	-0.0122718	0	0.250699	0.202947	0	0.250699	0.393956	0	0	0	0	0	0	0	0	0.000000000	0	0.0454734	-1.53212	0	0.0853734	-3.05745	0	0.1	0.190823	0.190821	0.1	0.190823	0.381641	0.1	0	0	0	0	0	0	0	0.000000000
1504622267.671000957	0.00306796	0.0322136	-1.53551	0.00920388	0.082835	-3.0695	-0.0122718	0	0.202947	0.202947	0	0.202947	0.346204	0	0	0	0	0	0	0	0	0.000000000	0	0.0401083	-1.53749	0	0.0800083	-3.06818	0	0.1	0.177049	0.17705	0.1	0.177049	0.354099	0.1	0	0	0	0	0	0	0	0.000000000
1504622267.691545009	0.00306796	0.0276117	-1.54012	0.00920388	0.078233	-3.07717	-0.0122718	0	0.155195	0.155195	0	0.155195	0.298451	0	0	0	0	0	0	0	0	0.000000000	0	0.035158	-1.54244	0	0.075058	-3.07808	0	0.1	0.163361	0.163363	0.1	0.163361	0.326719	0.1	0	0	0	0	0	0	0	0.000000000
1504622267.711061954	0.00306796	0.0260777	-1.54472	0.00920388	0.0751651	-3.08637	-0.0122718	0	0.107442	0.155195	0	0.107442	0.346204	0	0	0	0	0	0	0	0	0.000000000	0	0.035158	-1.54244	0	0.075058	-3.07808	0	0.1	0.163361	0.163363	0.1	0.163361	0.326719	0.1	0	0	0	0	0	0	0	0.000000000
1504622267.731131076	0.00306796	0.0260777	-1.54472	0.00920388	0.0751651	-3.08637	-0.0122718	0	0.107442	0.155195	0	0.107442	0.346204	0	0	0	0	0	0	0	0	0.000000000	0	0.0306182	-1.54698	0	0.0705182	-3.08716	0	0.1	0.149812	0.149811	0.1	0.149812	0.29963	0.1	0	0	0	0	0	0	0	0.000000000
1504622267.751153945	0.00306796	0.0214757	-1.54779	0.00920388	0.0705631	-3.09404	-0.0122718	0	0.155195	0.107442	0	0.155195	0.298451	0	0	0	0	0	0	0	0	0.000000000	0	0.0264832	-1.55111	0	0.0663832	-3.09543	0	0.1	0.136455	0.136456	0.1	0.136455	0.272903	0.1	0	0	0	0	0	0	0	0.000000000
1504622267.771136045	0.00306796	0.0184078	-1.55239	0.00920388	0.0659612	-3.10171	-0.0122718	0	0.107442	0.155195	0	0.202947	0.298451	0	0	0	0	0	0	0	0	0.000000000	0	0.0264832	-1.55111	0	0.0663832	-3.09543	0	0.1	0.136455	0.136456	0.1	0.136455	0.272903	0.1	0	0	0	0	0	0	0	0.000000000
1504622267.791068077	0.00306796	0.0138058	-1.55546	0.00920388	0.0628932	-3.10938	-0.0122718	0	0.155195	0.107442	0	0.155195	0.298451	0	0	0	0	0	0	0	0	0.000000000	0	0.0227455	-1.55485	0	0.0626455	-3.1029	0	0.1	0.123345	0.123344	0.1	0.123345	0.246696	0.1	0	0	0	0	0	0	0	0.000000000
1504622267.811033010	0.00306796	0.0107379	-1.56006	0.00920388	0.0582913	-3.11551	-0.0122718	0	0.155195	0.155195	0	0.202947	0.202947	0	0	0	0	0	0	0	0	0.000000000	0	0.0193958	-1.5582	0	0.0592958	-3.1096	0	0.1	0.11054	0.110543	0.1	0.110541	0.221078	0.1	0	0	0	0	0	0	0	0.000000000
1504622267.831317901	0.00306796	0.0107379	-1.56006	0.00920388	0.0582913	-3.11551	-0.0122718	0	0.155195	0.155195	0	0.202947	0.202947	0	0	0	0	0	0	0	0	0.000000000	0	0.0193958	-1.5582	0	0.0592958	-3.1096	0	0.1	0.11054	0.110543	0.1	0.110541	0.221078	0.1	0	0	0	0	0	0	0	0.000000000
1504622267.851219892	0.00306796	0.0076699	-1.56313	0.00920388	0.0567573	-3.12012	-0.0122718	0	0.107442	0.107442	0	0.107442	0.202947	0	0	0	0	0	0	0	0	0.000000000	0	0.0164231	-1.56117	0	0.0563231	-3.11555	0	0.1	0.1	0.1	0.1	0.1	0.1962	0.1	0	0	0	0	0	0	0	0.000000000
1504622267.871154069	0.00306796	0.00460194	-1.56466	0.00920388	0.0536893	-3.12625	-0.0122718	0	0.107442	0.107442	0	0.107442	0.202947	0	0	0	0	0	0	0	0	0.000000000	0	0.0138144	-1.56378	0	0.0537144	-3.12076	0	0.1	0.1	0.1	0.1	0.1	0.17217	0.1	0	0	0	0	0	0	0	0.000000000
1504622267.891175031	0.00306796	0.00306796	-1.56773	0.00920388	0.0506214	-3.13085	-0.0122718	0	0	0.107442	0	0.155195	0.202947	0	0	0	0	0	0	0	0	0.000000000	0	0.0138144	-1.56378	0	0.0537144	-3.12076	0	0.1	0.1	0.1	0.1	0.1	0.17217	0.1	0	0	0	0	0	0	0	0.000000000
1504622267.911212921	0.00306796	0.00306796	-1.56773	0.00920388	0.0506214	-3.13085	-0.0122718	0	0	0.107442	0	0.155195	0.202947	0	0	0	0	0	0	0	0	0.000000000	0	0.011555	-1.56604	0	0.051455	-3.12528	0	0.1	0.1	0.1	0.1	0.1	0.149119	0.1	0	0	0	0	0	0	0	0.000000000
1504622267.931078910	0.00306796	0.00153398	-1.56926	0.00920388	0.0490874	-3.13392	-0.0122718	0	0	0.107442	0	0.107442	0.155195	0	0	0	0	0	0	0	0	0.000000000	0	0.009628	-1.56797	0	0.049528	-3.12914	0	0.1	0.1	0.1	0.1	0.1	0.127183	0.1	0	0	0	0	0	0	0	0.000000000
1504622267.951071977	0.00306796	0	-1.5708	0.00920388	0.0460194	-3.13852	-0.0122718	0	0.107442	0	0	0.107442	0.155195	0	0	0	0	0	0	0	0	0.000000000	0	0.009628	-1.56797	0	0.049528	-3.12914	0	0.1	0.1	0.1	0.1	0.1	0.127183	0.1	0	0	0	0	0	0	0	0.000000000
1504622267.971075057	0.00306796	0	-1.57233	0.00920388	0.0444854	-3.14006	-0.0122718	0	0	0.107442	0	0	0	0	0	0	0	0	0	0	0	0.000000000	0	0.00801451	-1.56958	0	0.0479145	-3.13236	0	0.1	0.1	0.1	0.1	0.1	0.106491	0.1	0	0	0	0	0	0	0	0.000000000
1504622267.991019964	0.00306796	0	-1.5754	0.00920388	0.0444854	-3.14006	-0.0122718	0	0	0.155195	0	0	0	0	0	0	0	0	0	0	0	0.000000000	0	0.00669356	-1.5709	0	0.0465936	-3.13501	0	0.1	0.1	0.1	0.1	0.1	0.1	0.1	0	0	0	0	0	0	0	0.000000000
1504622268.011092901	0.00306796	0	-1.5754	0.00920388	0.0429515	-3.14159	-0.0122718	0	0	0	0	0	0	0	0	0	0	0	0	0	0	0.000000000	0	0.00669356	-1.5709	0	0.0465936	-3.13501	0	0.1	0.1	0.1	0.1	0.1	0.1	0.1	0	0	0	0	0	0	0	0.000000000
1504622268.031157016	0.00306796	0	-1.5754	0.00920388	0.0429515	-3.14159	-0.0122718	0	0	0	0	0	0	0	0	0	0	0	0	0	0	0.000000000	0	0.00564201	-1.57195	0	0.045542	-3.13711	0	0.1	0.1	0.1	0.1	0.1	0.1	0.1	0	0	0	0	0	0	0	0.000000000
1504622268.051131963	0.00306796	-0.00153398	-1.5754	0.00920388	0.0414175	-3.14159	-0.0122718	0	0	0	0	0	0	0	0	0	0	0	0	0	0	0.000000000	0	0.00483447	-1.57276	0	0.0447345	-3.13872	0	0.1	0.1	0.1	0.1	0.1	0.1	0.1	0	0	0	0	0	0	0	0.000000000
1504622268.071141004	0.00306796	-0.00153398	-1.5754	0.0076699	0.0398835	-3.14159	-0.0122718	0	0	0	0	0	0	0	0	0	0	0	0	0	0	0.000000000	0	0.00483447	-1.57276	0	0.0447345	-3.13872	0	0.1	0.1	0.1	0.1	0.1	0.1	0.1	0	0	0	0	0	0	0	0.000000000
1504622268.091012001	0.00306796	0	-1.5754	0.00920388	0.0398835	-3.14159	-0.0122718	0	0	0	0	0	0	0	0	0	0	0	0	0	0	0.000000000	0	0.00424332	-1.57335	0	0.0441433	-3.13991	0	0.1	0.1	0.1	0.1	0.1	0.1	0.1	0	0	0	0	0	0	0	0.000000000
1504622268.111088991	0.00306796	-0.00153398	-1.5754	0.00920388	0.0398835	-3.14313	-0.0122718	0	0	0	0	0	0	0	0	0	0	0	0	0	0	0.000000000	0	0.00383859	-1.57376	0	0.0437386	-3.14072	0	0.1	0.1	0.1	0.1	0.1	0.1	0.1	0	0	0	0	0	0	0	0.000000000
1504622268.131212949	0.00306796	-0.00153398	-1.5754	0.00920388	0.0398835	-3.14313	-0.0122718	0	0	0	0	0	0	0	0	0	0	0	0	0	0	0.000000000	0	0.00383859	-1.57376	0	0.0437386	-3.14072	0	0.1	0.1	0.1	0.1	0.1	0.1	0.1	0	0	0	0	0	0	0	0.000000000
1504622268.151567935	0.00306796	0	-1.5754	0.00920388	0.0398835	-3.14313	-0.0122718	0	0	0	0	0	0	0	0	0	0	0	0	0	0	0.000000000	0	0.00358793	-1.57401	0	0.0434879	-3.14122	0	0.1	0.1	0.1	0.1	0.1	0.1	0.1	0	0	0	0	0	0	0	0.000000000
1504622268.171041965	0.00306796	-0.00153398	-1.5754	0.00920388	0.0398835	-3.14313	-0.0138058	0	0	0	0	0	0	0	0	0	0	0	0	0	0	0.000000000	0	0.00345655	-1.57414	0	0.0433565	-3.14148	0	0.1	0.1	0.1	0.1	0.1	0.1	0.1	0	0	0	0	0	0	0	0.000000000
1504622268.191273927	0.00306796	-0.00153398	-1.5754	0.00920388	0.0398835	-3.14313	-0.0122718	0	0	0	0	0	0	0	0	0	0	0	0	0	0	0.000000000	0	0.00345655	-1.57414	0	0.0433565	-3.14148	0	0.1	0.1	0.1	0.1	0.1	0.1	0.1	0	0	0	0	0	0	0	0.000000000
1504622268.211105108	0.00306796	-0.00306796	-1.5754	0.00920388	0.0383495	-3.14313	-0.0122718	0	0	0	0	0	0	0	0	0	0	0	0	0	0	0.000000000	0	0.00340718	-1.57419	0	0.0433072	-3.14158	0	0.1	0.1	0.1	0.1	0.1	0.1	0.1	0	0	0	0	0	0	0	0.000000000
1504622268.231187105	0.00306796	-0.00306796	-1.5754	0.00920388	0.0383495	-3.14313	-0.0122718	0	0	0	0	0	0	0	0	0	0	0	0	0	0	0.000000000	0	0.0034	-1.5742	0	0.0433	-3.14159	0	0.1	0.1	0.1	0.1	0.1	0.1	0.1	0	0	0	0	0	0	0	0.000000000
1504622268.251161098	0.00306796	-0.00306796	-1.5754	0.00920388	0.0383495	-3.14313	-0.0122718	0	0	0	0	0	0	0	0	0	0	0	0	0	0	0.000000000	0	0.0034	-1.5742	0	0.0433	-3.14159	0	0.1	0.1	0.1	0.1	0.1	0.1	0.1	0	0	0	0	0	0	0	0.000000000
1504622268.271188020	0.00306796	-0.00306796	-1.5754	0.00920388	0.0383495	-3.14313	-0.0122718	0	0	0	0	0	0	0	0	0	0	0	0	0	0	0.000000000	2.48025e-05	0.0034	-1.5742	2.48025e-05	0.0433	-3.14159	0	0.1	0.1	0.1	0.1	0.1	0.1	0.1	0	0	0	0	0	0	0	0.000000000
1504622268.291064023	0.00306796	-0.00306796	-1.5754	0.00920388	0.0383495	-3.14313	-0.0122718	0	0	0	0	0	0	0	0	0	0	0	0	0	0	0.000000000	0.000195405	0.0034	-1.5742	0.000195405	0.0433	-3.14159	0	0.1	0.1	0.1	0.1	0.1	0.1	0.1	0	0	0	0	0	0	0	0.000000000
1504622268.311225891	0.00306796	-0.00306796	-1.5754	0.0076699	0.0383495	-3.14313	-0.0122718	0	0	0	0	0	0	0	0	0	0	0	0	0	0	0.000000000	0.000195405	0.0034	-1.5742	0.000195405	0.0433	-3.14159	0	0.1	0.1	0.1	0.1	0.1	0.1	0.1	0	0	0	0	0	0	0	0.000000000
1504622268.331490039	0.00306796	-0.00306796	-1.5754	0.0076699	0.0383495	-3.14313	-0.0122718	0	0	0	0	0	0	0	0	0	0	0	0	0	0	0.000000000	0.000649398	0.0034	-1.5742	0.000649398	0.0433	-3.14159	0	0.1	0.1	0.1	0.1	0.1	0.1	0.1	0	0	0	0	0	0	0	0.000000000
1504622268.353415012	0.00306796	-0.00306796	-1.5754	0.00920388	0.0383495	-3.14313	-0.0122718	0	0	0	0	0	0	0	0	0	0	0	0	0	0	0.000000000	0.00151558	0.0034	-1.5742	0.00151558	0.0433	-3.14159	0	0.1	0.1	0.1	0.1	0.1	0.1	0.1	0	0	0	0	0	0	0	0.000000000
1504622268.371175050	0.00306796	-0.00306796	-1.5754	0.00920388	0.0383495	-3.14313	-0.0122718	0	0	0	0	0	0	0	0	0	0	0	0	0	0	0.000000000	0.00151558	0.0034	-1.5742	0.00151558	0.0433	-3.14159	0	0.1	0.1	0.1	0.1	0.1	0.1	0.1	0	0	0	0	0	0	0	0.000000000
1504622268.391220092	0.00306796	-0.00306796	-1.5754	0.00920388	0.0383495	-3.14313	-0.0122718	0	0	0	0	0	0	0	0	0	0	0	0	0	0	0.000000000	0.00291417	0.0034	-1.5742	0.00291417	0.0433	-3.14159	0	0.1	0.1	0.1	0.1	0.1	0.1	0.1	0	0	0	0	0	0	0	0.000000000
1504622268.411106109	0.00306796	-0.00306796	-1.5754	0.00920388	0.0383495	-3.14313	-0.0122718	0	0	0	0	0	0	0	0	0	0	0	0	0	0	0.000000000	0.00291417	0.0034	-1.5742	0.00291417	0.0433	-3.14159	0	0.1	0.1	0.1	0.1	0.1	0.1	0.1	0	0	0	0	0	0	0	0.000000000
1504622268.431070089	0.00306796	-0.00306796	-1.5754	0.00920388	0.0383495	-3.14313	-0.0122718	0	0	0	0	0	0	0	0	0	0	0	0	0	0	0.000000000	0.00495693	0.0034	-1.5742	0.00495693	0.0433	-3.14159	0	0.1	0.1	0.1	0.1	0.1	0.1	0.1	0	0	0	0	0	0	0	0.000000000
1504622268.451072931	0.00306796	-0.00306796	-1.5754	0.00920388	0.0383495	-3.14313	-0.0122718	0	0	0	0	0	0	0	0	0	0	0	0	0	0	0.000000000	0.00774742	0.0034	-1.5742	0.00774742	0.0433	-3.14159	0	0.1	0.1	0.1	0.1	0.1	0.1	0.1	0	0	0	0	0	0	0	0.000000000
1504622268.471460103	0.00306796	-0.00306796	-1.5754	0.00920388	0.0383495	-3.14313	-0.0122718	0	0	0	0	0	0	0	0	0	0	0	0	0	0	0.000000000	0.00774742	0.0034	-1.5742	0.00774742	0.0433	-3.14159	0	0.1	0.1	0.1	0.1	0.1	0.1	0.1	0	0	0	0	0	0	0	0.000000000
1504622268.491048097	0.00306796	-0.00306796	-1.5754	0.00920388	0.0383495	-3.14313	-0.0122718	0	0	0	0	0	0	0	0	0	0	0	0	0	0	0.000000000	0.0113811	0.0034	-1.5742	0.0113811	0.0433	-3.14159	0	0.119913	0.1	0.1	0.119913	0.1	0.1	0.1	0	0	0	0	0	0	0	0.000000000
1504622268.511276960	0.00306796	-0.00306796	-1.5754	0.00920388	0.0383495	-3.14313	-0.0122718	0	0	0	0	0	0	0	0	0	0	0	0	0	0	0.000000000	0.0159457	0.0034	-1.5742	0.0159457	0.0433	-3.14159	0	0.150632	0.1	0.1	0.150632	0.1	0.1	0.1	0	0	0	0	0	0	0	0.000000000
1504622268.531056880	0.00306796	-0.00306796	-1.5754	0.00920388	0.0383495	-3.14313	-0.0122718	0	0	0	0	0	0	0	0	0	0	0	0	0	0	0.000000000	0.0159457	0.0034	-1.5742	0.0159457	0.0433	-3.14159	0	0.150632	0.1	0.1	0.150632	0.1	0.1	0.1	0	0	0	0	0	0	0	0.000000000
1504622268.551117897	0.00460194	-0.00306796	-1.5754	0.00920388	0.0383495	-3.14313	-0.0122718	0	0	0	0	0	0	0	0	0	0	0	0	0	0	0.000000000	0.0215212	0.0034	-1.5742	0.0215212	0.0433	-3.14159	0	0.18399	0.1	0.1	0.18399	0.1	0.1	0.1	0	0	0	0	0	0	0	0.000000000
1504622268.571140050	0.00613592	-0.00306796	-1.5754	0.00920388	0.0383495	-3.14313	-0.0122718	0	0	0	0	0	0	0	0	0	0	0	0	0	0	0.000000000	0.0281799	0.0034	-1.5742	0.0281799	0.0433	-3.14159	0	0.219739	0.1	0.1	0.219739	0.1	0.1	0.1	0	0	0	0	0	0	0	0.000000000
1504622268.591064929	0.00920388	-0.00306796	-1.5754	0.00920388	0.0383495	-3.14313	-0.0122718	0.0955044	0	0	0	0	0	0	0	0	0	0	0	0	0	0.000000000	0.0281799	0.0034	-1.5742	0.0281799	0.0433	-3.14159	0	0.219739	0.1	0.1	0.219739	0.1	0.1	0.1	0	0	0	0	0	0	0	0.000000000
1504622268.611056089	0.0153398	-0.00306796	-1.5754	0.0138058	0.0383495	-3.14313	-0.0122718	0.191009	0	0	0.143257	0	0	0	0	0	0	0	0	0	0	0.000000000	0.0359872	0.0034	-1.5742	0.0359872	0.0433	-3.14159	0	0.257639	0.1	0.1	0.257639	0.1	0.1	0.1	0	0	0	0	0	0	0	0.000000000
1504622268.631023883	0.0153398	-0.00306796	-1.5754	0.0138058	0.0383495	-3.14313	-0.0122718	0.191009	0	0	0.143257	0	0	0	0	0	0	0	0	0	0	0.000000000	0.0450009	0.0034	-1.5742	0.0450009	0.0433	-3.14159	0	0.297452	0.1	0.1	0.297452	0.1	0.1	0.1	0	0	0	0	0	0	0	0.000000000
1504622268.651130914	0.0199418	-0.00306796	-1.5754	0.0214757	0.0383495	-3.14313	-0.0122718	0.191009	0	0	0.238761	0	0	0	0	0	0	0	0	0	0	0.000000000	0.0450009	0.0034	-1.5742	0.0450009	0.0433	-3.14159	0	0.297452	0.1	0.1	0.297452	0.1	0.1	0.1	0	0	0	0	0	0	0	0.000000000
1504622268.671155929	0.0291456	-0.00306796	-1.5754	0.0276117	0.0383495	-3.14313	-0.0122718	0.238761	0	0	0.238761	0	0	0	0	0	0	0	0	0	0	0.000000000	0.0552723	0.0034	-1.5742	0.0552723	0.0433	-3.14159	0	0.338956	0.1	0.1	0.338956	0.1	0.1	0.1	0	0	0	0	0	0	0	0.000000000
1504622268.691016912	0.0352816	-0.00306796	-1.5754	0.0352816	0.0383495	-3.14313	-0.0122718	0.286513	0	0	0.286513	0	0	0	0	0	0	0	0	0	0	0.000000000	0.0668456	0.0034	-1.5742	0.0668456	0.0433	-3.14159	0	0.381921	0.1	0.1	0.381921	0.1	0.1	0.1	0	0	0	0	0	0	0	0.000000000
1504622268.711076974	0.0444854	-0.00306796	-1.5754	0.0429515	0.0383495	-3.14313	-0.0122718	0.334265	0	0	0.286513	0	0	0	0	0	0	0	0	0	0	0.000000000	0.0668456	0.0034	-1.5742	0.0668456	0.0433	-3.14159	0	0.381921	0.1	0.1	0.381921	0.1	0.1	0.1	0	0	0	0	0	0	0	0.000000000
1504622268.731095075	0.0444854	-0.00306796	-1.5754	0.0429515	0.0383495	-3.14313	-0.0122718	0.334265	0	0	0.286513	0	0	0	0	0	0	0	0	0	0	0.000000000	0.0797588	0.0034	-1.5742	0.0797588	0.0433	-3.14159	0	0.426133	0.1	0.1	0.426133	0.1	0.1	0.1	0	0	0	0	0	0	0	0.000000000
1504622268.751135110	0.0552233	-0.00306796	-1.5754	0.0521553	0.0383495	-3.14313	-0.0122718	0.382018	0	0	0.286513	0	0	0	0	0	0	0	0	0	0	0.000000000	0.094043	0.0034	-1.5742	0.094043	0.0433	-3.14159	0	0.471382	0.1	0.1	0.471382	0.1	0.1	0.1	0	0	0	0	0	0	0	0.000000000
1504622268.771069049	0.0659612	-0.00306796	-1.5754	0.0628932	0.0383495	-3.14313	-0.0122718	0.382018	0	0	0.382018	0	0	0	0	0	0	0	0	0	0	0.000000000	0.094043	0.0034	-1.5742	0.094043	0.0433	-3.14159	0	0.471382	0.1	0.1	0.471382	0.1	0.1	0.1	0	0	0	0	0	0	0	0.000000000
1504622268.791137933	0.076699	-0.00306796	-1.5754	0.0751651	0.0383495	-3.14313	-0.0122718	0.382018	0	0	0.42977	0	0	0	0	0	0	0	0	0	0	0.000000000	0.109724	0.0034	-1.5742	0.109724	0.0433	-3.14159	0	0.517462	0.1	0.1	0.517462	0.1	0.1	0.1	0	0	0	0	0	0	0	0.000000000
1504622268.812256097	0.0874369	-0.00306796	-1.5754	0.0874369	0.0383495	-3.14313	-0.0122718	0.382018	0	0	0.42977	0	0	0	0	0	0	0	0	0	0	0.000000000	0.12682	0.0034	-1.5742	0.12682	0.0433	-3.14159	0	0.564176	0.1	0.1	0.564176	0.1	0.1	0.1	0	0	0	0	0	0	0	0.000000000
1504622268.831192016	0.0874369	-0.00306796	-1.5754	0.0874369	0.0383495	-3.14313	-0.0122718	0.382018	0	0	0.42977	0	0	0	0	0	0	0	0	0	0	0.000000000	0.12682	0.0034	-1.5742	0.12682	0.0433	-3.14159	0	0.564176	0.1	0.1	0.564176	0.1	0.1	0.1	0	0	0	0	0	0	0	0.000000000
1504622268.851011991	0.101243	-0.00306796	-1.57693	0.0981748	0.0383495	-3.14313	-0.0122718	0.477522	0	0	0.382018	0	0	0	0	0	0	0	0	0	0	0.000000000	0.145345	0.0034	-1.5742	0.145345	0.0433	-3.14159	0	0.61133	0.1	0.1	0.61133	0.1	0.1	0.1	0	0	0	0	0	0	0	0.000000000
1504622268.871041059	0.115049	-0.00306796	-1.5754	0.111981	0.0383495	-3.14313	-0.0122718	0.525274	0	0	0.477522	0	0	0	0	0	0	0	0	0	0	0.000000000	0.165307	0.0034	-1.5742	0.165307	0.0433	-3.14159	0	0.658735	0.1	0.1	0.658735	0.1	0.1	0.1	0	0	0	0	0	0	0	0.000000000
1504622268.891057014	0.128854	-0.00306796	-1.5754	0.12732	0.0383495	-3.14313	-0.0122718	0.477522	0	0	0.573026	0	0	0	0	0	0	0	0	0	0	0.000000000	0.165307	0.0034	-1.5742	0.165307	0.0433	-3.14159	0	0.658735	0.1	0.1	0.658735	0.1	0.1	0.1	0	0	0	0	0	0	0	0.000000000
1504622268.911087989	0.144194	-0.00460194	-1.5754	0.144194	0.0383495	-3.14313	-0.0122718	0.525274	0	0	0.620779	0	0	0	0	0	0	0	0	0	0	0.000000000	0.186708	0.0034	-1.5742	0.186708	0.0433	-3.14159	0	0.706225	0.1	0.1	0.706225	0.1	0.1	0.1	0	0	0	0	0	0	0	0.000000000
1504622268.931086063	0.144194	-0.00460194	-1.5754	0.144194	0.0383495	-3.14313	-0.0122718	0.525274	0	0	0.620779	0	0	0	0	0	0	0	0	0	0	0.000000000	0.209544	0.0034	-1.5742	0.209544	0.0433	-3.14159	0	0.753609	0.1	0.1	0.753609	0.1	0.1	0.1	0	0	0	0	0	0	0	0.000000000
1504622268.951126098	0.162602	-0.00460194	-1.57693	0.162602	0.0383495	-3.14313	-0.0122718	0.620779	0	0	0.620779	0	0	0	0	0	0	0	0	0	0	0.000000000	0.209544	0.0034	-1.5742	0.209544	0.0433	-3.14159	0	0.753609	0.1	0.1	0.753609	0.1	0.1	0.1	0	0	0	0	0	0	0	0.000000000
1504622268.971128940	0.18101	-0.00306796	-1.5754	0.179476	0.0383495	-3.14466	-0.0122718	0.668531	0	0	0.620779	0	0	0	0	0	0	0	0	0	0	0.000000000	0.233809	0.0034	-1.5742	0.233809	0.0433	-3.14159	0	0.800728	0.1	0.1	0.800728	0.1	0.1	0.1	0	0	0	0	0	0	0	0.000000000
1504622268.991805076	0.200951	-0.00460194	-1.5754	0.197884	0.0383495	-3.14313	-0.0122718	0.716283	0	0	0.668531	0	0	0	0	0	0	0	0	0	0	0.000000000	0.259488	0.0034	-1.5742	0.259488	0.0433	-3.14159	0	0.847417	0.1	0.1	0.847417	0.1	0.1	0.1	0	0	0	0	0	0	0	0.000000000
1504622269.011048078	0.219359	-0.00460194	-1.57693	0.216291	0.0383495	-3.14313	-0.0122718	0.764035	0	0	0.668531	0	0	0	0	0	0	0	0	0	0	0.000000000	0.259488	0.0034	-1.5742	0.259488	0.0433	-3.14159	0	0.847417	0.1	0.1	0.847417	0.1	0.1	0.1	0	0	0	0	0	0	0	0.000000000
1504622269.031133890	0.219359	-0.00460194	-1.57693	0.216291	0.0383495	-3.14313	-0.0122718	0.764035	0	0	0.668531	0	0	0	0	0	0	0	0	0	0	0.000000000	0.286564	0.0034	-1.5742	0.286564	0.0433	-3.14159	0	0.893522	0.1	0.1	0.893522	0.1	0.1	0.1	0	0	0	0	0	0	0	0.000000000
1504622269.051008939	0.239301	-0.00460194	-1.5754	0.236233	0.0383495	-3.14313	-0.0122718	0.716283	0	0	0.716283	0	0	0	0	0	0	0	0	0	0	0.000000000	0.315016	0.0034	-1.5742	0.315016	0.0433	-3.14159	0	0.938893	0.1	0.1	0.938893	0.1	0.1	0.1	0	0	0	0	0	0	0	0.000000000
1504622269.071103096	0.260777	-0.00306796	-1.57693	0.257709	0.0383495	-3.14313	-0.0122718	0.764035	0	0	0.764035	0	0	0	0	0	0	0	0	0	0	0.000000000	0.315016	0.0034	-1.5742	0.315016	0.0433	-3.14159	0	0.938893	0.1	0.1	0.938893	0.1	0.1	0.1	0	0	0	0	0	0	0	0.000000000
1504622269.091128110	0.283786	-0.00460194	-1.5754	0.280718	0.0383495	-3.14466	-0.0122718	0.811788	0	0	0.811788	0	0	0	0	0	0	0	0	0	0	0.000000000	0.344815	0.0034	-1.5742	0.344815	0.0433	-3.14159	0	0.983385	0.1	0.1	0.983385	0.1	0.1	0.1	0	0	0	0	0	0	0	0.000000000
1504622269.111191034	0.306796	-0.00460194	-1.57693	0.302194	0.0383495	-3.14313	-0.0122718	0.85954	0	0	0.764035	0	0	0	0	0	0	0	0	0	0	0.000000000	0.375932	0.0034	-1.5742	0.375932	0.0433	-3.14159	0	1.02686	0.1	0.1	1.02686	0.1	0.1	0.1	0	0	0	0	0	0	0	0.000000000
1504622269.131127119	0.306796	-0.00460194	-1.57693	0.302194	0.0383495	-3.14313	-0.0122718	0.85954	0	0	0.764035	0	0	0	0	0	0	0	0	0	0	0.000000000	0.375932	0.0034	-1.5742	0.375932	0.0433	-3.14159	0	1.02686	0.1	0.1	1.02686	0.1	0.1	0.1	0	0	0	0	0	0	0	0.000000000
1504622269.151148080	0.329806	-0.00460194	-1.57693	0.326738	0.0383495	-3.14313	-0.0122718	0.85954	0	0	0.85954	0	0	0	0	0	0	0	0	0	0	0.000000000	0.408332	0.0034	-1.5742	0.408332	0.0433	-3.14159	0	1.0692	0.1	0.1	1.0692	0.1	0.1	0.1	0	0	0	0	0	0	0	0.000000000
1504622269.171120882	0.358952	-0.00460194	-1.57693	0.352816	0.0383495	-3.14313	-0.0122718	1.0028	0	0	0.955044	0	0	0	0	0	0	0	0	0	0	0.000000000	0.441976	0.0034	-1.5742	0.441976	0.0433	-3.14159	0	1.11026	0.1	0.1	1.11026	0.1	0.1	0.1	0	0	0	0	0	0	0	0.000000000
1504622269.191374063	0.388097	-0.00460194	-1.57693	0.380427	0.0383495	-3.14313	-0.0122718	1.0028	0	0	0.955044	0	0	0	0	0	0	0	0	0	0	0.000000000	0.441976	0.0034	-1.5742	0.441976	0.0433	-3.14159	0	1.11026	0.1	0.1	1.11026	0.1	0.1	0.1	0	0	0	0	0	0	0	0.000000000
1504622269.211816072	0.414175	-0.00460194	-1.57693	0.406505	0.0383495	-3.14313	-0.0122718	1.0028	0	0	0.955044	0	0	0	0	0	0	0	0	0	0	0.000000000	0.476822	0.0034	-1.5742	0.476822	0.0433	-3.14159	0	1.14993	0.1	0.1	1.14993	0.1	0.1	0.1	0	0	0	0	0	0	0	0.000000000
1504622269.232235908	0.414175	-0.00460194	-1.57693	0.406505	0.0383495	-3.14313	-0.0122718	1.0028	0	0	0.955044	0	0	0	0	0	0	0	0	0	0	0.000000000	0.512825	0.0034	-1.5742	0.512825	0.0433	-3.14159	0	1.18809	0.1	0.1	1.18809	0.1	0.1	0.1	0	0	0	0	0	0	0	0.000000000
1504622269.252631902	0.45099	-0.00460194	-1.57693	0.434117	0.0383495	-3.14313	-0.0122718	0.907292	0	0	1.0028	0	0	0	0	0	0	0	0	0	0	0.000000000	0.512825	0.0034	-1.5742	0.512825	0.0433	-3.14159	0	1.18809	0.1	0.1	1.18809	0.1	0.1	0.1	0	0	0	0	0	0	0	0.000000000
1504622269.271866083	0.45099	-0.00460194	-1.57693	0.434117	0.0383495	-3.14313	-0.0122718	0.907292	0	0	1.0028	0	0	0	0	0	0	0	0	0	0	0.000000000	0.549936	0.0034	-1.5742	0.549936	0.0433	-3.14159	0	1.22465	0.1	0.1	1.22465	0.1	0.1	0.1	0	0	0	0	0	0	0	0.000000000
1504622269.291434049	0.475534	-0.00460194	-1.57847	0.470932	0.0383495	-3.14466	-0.0122718	0.85954	0	0	1.0028	0	0	0	0	0	0	0	0	0	0	0.000000000	0.588102	0.0034	-1.5742	0.588102	0.0433	-3.14159	0	1.2595	0.1	0.1	1.2595	0.1	0.1	0.1	0	0	0	0	0	0	0	0.000000000
1504622269.311300992	0.50468	-0.00460194	-1.57693	0.49701	0.0383495	-3.14313	-0.0122718	1.05055	0	0	0.907292	0	0	0	0	0	0	0	0	0	0	0.000000000	0.588102	0.0034	-1.5742	0.588102	0.0433	-3.14159	0	1.2595	0.1	0.1	1.2595	0.1	0.1	0.1	0	0	0	0	0	0	0	0.000000000
1504622269.331065893	0.532291	-0.00460194	-1.57693	0.526155	0.0383495	-3.14313	-0.0122718	1.14605	0	0	1.0983	0	0	0	0	0	0	0	0	0	0	0.000000000	0.62727	0.0034	-1.5742	0.62727	0.0433	-3.14159	0	1.29254	0.1	0.1	1.29254	0.1	0.1	0.1	0	0	0	0	0	0	0	0.000000000
1504622269.351118087	0.555301	-0.00460194	-1.57693	0.549165	0.0383495	-3.14466	-0.0122718	1.14605	0	0	1.14605	0	0	0	0	0	0	0	0	0	0	0.000000000	0.667381	0.0034	-1.5742	0.667381	0.0433	-3.14159	0	1.32368	0.1	0.1	1.32368	0.1	0.1	0.1	0	0	0	0	0	0	0	0.000000000
1504622269.371112108	0.587515	-0.00460194	-1.57847	0.581379	0.0383495	-3.14313	-0.0107379	1.24156	0	0	1.24156	0	0	0	0	0	0	0	0	0	0	0.000000000	0.667381	0.0034	-1.5742	0.667381	0.0433	-3.14159	0	1.32368	0.1	0.1	1.32368	0.1	0.1	0.1	0	0	0	0	0	0	0	0.000000000
1504622269.391084909	0.621262	-0.00460194	-1.57847	0.615126	0.0383495	-3.14313	-0.0122718	1.24156	0	0	1.24156	0	0	0	0	0	0	0	0	0	0	0.000000000	0.708377	0.0034	-1.5742	0.708377	0.0433	-3.14159	0	1.35285	0.1	0.1	1.35285	0.1	0.1	0.1	0	0	0	0	0	0	0	0.000000000
