DingWan/Reconbot3Ddemo/02_MATLAB_Code/sensors_data/IGM_3s70steps_0905_torque_data_joint_SmallCamera.txt
time_stamp	torque_joint_1	torque_joint_2	torque_joint_3	torque_joint_4	torque_joint_5	torque_joint_6	torque_joint_7	temperature_1	temperature_2	temperature_3	temperature_4	temperature_5	temperature_6	temperature_7
1.5046e+09	0.0546875	-0.210938	-0.101562	0.03125	-0.0625	-0.1875	-0.0625	38	60	44	36	40	54	39
1.5046e+09	0.0546875	-0.210938	-0.101562	0.03125	-0.0625	-0.1875	-0.0625	38	60	44	36	40	54	39
1.5046e+09	0.0546875	-0.210938	-0.101562	0.03125	-0.0625	-0.1875	-0.0625	38	60	44	36	40	54	39
1.5046e+09	0.046875	-0.210938	-0.101562	0.03125	-0.0625	-0.1875	-0.0625	38	60	44	36	40	54	39
1.5046e+09	0.046875	-0.210938	-0.101562	0.03125	-0.0625	-0.195312	-0.0625	38	60	44	36	40	54	39
1.5046e+09	0.0546875	-0.210938	-0.101562	0.03125	-0.0625	-0.1875	-0.0703125	38	60	44	36	40	54	39
1.5046e+09	0.0546875	-0.210938	-0.09375	0.03125	-0.0625	-0.1875	-0.0625	38	60	44	36	40	54	39
1.5046e+09	0.046875	-0.210938	-0.101562	0.0234375	-0.0625	-0.1875	-0.0625	38	60	44	36	40	54	39
1.5046e+09	0.0546875	-0.210938	-0.101562	0.03125	-0.0625	-0.1875	-0.0625	38	60	44	36	40	54	39
1.5046e+09	0.046875	-0.210938	-0.101562	0.03125	-0.0625	-0.195312	-0.0625	38	60	44	36	40	54	39
1.5046e+09	0.046875	-0.210938	-0.09375	0.03125	-0.0625	-0.195312	-0.0625	38	60	44	36	40	54	39
1.5046e+09	0.046875	-0.210938	-0.09375	0.03125	-0.0625	-0.1875	-0.0625	38	60	44	36	40	54	39
1.5046e+09	0.0546875	-0.210938	-0.101562	0.03125	-0.0625	-0.1875	-0.0625	38	60	44	36	40	54	39
1.5046e+09	0.046875	-0.210938	-0.09375	0.03125	-0.0625	-0.1875	-0.0703125	38	60	44	36	40	54	39
1.5046e+09	0.0546875	-0.210938	-0.101562	0.03125	-0.0625	-0.1875	-0.0625	38	60	44	36	40	54	39
1.5046e+09	0.0546875	-0.210938	-0.09375	0.03125	-0.0625	-0.195312	-0.0625	38	60	44	36	40	54	39
1.5046e+09	0.0546875	-0.210938	-0.101562	0.03125	-0.0625	-0.1875	-0.0703125	38	60	44	36	40	54	39
1.5046e+09	0.0546875	-0.210938	-0.101562	0.03125	-0.0625	-0.1875	-0.0625	38	60	44	36	40	54	39
1.5046e+09	0.0546875	-0.210938	-0.101562	0.03125	-0.0625	-0.1875	-0.0625	38	60	44	36	40	54	39
1.5046e+09	0.0546875	-0.210938	-0.09375	0.03125	-0.0625	-0.1875	-0.0625	38	60	44	36	40	54	39
1.5046e+09	0.0546875	-0.210938	-0.101562	0.03125	-0.0625	-0.1875	-0.0625	38	60	44	36	40	54	39
1.5046e+09	0.0546875	-0.210938	-0.101562	0.03125	-0.0625	-0.1875	-0.0625	38	60	44	36	40	54	39
1.5046e+09	0.046875	-0.210938	-0.101562	0.03125	-0.0625	-0.195312	-0.0625	38	60	44	36	40	54	39
1.5046e+09	0.0546875	-0.210938	-0.101562	0.03125	-0.0625	-0.1875	-0.0625	38	60	44	36	40	54	39
1.5046e+09	0.0546875	-0.210938	-0.101562	0.03125	-0.0625	-0.1875	-0.0625	38	60	44	36	40	54	39
1.5046e+09	0.0546875	-0.210938	-0.101562	0.03125	-0.0625	-0.1875	-0.0625	38	60	44	36	40	54	39
1.5046e+09	0.046875	-0.210938	-0.101562	0.03125	-0.0625	-0.1875	-0.0625	38	60	44	36	40	54	39
1.5046e+09	0.0546875	-0.210938	-0.101562	0.03125	-0.0625	-0.1875	-0.0625	38	60	44	36	40	54	39
1.5046e+09	0.0546875	-0.210938	-0.101562	0.03125	-0.0625	-0.1875	-0.0625	38	60	44	36	40	54	39
1.5046e+09	0.046875	-0.210938	-0.101562	0.03125	-0.0625	-0.1875	-0.0625	38	60	44	36	40	54	39
1.5046e+09	0.0546875	-0.210938	-0.09375	0.03125	-0.0625	-0.1875	-0.0625	38	60	44	36	40	54	39
1.5046e+09	0.046875	-0.210938	-0.09375	0.03125	-0.0625	-0.1875	-0.0703125	38	60	44	36	40	54	39
1.5046e+09	0.0546875	-0.210938	-0.101562	0.03125	-0.0625	-0.1875	-0.0625	38	60	44	36	40	54	39
1.5046e+09	0.046875	-0.210938	-0.09375	0.03125	-0.0625	-0.1875	-0.0625	38	60	44	36	40	54	39
1.5046e+09	0.0546875	-0.210938	-0.09375	0.03125	-0.0625	-0.1875	-0.0625	38	60	44	36	40	54	39
1.5046e+09	0.0546875	-0.210938	-0.101562	0.03125	-0.0625	-0.1875	-0.0625	38	60	44	36	40	54	39
1.5046e+09	0.0546875	-0.210938	-0.09375	0.03125	-0.0625	-0.1875	-0.0625	38	60	44	36	40	54	39
1.5046e+09	0.0546875	-0.210938	-0.101562	0.03125	-0.0625	-0.1875	-0.0625	38	60	44	36	40	54	39
1.5046e+09	0.046875	-0.210938	-0.101562	0.03125	-0.0625	-0.1875	-0.0625	38	60	44	36	40	54	39
1.5046e+09	0.0546875	-0.210938	-0.101562	0.03125	-0.0625	-0.1875	-0.0625	38	60	44	36	40	54	39
1.5046e+09	0.0546875	-0.210938	-0.101562	0.03125	-0.0625	-0.1875	-0.0625	38	60	44	36	40	54	39
1.5046e+09	0.0546875	-0.210938	-0.101562	0.03125	-0.0625	-0.1875	-0.0625	38	60	44	36	40	54	39
1.5046e+09	0.0546875	-0.210938	-0.101562	0.03125	-0.0625	-0.1875	-0.0625	38	60	44	36	40	54	39
1.5046e+09	0.046875	-0.210938	-0.09375	0.03125	-0.0625	-0.1875	-0.0625	38	60	44	36	40	54	39
1.5046e+09	0.046875	-0.210938	-0.09375	0.03125	-0.0625	-0.1875	-0.0625	38	60	44	36	40	54	39
1.5046e+09	0.046875	-0.210938	-0.101562	0.03125	-0.0625	-0.195312	-0.0625	38	60	44	36	40	54	39
1.5046e+09	0.0546875	-0.210938	-0.09375	0.03125	-0.0625	-0.1875	-0.0625	38	60	44	36	40	54	39
1.5046e+09	0.0546875	-0.210938	-0.09375	0.03125	-0.0625	-0.1875	-0.0625	38	60	44	36	40	54	39
1.5046e+09	0.0546875	-0.210938	-0.101562	0.03125	-0.0625	-0.1875	-0.0625	38	60	44	36	40	54	39
1.5046e+09	0.0546875	-0.210938	-0.09375	0.03125	-0.0625	-0.195312	-0.0625	38	60	44	36	40	54	39
1.5046e+09	0.046875	-0.210938	-0.101562	0.03125	-0.0625	-0.1875	-0.0625	38	60	44	36	40	54	39
1.5046e+09	0.0546875	-0.210938	-0.101562	0.03125	-0.0625	-0.1875	-0.0625	38	60	44	36	40	54	39
1.5046e+09	0.0546875	-0.210938	-0.101562	0.03125	-0.0625	-0.1875	-0.0703125	38	60	44	36	40	54	39
1.5046e+09	0.0546875	-0.210938	-0.101562	0.03125	-0.0625	-0.1875	-0.0625	38	60	44	36	40	54	39
1.5046e+09	0.046875	-0.210938	-0.101562	0.03125	-0.0625	-0.1875	-0.0625	38	60	44	36	40	54	39
1.5046e+09	0.046875	-0.210938	-0.101562	0.03125	-0.0625	-0.1875	-0.0625	38	60	44	36	40	54	39
1.5046e+09	0.0546875	-0.210938	-0.101562	0.03125	-0.0625	-0.1875	-0.0625	39	60	44	36	40	54	39
1.5046e+09	0.046875	-0.210938	-0.101562	0.03125	-0.0625	-0.195312	-0.0625	39	60	44	36	40	54	39
1.5046e+09	0.0546875	-0.210938	-0.101562	0.03125	-0.0625	-0.1875	-0.0625	39	60	44	36	40	54	39
1.5046e+09	0.0546875	-0.210938	-0.101562	0.03125	-0.0625	-0.1875	-0.0625	39	60	44	36	40	54	39
1.5046e+09	0.0546875	-0.210938	-0.101562	0.03125	-0.0625	-0.1875	-0.0625	38	60	44	36	40	54	39
1.5046e+09	0.0546875	-0.210938	-0.101562	0.03125	-0.0625	-0.1875	-0.0625	38	60	44	36	40	54	39
1.5046e+09	0.046875	-0.210938	-0.101562	0.03125	-0.0625	-0.1875	-0.0625	38	60	44	36	40	54	39
1.5046e+09	0.0546875	-0.210938	-0.101562	0.03125	-0.0625	-0.1875	-0.0625	38	60	44	36	40	54	39
1.5046e+09	0.046875	-0.210938	-0.101562	0.03125	-0.0625	-0.195312	-0.0625	38	60	44	36	40	54	39
1.5046e+09	0.046875	-0.210938	-0.101562	0.03125	-0.0625	-0.195312	-0.0625	38	60	44	36	40	54	39
1.5046e+09	0.0546875	-0.210938	-0.101562	0.03125	-0.0625	-0.1875	-0.0625	38	60	44	36	40	54	39
1.5046e+09	0.0546875	-0.210938	-0.101562	0.03125	-0.0625	-0.1875	-0.0625	38	60	44	36	40	54	39
1.5046e+09	0.0546875	-0.210938	-0.101562	0.03125	-0.0625	-0.1875	-0.0625	38	60	44	36	40	54	39
1.5046e+09	0.046875	-0.210938	-0.101562	0.03125	-0.0625	-0.1875	-0.0625	38	60	44	36	40	54	39
1.5046e+09	0.0546875	-0.210938	-0.101562	0.03125	-0.0625	-0.1875	-0.0625	38	60	44	36	40	54	39
1.5046e+09	0.0546875	-0.210938	-0.101562	0.03125	-0.0625	-0.1875	-0.0625	38	60	44	36	40	54	39
1.5046e+09	0.0546875	-0.210938	-0.101562	0.03125	-0.0625	-0.1875	-0.0625	38	60	44	36	40	54	39
1.5046e+09	0.0546875	-0.210938	-0.101562	0.03125	-0.0625	-0.1875	-0.0625	38	60	44	36	40	54	39
1.5046e+09	0.0546875	-0.210938	-0.09375	0.03125	-0.0625	-0.1875	-0.0625	38	60	44	36	40	54	39
1.5046e+09	0.046875	-0.210938	-0.101562	0.03125	-0.0625	-0.1875	-0.0625	38	60	44	36	40	54	39
1.5046e+09	0.046875	-0.210938	-0.09375	0.03125	-0.0625	-0.195312	-0.0625	38	60	44	36	40	54	39
1.5046e+09	0.046875	-0.210938	-0.09375	0.03125	-0.0625	-0.1875	-0.0625	38	60	44	36	40	54	39
1.5046e+09	0.046875	-0.210938	-0.101562	0.03125	-0.0625	-0.1875	-0.0625	38	60	44	36	40	54	39
1.5046e+09	0.046875	-0.210938	-0.101562	0.03125	-0.0625	-0.195312	-0.0703125	38	60	44	36	40	54	39
1.5046e+09	0.0546875	-0.210938	-0.101562	0.03125	-0.0625	-0.1875	-0.0625	38	60	44	36	40	54	39
1.5046e+09	0.0546875	-0.210938	-0.09375	0.03125	-0.0625	-0.1875	-0.0625	38	60	44	36	40	54	39
1.5046e+09	0.046875	-0.210938	-0.101562	0.0234375	-0.0625	-0.1875	-0.0625	38	60	44	36	40	54	39
1.5046e+09	0.0546875	-0.210938	-0.101562	0.03125	-0.0625	-0.1875	-0.0625	38	60	44	36	40	54	39
1.5046e+09	0.046875	-0.210938	-0.101562	0.03125	-0.0625	-0.1875	-0.0625	38	60	44	36	40	54	39
1.5046e+09	0.046875	-0.210938	-0.101562	0.03125	-0.0625	-0.1875	-0.0625	38	60	44	36	40	54	39
1.5046e+09	0.046875	-0.210938	-0.101562	0.03125	-0.0625	-0.1875	-0.0625	38	60	44	36	40	54	39
1.5046e+09	0.0546875	-0.210938	-0.101562	0.03125	-0.0625	-0.1875	-0.0625	38	60	44	36	40	54	39
1.5046e+09	0.0546875	-0.210938	-0.09375	0.03125	-0.0625	-0.1875	-0.0703125	38	60	44	36	40	54	39
1.5046e+09	0.046875	-0.210938	-0.09375	0.03125	-0.0625	-0.1875	-0.0625	38	60	44	36	40	54	39
1.5046e+09	0.0546875	-0.210938	-0.09375	0.03125	-0.0625	-0.1875	-0.0625	38	60	44	36	40	54	39
1.5046e+09	0.0546875	-0.210938	-0.101562	0.03125	-0.0625	-0.1875	-0.0625	38	60	44	36	40	54	39
1.5046e+09	0.0546875	-0.210938	-0.101562	0.0234375	-0.0625	-0.1875	-0.0625	38	60	44	36	40	54	39
1.5046e+09	0.0546875	-0.210938	-0.101562	0.03125	-0.0625	-0.1875	-0.0625	38	60	44	36	40	54	39
1.5046e+09	0.0546875	-0.210938	-0.09375	0.03125	-0.0625	-0.1875	-0.0625	38	60	44	36	40	54	39
1.5046e+09	0.046875	-0.210938	-0.101562	0.03125	-0.0625	-0.1875	-0.0625	38	60	44	36	40	54	39
1.5046e+09	0.046875	-0.210938	-0.101562	0.03125	-0.0625	-0.1875	-0.0625	38	60	44	36	40	54	39
1.5046e+09	0.046875	-0.210938	-0.101562	0.03125	-0.0625	-0.1875	-0.0625	38	60	44	36	40	54	39
1.5046e+09	0.0546875	-0.210938	-0.101562	0.03125	-0.0703125	-0.1875	-0.0625	38	60	44	36	40	54	39
1.5046e+09	0.0546875	-0.210938	-0.09375	0.03125	-0.0625	-0.1875	-0.0625	38	60	44	36	40	54	39
1.5046e+09	0.0546875	-0.210938	-0.101562	0.03125	-0.0625	-0.1875	-0.0625	38	60	44	36	40	54	39
1.5046e+09	0.0546875	-0.210938	-0.101562	0.03125	-0.0625	-0.1875	-0.0625	38	60	44	36	40	54	39
1.5046e+09	0.0546875	-0.210938	-0.09375	0.03125	-0.0625	-0.1875	-0.0625	38	60	44	36	40	54	39
1.5046e+09	0.0546875	-0.210938	-0.101562	0.03125	-0.0625	-0.1875	-0.0625	38	60	44	36	40	54	39
1.5046e+09	0.0546875	-0.210938	-0.101562	0.03125	-0.0625	-0.1875	-0.0703125	38	60	44	36	40	54	39
1.5046e+09	0.0546875	-0.210938	-0.101562	0.03125	-0.0625	-0.1875	-0.0625	38	60	44	36	40	54	39
1.5046e+09	0.0546875	-0.210938	-0.09375	0.03125	-0.0625	-0.1875	-0.0625	38	60	44	36	40	54	39
1.5046e+09	0.0546875	-0.210938	-0.101562	0.03125	-0.0625	-0.1875	-0.0625	38	60	44	36	40	54	39
1.5046e+09	0.0546875	-0.210938	-0.09375	0.03125	-0.0625	-0.1875	-0.0625	38	60	44	36	40	54	39
1.5046e+09	0.0546875	-0.210938	-0.101562	0.03125	-0.0625	-0.1875	-0.0625	38	60	44	36	40	54	39
1.5046e+09	0.046875	-0.210938	-0.101562	0.03125	-0.0625	-0.1875	-0.0625	38	60	44	36	40	54	39
1.5046e+09	0.046875	-0.210938	-0.101562	0.0234375	-0.0625	-0.1875	-0.0625	38	60	44	36	40	54	39
1.5046e+09	0.046875	-0.210938	-0.101562	0.03125	-0.0625	-0.195312	-0.0625	38	60	44	36	40	54	39
1.5046e+09	0.046875	-0.210938	-0.101562	0.03125	-0.0625	-0.1875	-0.0625	38	60	44	36	40	54	39
1.5046e+09	0.046875	-0.210938	-0.101562	0.03125	-0.0625	-0.195312	-0.0625	38	60	44	36	40	54	39
1.5046e+09	0.0546875	-0.210938	-0.101562	0.03125	-0.0703125	-0.1875	-0.0625	38	60	44	36	40	54	39
1.5046e+09	0.0546875	-0.210938	-0.101562	0.03125	-0.0625	-0.195312	-0.0625	38	60	44	36	40	54	39
1.5046e+09	0.046875	-0.210938	-0.101562	0.0234375	-0.0625	-0.1875	-0.0625	38	60	44	36	40	54	39
1.5046e+09	0.046875	-0.210938	-0.101562	0.03125	-0.0625	-0.1875	-0.0625	38	60	44	36	40	54	39
1.5046e+09	0.0546875	-0.210938	-0.101562	0.03125	-0.0625	-0.1875	-0.0625	38	60	44	36	40	54	39
1.5046e+09	0.0546875	-0.210938	-0.101562	0.03125	-0.0625	-0.1875	-0.0625	38	60	44	36	40	54	39
1.5046e+09	0.0546875	-0.210938	-0.101562	0.03125	-0.0625	-0.1875	-0.0625	38	60	44	36	40	54	39
1.5046e+09	0.046875	-0.210938	-0.101562	0.03125	-0.0625	-0.1875	-0.0625	38	60	44	36	40	54	39
1.5046e+09	0.046875	-0.210938	-0.101562	0.03125	-0.0625	-0.195312	-0.0625	38	60	44	36	40	54	39
1.5046e+09	0.0546875	-0.210938	-0.09375	0.03125	-0.0625	-0.1875	-0.0703125	38	60	44	36	40	54	39
1.5046e+09	0.046875	-0.210938	-0.09375	0.03125	-0.0625	-0.1875	-0.0625	38	60	44	36	40	54	39
1.5046e+09	0.0546875	-0.210938	-0.101562	0.03125	-0.0625	-0.1875	-0.0625	38	60	44	36	40	54	39
1.5046e+09	0.0546875	-0.210938	-0.101562	0.03125	-0.0625	-0.1875	-0.0625	38	60	44	36	40	54	39
1.5046e+09	0.046875	-0.210938	-0.101562	0.03125	-0.0625	-0.1875	-0.0625	38	60	44	36	40	54	39
1.5046e+09	0.0546875	-0.210938	-0.101562	0.03125	-0.0625	-0.1875	-0.0625	38	60	44	36	40	54	39
1.5046e+09	0.046875	-0.210938	-0.09375	0.03125	-0.0625	-0.1875	-0.0625	38	60	44	36	40	54	39
1.5046e+09	0.046875	-0.210938	-0.09375	0.03125	-0.0625	-0.1875	-0.0625	38	60	44	36	40	54	39
1.5046e+09	0.0546875	-0.210938	-0.101562	0.03125	-0.0625	-0.1875	-0.0625	38	60	44	36	40	54	39
1.5046e+09	0.046875	-0.210938	-0.101562	0.03125	-0.0625	-0.1875	-0.0703125	38	60	44	36	40	54	39
1.5046e+09	0.046875	-0.210938	-0.09375	0.03125	-0.0625	-0.1875	-0.0625	38	60	44	36	40	54	39
1.5046e+09	0.0546875	-0.203125	-0.101562	0.03125	-0.0625	-0.195312	-0.0625	38	60	44	36	40	54	39
1.5046e+09	0.0546875	-0.210938	-0.101562	0.03125	-0.0625	-0.1875	-0.0625	38	60	44	36	40	54	39
1.5046e+09	0.0546875	-0.210938	-0.101562	0.03125	-0.0625	-0.1875	-0.0625	38	60	44	36	40	54	39
1.5046e+09	0.046875	-0.210938	-0.101562	0.03125	-0.0625	-0.195312	-0.0625	38	60	44	36	40	54	39
1.5046e+09	0.0546875	-0.210938	-0.101562	0.03125	-0.0625	-0.1875	-0.0625	38	60	44	36	40	54	39
1.5046e+09	0.0546875	-0.210938	-0.101562	0.03125	-0.0625	-0.195312	-0.0625	38	60	44	36	40	54	39
1.5046e+09	0.046875	-0.210938	-0.101562	0.03125	-0.0625	-0.1875	-0.0625	38	60	44	36	40	54	39
1.5046e+09	0.0546875	-0.210938	-0.101562	0.03125	-0.0625	-0.195312	-0.0625	38	60	44	36	40	54	39
1.5046e+09	0.046875	-0.210938	-0.101562	0.03125	-0.0625	-0.1875	-0.0625	38	60	44	36	40	54	39
1.5046e+09	0.0546875	-0.210938	-0.101562	0.03125	-0.0625	-0.1875	-0.0625	38	60	44	36	40	54	39
1.5046e+09	0.0546875	-0.210938	-0.101562	0.03125	-0.0625	-0.1875	-0.0625	38	60	44	36	40	54	39
1.5046e+09	0.0546875	-0.210938	-0.101562	0.03125	-0.0625	-0.195312	-0.0625	38	60	44	36	40	54	39
1.5046e+09	0.0546875	-0.210938	-0.101562	0.03125	-0.0625	-0.1875	-0.0625	38	60	44	36	40	54	39
1.5046e+09	0.046875	-0.210938	-0.101562	0.03125	-0.0625	-0.195312	-0.0625	38	60	44	36	40	54	39
1.5046e+09	0.046875	-0.210938	-0.101562	0.03125	-0.0625	-0.1875	-0.0625	38	60	44	36	40	54	39
1.5046e+09	0.0546875	-0.210938	-0.09375	0.03125	-0.0625	-0.1875	-0.0625	38	60	44	36	40	54	39
1.5046e+09	0.0546875	-0.210938	-0.101562	0.03125	-0.0625	-0.1875	-0.0625	38	60	44	36	40	54	39
1.5046e+09	0.0546875	-0.210938	-0.101562	0.03125	-0.0625	-0.1875	-0.0625	38	60	44	36	40	54	39
1.5046e+09	0.046875	-0.210938	-0.101562	0.03125	-0.0625	-0.1875	-0.0703125	38	60	44	36	40	54	39
1.5046e+09	0.0546875	-0.210938	-0.101562	0.03125	-0.0625	-0.1875	-0.0625	38	60	44	36	40	54	39
1.5046e+09	0.0546875	-0.210938	-0.101562	0.03125	-0.0625	-0.1875	-0.0625	38	60	44	36	40	54	39
1.5046e+09	0.0546875	-0.210938	-0.101562	0.03125	-0.0625	-0.1875	-0.0625	38	60	44	36	40	54	39
1.5046e+09	0.0546875	-0.210938	-0.101562	0.03125	-0.0625	-0.1875	-0.0625	38	60	44	36	40	54	39
1.5046e+09	0.0546875	-0.210938	-0.101562	0.03125	-0.0625	-0.195312	-0.0625	38	60	44	36	40	54	39
1.5046e+09	0.0546875	-0.210938	-0.101562	0.03125	-0.0625	-0.195312	-0.0625	38	60	44	36	40	54	39
1.5046e+09	0.0546875	-0.210938	-0.101562	0.03125	-0.0625	-0.1875	-0.0625	38	60	44	36	40	54	39
1.5046e+09	0.0546875	-0.210938	-0.101562	0.03125	-0.0625	-0.1875	-0.0625	38	60	44	36	40	54	39
1.5046e+09	0.046875	-0.210938	-0.101562	0.03125	-0.0625	-0.1875	-0.0625	38	60	44	36	40	54	39
1.5046e+09	0.046875	-0.210938	-0.09375	0.03125	-0.0625	-0.1875	-0.0625	38	60	44	36	40	54	39
1.5046e+09	0.046875	-0.210938	-0.101562	0.03125	-0.0625	-0.1875	-0.0625	38	60	44	36	40	54	39
1.5046e+09	0.0546875	-0.210938	-0.101562	0.03125	-0.0625	-0.1875	-0.0625	38	60	44	36	40	54	39
1.5046e+09	0.0546875	-0.210938	-0.101562	0.03125	-0.0625	-0.195312	-0.0625	38	60	44	36	40	54	39
1.5046e+09	0.046875	-0.210938	-0.101562	0.03125	-0.0625	-0.1875	-0.0625	38	60	44	36	40	54	39
1.5046e+09	0.046875	-0.210938	-0.101562	0.03125	-0.0625	-0.1875	-0.0625	38	60	44	36	40	54	39
1.5046e+09	0.046875	-0.210938	-0.09375	0.03125	-0.0625	-0.1875	-0.0625	38	60	44	36	40	54	39
1.5046e+09	0.046875	-0.210938	-0.101562	0.03125	-0.0625	-0.1875	-0.0625	38	60	44	36	40	54	39
1.5046e+09	0.0546875	-0.210938	-0.101562	0.03125	-0.0625	-0.1875	-0.0625	38	60	44	36	40	54	39
1.5046e+09	0.046875	-0.210938	-0.101562	0.03125	-0.0625	-0.1875	-0.0625	38	60	44	36	40	54	39
1.5046e+09	0.046875	-0.210938	-0.101562	0.03125	-0.0625	-0.1875	-0.0625	38	60	44	36	40	54	39
1.5046e+09	0.0546875	-0.210938	-0.09375	0.03125	-0.0625	-0.1875	-0.0625	38	60	44	36	40	54	39
1.5046e+09	0.0546875	-0.210938	-0.09375	0.0234375	-0.0625	-0.1875	-0.0625	38	60	44	36	40	54	39
1.5046e+09	0.046875	-0.210938	-0.09375	0.03125	-0.0625	-0.1875	-0.0625	38	60	44	36	40	54	39
1.5046e+09	0.046875	-0.210938	-0.101562	0.03125	-0.0625	-0.1875	-0.0625	38	60	44	36	40	54	39
1.5046e+09	0.046875	-0.210938	-0.101562	0.03125	-0.0625	-0.195312	-0.0625	38	60	44	36	40	54	39
1.5046e+09	0.0546875	-0.210938	-0.101562	0.03125	-0.0625	-0.1875	-0.0625	38	60	44	36	40	54	39
1.5046e+09	0.0546875	-0.210938	-0.09375	0.03125	-0.0625	-0.1875	-0.0625	38	60	44	36	40	54	39
1.5046e+09	0.0546875	-0.210938	-0.101562	0.03125	-0.0625	-0.1875	-0.0625	38	60	44	36	40	54	39
1.5046e+09	0.0546875	-0.210938	-0.101562	0.03125	-0.0625	-0.1875	-0.0625	38	60	44	36	40	54	39
1.5046e+09	0.046875	-0.210938	-0.101562	0.03125	-0.0625	-0.195312	-0.0625	38	60	44	36	40	54	39
1.5046e+09	0.046875	-0.210938	-0.09375	0.03125	-0.0625	-0.1875	-0.0703125	38	60	44	36	40	54	39
1.5046e+09	0.0546875	-0.210938	-0.09375	0.03125	-0.0625	-0.1875	-0.0625	38	60	44	36	40	54	39
1.5046e+09	0.0546875	-0.210938	-0.101562	0.03125	-0.0625	-0.1875	-0.0625	38	60	44	36	40	54	39
1.5046e+09	0.046875	-0.210938	-0.101562	0.03125	-0.0625	-0.1875	-0.0625	38	60	44	36	40	54	39
1.5046e+09	0.0546875	-0.210938	-0.101562	0.03125	-0.0625	-0.195312	-0.0625	38	60	44	36	40	54	39
1.5046e+09	0.046875	-0.210938	-0.09375	0.03125	-0.0625	-0.195312	-0.0625	38	60	44	36	40	54	39
1.5046e+09	0.046875	-0.210938	-0.101562	0.03125	-0.0625	-0.195312	-0.0625	38	60	44	36	40	54	39
1.5046e+09	0.046875	-0.210938	-0.101562	0.03125	-0.0625	-0.1875	-0.0625	38	60	44	36	40	54	39
1.5046e+09	0.0546875	-0.210938	-0.101562	0.03125	-0.0625	-0.1875	-0.0625	38	60	44	36	40	54	39
1.5046e+09	0.0546875	-0.210938	-0.101562	0.03125	-0.0625	-0.1875	-0.0625	38	60	44	36	40	54	39
1.5046e+09	0.046875	-0.210938	-0.09375	0.03125	-0.0625	-0.1875	-0.0625	38	60	44	36	40	54	39
1.5046e+09	0.046875	-0.210938	-0.101562	0.03125	-0.0625	-0.1875	-0.0625	38	60	44	36	40	54	39
1.5046e+09	0.0546875	-0.210938	-0.101562	0.03125	-0.0625	-0.1875	-0.0625	38	60	44	36	40	54	39
1.5046e+09	0.0546875	-0.210938	-0.101562	0.03125	-0.0625	-0.195312	-0.0625	38	60	44	36	40	54	39
1.5046e+09	0.046875	-0.210938	-0.101562	0.03125	-0.0625	-0.1875	-0.0625	38	60	44	36	40	54	39
1.5046e+09	0.046875	-0.210938	-0.101562	0.03125	-0.0625	-0.1875	-0.0625	38	60	44	36	40	54	39
1.5046e+09	0.0546875	-0.210938	-0.101562	0.03125	-0.0625	-0.1875	-0.0625	38	60	44	36	40	54	39
1.5046e+09	0.046875	-0.210938	-0.101562	0.03125	-0.0625	-0.1875	-0.0625	38	60	44	36	40	54	39
1.5046e+09	0.046875	-0.210938	-0.09375	0.03125	-0.0625	-0.1875	-0.0703125	38	60	44	36	40	54	39
1.5046e+09	0.046875	-0.210938	-0.101562	0.03125	-0.0625	-0.1875	-0.0625	38	60	44	36	40	54	39
1.5046e+09	0.0546875	-0.210938	-0.101562	0.03125	-0.0625	-0.1875	-0.0625	38	60	44	36	40	54	39
1.5046e+09	0.0546875	-0.210938	-0.09375	0.03125	-0.0625	-0.1875	-0.0625	38	60	44	36	40	54	39
1.5046e+09	0.0546875	-0.210938	-0.09375	0.03125	-0.0625	-0.1875	-0.0625	38	60	44	36	40	54	39
1.5046e+09	0.046875	-0.210938	-0.09375	0.03125	-0.0625	-0.1875	-0.0625	38	60	44	36	40	54	39
1.5046e+09	0.0546875	-0.210938	-0.101562	0.03125	-0.0625	-0.1875	-0.0625	38	60	44	36	40	54	39
1.5046e+09	0.0546875	-0.210938	-0.101562	0.03125	-0.0625	-0.1875	-0.0625	38	60	44	36	40	54	39
1.5046e+09	0.046875	-0.210938	-0.101562	0.03125	-0.0625	-0.1875	-0.0625	38	60	44	36	40	54	39
1.5046e+09	0.0546875	-0.210938	-0.09375	0.03125	-0.0625	-0.1875	-0.0625	38	60	44	36	40	54	39
1.5046e+09	0.0546875	-0.210938	-0.101562	0.03125	-0.0625	-0.1875	-0.0625	38	60	44	36	40	54	39
1.5046e+09	0.046875	-0.210938	-0.101562	0.03125	-0.0625	-0.1875	-0.0625	38	60	44	36	40	54	39
1.5046e+09	0.046875	-0.210938	-0.101562	0.0234375	-0.0625	-0.1875	-0.0625	38	60	44	36	40	54	39
1.5046e+09	0.0546875	-0.210938	-0.101562	0.03125	-0.0625	-0.1875	-0.0703125	38	60	44	36	40	54	39
1.5046e+09	0.0546875	-0.210938	-0.101562	0.03125	-0.0625	-0.1875	-0.0625	38	60	44	36	40	54	39
1.5046e+09	0.0546875	-0.210938	-0.101562	0.03125	-0.0625	-0.1875	-0.0625	38	60	44	36	40	54	39
1.5046e+09	0.046875	-0.210938	-0.101562	0.03125	-0.0625	-0.1875	-0.0625	38	60	44	36	40	54	39
1.5046e+09	0.046875	-0.210938	-0.101562	0.03125	-0.0625	-0.1875	-0.0625	38	60	44	36	40	54	39
1.5046e+09	0.046875	-0.210938	-0.101562	0.03125	-0.0625	-0.1875	-0.0625	38	60	44	36	40	54	39
1.5046e+09	0.0546875	-0.210938	-0.101562	0.03125	-0.0625	-0.1875	-0.0625	38	60	44	36	40	54	39
1.5046e+09	0.0546875	-0.210938	-0.09375	0.03125	-0.0625	-0.1875	-0.0625	38	60	44	36	40	54	39
1.5046e+09	0.046875	-0.210938	-0.101562	0.03125	-0.0625	-0.1875	-0.0625	38	60	44	36	40	54	39
1.5046e+09	0.0546875	-0.210938	-0.101562	0.03125	-0.0625	-0.1875	-0.0625	38	60	44	36	40	54	39
1.5046e+09	0.0546875	-0.210938	-0.09375	0.03125	-0.0625	-0.1875	-0.0625	38	60	44	36	40	54	39
1.5046e+09	0.046875	-0.210938	-0.101562	0.03125	-0.0625	-0.1875	-0.0625	38	60	44	36	40	54	39
1.5046e+09	0.0546875	-0.210938	-0.101562	0.03125	-0.0625	-0.1875	-0.0625	38	60	44	36	40	54	39
1.5046e+09	0.046875	-0.210938	-0.101562	0.03125	-0.0625	-0.1875	-0.0625	38	60	44	36	40	54	39
1.5046e+09	0.0546875	-0.210938	-0.101562	0.03125	-0.0625	-0.1875	-0.0625	38	60	44	36	40	54	39
1.5046e+09	0.046875	-0.210938	-0.101562	0.03125	-0.0625	-0.1875	-0.0625	38	60	44	36	40	54	39
1.5046e+09	0.0546875	-0.210938	-0.101562	0.03125	-0.0625	-0.1875	-0.0625	38	60	44	36	40	54	39
1.5046e+09	0.0546875	-0.210938	-0.101562	0.03125	-0.0625	-0.1875	-0.0625	38	60	44	36	40	54	39
1.5046e+09	0.0546875	-0.210938	-0.09375	0.03125	-0.0625	-0.1875	-0.0625	38	60	44	36	40	54	39
1.5046e+09	0.0546875	-0.210938	-0.09375	0.03125	-0.0625	-0.1875	-0.0625	38	60	44	36	40	54	39
1.5046e+09	0.046875	-0.210938	-0.101562	0.03125	-0.0625	-0.195312	-0.0625	38	60	44	36	40	54	39
1.5046e+09	0.0546875	-0.210938	-0.09375	0.03125	-0.0625	-0.1875	-0.0625	38	60	44	36	40	54	39
1.5046e+09	0.046875	-0.210938	-0.101562	0.03125	-0.0625	-0.1875	-0.0625	38	60	44	36	40	54	39
1.5046e+09	0.046875	-0.210938	-0.101562	0.03125	-0.0625	-0.1875	-0.0625	38	60	44	36	40	54	39
1.5046e+09	0.046875	-0.210938	-0.09375	0.03125	-0.0625	-0.195312	-0.0625	38	60	44	36	40	54	39
1.5046e+09	0.046875	-0.210938	-0.101562	0.03125	-0.0625	-0.1875	-0.0625	38	60	44	36	40	54	39
1.5046e+09	0.0546875	-0.210938	-0.101562	0.03125	-0.0625	-0.195312	-0.0625	38	60	44	36	40	54	39
1.5046e+09	0.046875	-0.210938	-0.101562	0.03125	-0.0625	-0.1875	-0.0625	38	60	44	36	40	54	39
1.5046e+09	0.0546875	-0.210938	-0.101562	0.03125	-0.0703125	-0.1875	-0.0625	38	60	44	36	40	54	39
1.5046e+09	0.0546875	-0.210938	-0.101562	0.03125	-0.0625	-0.1875	-0.0703125	38	60	44	36	40	54	39
1.5046e+09	0.0546875	-0.210938	-0.101562	0.03125	-0.0625	-0.1875	-0.0625	38	60	44	36	40	54	39
1.5046e+09	0.0546875	-0.210938	-0.101562	0.03125	-0.0625	-0.1875	-0.0625	38	60	44	36	40	54	39
1.5046e+09	0.046875	-0.210938	-0.101562	0.03125	-0.0625	-0.1875	-0.0703125	38	60	44	36	40	54	39
1.5046e+09	0.046875	-0.210938	-0.09375	0.03125	-0.0625	-0.1875	-0.0625	38	60	44	36	40	54	39
1.5046e+09	0.046875	-0.210938	-0.101562	0.03125	-0.0625	-0.1875	-0.0625	38	60	44	36	40	54	39
1.5046e+09	0.046875	-0.210938	-0.09375	0.03125	-0.0625	-0.1875	-0.0625	38	60	44	36	40	54	39
1.5046e+09	0.046875	-0.210938	-0.101562	0.03125	-0.0625	-0.1875	-0.0703125	38	60	44	36	40	54	39
1.5046e+09	0.046875	-0.210938	-0.09375	0.03125	-0.0625	-0.1875	-0.0625	38	60	44	36	40	54	39
1.5046e+09	0.046875	-0.210938	-0.101562	0.03125	-0.0625	-0.1875	-0.0625	38	60	44	36	40	54	39
1.5046e+09	0.0546875	-0.210938	-0.09375	0.03125	-0.0625	-0.1875	-0.0625	38	60	44	36	40	54	39
1.5046e+09	0.046875	-0.210938	-0.101562	0.03125	-0.0625	-0.1875	-0.0625	38	60	44	36	40	54	39
1.5046e+09	0.0546875	-0.210938	-0.101562	0.03125	-0.0625	-0.1875	-0.0625	38	60	44	36	40	54	39
1.5046e+09	0.046875	-0.210938	-0.101562	0.03125	-0.0625	-0.1875	-0.0625	38	60	44	36	40	54	39
1.5046e+09	0.0546875	-0.210938	-0.101562	0.03125	-0.0625	-0.1875	-0.0625	38	60	44	36	40	54	39
1.5046e+09	0.0546875	-0.210938	-0.09375	0.03125	-0.0625	-0.1875	-0.0625	38	60	44	36	40	54	39
1.5046e+09	0.046875	-0.210938	-0.101562	0.03125	-0.0625	-0.195312	-0.0625	38	60	44	36	40	54	39
1.5046e+09	0.0546875	-0.210938	-0.101562	0.03125	-0.0625	-0.1875	-0.0625	38	60	44	36	40	54	39
1.5046e+09	0.0546875	-0.210938	-0.101562	0.03125	-0.0625	-0.1875	-0.0625	38	60	44	36	40	54	39
1.5046e+09	0.046875	-0.210938	-0.09375	0.03125	-0.0625	-0.1875	-0.0625	38	60	44	36	40	54	39
1.5046e+09	0.046875	-0.210938	-0.101562	0.03125	-0.0625	-0.1875	-0.0625	38	60	44	36	40	54	39
1.5046e+09	0.0546875	-0.210938	-0.101562	0.03125	-0.0625	-0.1875	-0.0625	39	60	44	36	40	54	40
1.5046e+09	0.0546875	-0.210938	-0.101562	0.03125	-0.0625	-0.1875	-0.0625	39	60	44	36	40	54	40
1.5046e+09	0.046875	-0.210938	-0.101562	0.03125	-0.0625	-0.1875	-0.0625	39	60	44	36	40	54	40
1.5046e+09	0.0546875	-0.210938	-0.101562	0.03125	-0.0625	-0.195312	-0.0625	39	60	44	36	40	54	40
1.5046e+09	0.0546875	-0.210938	-0.101562	0.03125	-0.0625	-0.1875	-0.0625	39	60	44	36	40	54	40
1.5046e+09	0.0546875	-0.210938	-0.09375	0.03125	-0.0625	-0.1875	-0.0625	38	60	44	36	40	54	39
1.5046e+09	0.046875	-0.210938	-0.101562	0.03125	-0.0625	-0.1875	-0.0625	38	60	44	36	40	54	39
1.5046e+09	0.046875	-0.210938	-0.09375	0.03125	-0.0625	-0.1875	-0.0625	38	60	44	36	40	54	39
1.5046e+09	0.0546875	-0.210938	-0.101562	0.03125	-0.0625	-0.1875	-0.0625	38	60	44	36	40	54	39
1.5046e+09	0.046875	-0.210938	-0.101562	0.03125	-0.0625	-0.1875	-0.0625	38	60	44	36	40	54	39
1.5046e+09	0.0546875	-0.210938	-0.101562	0.03125	-0.0625	-0.1875	-0.0625	38	60	44	36	40	54	39
1.5046e+09	0.0546875	-0.210938	-0.101562	0.03125	-0.0625	-0.1875	-0.0625	38	60	44	36	40	54	39
1.5046e+09	0.0546875	-0.210938	-0.09375	0.03125	-0.0625	-0.1875	-0.0625	38	60	44	36	40	54	39
1.5046e+09	0.0546875	-0.210938	-0.101562	0.0234375	-0.0625	-0.1875	-0.0625	38	60	44	36	40	54	39
1.5046e+09	0.0546875	-0.210938	-0.101562	0.03125	-0.0625	-0.1875	-0.0625	39	60	44	36	40	54	39
1.5046e+09	0.0546875	-0.210938	-0.101562	0.03125	-0.0625	-0.1875	-0.0625	39	60	44	36	40	54	39
1.5046e+09	0.046875	-0.210938	-0.101562	0.03125	-0.0625	-0.1875	-0.0625	39	60	44	36	40	54	39
1.5046e+09	0.0546875	-0.210938	-0.09375	0.03125	-0.0625	-0.1875	-0.0625	39	60	44	36	40	54	39
1.5046e+09	0.0546875	-0.210938	-0.09375	0.0234375	-0.0625	-0.1875	-0.0703125	39	60	44	36	40	54	39
1.5046e+09	0.0546875	-0.210938	-0.09375	0.03125	-0.0625	-0.1875	-0.0625	38	60	44	36	40	54	39
1.5046e+09	0.046875	-0.210938	-0.101562	0.03125	-0.0625	-0.1875	-0.0625	38	60	44	36	40	54	39
1.5046e+09	0.0546875	-0.210938	-0.101562	0.03125	-0.0625	-0.1875	-0.0625	38	60	44	36	40	54	39
1.5046e+09	0.046875	-0.210938	-0.101562	0.03125	-0.0625	-0.1875	-0.0625	38	60	44	36	40	54	39
1.5046e+09	0.046875	-0.210938	-0.101562	0.03125	-0.0625	-0.1875	-0.0625	38	60	44	36	40	54	39
1.5046e+09	0.0546875	-0.210938	-0.101562	0.03125	-0.0625	-0.1875	-0.0703125	38	60	44	36	40	54	39
1.5046e+09	0.046875	-0.210938	-0.101562	0.03125	-0.0625	-0.1875	-0.0625	38	60	44	36	40	54	39
1.5046e+09	0.046875	-0.210938	-0.101562	0.03125	-0.0625	-0.195312	-0.0625	38	60	44	36	40	54	39
1.5046e+09	0.0546875	-0.210938	-0.101562	0.03125	-0.0625	-0.1875	-0.0703125	38	60	44	36	40	54	39
1.5046e+09	0.046875	-0.210938	-0.101562	0.03125	-0.0625	-0.1875	-0.0625	38	60	44	36	40	54	39
1.5046e+09	0.0546875	-0.210938	-0.09375	0.03125	-0.0625	-0.1875	-0.0625	38	60	44	36	40	54	39
1.5046e+09	0.0546875	-0.210938	-0.09375	0.03125	-0.0625	-0.1875	-0.0625	38	60	44	36	40	54	39
1.5046e+09	0.046875	-0.210938	-0.09375	0.03125	-0.0625	-0.1875	-0.0625	38	60	44	36	40	54	39
1.5046e+09	0.046875	-0.210938	-0.09375	0.03125	-0.0625	-0.1875	-0.0625	38	60	44	36	40	54	39
1.5046e+09	0.046875	-0.210938	-0.09375	0.03125	-0.0625	-0.1875	-0.0625	38	60	44	36	40	54	39
1.5046e+09	0.046875	-0.210938	-0.101562	0.03125	-0.0625	-0.195312	-0.0625	38	60	44	36	40	54	39
1.5046e+09	0.0546875	-0.210938	-0.09375	0.03125	-0.0625	-0.195312	-0.0625	38	60	44	36	40	54	39
1.5046e+09	0.0546875	-0.210938	-0.101562	0.03125	-0.0625	-0.1875	-0.0703125	38	60	44	36	40	54	39
1.5046e+09	0.046875	-0.210938	-0.09375	0.03125	-0.0625	-0.1875	-0.0625	38	60	44	36	40	54	39
1.5046e+09	0.046875	-0.210938	-0.09375	0.03125	-0.0625	-0.1875	-0.0625	38	60	44	36	40	54	39
1.5046e+09	0.046875	-0.210938	-0.101562	0.03125	-0.0625	-0.1875	-0.0625	38	60	44	36	40	54	39
1.5046e+09	0.046875	-0.210938	-0.101562	0.03125	-0.0625	-0.195312	-0.0625	38	60	44	36	40	54	39
1.5046e+09	0.046875	-0.210938	-0.09375	0.03125	-0.0625	-0.1875	-0.0625	38	60	44	36	40	54	39
1.5046e+09	0.046875	-0.210938	-0.09375	0.03125	-0.0625	-0.195312	-0.0625	38	60	44	36	40	54	39
1.5046e+09	0.046875	-0.210938	-0.09375	0.03125	-0.0625	-0.1875	-0.0625	38	60	44	36	40	54	39
1.5046e+09	0.0546875	-0.210938	-0.101562	0.03125	-0.0625	-0.1875	-0.0625	38	60	44	36	40	54	39
1.5046e+09	0.046875	-0.210938	-0.09375	0.03125	-0.0625	-0.1875	-0.0625	38	60	44	36	40	54	39
1.5046e+09	0.0546875	-0.210938	-0.101562	0.03125	-0.0625	-0.1875	-0.0625	38	60	44	36	40	54	39
1.5046e+09	0.0546875	-0.210938	-0.101562	0.03125	-0.0625	-0.1875	-0.0625	38	60	44	36	40	54	39
1.5046e+09	0.046875	-0.210938	-0.09375	0.03125	-0.0625	-0.195312	-0.0625	38	60	44	36	40	54	39
1.5046e+09	0.0546875	-0.210938	-0.101562	0.03125	-0.0625	-0.1875	-0.0703125	38	60	44	36	40	54	39
1.5046e+09	0.046875	-0.210938	-0.101562	0.03125	-0.0625	-0.1875	-0.0703125	38	60	44	36	40	54	39
1.5046e+09	0.0546875	-0.210938	-0.101562	0.03125	-0.0625	-0.1875	-0.0625	38	60	44	36	40	54	39
1.5046e+09	0.0546875	-0.210938	-0.101562	0.03125	-0.0625	-0.1875	-0.0625	38	60	44	36	40	54	39
1.5046e+09	0.046875	-0.210938	-0.101562	0.03125	-0.0625	-0.1875	-0.0625	38	60	44	36	40	54	39
1.5046e+09	0.046875	-0.210938	-0.101562	0.03125	-0.0625	-0.1875	-0.0625	38	60	44	36	40	54	39
1.5046e+09	0.046875	-0.210938	-0.101562	0.03125	-0.0625	-0.195312	-0.0703125	38	60	44	36	40	54	39
1.5046e+09	0.046875	-0.210938	-0.101562	0.03125	-0.0625	-0.1875	-0.0625	38	60	44	36	40	54	39
1.5046e+09	0.0546875	-0.210938	-0.101562	0.03125	-0.0625	-0.1875	-0.0625	38	60	44	36	40	54	39
1.5046e+09	0.0546875	-0.210938	-0.101562	0.03125	-0.0625	-0.1875	-0.0625	38	60	44	36	40	54	39
1.5046e+09	0.046875	-0.210938	-0.101562	0.03125	-0.0625	-0.195312	-0.0625	38	60	44	36	40	54	39
1.5046e+09	0.0546875	-0.210938	-0.09375	0.03125	-0.0625	-0.1875	-0.0625	38	60	44	36	40	54	39
1.5046e+09	0.046875	-0.210938	-0.09375	0.03125	-0.0625	-0.1875	-0.0625	38	60	44	36	40	54	39
1.5046e+09	0.0546875	-0.210938	-0.101562	0.03125	-0.0625	-0.1875	-0.0625	38	60	44	36	40	54	39
1.5046e+09	0.046875	-0.210938	-0.09375	0.03125	-0.0625	-0.1875	-0.0625	38	60	44	36	40	54	39
1.5046e+09	0.046875	-0.210938	-0.101562	0.03125	-0.0625	-0.1875	-0.0625	38	60	44	36	40	54	39
1.5046e+09	0.046875	-0.210938	-0.09375	0.03125	-0.0625	-0.1875	-0.0625	38	60	44	36	40	54	39
1.5046e+09	0.046875	-0.210938	-0.09375	0.0234375	-0.0625	-0.195312	-0.0625	38	60	44	36	40	54	39
1.5046e+09	0.046875	-0.210938	-0.101562	0.03125	-0.0625	-0.1875	-0.0703125	38	60	44	36	40	54	39
1.5046e+09	0.046875	-0.210938	-0.101562	0.03125	-0.0625	-0.1875	-0.0625	38	60	44	36	40	54	39
1.5046e+09	0.0546875	-0.210938	-0.101562	0.03125	-0.0625	-0.1875	-0.0625	38	60	44	36	40	54	39
1.5046e+09	0.046875	-0.210938	-0.101562	0.03125	-0.0625	-0.1875	-0.0703125	39	60	44	36	40	54	39
1.5046e+09	0.046875	-0.210938	-0.101562	0.03125	-0.0625	-0.1875	-0.0625	39	60	44	36	40	54	39
1.5046e+09	0.0546875	-0.210938	-0.101562	0.03125	-0.0625	-0.1875	-0.0625	39	60	44	36	40	54	39
1.5046e+09	0.0546875	-0.210938	-0.101562	0.03125	-0.0625	-0.1875	-0.0625	39	60	44	36	40	54	39
1.5046e+09	0.0546875	-0.210938	-0.101562	0.03125	-0.0625	-0.1875	-0.0625	39	60	44	36	40	54	39
1.5046e+09	0.046875	-0.210938	-0.101562	0.03125	-0.0625	-0.1875	-0.0625	38	60	44	36	40	54	39
1.5046e+09	0.0546875	-0.210938	-0.101562	0.03125	-0.0625	-0.1875	-0.0625	38	60	44	36	40	54	39
1.5046e+09	0.046875	-0.210938	-0.09375	0.03125	-0.0625	-0.1875	-0.0625	38	60	44	36	40	54	39
1.5046e+09	0.046875	-0.210938	-0.101562	0.03125	-0.0625	-0.195312	-0.0625	38	60	44	36	40	54	39
1.5046e+09	0.0546875	-0.210938	-0.09375	0.03125	-0.0625	-0.1875	-0.0625	38	60	44	36	40	54	39
1.5046e+09	0.046875	-0.210938	-0.09375	0.03125	-0.0625	-0.1875	-0.0625	38	60	44	36	40	54	39
1.5046e+09	0.046875	-0.210938	-0.101562	0.03125	-0.0625	-0.1875	-0.0625	38	60	44	36	40	54	39
1.5046e+09	0.046875	-0.210938	-0.09375	0.03125	-0.0625	-0.1875	-0.0625	38	60	44	36	40	54	39
1.5046e+09	0.0546875	-0.210938	-0.101562	0.03125	-0.0625	-0.195312	-0.0625	38	60	44	36	40	54	39
1.5046e+09	0.0546875	-0.210938	-0.101562	0.03125	-0.0625	-0.1875	-0.0625	38	60	44	36	40	54	39
1.5046e+09	0.046875	-0.210938	-0.09375	0.03125	-0.0625	-0.1875	-0.0625	38	60	44	36	40	54	39
1.5046e+09	0.0546875	-0.210938	-0.09375	0.03125	-0.0625	-0.1875	-0.0625	38	60	44	36	40	54	39
1.5046e+09	0.046875	-0.210938	-0.101562	0.03125	-0.0625	-0.1875	-0.0625	38	60	44	36	40	54	39
1.5046e+09	0.0546875	-0.210938	-0.101562	0.03125	-0.0625	-0.1875	-0.0625	38	60	44	36	40	54	39
1.5046e+09	0.0546875	-0.210938	-0.09375	0.03125	-0.0625	-0.1875	-0.0625	38	60	44	36	40	54	39
1.5046e+09	0.046875	-0.210938	-0.101562	0.03125	-0.0625	-0.1875	-0.0625	38	60	44	36	40	54	39
1.5046e+09	0.046875	-0.210938	-0.101562	0.03125	-0.0625	-0.1875	-0.0625	38	60	44	36	40	54	39
1.5046e+09	0.0546875	-0.210938	-0.101562	0.03125	-0.0625	-0.1875	-0.0625	38	60	44	36	40	54	39
1.5046e+09	0.046875	-0.210938	-0.101562	0.03125	-0.0625	-0.1875	-0.0625	38	60	44	36	40	54	39
1.5046e+09	0.0546875	-0.210938	-0.101562	0.03125	-0.0625	-0.1875	-0.0625	38	60	44	36	40	54	39
1.5046e+09	0.0546875	-0.210938	-0.09375	0.03125	-0.0625	-0.1875	-0.0625	38	60	44	36	40	54	39
1.5046e+09	0.0546875	-0.210938	-0.101562	0.03125	-0.0625	-0.195312	-0.0703125	38	60	44	36	40	54	39
1.5046e+09	0.0546875	-0.210938	-0.101562	0.03125	-0.0625	-0.1875	-0.0625	38	60	44	36	40	54	39
1.5046e+09	0.046875	-0.210938	-0.101562	0.03125	-0.0625	-0.1875	-0.0625	38	60	44	36	40	54	39
1.5046e+09	0.0546875	-0.210938	-0.09375	0.03125	-0.0625	-0.1875	-0.0625	38	60	44	36	40	54	39
1.5046e+09	0.046875	-0.210938	-0.101562	0.03125	-0.0625	-0.1875	-0.0625	38	60	44	36	40	54	39
1.5046e+09	0.046875	-0.210938	-0.09375	0.03125	-0.0625	-0.1875	-0.0625	38	60	44	36	40	54	39
1.5046e+09	0.0546875	-0.210938	-0.101562	0.03125	-0.0625	-0.1875	-0.0625	38	60	44	36	40	54	39
1.5046e+09	0.046875	-0.210938	-0.101562	0.03125	-0.0625	-0.1875	-0.0625	38	60	44	36	40	54	39
1.5046e+09	0.046875	-0.210938	-0.101562	0.03125	-0.0625	-0.1875	-0.0625	38	60	44	36	40	54	39
1.5046e+09	0.046875	-0.210938	-0.101562	0.03125	-0.0625	-0.1875	-0.0625	38	60	44	36	40	54	39
1.5046e+09	0.046875	-0.210938	-0.101562	0.03125	-0.0625	-0.195312	-0.0625	38	60	44	36	40	54	39
1.5046e+09	0.0546875	-0.210938	-0.101562	0.03125	-0.0625	-0.1875	-0.0625	38	60	44	36	40	54	39
1.5046e+09	0.0546875	-0.210938	-0.09375	0.03125	-0.0625	-0.1875	-0.0625	38	60	44	36	40	54	39
1.5046e+09	0.0546875	-0.210938	-0.101562	0.03125	-0.0625	-0.1875	-0.0625	38	60	44	36	40	54	39
1.5046e+09	0.046875	-0.210938	-0.101562	0.03125	-0.0625	-0.1875	-0.0703125	38	60	44	36	40	54	39
1.5046e+09	0.0546875	-0.210938	-0.09375	0.03125	-0.0625	-0.1875	-0.0703125	38	60	44	36	40	54	39
1.5046e+09	0.046875	-0.210938	-0.101562	0.03125	-0.0625	-0.1875	-0.0625	38	60	44	36	40	54	39
1.5046e+09	0.0546875	-0.210938	-0.09375	0.03125	-0.0625	-0.1875	-0.0625	38	60	44	36	40	54	39
1.5046e+09	0.0546875	-0.210938	-0.09375	0.03125	-0.0625	-0.1875	-0.0625	38	60	44	36	40	54	39
1.5046e+09	0.0546875	-0.210938	-0.101562	0.03125	-0.0625	-0.1875	-0.0625	38	60	44	36	40	54	39
1.5046e+09	0.046875	-0.210938	-0.101562	0.03125	-0.0625	-0.1875	-0.0625	38	60	44	36	40	54	39
1.5046e+09	0.0546875	-0.210938	-0.101562	0.03125	-0.0625	-0.1875	-0.0625	38	60	44	36	40	54	39
1.5046e+09	0.0546875	-0.210938	-0.101562	0.03125	-0.0625	-0.195312	-0.0625	38	60	44	36	40	54	39
1.5046e+09	0.0546875	-0.210938	-0.09375	0.0234375	-0.0625	-0.1875	-0.0625	38	60	44	36	40	54	39
1.5046e+09	0.046875	-0.210938	-0.09375	0.03125	-0.0625	-0.1875	-0.0625	38	60	44	36	40	54	39
1.5046e+09	0.046875	-0.210938	-0.09375	0.03125	-0.0625	-0.1875	-0.0625	38	60	44	36	40	54	39
1.5046e+09	0.046875	-0.210938	-0.101562	0.03125	-0.0625	-0.1875	-0.0625	38	60	44	36	40	54	39
1.5046e+09	0.046875	-0.210938	-0.101562	0.03125	-0.0625	-0.195312	-0.0625	38	60	44	36	40	54	39
1.5046e+09	0.0546875	-0.210938	-0.101562	0.03125	-0.0625	-0.195312	-0.0625	38	60	44	36	40	54	39
1.5046e+09	0.046875	-0.210938	-0.09375	0.03125	-0.0625	-0.1875	-0.0625	38	60	44	36	40	54	39
1.5046e+09	0.0546875	-0.210938	-0.101562	0.03125	-0.0625	-0.1875	-0.0625	38	60	44	36	40	54	39
1.5046e+09	0.0546875	-0.210938	-0.101562	0.03125	-0.0625	-0.1875	-0.0625	38	60	44	36	40	54	39
1.5046e+09	0.0546875	-0.210938	-0.101562	0.03125	-0.0625	-0.1875	-0.0625	38	60	44	36	40	54	39
1.5046e+09	0.0546875	-0.210938	-0.101562	0.03125	-0.0625	-0.1875	-0.0625	38	60	44	36	40	54	39
1.5046e+09	0.046875	-0.210938	-0.09375	0.03125	-0.0625	-0.1875	-0.0625	38	60	44	36	40	54	39
1.5046e+09	0.0546875	-0.210938	-0.101562	0.03125	-0.0625	-0.1875	-0.0625	38	60	44	36	40	54	39
1.5046e+09	0.0546875	-0.210938	-0.09375	0.03125	-0.0625	-0.195312	-0.0625	38	60	44	36	40	54	39
1.5046e+09	0.0546875	-0.210938	-0.09375	0.03125	-0.0625	-0.1875	-0.0625	38	60	44	36	40	54	39
1.5046e+09	0.046875	-0.210938	-0.101562	0.03125	-0.0625	-0.1875	-0.0625	38	60	44	36	40	54	39
1.5046e+09	0.046875	-0.210938	-0.101562	0.03125	-0.0625	-0.1875	-0.0625	39	60	44	36	40	54	39
1.5046e+09	0.046875	-0.210938	-0.101562	0.03125	-0.0625	-0.195312	-0.0625	39	60	44	36	40	54	39
1.5046e+09	0.046875	-0.210938	-0.101562	0.03125	-0.0625	-0.1875	-0.0625	39	60	44	36	40	54	39
1.5046e+09	0.0546875	-0.210938	-0.101562	0.03125	-0.0625	-0.1875	-0.0625	39	60	44	36	40	54	39
1.5046e+09	0.0546875	-0.210938	-0.101562	0.03125	-0.0625	-0.1875	-0.0625	39	60	44	36	40	54	39
1.5046e+09	0.0546875	-0.210938	-0.101562	0.03125	-0.0625	-0.195312	-0.0625	38	60	44	36	40	54	39
1.5046e+09	0.0546875	-0.210938	-0.101562	0.0234375	-0.0625	-0.1875	-0.0625	38	60	44	36	40	54	39
1.5046e+09	0.046875	-0.210938	-0.101562	0.03125	-0.0625	-0.195312	-0.0625	38	60	44	36	40	54	39
1.5046e+09	0.0546875	-0.210938	-0.101562	0.03125	-0.0625	-0.1875	-0.0625	38	60	44	36	40	54	39
1.5046e+09	0.046875	-0.210938	-0.09375	0.03125	-0.0625	-0.195312	-0.0625	38	60	44	36	40	54	39
1.5046e+09	0.046875	-0.210938	-0.101562	0.03125	-0.0625	-0.1875	-0.0625	38	60	44	36	40	54	39
1.5046e+09	0.0546875	-0.210938	-0.09375	0.03125	-0.0625	-0.1875	-0.0625	38	60	44	36	40	54	39
1.5046e+09	0.0546875	-0.210938	-0.101562	0.03125	-0.0625	-0.195312	-0.0625	38	60	44	36	40	54	39
1.5046e+09	0.046875	-0.210938	-0.101562	0.03125	-0.0625	-0.1875	-0.0625	38	60	44	36	40	54	39
1.5046e+09	0.046875	-0.210938	-0.09375	0.03125	-0.0625	-0.1875	-0.0625	38	60	44	36	40	54	39
1.5046e+09	0.046875	-0.210938	-0.101562	0.03125	-0.0625	-0.1875	-0.0625	38	60	44	36	40	54	39
1.5046e+09	0.046875	-0.210938	-0.101562	0.03125	-0.0625	-0.1875	-0.0625	38	60	44	36	40	54	39
1.5046e+09	0.0546875	-0.210938	-0.101562	0.03125	-0.0625	-0.195312	-0.0625	38	60	44	36	40	54	39
1.5046e+09	0.0546875	-0.210938	-0.101562	0.03125	-0.0625	-0.1875	-0.0625	38	60	44	36	40	54	39
1.5046e+09	0.046875	-0.210938	-0.09375	0.03125	-0.0625	-0.1875	-0.0625	38	60	44	36	40	54	39
1.5046e+09	0.0546875	-0.210938	-0.09375	0.03125	-0.0625	-0.1875	-0.0625	38	60	44	36	40	54	39
1.5046e+09	0.0546875	-0.210938	-0.101562	0.0234375	-0.0625	-0.195312	-0.0625	38	60	44	36	40	54	39
1.5046e+09	0.0546875	-0.210938	-0.09375	0.0234375	-0.0625	-0.1875	-0.0625	38	60	44	36	40	54	39
1.5046e+09	0.046875	-0.210938	-0.101562	0.03125	-0.0625	-0.1875	-0.0625	38	60	44	36	40	54	39
1.5046e+09	0.046875	-0.210938	-0.101562	0.03125	-0.0625	-0.1875	-0.0625	38	60	45	36	40	54	39
1.5046e+09	0.046875	-0.210938	-0.101562	0.03125	-0.0625	-0.1875	-0.0625	38	60	45	36	40	54	39
1.5046e+09	0.046875	-0.210938	-0.09375	0.03125	-0.0625	-0.1875	-0.0625	38	60	45	36	40	54	39
1.5046e+09	0.046875	-0.210938	-0.101562	0.03125	-0.0625	-0.1875	-0.0625	38	60	45	36	40	54	39
1.5046e+09	0.0546875	-0.210938	-0.101562	0.03125	-0.0625	-0.1875	-0.0625	38	60	45	36	40	54	39
1.5046e+09	0.046875	-0.210938	-0.101562	0.03125	-0.0625	-0.1875	-0.0625	38	60	44	36	40	54	39
1.5046e+09	0.0546875	-0.210938	-0.101562	0.03125	-0.0625	-0.1875	-0.0625	38	60	44	36	40	54	39
1.5046e+09	0.0546875	-0.210938	-0.101562	0.03125	-0.0625	-0.1875	-0.0625	38	60	44	36	40	54	39
1.5046e+09	0.0546875	-0.210938	-0.101562	0.03125	-0.0625	-0.1875	-0.0625	38	60	44	36	40	54	39
1.5046e+09	0.0546875	-0.210938	-0.101562	0.03125	-0.0625	-0.1875	-0.0625	38	60	44	36	40	54	39
1.5046e+09	0.046875	-0.210938	-0.09375	0.03125	-0.0625	-0.1875	-0.0625	38	60	44	36	40	54	39
1.5046e+09	0.0546875	-0.210938	-0.09375	0.03125	-0.0625	-0.1875	-0.0625	38	60	44	36	40	54	39
1.5046e+09	0.046875	-0.210938	-0.101562	0.03125	-0.0625	-0.1875	-0.0625	38	60	44	36	40	54	39
1.5046e+09	0.0546875	-0.210938	-0.101562	0.03125	-0.0625	-0.1875	-0.0625	38	60	44	36	40	54	39
1.5046e+09	0.0546875	-0.210938	-0.101562	0.0234375	-0.0625	-0.1875	-0.0625	38	60	44	36	40	54	39
1.5046e+09	0.046875	-0.210938	-0.101562	0.03125	-0.0625	-0.195312	-0.0625	38	60	44	36	40	54	39
1.5046e+09	0.0546875	-0.210938	-0.09375	0.03125	-0.0625	-0.1875	-0.0625	38	60	44	36	40	54	39
1.5046e+09	0.046875	-0.210938	-0.101562	0.03125	-0.0625	-0.1875	-0.0703125	38	60	44	36	40	54	39
1.5046e+09	0.046875	-0.210938	-0.09375	0.03125	-0.0625	-0.195312	-0.0625	38	60	44	36	40	54	39
1.5046e+09	0.046875	-0.210938	-0.101562	0.03125	-0.0625	-0.1875	-0.0625	38	60	44	36	40	54	39
1.5046e+09	0.0546875	-0.210938	-0.09375	0.03125	-0.0625	-0.195312	-0.0625	38	60	44	36	40	54	39
1.5046e+09	0.0546875	-0.210938	-0.09375	0.03125	-0.0625	-0.1875	-0.0703125	38	60	44	36	40	54	39
1.5046e+09	0.046875	-0.210938	-0.101562	0.03125	-0.0625	-0.1875	-0.0625	38	60	44	36	40	54	39
1.5046e+09	0.0546875	-0.210938	-0.101562	0.03125	-0.0625	-0.195312	-0.0625	38	60	44	36	40	54	39
1.5046e+09	0.0546875	-0.210938	-0.101562	0.03125	-0.0625	-0.1875	-0.0625	38	60	44	36	40	54	39
1.5046e+09	0.0546875	-0.210938	-0.09375	0.03125	-0.0625	-0.1875	-0.0625	38	60	44	36	40	54	39
1.5046e+09	0.046875	-0.210938	-0.101562	0.03125	-0.0625	-0.195312	-0.0625	38	60	44	36	40	54	39
1.5046e+09	0.0546875	-0.210938	-0.101562	0.03125	-0.0625	-0.1875	-0.0625	38	60	44	36	40	54	39
1.5046e+09	0.046875	-0.210938	-0.101562	0.03125	-0.0625	-0.1875	-0.0703125	38	60	44	36	40	54	39
1.5046e+09	0.0546875	-0.210938	-0.101562	0.03125	-0.0625	-0.1875	-0.0625	38	60	44	36	40	54	39
1.5046e+09	0.046875	-0.210938	-0.09375	0.03125	-0.0625	-0.1875	-0.0703125	38	60	44	36	40	54	39
1.5046e+09	0.0546875	-0.210938	-0.101562	0.03125	-0.0625	-0.1875	-0.0625	38	60	44	36	40	54	39
1.5046e+09	0.0546875	-0.210938	-0.09375	0.03125	-0.0625	-0.195312	-0.0625	38	60	44	36	40	54	39
1.5046e+09	0.0546875	-0.210938	-0.101562	0.03125	-0.0625	-0.1875	-0.0625	38	60	44	36	40	54	39
1.5046e+09	0.0546875	-0.210938	-0.101562	0.03125	-0.0625	-0.1875	-0.0625	38	60	44	36	40	54	39
1.5046e+09	0.046875	-0.210938	-0.101562	0.03125	-0.0625	-0.195312	-0.0625	38	60	44	36	40	54	39
1.5046e+09	0.0546875	-0.210938	-0.101562	0.03125	-0.0625	-0.1875	-0.0625	38	60	44	36	40	54	39
1.5046e+09	0.046875	-0.210938	-0.101562	0.03125	-0.0625	-0.1875	-0.0625	38	60	44	36	40	54	39
1.5046e+09	0.046875	-0.210938	-0.101562	0.03125	-0.0625	-0.1875	-0.0625	38	60	44	36	40	54	39
1.5046e+09	0.046875	-0.210938	-0.101562	0.03125	-0.0625	-0.1875	-0.0625	38	60	44	36	40	54	39
1.5046e+09	0.046875	-0.210938	-0.101562	0.03125	-0.0625	-0.1875	-0.0625	38	60	44	36	40	54	39
1.5046e+09	0.046875	-0.210938	-0.101562	0.03125	-0.0625	-0.1875	-0.0625	38	60	44	36	40	54	39
1.5046e+09	0.0546875	-0.210938	-0.101562	0.03125	-0.0625	-0.195312	-0.0625	38	60	44	36	40	54	39
1.5046e+09	0.046875	-0.210938	-0.101562	0.03125	-0.0625	-0.1875	-0.0625	38	60	44	36	40	54	39
1.5046e+09	0.046875	-0.210938	-0.101562	0.03125	-0.0625	-0.1875	-0.0625	38	60	44	36	40	54	39
1.5046e+09	0.046875	-0.210938	-0.101562	0.03125	-0.0625	-0.1875	-0.0625	38	60	44	36	40	54	39
1.5046e+09	0.0546875	-0.210938	-0.101562	0.03125	-0.0625	-0.1875	-0.0625	38	60	44	36	40	54	39
1.5046e+09	0.046875	-0.210938	-0.101562	0.03125	-0.0625	-0.1875	-0.0625	38	60	44	36	40	54	39
1.5046e+09	0.046875	-0.210938	-0.09375	0.03125	-0.0625	-0.1875	-0.0625	38	60	44	36	40	54	39
1.5046e+09	0.046875	-0.210938	-0.101562	0.03125	-0.0625	-0.1875	-0.0625	38	60	44	36	40	54	39
1.5046e+09	0.0546875	-0.210938	-0.101562	0.03125	-0.0625	-0.1875	-0.0625	38	60	44	36	40	54	39
1.5046e+09	0.046875	-0.210938	-0.101562	0.03125	-0.0625	-0.1875	-0.0625	39	60	44	36	40	54	39
1.5046e+09	0.0546875	-0.210938	-0.101562	0.03125	-0.0625	-0.1875	-0.0625	39	60	44	36	40	54	39
1.5046e+09	0.0546875	-0.210938	-0.09375	0.03125	-0.0625	-0.1875	-0.0625	39	60	44	36	40	54	39
1.5046e+09	0.046875	-0.210938	-0.101562	0.03125	-0.0625	-0.1875	-0.0625	39	60	44	36	40	54	39
1.5046e+09	0.046875	-0.210938	-0.101562	0.03125	-0.0625	-0.1875	-0.0625	39	60	44	36	40	54	39
1.5046e+09	0.0546875	-0.210938	-0.101562	0.03125	-0.0625	-0.1875	-0.0625	38	60	44	36	40	54	39
1.5046e+09	0.046875	-0.210938	-0.101562	0.03125	-0.0625	-0.1875	-0.0625	38	60	44	36	40	54	39
1.5046e+09	0.0546875	-0.210938	-0.101562	0.03125	-0.0625	-0.195312	-0.0703125	38	60	44	36	40	54	39
1.5046e+09	0.046875	-0.210938	-0.101562	0.03125	-0.0625	-0.1875	-0.0625	38	60	44	36	40	54	39
1.5046e+09	0.0546875	-0.210938	-0.101562	0.03125	-0.0625	-0.1875	-0.0625	38	60	44	36	40	54	39
1.5046e+09	0.046875	-0.210938	-0.09375	0.03125	-0.0625	-0.1875	-0.0625	38	60	44	36	40	54	39
1.5046e+09	0.0546875	-0.210938	-0.101562	0.03125	-0.0625	-0.195312	-0.0625	38	60	44	36	40	54	39
1.5046e+09	0.046875	-0.210938	-0.09375	0.03125	-0.0625	-0.1875	-0.0625	38	60	44	36	40	54	39
1.5046e+09	0.0546875	-0.210938	-0.101562	0.03125	-0.0625	-0.1875	-0.0625	38	60	44	36	40	54	39
1.5046e+09	0.046875	-0.210938	-0.09375	0.03125	-0.0625	-0.1875	-0.0625	38	60	44	36	40	54	39
1.5046e+09	0.046875	-0.210938	-0.101562	0.03125	-0.0625	-0.1875	-0.0703125	38	60	44	36	40	54	39
1.5046e+09	0.0546875	-0.210938	-0.101562	0.03125	-0.0625	-0.1875	-0.0625	38	60	44	36	40	54	39
1.5046e+09	0.0546875	-0.210938	-0.101562	0.03125	-0.0625	-0.1875	-0.0703125	38	60	44	36	40	54	39
1.5046e+09	0.046875	-0.203125	-0.101562	0.03125	-0.0625	-0.195312	-0.0703125	38	60	44	36	40	54	39
1.5046e+09	0.046875	-0.210938	-0.101562	0.03125	-0.0625	-0.1875	-0.0625	38	60	44	36	40	54	39
1.5046e+09	0.0546875	-0.210938	-0.101562	0.03125	-0.0625	-0.1875	-0.0625	38	60	44	36	40	54	39
1.5046e+09	0.0546875	-0.210938	-0.09375	0.03125	-0.0625	-0.1875	-0.0625	38	60	44	36	40	54	39
1.5046e+09	0.0546875	-0.210938	-0.09375	0.03125	-0.0625	-0.1875	-0.0625	38	60	44	36	40	54	39
1.5046e+09	0.0546875	-0.210938	-0.09375	0.03125	-0.0625	-0.1875	-0.0625	38	60	44	36	40	54	39
1.5046e+09	0.0546875	-0.210938	-0.09375	0.03125	-0.0625	-0.1875	-0.0625	38	60	44	36	40	54	39
1.5046e+09	0.0546875	-0.210938	-0.101562	0.03125	-0.0625	-0.1875	-0.0625	38	60	44	36	40	54	39
1.5046e+09	0.046875	-0.210938	-0.09375	0.03125	-0.0625	-0.1875	-0.0625	38	60	44	36	40	54	39
1.5046e+09	0.046875	-0.210938	-0.101562	0.03125	-0.0625	-0.1875	-0.0625	38	60	44	36	40	54	39
1.5046e+09	0.0546875	-0.210938	-0.101562	0.03125	-0.0625	-0.1875	-0.0625	38	60	44	36	40	54	39
1.5046e+09	0.046875	-0.210938	-0.101562	0.03125	-0.0625	-0.1875	-0.0625	38	60	44	36	40	54	39
1.5046e+09	0.0546875	-0.210938	-0.09375	0.03125	-0.0625	-0.195312	-0.0625	38	60	44	36	40	54	39
1.5046e+09	0.046875	-0.210938	-0.09375	0.03125	-0.0625	-0.195312	-0.0625	38	60	44	36	40	54	39
1.5046e+09	0.0546875	-0.210938	-0.101562	0.03125	-0.0625	-0.1875	-0.0625	38	60	44	36	40	54	39
1.5046e+09	0.046875	-0.210938	-0.09375	0.03125	-0.0625	-0.195312	-0.0625	38	60	44	36	40	54	39
1.5046e+09	0.0546875	-0.210938	-0.101562	0.03125	-0.0625	-0.195312	-0.0625	38	60	44	36	40	54	39
1.5046e+09	0.0546875	-0.210938	-0.101562	0.03125	-0.0625	-0.1875	-0.0625	38	60	44	36	40	54	39
1.5046e+09	0.046875	-0.210938	-0.09375	0.03125	-0.0625	-0.1875	-0.0625	38	60	44	36	40	54	39
1.5046e+09	0.0546875	-0.210938	-0.101562	0.03125	-0.0625	-0.1875	-0.0625	38	60	44	36	40	54	39
1.5046e+09	0.0546875	-0.210938	-0.101562	0.03125	-0.0625	-0.1875	-0.0625	38	60	44	36	40	54	39
1.5046e+09	0.0546875	-0.210938	-0.101562	0.03125	-0.0625	-0.1875	-0.0625	38	60	44	36	40	54	39
1.5046e+09	0.0546875	-0.210938	-0.101562	0.03125	-0.0625	-0.1875	-0.0625	38	60	44	36	40	54	39
1.5046e+09	0.0546875	-0.210938	-0.101562	0.03125	-0.0625	-0.1875	-0.0625	38	60	44	36	40	54	39
1.5046e+09	0.0546875	-0.210938	-0.101562	0.03125	-0.0625	-0.195312	-0.0625	38	60	44	36	40	54	39
1.5046e+09	0.046875	-0.210938	-0.09375	0.03125	-0.0625	-0.195312	-0.0625	38	60	44	36	40	54	39
1.5046e+09	0.0546875	-0.210938	-0.101562	0.03125	-0.0625	-0.1875	-0.0625	38	60	44	36	40	54	39
1.5046e+09	0.046875	-0.210938	-0.101562	0.03125	-0.0625	-0.1875	-0.0625	38	60	44	36	40	54	39
1.5046e+09	0.046875	-0.210938	-0.101562	0.03125	-0.0625	-0.1875	-0.0625	38	60	44	36	40	54	39
1.5046e+09	0.046875	-0.210938	-0.101562	0.03125	-0.0625	-0.1875	-0.0625	38	60	44	36	40	54	39
1.5046e+09	0.0546875	-0.210938	-0.101562	0.03125	-0.0625	-0.195312	-0.0625	38	60	44	36	40	54	39
1.5046e+09	0.0546875	-0.210938	-0.09375	0.03125	-0.0625	-0.1875	-0.0625	38	60	44	36	40	54	39
1.5046e+09	0.0546875	-0.210938	-0.101562	0.03125	-0.0625	-0.1875	-0.0625	38	60	44	36	40	54	39
1.5046e+09	0.046875	-0.210938	-0.101562	0.03125	-0.0625	-0.1875	-0.0625	38	60	44	36	40	54	39
1.5046e+09	0.0546875	-0.210938	-0.101562	0.03125	-0.0625	-0.195312	-0.0625	38	60	44	36	40	54	39
1.5046e+09	0.046875	-0.210938	-0.101562	0.03125	-0.0625	-0.1875	-0.0625	38	60	44	36	40	54	39
1.5046e+09	0.0546875	-0.210938	-0.09375	0.03125	-0.0625	-0.1875	-0.0625	38	60	44	36	40	54	39
1.5046e+09	0.0546875	-0.210938	-0.101562	0.03125	-0.0625	-0.195312	-0.0625	38	60	44	36	40	54	39
1.5046e+09	0.046875	-0.210938	-0.09375	0.03125	-0.0625	-0.195312	-0.0625	38	60	44	36	40	54	39
1.5046e+09	0.0546875	-0.210938	-0.101562	0.03125	-0.0625	-0.1875	-0.0625	38	60	44	36	40	54	39
1.5046e+09	0.0546875	-0.210938	-0.101562	0.03125	-0.0625	-0.1875	-0.0625	38	60	44	36	40	54	39
1.5046e+09	0.0546875	-0.210938	-0.09375	0.03125	-0.0625	-0.1875	-0.0625	38	60	44	36	40	54	39
1.5046e+09	0.0546875	-0.210938	-0.101562	0.03125	-0.0625	-0.1875	-0.0625	38	60	44	36	40	54	39
1.5046e+09	0.046875	-0.210938	-0.101562	0.03125	-0.0625	-0.1875	-0.0703125	38	60	44	36	40	54	39
1.5046e+09	0.046875	-0.210938	-0.09375	0.03125	-0.0625	-0.1875	-0.0703125	38	60	44	36	40	54	39
1.5046e+09	0.0546875	-0.210938	-0.09375	0.03125	-0.0625	-0.1875	-0.0625	38	60	44	36	40	54	39
1.5046e+09	0.0546875	-0.210938	-0.101562	0.03125	-0.0625	-0.1875	-0.0625	38	60	44	36	40	54	39
1.5046e+09	0.0546875	-0.210938	-0.09375	0.03125	-0.0625	-0.1875	-0.0625	38	60	44	36	40	54	39
1.5046e+09	0.0546875	-0.210938	-0.101562	0.03125	-0.0625	-0.1875	-0.0703125	38	60	44	36	40	54	39
1.5046e+09	0.046875	-0.210938	-0.09375	0.03125	-0.0625	-0.195312	-0.0625	38	60	44	36	40	54	39
1.5046e+09	0.0546875	-0.210938	-0.101562	0.03125	-0.0625	-0.1875	-0.0625	38	60	44	36	40	54	39
1.5046e+09	0.0546875	-0.210938	-0.09375	0.03125	-0.0625	-0.1875	-0.0625	38	60	44	36	40	54	39
1.5046e+09	0.0546875	-0.210938	-0.101562	0.03125	-0.0625	-0.1875	-0.0625	38	60	44	36	40	54	39
1.5046e+09	0.0546875	-0.210938	-0.09375	0.03125	-0.0625	-0.1875	-0.0625	38	60	44	36	40	54	39
1.5046e+09	0.046875	-0.210938	-0.101562	0.03125	-0.0625	-0.1875	-0.0625	38	60	44	36	40	54	39
1.5046e+09	0.0546875	-0.210938	-0.101562	0.03125	-0.0625	-0.195312	-0.0625	38	60	44	36	40	54	39
1.5046e+09	0.0546875	-0.210938	-0.101562	0.03125	-0.0625	-0.1875	-0.0625	38	60	44	36	40	54	39
1.5046e+09	0.0546875	-0.210938	-0.101562	0.03125	-0.0625	-0.1875	-0.0625	38	60	44	36	40	54	39
1.5046e+09	0.046875	-0.210938	-0.09375	0.03125	-0.0625	-0.1875	-0.0625	38	60	44	36	40	54	39
1.5046e+09	0.046875	-0.210938	-0.101562	0.0234375	-0.0625	-0.195312	-0.0703125	38	60	44	36	40	54	39
1.5046e+09	0.0546875	-0.210938	-0.101562	0.03125	-0.0625	-0.1875	-0.0703125	38	60	44	36	40	54	39
1.5046e+09	0.0546875	-0.210938	-0.101562	0.03125	-0.0625	-0.1875	-0.0625	38	60	44	36	40	54	39
1.5046e+09	0.0546875	-0.210938	-0.101562	0.03125	-0.0625	-0.195312	-0.0625	38	60	44	36	40	54	39
1.5046e+09	0.0546875	-0.210938	-0.101562	0.03125	-0.0625	-0.1875	-0.0625	38	60	44	36	40	54	39
1.5046e+09	0.046875	-0.210938	-0.101562	0.03125	-0.0625	-0.1875	-0.0625	38	60	44	36	40	54	39
1.5046e+09	0.046875	-0.210938	-0.09375	0.03125	-0.0625	-0.1875	-0.0625	38	60	44	36	40	54	39
1.5046e+09	0.0546875	-0.210938	-0.101562	0.03125	-0.0625	-0.195312	-0.0625	38	60	44	36	40	54	39
1.5046e+09	0.046875	-0.210938	-0.101562	0.03125	-0.0625	-0.1875	-0.0625	38	60	44	36	40	54	39
1.5046e+09	0.046875	-0.210938	-0.101562	0.03125	-0.0625	-0.1875	-0.0625	38	60	44	36	40	54	39
1.5046e+09	0.046875	-0.210938	-0.101562	0.03125	-0.0625	-0.1875	-0.0625	38	60	44	36	40	54	39
1.5046e+09	0.0546875	-0.210938	-0.101562	0.03125	-0.0625	-0.1875	-0.0625	38	60	44	36	40	54	39
1.5046e+09	0.0546875	-0.210938	-0.101562	0.03125	-0.0625	-0.1875	-0.0625	38	60	44	36	40	54	39
1.5046e+09	0.046875	-0.210938	-0.101562	0.03125	-0.0625	-0.1875	-0.0703125	38	60	44	36	40	54	39
1.5046e+09	0.046875	-0.210938	-0.101562	0.03125	-0.0625	-0.1875	-0.0625	38	60	44	36	40	54	39
1.5046e+09	0.0546875	-0.210938	-0.101562	0.03125	-0.0625	-0.1875	-0.0625	38	60	44	36	40	54	39
1.5046e+09	0.0546875	-0.210938	-0.101562	0.03125	-0.0625	-0.1875	-0.0625	38	60	44	36	40	54	39
1.5046e+09	0.046875	-0.210938	-0.101562	0.03125	-0.0625	-0.1875	-0.0625	38	60	44	36	40	54	39
1.5046e+09	0.0546875	-0.210938	-0.09375	0.03125	-0.0625	-0.1875	-0.0625	38	60	44	36	40	54	39
1.5046e+09	0.046875	-0.210938	-0.101562	0.03125	-0.0625	-0.1875	-0.0703125	38	60	44	36	40	54	39
1.5046e+09	0.0546875	-0.210938	-0.101562	0.03125	-0.0625	-0.1875	-0.0625	38	60	44	36	40	54	39
1.5046e+09	0.046875	-0.210938	-0.09375	0.03125	-0.0625	-0.1875	-0.0625	38	60	44	36	40	54	39
1.5046e+09	0.0546875	-0.210938	-0.101562	0.03125	-0.0625	-0.1875	-0.0625	38	60	44	36	40	54	39
1.5046e+09	0.046875	-0.210938	-0.101562	0.03125	-0.0625	-0.1875	-0.0625	38	60	44	36	40	54	39
1.5046e+09	0.0546875	-0.210938	-0.09375	0.03125	-0.0625	-0.1875	-0.0625	38	60	44	36	40	54	39
1.5046e+09	0.0546875	-0.210938	-0.101562	0.03125	-0.0625	-0.1875	-0.0625	38	60	44	36	40	54	39
1.5046e+09	0.0546875	-0.210938	-0.09375	0.03125	-0.0625	-0.1875	-0.0625	38	60	44	36	40	54	39
1.5046e+09	0.046875	-0.210938	-0.101562	0.03125	-0.0625	-0.1875	-0.0625	38	60	44	36	40	54	39
1.5046e+09	0.0546875	-0.210938	-0.09375	0.03125	-0.0625	-0.1875	-0.0625	38	60	44	36	40	54	39
1.5046e+09	0.0546875	-0.210938	-0.09375	0.03125	-0.0625	-0.1875	-0.0625	38	60	44	36	40	54	39
1.5046e+09	0.0546875	-0.210938	-0.101562	0.03125	-0.0625	-0.1875	-0.0625	38	60	44	36	40	54	39
1.5046e+09	0.0546875	-0.210938	-0.09375	0.03125	-0.0625	-0.1875	-0.0625	38	63	44	36	40	54	39
1.5046e+09	0.0546875	-0.210938	-0.101562	0.03125	-0.0625	-0.1875	-0.0625	38	63	44	36	40	54	39
1.5046e+09	0.046875	-0.210938	-0.101562	0.03125	-0.0625	-0.195312	-0.0625	38	63	44	36	40	54	39
1.5046e+09	0.046875	-0.210938	-0.101562	0.03125	-0.0625	-0.1875	-0.0625	38	63	44	36	40	54	39
1.5046e+09	0.046875	-0.210938	-0.101562	0.0234375	-0.0625	-0.1875	-0.0625	38	63	44	36	40	54	39
1.5046e+09	0.0390625	-0.210938	-0.09375	0.0234375	-0.0625	-0.1875	-0.0625	38	60	44	36	40	54	39
1.5046e+09	0.0390625	-0.210938	-0.09375	0.015625	-0.0625	-0.1875	-0.0546875	38	60	44	36	40	54	39
1.5046e+09	0.0390625	-0.210938	-0.101562	0.015625	-0.0625	-0.1875	-0.046875	38	60	44	36	40	54	39
1.5046e+09	0.03125	-0.210938	-0.101562	0	-0.0625	-0.1875	-0.046875	38	60	44	36	40	54	40
1.5046e+09	0.0234375	-0.210938	-0.101562	0	-0.0625	-0.195312	-0.0390625	38	60	44	36	40	54	40
1.5046e+09	0.0078125	-0.210938	-0.101562	-0.015625	-0.0625	-0.1875	-0.0390625	38	60	44	36	40	54	40
1.5046e+09	0	-0.210938	-0.09375	-0.0234375	-0.0625	-0.195312	-0.0234375	38	60	44	36	40	54	40
1.5046e+09	-0.015625	-0.210938	-0.101562	-0.0390625	-0.0625	-0.1875	-0.0234375	38	60	44	36	40	54	40
1.5046e+09	-0.0234375	-0.210938	-0.101562	-0.046875	-0.0625	-0.195312	-0.015625	38	60	44	36	40	53	39
1.5046e+09	-0.0390625	-0.210938	-0.101562	-0.0625	-0.0625	-0.1875	-0.0078125	38	60	44	36	40	53	39
1.5046e+09	-0.046875	-0.210938	-0.101562	-0.0439453	-0.0625	-0.1875	0	38	60	44	36	40	53	39
1.5046e+09	-0.0625	-0.210938	-0.101562	-0.0595703	-0.0625	-0.1875	0.0078125	38	60	44	36	40	53	39
1.5046e+09	-0.0537109	-0.210938	-0.101562	-0.0595703	-0.0625	-0.1875	0.0234375	38	60	44	36	40	53	39
1.5046e+09	-0.0322266	-0.210938	-0.101562	-0.0537109	-0.0625	-0.1875	0.03125	38	60	44	36	40	54	39
1.5046e+09	-0.0458984	-0.210938	-0.09375	-0.0537109	-0.0625	-0.1875	0.0390625	38	60	44	36	40	54	39
1.5046e+09	-0.0478516	-0.210938	-0.09375	-0.0556641	-0.0625	-0.1875	0.0546875	38	60	44	36	40	54	39
1.5046e+09	-0.0341797	-0.210938	-0.09375	-0.0556641	-0.0625	-0.1875	0.0625	38	60	44	36	40	54	39
1.5046e+09	-0.0263672	-0.210938	-0.101562	-0.0419922	-0.0625	-0.1875	0.0859375	38	60	44	36	40	54	39
1.5046e+09	-0.0615234	-0.210938	-0.101562	-0.0419922	-0.0625	-0.1875	0.09375	38	60	44	36	40	54	39
1.5046e+09	-0.0400391	-0.210938	-0.101562	-0.0419922	-0.0625	-0.1875	0.109375	38	60	44	36	40	54	39
1.5046e+09	-0.0556641	-0.210938	-0.101562	-0.0634766	-0.0625	-0.1875	0.125	38	60	44	36	40	54	39
1.5046e+09	-0.0634766	-0.210938	-0.101562	-0.0576172	-0.0625	-0.1875	0.114258	38	60	44	36	40	54	39
1.5046e+09	-0.0390625	-0.210938	-0.101562	-0.046875	-0.0625	-0.1875	0.108398	38	60	44	36	40	54	39
1.5046e+09	-0.0175781	-0.210938	-0.09375	-0.0517578	-0.0625	-0.1875	0.102539	38	60	44	36	40	54	39
1.5046e+09	-0.0576172	-0.210938	-0.101562	-0.0390625	-0.0625	-0.1875	0.0888672	38	60	44	36	40	54	39
1.5046e+09	-0.0390625	-0.210938	-0.101562	-0.046875	-0.0625	-0.1875	0.0810547	38	60	44	36	40	54	39
1.5046e+09	-0.046875	-0.210938	-0.101562	-0.0654297	-0.0625	-0.1875	0.0732422	38	60	44	36	40	54	39
1.5046e+09	-0.0390625	-0.210938	-0.09375	-0.0595703	-0.0625	-0.1875	0.0654297	38	60	44	36	40	54	39
1.5046e+09	-0.0410156	-0.210938	-0.101562	-0.0751953	-0.0625	-0.195312	0.0576172	38	60	44	36	40	54	39
1.5046e+09	-0.0332031	-0.210938	-0.101562	-0.0488281	-0.0625	-0.195312	0.0712891	38	60	44	36	40	54	39
1.5046e+09	-0.046875	-0.210938	-0.09375	-0.0703125	-0.0625	-0.1875	0.0654297	38	60	44	36	40	54	39
1.5046e+09	-0.0410156	-0.210938	-0.101562	-0.0507812	-0.0625	-0.1875	0.0791016	38	60	44	36	40	54	39
1.5046e+09	-0.0371094	-0.210938	-0.101562	-0.0664062	-0.0625	-0.1875	0.0869141	38	60	44	36	40	54	39
1.5046e+09	-0.0292969	-0.210938	-0.09375	-0.0449219	-0.0625	-0.1875	0.0947266	38	60	44	36	40	54	39
1.5046e+09	-0.0429688	-0.210938	-0.09375	-0.0527344	-0.0625	-0.1875	0.102539	38	60	44	36	40	54	39
1.5046e+09	-0.0351562	-0.210938	-0.09375	-0.03125	-0.0625	-0.1875	0.0966797	38	60	44	36	40	54	39
1.5046e+09	-0.0429688	-0.210938	-0.101562	-0.0585938	-0.0625	-0.1875	0.0830078	38	60	44	36	40	54	39
1.5046e+09	-0.0292969	-0.210938	-0.09375	-0.03125	-0.0625	-0.1875	0.0888672	38	60	44	36	40	54	39
1.5046e+09	-0.0371094	-0.210938	-0.09375	-0.0449219	-0.0625	-0.1875	0.0625	38	60	44	36	40	54	39
1.5046e+09	-0.0292969	-0.210938	-0.101562	-0.0449219	-0.0625	-0.1875	0.0673828	38	60	44	36	40	54	39
1.5046e+09	-0.0507812	-0.210938	-0.101562	-0.046875	-0.0625	-0.1875	0.0673828	38	60	44	36	40	54	39
1.5046e+09	-0.0507812	-0.210938	-0.101562	-0.0527344	-0.0625	-0.1875	0.0390625	38	60	44	36	40	54	39
1.5046e+09	-0.046875	-0.210938	-0.101562	-0.0546875	-0.0625	-0.1875	0.0654297	38	60	44	36	40	54	39
1.5046e+09	-0.0410156	-0.210938	-0.101562	-0.046875	-0.0625	-0.1875	0.0732422	38	60	44	36	40	54	39
1.5046e+09	-0.0332031	-0.210938	-0.09375	-0.0546875	-0.0703125	-0.1875	0.0810547	38	60	44	36	40	54	39
1.5046e+09	-0.0253906	-0.210938	-0.101562	-0.046875	-0.0625	-0.1875	0.102539	38	60	44	36	40	54	39
1.5046e+09	-0.0332031	-0.210938	-0.09375	-0.0361328	-0.0625	-0.1875	0.104492	38	60	44	36	40	54	39
1.5046e+09	-0.0253906	-0.210938	-0.09375	-0.0253906	-0.0625	-0.1875	0.118164	38	60	44	36	40	54	39
1.5046e+09	-0.0332031	-0.210938	-0.101562	-0.046875	-0.0625	-0.1875	0.0986328	38	60	44	36	40	54	39
1.5046e+09	-0.0332031	-0.210938	-0.09375	-0.0390625	-0.0625	-0.1875	0.106445	38	60	44	36	40	54	39
1.5046e+09	-0.0410156	-0.210938	-0.101562	-0.0546875	-0.0625	-0.1875	0.106445	38	60	44	36	40	54	39
1.5046e+09	-0.0253906	-0.210938	-0.09375	-0.0253906	-0.0625	-0.1875	0.0859375	38	60	44	36	40	54	39
1.5046e+09	-0.0283203	-0.210938	-0.101562	-0.0546875	-0.0625	-0.1875	0.0722656	38	60	44	36	40	54	39
1.5046e+09	-0.0175781	-0.210938	-0.09375	-0.0332031	-0.0625	-0.195312	0.0644531	38	60	44	36	40	54	39
1.5046e+09	-0.0527344	-0.210938	-0.101562	-0.0410156	-0.0625	-0.1875	0.0488281	38	60	44	36	40	54	39
1.5046e+09	-0.0175781	-0.210938	-0.09375	-0.03125	-0.0625	-0.1875	0.0673828	38	60	44	36	40	54	39
1.5046e+09	-0.046875	-0.210938	-0.09375	-0.0527344	-0.0625	-0.1875	0.0751953	38	60	44	36	40	54	39
1.5046e+09	-0.0546875	-0.210938	-0.09375	-0.0488281	-0.0625	-0.1875	0.0888672	38	60	44	36	40	54	39
1.5046e+09	-0.0488281	-0.210938	-0.101562	-0.0488281	-0.0625	-0.1875	0.0830078	38	60	44	36	40	54	39
1.5046e+09	-0.0205078	-0.210938	-0.09375	-0.0205078	-0.0625	-0.1875	0.0751953	38	60	44	36	40	54	39
1.5046e+09	-0.0283203	-0.210938	-0.101562	-0.0332031	-0.0625	-0.1875	0.0966797	38	60	44	36	40	54	39
1.5046e+09	-0.0390625	-0.210938	-0.101562	-0.0205078	-0.0625	-0.1875	0.0888672	38	60	44	36	40	54	39
1.5046e+09	-0.0449219	-0.210938	-0.09375	-0.0332031	-0.0625	-0.1875	0.0888672	38	60	44	36	40	54	39
1.5046e+09	-0.0527344	-0.210938	-0.09375	-0.015625	-0.0625	-0.1875	0.0830078	38	60	44	36	40	54	39
1.5046e+09	-0.00976562	-0.210938	-0.101562	-0.0449219	-0.0625	-0.1875	0.0966797	38	60	44	36	40	54	39
1.5046e+09	-0.0585938	-0.210938	-0.09375	-0.046875	-0.0625	-0.1875	0.0986328	38	60	44	36	40	54	39
1.5046e+09	-0.046875	-0.210938	-0.101562	-0.0410156	-0.0625	-0.1875	0.0986328	38	60	44	36	40	54	39
1.5046e+09	-0.0546875	-0.210938	-0.09375	-0.0283203	-0.0625	-0.1875	0.0908203	38	60	44	36	40	54	39
1.5046e+09	-0.0283203	-0.210938	-0.101562	-0.0332031	-0.0625	-0.1875	0.078125	38	60	44	36	40	54	39
1.5046e+09	-0.0332031	-0.210938	-0.09375	-0.03125	-0.0625	-0.1875	0.0830078	38	60	45	36	40	54	39
1.5046e+09	-0.0390625	-0.210938	-0.09375	-0.0449219	-0.0625	-0.1875	0.0830078	38	60	45	36	40	54	39
1.5046e+09	-0.0449219	-0.210938	-0.09375	-0.0234375	-0.0625	-0.1875	0.0751953	38	60	45	36	40	54	39
1.5046e+09	-0.0371094	-0.210938	-0.101562	-0.0371094	-0.0625	-0.1875	0.0810547	38	60	45	36	40	54	39
1.5046e+09	-0.0371094	-0.210938	-0.09375	-0.0214844	-0.0625	-0.1875	0.0810547	38	60	44	36	40	54	39
1.5046e+09	-0.0429688	-0.210938	-0.101562	-0.0292969	-0.0625	-0.1875	0.0888672	38	60	44	36	40	54	39
1.5046e+09	-0.015625	-0.210938	-0.101562	-0.0117188	-0.0625	-0.1875	0.0732422	38	60	44	36	40	54	39
1.5046e+09	-0.0195312	-0.210938	-0.101562	-0.0390625	-0.0625	-0.1875	0.0947266	38	60	44	36	40	54	39
1.5046e+09	-0.0595703	-0.210938	-0.101562	-0.0488281	-0.0625	-0.1875	0.108398	38	60	44	36	40	54	39
1.5046e+09	-0.0488281	-0.210938	-0.101562	-0.0429688	-0.0625	-0.1875	0.110352	38	60	44	36	40	54	39
1.5046e+09	-0.0429688	-0.210938	-0.101562	-0.0214844	-0.0625	-0.1875	0.104492	38	60	44	36	40	54	39
1.5046e+09	-0.0351562	-0.210938	-0.101562	-0.0195312	-0.0625	-0.1875	0.110352	38	60	44	36	40	54	39
1.5046e+09	-0.0332031	-0.210938	-0.09375	-0.0253906	-0.0625	-0.1875	0.0810547	38	60	44	36	40	54	39
1.5046e+09	-0.0253906	-0.210938	-0.101562	-0.03125	-0.0625	-0.1875	0.0869141	38	60	44	36	40	54	39
1.5046e+09	-0.0517578	-0.210938	-0.09375	-0.0390625	-0.0625	-0.1875	0.0927734	38	60	44	36	40	54	39
1.5046e+09	-0.0332031	-0.210938	-0.09375	-0.0253906	-0.0625	-0.1875	0.0927734	38	60	44	36	40	54	39
1.5046e+09	-0.0332031	-0.210938	-0.101562	-0.03125	-0.0625	-0.1875	0.0986328	38	60	44	36	40	54	39
1.5046e+09	-0.0234375	-0.210938	-0.101562	-0.0234375	-0.0625	-0.1875	0.0927734	38	60	44	36	40	54	39
1.5046e+09	-0.0634766	-0.210938	-0.101562	-0.0361328	-0.0625	-0.195312	0.0927734	38	60	44	36	40	54	39
1.5046e+09	-0.0693359	-0.210938	-0.09375	-0.0283203	-0.0625	-0.1875	0.0869141	38	60	44	36	40	54	39
1.5046e+09	-0.0390625	-0.210938	-0.09375	-0.0419922	-0.0625	-0.1875	0.0849609	38	60	44	36	40	54	39
1.5046e+09	-0.0517578	-0.210938	-0.101562	-0.0419922	-0.0625	-0.1875	0.0849609	38	60	44	36	40	54	39
1.5046e+09	-0.0576172	-0.210938	-0.101562	-0.0419922	-0.0625	-0.1875	0.0849609	38	60	44	36	40	54	39
1.5046e+09	-0.0556641	-0.210938	-0.09375	-0.0263672	-0.0625	-0.1875	0.0908203	38	60	44	36	40	54	39
1.5046e+09	-0.0498047	-0.210938	-0.09375	-0.0322266	-0.0625	-0.1875	0.109375	38	60	44	36	40	54	39
1.5046e+09	-0.0341797	-0.210938	-0.101562	-0.0244141	-0.0625	-0.1875	0.125	38	60	44	36	40	54	39
1.5046e+09	-0.0341797	-0.210938	-0.09375	-0.0244141	-0.0625	-0.1875	0.132812	38	60	44	36	40	54	39
1.5046e+09	-0.0400391	-0.210938	-0.101562	-0.0380859	-0.0625	-0.1875	0.148438	38	60	44	36	40	54	39
1.5046e+09	-0.0537109	-0.210938	-0.101562	-0.0380859	-0.0625	-0.1875	0.140625	38	60	44	36	40	54	39
1.5046e+09	-0.0537109	-0.210938	-0.101562	-0.0302734	-0.0625	-0.1875	0.15625	38	60	44	36	40	54	39
1.5046e+09	-0.0478516	-0.210938	-0.101562	-0.0439453	-0.0625	-0.1875	0.164062	38	60	44	36	40	54	39
1.5046e+09	-0.0322266	-0.210938	-0.09375	-0.0302734	-0.0625	-0.1875	0.171875	38	60	44	36	40	54	39
1.5046e+09	-0.0302734	-0.210938	-0.09375	-0.0361328	-0.0625	-0.1875	0.171875	38	60	44	36	40	54	39
1.5046e+09	-0.0224609	-0.210938	-0.101562	-0.0283203	-0.0625	-0.1875	0.1875	38	60	44	36	40	54	39
1.5046e+09	-0.0283203	-0.210938	-0.101562	-0.0283203	-0.0625	-0.1875	0.179688	38	60	44	36	40	54	39
1.5046e+09	-0.0205078	-0.210938	-0.09375	-0.0283203	-0.0625	-0.1875	0.171875	38	60	44	36	40	54	39
1.5046e+09	-0.046875	-0.210938	-0.101562	-0.0390625	-0.0625	-0.1875	0.145508	38	60	44	36	40	54	39
1.5046e+09	-0.0390625	-0.210938	-0.09375	-0.0390625	-0.0625	-0.1875	0.145508	38	60	44	36	40	54	39
1.5046e+09	-0.0546875	-0.210938	-0.09375	-0.03125	-0.0625	-0.195312	0.148438	38	60	44	36	40	54	39
1.5046e+09	-0.046875	-0.210938	-0.09375	-0.0390625	-0.0625	-0.1875	0.12207	38	60	44	36	40	54	39
1.5046e+09	-0.0546875	-0.210938	-0.101562	-0.0390625	-0.0625	-0.1875	0.125	38	60	44	36	40	54	39
1.5046e+09	-0.0546875	-0.210938	-0.09375	-0.03125	-0.0625	-0.1875	0.125	38	60	44	36	40	54	39
1.5046e+09	-0.046875	-0.210938	-0.09375	-0.03125	-0.0625	-0.1875	0.125	38	60	44	36	40	54	39
1.5046e+09	-0.046875	-0.210938	-0.09375	-0.03125	-0.0625	-0.1875	0.125	38	60	44	36	40	54	39
1.5046e+09	-0.046875	-0.210938	-0.09375	-0.03125	-0.0625	-0.1875	0.125	38	60	44	36	40	54	39
1.5046e+09	-0.046875	-0.210938	-0.101562	-0.03125	-0.0625	-0.1875	0.125	38	60	44	36	40	54	39
1.5046e+09	-0.046875	-0.210938	-0.09375	-0.03125	-0.0625	-0.1875	0.125	38	60	44	36	40	54	39
1.5046e+09	-0.046875	-0.210938	-0.09375	-0.03125	-0.0625	-0.1875	0.125	38	60	44	36	40	54	39
1.5046e+09	-0.046875	-0.210938	-0.09375	-0.0234375	-0.0625	-0.195312	0.125	38	60	44	36	40	54	39
1.5046e+09	-0.046875	-0.210938	-0.0859375	-0.03125	-0.0625	-0.195312	0.125	38	60	44	36	40	54	39
1.5046e+09	-0.046875	-0.210938	-0.0859375	-0.03125	-0.0625	-0.1875	0.125	38	60	44	36	40	54	39
1.5046e+09	-0.046875	-0.203125	-0.0859375	-0.03125	-0.0703125	-0.179688	0.125	38	60	44	36	40	54	39
1.5046e+09	-0.046875	-0.203125	-0.078125	-0.03125	-0.0703125	-0.179688	0.125	38	60	44	36	40	54	39
1.5046e+09	-0.046875	-0.203125	-0.0859375	-0.03125	-0.0703125	-0.171875	0.125	38	60	44	36	40	54	39
1.5046e+09	-0.046875	-0.1875	-0.078125	-0.03125	-0.0703125	-0.171875	0.125	38	60	44	36	40	54	39
1.5046e+09	-0.046875	-0.1875	-0.0703125	-0.03125	-0.078125	-0.164062	0.125	38	60	44	36	40	54	39
1.5046e+09	-0.046875	-0.179688	-0.0703125	-0.03125	-0.078125	-0.164062	0.125	38	60	44	36	40	54	39
1.5046e+09	-0.046875	-0.171875	-0.0546875	-0.03125	-0.0859375	-0.148438	0.125	38	60	44	36	40	54	39
1.5046e+09	-0.046875	-0.164062	-0.046875	-0.03125	-0.0859375	-0.15625	0.125	38	60	44	36	40	54	39
1.5046e+09	-0.046875	-0.15625	-0.0390625	-0.03125	-0.09375	-0.140625	0.125	38	60	44	36	40	54	39
1.5046e+09	-0.046875	-0.140625	-0.03125	-0.03125	-0.09375	-0.132812	0.125	38	60	44	36	40	54	39
1.5046e+09	-0.046875	-0.132812	-0.0234375	-0.03125	-0.09375	-0.132812	0.125	38	60	44	36	40	54	39
1.5046e+09	-0.046875	-0.125	-0.015625	-0.03125	-0.109375	-0.117188	0.125	38	60	44	36	40	54	39
1.5046e+09	-0.046875	-0.101562	0	-0.03125	-0.109375	-0.117188	0.125	38	60	44	36	40	54	39
1.5046e+09	-0.046875	-0.0859375	0.0234375	-0.03125	-0.117188	-0.101562	0.125	38	60	44	36	40	54	39
1.5046e+09	-0.046875	-0.0625	0.0126953	-0.03125	-0.117188	-0.09375	0.125	38	60	44	36	40	54	39
1.5046e+09	-0.046875	-0.046875	0.00683594	-0.03125	-0.132812	-0.078125	0.125	38	60	44	36	40	54	39
1.5046e+09	-0.046875	-0.03125	0.000976562	-0.03125	-0.140625	-0.0703125	0.125	38	60	44	36	40	54	39
1.5046e+09	-0.046875	-0.0263672	0.000976562	-0.03125	-0.15625	-0.0546875	0.125	38	60	44	36	40	54	39
1.5046e+09	-0.046875	-0.0302734	0.000976562	-0.03125	-0.15625	-0.046875	0.125	38	60	44	36	40	54	39
1.5046e+09	-0.046875	-0.0458984	0.00878906	-0.03125	-0.171875	-0.0498047	0.125	38	60	44	37	40	54	39
1.5046e+09	-0.046875	-0.0517578	0.000976562	-0.03125	-0.179688	-0.0634766	0.125	38	60	44	37	40	54	39
1.5046e+09	-0.046875	-0.0458984	0.00878906	-0.03125	-0.195312	-0.0634766	0.125	38	60	44	37	40	54	39
1.5046e+09	-0.046875	-0.0517578	-0.00488281	-0.03125	-0.210938	-0.0712891	0.125	38	60	44	37	40	54	39
1.5046e+09	-0.0546875	-0.0458984	0.000976562	-0.03125	-0.226562	-0.0576172	0.125	38	60	44	36	40	54	39
1.5046e+09	-0.0546875	-0.0302734	0.00292969	-0.03125	-0.242188	-0.0498047	0.125	38	60	44	36	40	54	39
1.5046e+09	-0.046875	-0.0146484	0.00292969	-0.03125	-0.25	-0.0556641	0.125	38	60	44	36	40	54	39
1.5046e+09	-0.046875	-0.0205078	-0.00292969	-0.03125	-0.239258	-0.0693359	0.125	38	60	44	36	40	54	39
1.5046e+09	-0.046875	-0.0341797	-0.00292969	-0.03125	-0.239258	-0.0771484	0.125	38	60	44	36	40	54	39
1.5046e+09	-0.0546875	-0.0263672	-0.0078125	-0.03125	-0.211914	-0.0498047	0.125	38	60	44	36	40	54	39
1.5046e+09	-0.046875	-0.03125	0.00292969	-0.03125	-0.211914	-0.0693359	0.125	38	60	44	36	40	54	39
1.5046e+09	-0.046875	-0.0449219	-0.00292969	-0.0234375	-0.19043	-0.0751953	0.125	38	60	44	36	40	54	39
1.5046e+09	-0.046875	-0.0605469	0.0107422	-0.0234375	-0.182617	-0.0771484	0.125	38	60	44	36	40	54	39
1.5046e+09	-0.0546875	-0.0546875	0.00488281	-0.0234375	-0.188477	-0.0498047	0.125	38	60	44	36	40	54	39
1.5046e+09	-0.046875	-0.0703125	0.00488281	-0.015625	-0.194336	-0.0478516	0.125	38	60	44	36	40	54	39
1.5046e+09	-0.0546875	-0.0625	0.0078125	-0.015625	-0.202148	-0.0615234	0.125	38	60	44	36	40	54	39
1.5046e+09	-0.046875	-0.0576172	-0.0078125	-0.015625	-0.202148	-0.0693359	0.117188	38	60	44	36	40	54	39
1.5046e+09	-0.0546875	-0.0283203	0.0078125	-0.015625	-0.209961	-0.0556641	0.125	38	60	44	36	40	54	39
1.5046e+09	-0.046875	-0.0263672	0.0205078	-0.015625	-0.211914	-0.0556641	0.125	38	60	44	36	40	54	39
1.5046e+09	-0.046875	-0.0292969	0.00976562	-0.015625	-0.213867	-0.0693359	0.125	38	60	44	36	40	54	39
1.5046e+09	-0.046875	-0.0371094	-0.0117188	-0.015625	-0.208008	-0.0556641	0.125	38	60	44	36	40	54	39
1.5046e+09	-0.0546875	-0.0371094	-0.00390625	-0.015625	-0.208008	-0.0634766	0.125	38	60	44	36	40	54	39
1.5046e+09	-0.046875	-0.0722656	-0.0117188	-0.015625	-0.208008	-0.0556641	0.125	38	60	44	36	40	54	39
1.5046e+09	-0.046875	-0.0644531	-0.0117188	-0.015625	-0.200195	-0.0556641	0.125	38	60	44	36	40	54	39
1.5046e+09	-0.046875	-0.0878906	-0.0136719	-0.015625	-0.171875	-0.0556641	0.125	38	60	44	36	40	54	39
1.5046e+09	-0.0546875	-0.0742188	0.0078125	-0.015625	-0.18457	-0.0615234	0.125	38	60	44	36	40	54	39
1.5046e+09	-0.0546875	-0.0761719	-0.0117188	-0.0078125	-0.176758	-0.0576172	0.125	38	60	44	36	40	54	39
1.5046e+09	-0.0546875	-0.0683594	-0.00390625	-0.0078125	-0.18457	-0.0498047	0.125	38	60	44	36	40	54	39
1.5046e+09	-0.046875	-0.0683594	-0.0117188	-0.0078125	-0.198242	-0.0498047	0.125	38	60	44	36	40	54	39
1.5046e+09	-0.0546875	-0.0683594	0.00195312	-0.0078125	-0.192383	-0.03125	0.125	38	60	44	36	40	54	39
1.5046e+09	-0.0546875	-0.0742188	0.00195312	-0.0078125	-0.192383	-0.0556641	0.125	38	60	44	36	40	54	39
1.5046e+09	-0.0546875	-0.0742188	-0.00976562	-0.0078125	-0.1875	-0.0419922	0.125	38	60	44	36	40	54	39
1.5046e+09	-0.046875	-0.0957031	-0.0117188	-0.0078125	-0.1875	-0.0556641	0.125	39	60	44	36	40	54	39
1.5046e+09	-0.046875	-0.0820312	-0.0117188	-0.0078125	-0.181641	-0.0556641	0.125	39	60	44	36	40	54	39
1.5046e+09	-0.046875	-0.0917969	0	-0.0078125	-0.171875	-0.0419922	0.125	39	60	44	36	40	54	39
1.5046e+09	-0.0546875	-0.0898438	0.0078125	-0.0078125	-0.171875	-0.0498047	0.125	39	60	44	36	40	54	39
1.5046e+09	-0.046875	-0.0996094	-0.0273438	-0.0078125	-0.15625	-0.03125	0.125	39	60	44	36	40	54	39
1.5046e+09	-0.0546875	-0.105469	-0.00585938	-0.0078125	-0.164062	-0.03125	0.125	38	60	44	36	40	54	39
1.5046e+09	-0.0546875	-0.0839844	0.00195312	-0.0078125	-0.176758	-0.03125	0.125	38	60	44	36	40	54	39
1.5046e+09	-0.0546875	-0.0898438	-0.0175781	-0.0078125	-0.192383	-0.0498047	0.125	38	60	44	36	40	54	39
1.5046e+09	-0.0546875	-0.111328	-0.0117188	-0.0078125	-0.171875	-0.0498047	0.125	38	60	44	36	40	54	39
1.5046e+09	-0.0546875	-0.119141	-0.0117188	-0.0078125	-0.179688	-0.03125	0.125	38	60	44	36	40	54	39
1.5046e+09	-0.046875	-0.121094	-0.0136719	-0.0078125	-0.171875	-0.03125	0.125	38	60	44	36	40	54	39
1.5046e+09	-0.0546875	-0.0888672	-0.0078125	-0.0078125	-0.166016	-0.03125	0.117188	38	60	44	36	40	54	39
1.5046e+09	-0.0546875	-0.09375	0.0078125	-0.0078125	-0.171875	-0.0234375	0.125	38	60	44	36	40	54	39
1.5046e+09	-0.0546875	-0.0917969	-0.0117188	0	-0.179688	-0.03125	0.125	38	60	44	36	40	54	39
1.5046e+09	-0.0546875	-0.0917969	-0.00585938	0	-0.171875	-0.03125	0.125	38	60	44	36	40	54	39
1.5046e+09	-0.0546875	-0.107422	-0.0136719	0	-0.166016	-0.03125	0.117188	38	60	44	36	40	54	39
1.5046e+09	-0.0546875	-0.107422	-0.0136719	0	-0.142578	-0.03125	0.125	38	60	44	36	40	54	39
1.5046e+09	-0.0546875	-0.115234	-0.0078125	0	-0.142578	-0.03125	0.117188	38	60	44	36	40	54	39
1.5046e+09	-0.0546875	-0.115234	0.00488281	0	-0.148438	-0.03125	0.117188	38	60	44	36	40	54	39
1.5046e+09	-0.0546875	-0.104492	-0.0078125	0.0078125	-0.161133	-0.03125	0.125	38	60	44	36	40	54	39
1.5046e+09	-0.0546875	-0.0966797	-0.00292969	0.0078125	-0.161133	-0.03125	0.125	38	60	44	36	40	54	39
1.5046e+09	-0.0546875	-0.0966797	-0.0107422	0.015625	-0.161133	-0.0390625	0.125	38	60	44	36	40	54	39
1.5046e+09	-0.0546875	-0.115234	-0.00292969	0.015625	-0.176758	-0.0390625	0.125	38	60	44	36	40	54	39
1.5046e+09	-0.0546875	-0.109375	-0.015625	0.015625	-0.150391	-0.046875	0.125	38	60	44	36	40	54	39
1.5046e+09	-0.0546875	-0.117188	-0.00292969	0.015625	-0.142578	-0.046875	0.117188	38	60	44	36	40	54	39
1.5046e+09	-0.0546875	-0.140625	-0.0234375	0.015625	-0.126953	-0.0546875	0.125	38	60	44	36	40	54	39
1.5046e+09	-0.0546875	-0.148438	-0.00488281	0.0234375	-0.145508	-0.0546875	0.117188	38	60	44	36	40	54	39
1.5046e+09	-0.0546875	-0.151367	-0.0263672	0.015625	-0.143555	-0.0703125	0.125	38	60	44	36	40	54	39
1.5046e+09	-0.0546875	-0.118164	-0.0185547	0.0234375	-0.151367	-0.0703125	0.125	38	60	44	36	40	54	39
1.5046e+09	-0.0546875	-0.116211	-0.0205078	0.0234375	-0.165039	-0.078125	0.125	38	60	44	36	40	54	39
1.5046e+09	-0.0546875	-0.116211	-0.0146484	0.0234375	-0.180664	-0.078125	0.125	38	60	44	36	40	54	39
1.5046e+09	-0.0546875	-0.12207	-0.00878906	0.0234375	-0.196289	-0.0859375	0.125	38	60	44	36	40	54	39
1.5046e+09	-0.0546875	-0.108398	-0.0146484	0.0234375	-0.168945	-0.0859375	0.117188	38	60	44	36	40	54	39
1.5046e+09	-0.0546875	-0.108398	-0.0205078	0.0234375	-0.148438	-0.0859375	0.125	38	60	44	36	40	54	39
1.5046e+09	-0.0546875	-0.116211	-0.00683594	0.03125	-0.166992	-0.078125	0.117188	38	60	44	36	40	54	39
1.5046e+09	-0.0546875	-0.12207	-0.0146484	0.0234375	-0.15918	-0.078125	0.125	38	60	44	36	40	54	39
1.5046e+09	-0.0546875	-0.129883	-0.0224609	0.0234375	-0.137695	-0.078125	0.117188	38	60	44	36	40	54	39
1.5046e+09	-0.0546875	-0.125977	-0.00878906	0.0234375	-0.149414	-0.0595703	0.125	38	60	44	36	40	54	39
1.5046e+09	-0.0546875	-0.125977	-0.0166016	0.0234375	-0.12793	-0.0517578	0.125	38	60	44	36	40	54	39
1.5046e+09	-0.0546875	-0.120117	-0.0302734	0.03125	-0.147461	-0.0517578	0.125	38	60	44	36	40	54	39
1.5046e+09	-0.0546875	-0.112305	-0.0107422	0.03125	-0.147461	-0.0703125	0.125	38	60	44	36	40	54	39
1.5046e+09	-0.0546875	-0.112305	-0.0107422	0.0234375	-0.155273	-0.0703125	0.125	38	60	44	36	40	54	39
1.5046e+09	-0.0546875	-0.125977	-0.0244141	0.0234375	-0.168945	-0.0703125	0.117188	38	60	44	36	40	54	39
1.5046e+09	-0.0546875	-0.125977	-0.0244141	0.0234375	-0.147461	-0.0703125	0.125	38	60	44	36	40	54	39
1.5046e+09	-0.0546875	-0.141602	-0.0400391	0.0234375	-0.155273	-0.0625	0.117188	38	60	44	36	40	54	39
1.5046e+09	-0.0546875	-0.143555	-0.0400391	0.0234375	-0.139648	-0.0703125	0.125	38	60	44	36	40	54	39
1.5046e+09	-0.0546875	-0.143555	-0.0234375	0.03125	-0.131836	-0.0625	0.125	38	60	44	36	40	54	39
1.5046e+09	-0.0546875	-0.125	-0.015625	0.0234375	-0.137695	-0.0439453	0.117188	38	60	44	36	40	54	39
1.5046e+09	-0.0546875	-0.135742	-0.0341797	0.0234375	-0.15625	-0.0546875	0.117188	38	60	44	36	40	54	39
1.5046e+09	-0.0546875	-0.132812	-0.03125	0.0234375	-0.15625	-0.0546875	0.125	38	60	44	36	40	54	39
1.5046e+09	-0.0546875	-0.125	-0.0234375	0.03125	-0.164062	-0.0546875	0.125	38	60	44	36	40	54	39
1.5046e+09	-0.0546875	-0.125	-0.03125	0.0234375	-0.164062	-0.0546875	0.117188	38	60	44	36	40	54	39
1.5046e+09	-0.0546875	-0.109375	-0.03125	0.0234375	-0.15625	-0.046875	0.125	38	60	44	36	40	54	39
1.5046e+09	-0.0546875	-0.117188	-0.03125	0.0234375	-0.164062	-0.046875	0.117188	38	60	44	36	40	54	39
1.5046e+09	-0.0546875	-0.109375	-0.0234375	0.03125	-0.171875	-0.046875	0.117188	38	60	44	36	40	54	39
1.5046e+09	-0.0546875	-0.109375	-0.0234375	0.0234375	-0.171875	-0.0546875	0.117188	38	60	44	36	40	54	39
1.5046e+09	-0.0546875	-0.109375	-0.0234375	0.0234375	-0.171875	-0.0546875	0.125	38	60	44	36	40	54	39
1.5046e+09	-0.0546875	-0.109375	-0.0234375	0.0234375	-0.171875	-0.046875	0.125	38	60	44	36	40	53	39
1.5046e+09	-0.0546875	-0.109375	-0.03125	0.0234375	-0.179688	-0.046875	0.125	38	60	44	36	40	53	39
1.5046e+09	-0.0546875	-0.109375	-0.03125	0.0234375	-0.171875	-0.046875	0.117188	38	60	44	36	40	53	39
1.5046e+09	-0.0546875	-0.09375	-0.03125	0.0234375	-0.171875	-0.046875	0.125	38	60	44	36	40	53	39
1.5046e+09	-0.0546875	-0.101562	-0.0234375	0.0234375	-0.164062	-0.046875	0.117188	38	60	44	36	40	54	39
1.5046e+09	-0.0546875	-0.101562	-0.03125	0.03125	-0.164062	-0.0390625	0.125	38	60	44	36	40	54	39
1.5046e+09	-0.0546875	-0.101562	-0.03125	0.03125	-0.164062	-0.0390625	0.125	38	60	44	36	40	54	39
1.5046e+09	-0.0546875	-0.101562	-0.03125	0.0234375	-0.164062	-0.046875	0.125	38	60	44	36	40	54	39
1.5046e+09	-0.0546875	-0.101562	-0.0234375	0.03125	-0.164062	-0.0390625	0.125	38	60	44	36	40	54	39
1.5046e+09	-0.0546875	-0.09375	-0.03125	0.0234375	-0.164062	-0.0390625	0.125	38	60	44	36	40	54	39
1.5046e+09	-0.0546875	-0.101562	-0.03125	0.03125	-0.164062	-0.0390625	0.117188	38	60	44	36	40	54	39
1.5046e+09	-0.0546875	-0.101562	-0.03125	0.0234375	-0.164062	-0.0390625	0.125	38	60	44	36	40	54	39
1.5046e+09	-0.0546875	-0.101562	-0.03125	0.0234375	-0.164062	-0.0390625	0.125	38	60	44	36	40	54	39
1.5046e+09	-0.0546875	-0.09375	-0.03125	0.03125	-0.164062	-0.0390625	0.117188	38	60	44	36	40	54	39
1.5046e+09	-0.0546875	-0.101562	-0.03125	0.0234375	-0.164062	-0.0390625	0.117188	38	60	44	36	40	54	39
1.5046e+09	-0.046875	-0.109375	-0.0234375	0.03125	-0.15625	-0.03125	0.125	38	60	44	36	40	54	39
1.5046e+09	-0.046875	-0.109375	-0.03125	0.03125	-0.15625	-0.03125	0.125	38	60	44	36	40	54	39
1.5046e+09	-0.046875	-0.109375	-0.03125	0.0390625	-0.15625	-0.03125	0.117188	38	60	44	36	40	54	39
1.5046e+09	-0.046875	-0.109375	-0.03125	0.03125	-0.15625	-0.03125	0.125	38	60	44	36	40	54	39
1.5046e+09	-0.046875	-0.109375	-0.03125	0.03125	-0.15625	-0.03125	0.125	38	60	44	36	40	54	39
1.5046e+09	-0.046875	-0.109375	-0.03125	0.0390625	-0.148438	-0.0234375	0.125	38	60	44	36	40	54	39
1.5046e+09	-0.0390625	-0.109375	-0.03125	0.0390625	-0.148438	-0.0234375	0.125	38	60	44	36	40	54	39
1.5046e+09	-0.0390625	-0.109375	-0.03125	0.0390625	-0.140625	-0.0234375	0.125	38	60	44	36	40	54	39
1.5046e+09	-0.0390625	-0.109375	-0.03125	0.046875	-0.140625	-0.0234375	0.125	38	60	44	36	40	54	39
1.5046e+09	-0.0390625	-0.109375	-0.0390625	0.046875	-0.140625	-0.0234375	0.117188	38	60	44	36	40	54	39
1.5046e+09	-0.03125	-0.109375	-0.03125	0.0546875	-0.140625	-0.015625	0.125	38	60	44	36	40	54	39
1.5046e+09	-0.03125	-0.109375	-0.0390625	0.046875	-0.140625	-0.015625	0.125	38	60	44	36	40	54	39
1.5046e+09	-0.0234375	-0.109375	-0.0390625	0.0546875	-0.132812	-0.015625	0.125	38	60	44	36	40	54	39
1.5046e+09	-0.0234375	-0.109375	-0.0390625	0.0703125	-0.125	-0.0078125	0.125	38	60	44	36	40	54	39
1.5046e+09	-0.015625	-0.117188	-0.0390625	0.0625	-0.117188	-0.015625	0.117188	38	60	44	36	40	54	39
1.5046e+09	-0.0234375	-0.117188	-0.0390625	0.0625	-0.117188	0	0.117188	38	60	44	36	40	54	39
1.5046e+09	-0.015625	-0.117188	-0.046875	0.0703125	-0.117188	0	0.117188	38	60	44	36	40	54	39
1.5046e+09	-0.015625	-0.117188	-0.046875	0.078125	-0.101562	0.0078125	0.125	38	60	44	36	40	54	39
1.5046e+09	-0.015625	-0.117188	-0.0390625	0.078125	-0.101562	0.0078125	0.125	38	60	44	36	40	54	39
1.5046e+09	-0.015625	-0.117188	-0.046875	0.09375	-0.09375	0.015625	0.117188	38	60	44	36	40	54	39
1.5046e+09	-0.015625	-0.125	-0.046875	0.0859375	-0.0859375	0.015625	0.117188	38	60	44	36	40	54	39
1.5046e+09	-0.015625	-0.125	-0.0546875	0.09375	-0.078125	0.0234375	0.117188	38	60	44	36	40	54	39
1.5046e+09	-0.0078125	-0.125	-0.0546875	0.09375	-0.0703125	0.0234375	0.117188	38	60	44	36	40	54	39
1.5046e+09	-0.015625	-0.125	-0.0546875	0.0830078	-0.0625	0.03125	0.125	38	60	44	36	40	54	39
1.5046e+09	-0.0263672	-0.125	-0.0546875	0.09375	-0.0625	0.0234375	0.117188	38	60	44	36	40	54	39
1.5046e+09	-0.015625	-0.132812	-0.0546875	0.0859375	-0.0546875	0.03125	0.125	38	60	44	36	40	54	40
1.5046e+09	-0.015625	-0.132812	-0.0625	0.09375	-0.046875	0.03125	0.117188	38	60	44	36	40	54	40
1.5046e+09	-0.0078125	-0.132812	-0.0546875	0.0859375	-0.046875	0.03125	0.125	38	60	44	36	40	54	40
1.5046e+09	-0.0185547	-0.140625	-0.0625	0.101562	-0.0234375	0.0126953	0.125	38	60	44	36	40	54	40
1.5046e+09	-0.0078125	-0.140625	-0.0625	0.09375	-0.0234375	0.03125	0.117188	38	60	44	36	40	54	40
1.5046e+09	0	-0.140625	-0.0625	0.109375	-0.015625	0.0390625	0.117188	38	60	44	36	40	54	39
1.5046e+09	-0.0078125	-0.140625	-0.0625	0.0830078	-0.0419922	0.03125	0.117188	38	60	44	36	40	54	39
1.5046e+09	-0.0078125	-0.148438	-0.0703125	0.101562	-0.0419922	0.0390625	0.125	38	60	44	36	40	54	39
1.5046e+09	-0.0078125	-0.148438	-0.0703125	0.101562	-0.0419922	0.03125	0.117188	38	60	44	36	40	54	39
1.5046e+09	-0.0078125	-0.148438	-0.078125	0.101562	-0.0234375	0.03125	0.117188	38	60	44	36	40	54	39
1.5046e+09	0.0078125	-0.148438	-0.078125	0.101562	-0.0419922	0.0234375	0.117188	38	60	44	36	40	54	39
1.5046e+09	0.0078125	-0.15625	-0.078125	0.109375	-0.0234375	0.03125	0.117188	38	60	44	36	40	54	39
1.5046e+09	0.0234375	-0.15625	-0.0859375	0.101562	-0.03125	0.03125	0.117188	38	60	44	36	40	54	39
1.5046e+09	0.0234375	-0.15625	-0.0859375	0.101562	-0.015625	0.0390625	0.125	38	60	44	36	40	54	39
1.5046e+09	0.0234375	-0.15625	-0.078125	0.109375	-0.015625	0.03125	0.125	38	60	44	36	40	54	39
1.5046e+09	0.0126953	-0.171875	-0.09375	0.0908203	-0.0341797	0.03125	0.125	38	60	44	36	40	54	39
1.5046e+09	0.0126953	-0.171875	-0.0859375	0.0908203	-0.0341797	0.0205078	0.117188	38	60	44	36	40	54	39
1.5046e+09	0.015625	-0.171875	-0.09375	0.09375	-0.0341797	0.0205078	0.125	38	60	44	36	40	54	39
1.5046e+09	0.0234375	-0.171875	-0.101562	0.101562	-0.0419922	0.0126953	0.117188	38	60	44	36	40	54	39
1.5046e+09	0.0234375	-0.171875	-0.101562	0.09375	-0.03125	0.03125	0.117188	38	60	44	36	40	54	39
1.5046e+09	0.0234375	-0.179688	-0.109375	0.0693359	-0.0234375	0.03125	0.125	38	60	44	36	40	54	39
1.5046e+09	0.0234375	-0.1875	-0.109375	0.0830078	-0.015625	0.0390625	0.125	38	60	44	36	40	54	39
1.5046e+09	0.00488281	-0.1875	-0.117188	0.0830078	-0.0419922	0.0126953	0.117188	38	60	44	36	40	54	39
1.5046e+09	-0.00292969	-0.1875	-0.117188	0.0751953	-0.0419922	0.0234375	0.117188	38	60	44	36	40	54	39
1.5046e+09	0.00488281	-0.195312	-0.117188	0.0751953	-0.0419922	0.00488281	0.125	38	60	44	36	40	54	39
1.5046e+09	0.0234375	-0.195312	-0.125	0.0859375	-0.0234375	0.0126953	0.117188	38	60	44	36	40	54	39
1.5046e+09	0.03125	-0.203125	-0.125	0.0751953	-0.0234375	0.0234375	0.117188	38	60	44	36	40	54	39
1.5046e+09	0.0234375	-0.195312	-0.125	0.09375	-0.015625	0.03125	0.125	38	60	44	36	40	54	39
1.5046e+09	0.03125	-0.203125	-0.125	0.0859375	-0.0341797	0.03125	0.125	38	60	44	36	40	54	39
1.5046e+09	0.03125	-0.203125	-0.140625	0.0751953	-0.0478516	0.0126953	0.125	38	60	44	36	40	54	39
1.5046e+09	0.03125	-0.210938	-0.132812	0.0673828	-0.0419922	0.0126953	0.117188	38	60	44	36	40	54	39
1.5046e+09	0.03125	-0.21875	-0.140625	0.09375	-0.0234375	0.015625	0.117188	38	60	44	36	40	54	39
1.5046e+09	0.0205078	-0.21875	-0.140625	0.0751953	-0.03125	-0.00292969	0.117188	38	60	44	36	40	54	39
1.5046e+09	0.0205078	-0.226562	-0.140625	0.0830078	-0.0234375	0.0078125	0.117188	38	60	44	36	40	54	39
1.5046e+09	0.03125	-0.226562	-0.140625	0.0830078	-0.0234375	0.0078125	0.117188	38	60	44	36	40	54	39
1.5046e+09	0.0126953	-0.234375	-0.148438	0.0673828	-0.0234375	0.0234375	0.117188	38	60	44	36	40	54	39
1.5046e+09	0.03125	-0.234375	-0.148438	0.0673828	-0.0341797	0.015625	0.117188	38	60	44	36	40	54	39
1.5046e+09	0.0390625	-0.234375	-0.148438	0.0595703	-0.0419922	0.0234375	0.125	38	60	44	36	40	54	39
1.5046e+09	0.00683594	-0.242188	-0.148438	0.0673828	-0.0419922	-0.00292969	0.125	38	60	44	36	40	54	39
1.5046e+09	0.0205078	-0.234375	-0.148438	0.0595703	-0.0419922	0.015625	0.125	38	60	44	36	40	54	39
1.5046e+09	0.0234375	-0.234375	-0.140625	0.0595703	-0.0234375	0.0078125	0.117188	38	60	44	36	40	54	39
1.5046e+09	0.00488281	-0.25	-0.148438	0.0625	-0.0234375	0	0.117188	38	60	44	36	40	54	39
1.5046e+09	0.0234375	-0.242188	-0.148438	0.0703125	-0.0341797	0	0.117188	38	60	44	36	40	54	39
1.5046e+09	0.03125	-0.257812	-0.148438	0.0703125	-0.0341797	0.0078125	0.117188	38	60	44	36	40	54	39
1.5046e+09	0.0390625	-0.25	-0.148438	0.0703125	-0.0419922	0	0.125	38	60	44	36	40	54	39
1.5046e+09	0.046875	-0.257812	-0.15625	0.0595703	-0.0234375	-0.0107422	0.117188	38	60	44	36	40	54	39
1.5046e+09	0.0283203	-0.257812	-0.15625	0.0703125	-0.0419922	-0.0078125	0.125	38	60	44	36	40	54	39
1.5046e+09	0.0205078	-0.257812	-0.164062	0.0517578	-0.0234375	-0.0185547	0.125	38	60	44	36	40	54	39
1.5046e+09	0.03125	-0.265625	-0.164062	0.0517578	-0.0234375	-0.015625	0.117188	38	60	44	36	40	54	39
1.5046e+09	0.0234375	-0.265625	-0.164062	0.0625	-0.0234375	0	0.117188	38	60	44	36	40	54	39
1.5046e+09	0.03125	-0.265625	-0.164062	0.0703125	-0.015625	-0.0078125	0.117188	38	60	44	36	40	54	39
1.5046e+09	0.0390625	-0.265625	-0.171875	0.0703125	-0.0341797	-0.0078125	0.125	38	60	44	36	40	54	39
1.5046e+09	0.0390625	-0.265625	-0.171875	0.0703125	-0.0234375	-0.015625	0.117188	38	60	44	36	40	54	39
1.5046e+09	0.03125	-0.273438	-0.171875	0.0517578	-0.0419922	-0.015625	0.117188	38	60	44	36	40	54	39
1.5046e+09	0.00683594	-0.28125	-0.164062	0.0517578	-0.0498047	-0.0234375	0.125	38	60	44	36	40	54	39
1.5046e+09	0.0126953	-0.273438	-0.131836	0.0361328	-0.0390625	-0.0234375	0.125	38	60	44	36	40	54	39
1.5046e+09	0.0126953	-0.28125	-0.140625	0.0546875	-0.0234375	-0.015625	0.125	38	60	44	36	40	54	39
1.5046e+09	0.00488281	-0.28125	-0.132812	0.046875	-0.0234375	-0.0234375	0.117188	38	60	44	36	40	54	39
1.5046e+09	0.015625	-0.28125	-0.140625	0.0625	-0.0234375	-0.015625	0.117188	38	60	44	36	40	54	39
1.5046e+09	0.0234375	-0.28125	-0.140625	0.0546875	-0.015625	-0.0234375	0.117188	38	60	44	36	40	54	39
1.5046e+09	0.03125	-0.28125	-0.140625	0.0439453	-0.0419922	-0.03125	0.117188	38	60	44	36	40	54	39
1.5046e+09	0.0234375	-0.28125	-0.140625	0.0361328	-0.03125	-0.015625	0.117188	38	60	44	36	40	54	39
1.5046e+09	0.0234375	-0.296875	-0.140625	0.046875	-0.03125	-0.0234375	0.125	38	60	44	36	40	54	39
1.5046e+09	0.015625	-0.289062	-0.140625	0.0390625	-0.03125	-0.0341797	0.117188	38	60	44	36	40	54	39
1.5046e+09	0.0234375	-0.289062	-0.148438	0.0546875	-0.0234375	-0.015625	0.117188	38	60	44	36	40	54	39
1.5046e+09	0.015625	-0.289062	-0.148438	0.046875	-0.015625	-0.0234375	0.125	38	60	44	36	40	54	39
1.5046e+09	0.0234375	-0.296875	-0.148438	0.0546875	-0.0234375	-0.0234375	0.125	38	60	44	36	40	54	39
1.5046e+09	0.015625	-0.289062	-0.148438	0.046875	-0.0234375	-0.015625	0.117188	38	61	44	36	40	54	39
1.5046e+09	0.0234375	-0.296875	-0.148438	0.046875	-0.0234375	-0.015625	0.125	38	61	44	36	40	54	39
1.5046e+09	0.015625	-0.296875	-0.148438	0.0390625	-0.0234375	-0.015625	0.117188	38	61	44	36	40	54	39
1.5046e+09	0.015625	-0.296875	-0.148438	0.0390625	-0.0234375	-0.0234375	0.117188	38	61	44	36	40	54	39
1.5046e+09	0.015625	-0.296875	-0.148438	0.0390625	-0.03125	-0.015625	0.117188	38	61	44	36	40	54	39
1.5046e+09	0.0234375	-0.296875	-0.15625	0.046875	-0.0234375	-0.0234375	0.125	38	60	44	36	40	54	39
1.5046e+09	0.0234375	-0.296875	-0.15625	0.0390625	-0.0234375	-0.015625	0.117188	38	60	44	36	40	54	39
1.5046e+09	0.015625	-0.296875	-0.15625	0.0390625	-0.0234375	-0.0234375	0.117188	38	60	44	36	40	54	39
1.5046e+09	0.015625	-0.296875	-0.15625	0.0390625	-0.0234375	-0.0234375	0.117188	38	60	44	36	40	54	39
1.5046e+09	0.0234375	-0.296875	-0.15625	0.046875	-0.0234375	-0.0234375	0.117188	38	60	44	36	40	54	39
1.5046e+09	0.0234375	-0.296875	-0.15625	0.0390625	-0.0234375	-0.0234375	0.125	38	60	44	36	40	54	39
1.5046e+09	0.0234375	-0.296875	-0.15625	0.0390625	-0.0234375	-0.015625	0.125	38	60	44	36	40	54	39
1.5046e+09	0.0234375	-0.296875	-0.15625	0.0390625	-0.0234375	-0.015625	0.117188	38	60	44	36	40	54	39
1.5046e+09	0.015625	-0.296875	-0.15625	0.0390625	-0.0234375	-0.0234375	0.117188	38	60	44	36	40	54	39
1.5046e+09	0.015625	-0.296875	-0.15625	0.0390625	-0.0234375	-0.0234375	0.125	38	60	44	36	40	54	39
1.5046e+09	0.015625	-0.296875	-0.15625	0.0390625	-0.0234375	-0.0234375	0.125	38	60	44	36	40	54	39
1.5046e+09	0.015625	-0.296875	-0.15625	0.046875	-0.0234375	-0.0234375	0.117188	38	60	44	36	40	54	39
1.5046e+09	0.015625	-0.296875	-0.15625	0.0390625	-0.0234375	-0.0234375	0.117188	38	60	44	36	40	54	39
1.5046e+09	0.015625	-0.296875	-0.15625	0.0390625	-0.0234375	-0.0234375	0.125	38	60	44	36	40	54	39
1.5046e+09	0.015625	-0.296875	-0.15625	0.0390625	-0.0234375	-0.0234375	0.117188	38	60	44	36	40	54	39
1.5046e+09	0.0234375	-0.296875	-0.15625	0.0390625	-0.0234375	-0.0234375	0.125	38	60	44	36	40	54	39
1.5046e+09	0.015625	-0.296875	-0.15625	0.0390625	-0.0234375	-0.03125	0.117188	38	60	44	36	40	54	39
1.5046e+09	0.015625	-0.296875	-0.15625	0.0390625	-0.0234375	-0.03125	0.125	38	60	44	36	40	54	39
1.5046e+09	0.015625	-0.296875	-0.15625	0.0390625	-0.0234375	-0.03125	0.117188	38	60	44	36	40	54	39
1.5046e+09	0.015625	-0.3125	-0.15625	0.0390625	-0.0234375	-0.03125	0.125	38	60	44	36	40	54	39
1.5046e+09	0.0234375	-0.304688	-0.15625	0.0390625	-0.0234375	-0.03125	0.117188	38	60	44	36	40	54	39
1.5046e+09	0.015625	-0.304688	-0.164062	0.0390625	-0.0234375	-0.03125	0.125	38	60	44	36	40	54	39
1.5046e+09	0.015625	-0.304688	-0.164062	0.0390625	-0.0234375	-0.0390625	0.125	38	60	44	36	40	54	39
1.5046e+09	0.015625	-0.3125	-0.15625	0.0390625	-0.0234375	-0.0390625	0.117188	38	60	44	36	40	54	39
1.5046e+09	0.015625	-0.3125	-0.15625	0.0390625	-0.0234375	-0.046875	0.117188	38	60	44	36	40	54	39
1.5046e+09	0.015625	-0.320312	-0.145508	0.0390625	-0.0234375	-0.0546875	0.125	38	60	44	36	40	54	39
1.5046e+09	0.015625	-0.320312	-0.129883	0.0390625	-0.0234375	-0.0625	0.117188	38	60	44	36	40	54	39
1.5046e+09	0.015625	-0.328125	-0.129883	0.0390625	-0.0234375	-0.0625	0.117188	38	60	44	36	40	54	39
1.5046e+09	0.015625	-0.328125	-0.140625	0.0390625	-0.0234375	-0.0703125	0.125	38	60	44	36	40	54	39
1.5046e+09	0.015625	-0.34375	-0.15625	0.046875	-0.0234375	-0.078125	0.117188	38	60	44	36	40	54	39
1.5046e+09	0.015625	-0.34375	-0.15625	0.0390625	-0.0234375	-0.0859375	0.117188	38	60	44	36	40	54	39
1.5046e+09	0.015625	-0.351562	-0.164062	0.0390625	-0.03125	-0.09375	0.117188	38	60	44	36	40	54	39
1.5046e+09	0.015625	-0.367188	-0.171875	0.0390625	-0.03125	-0.109375	0.117188	38	60	44	36	40	54	39
1.5046e+09	0.015625	-0.382812	-0.1875	0.0390625	-0.03125	-0.117188	0.117188	38	60	44	36	40	54	39
1.5046e+09	0.015625	-0.390625	-0.141602	0.0390625	-0.0390625	-0.125	0.117188	38	60	44	36	40	54	39
1.5046e+09	0.015625	-0.398438	-0.133789	0.0390625	-0.0390625	-0.132812	0.125	38	60	44	36	40	54	39
1.5046e+09	0.015625	-0.414062	-0.145508	0.0390625	-0.0390625	-0.140625	0.117188	38	60	44	36	40	54	39
1.5046e+09	0.015625	-0.421875	-0.137695	0.0390625	-0.0390625	-0.137695	0.117188	38	60	44	36	40	54	39
1.5046e+09	0.015625	-0.4375	-0.164062	0.03125	-0.0390625	-0.15332	0.125	38	60	44	36	40	54	39
1.5046e+09	0.015625	-0.453125	-0.171875	0.03125	-0.046875	-0.168945	0.125	38	60	44	36	40	54	39
1.5046e+09	0.015625	-0.450195	-0.155273	0.03125	-0.0546875	-0.170898	0.117188	38	60	44	36	40	54	39
1.5046e+09	0.0234375	-0.458008	-0.149414	0.03125	-0.0546875	-0.170898	0.125	38	60	44	36	40	54	39
1.5046e+09	0.0234375	-0.452148	-0.147461	0.03125	-0.0625	-0.163086	0.117188	38	60	44	36	40	54	39
1.5046e+09	0.015625	-0.444336	-0.15332	0.03125	-0.0546875	-0.157227	0.117188	38	60	44	36	40	54	39
1.5046e+09	0.015625	-0.416992	-0.161133	0.0234375	-0.0703125	-0.163086	0.125	38	60	44	36	40	54	39
1.5046e+09	0.015625	-0.430664	-0.163086	0.0234375	-0.0703125	-0.170898	0.117188	38	60	44	36	40	54	39
1.5046e+09	0.0234375	-0.436523	-0.149414	0.0234375	-0.078125	-0.157227	0.125	38	60	44	36	40	54	39
1.5046e+09	0.0234375	-0.430664	-0.149414	0.0234375	-0.078125	-0.165039	0.117188	38	60	44	36	40	54	39
1.5046e+09	0.0234375	-0.430664	-0.149414	0.0234375	-0.078125	-0.151367	0.117188	38	60	44	36	40	54	39
1.5046e+09	0.015625	-0.422852	-0.135742	0.0234375	-0.0859375	-0.151367	0.117188	38	60	44	36	40	54	39
1.5046e+09	0.0234375	-0.422852	-0.133789	0.0234375	-0.09375	-0.172852	0.125	38	60	44	36	40	54	39
1.5046e+09	0.0234375	-0.436523	-0.155273	0.0234375	-0.101562	-0.180664	0.125	38	60	44	36	40	54	39
1.5046e+09	0.0234375	-0.436523	-0.155273	0.015625	-0.101562	-0.15918	0.117188	38	60	44	36	40	54	39
1.5046e+09	0.03125	-0.458008	-0.163086	0.015625	-0.109375	-0.180664	0.117188	38	60	44	36	40	54	39
1.5046e+09	0.0498047	-0.459961	-0.151367	0.0078125	-0.109375	-0.196289	0.117188	38	60	44	36	40	54	39
1.5046e+09	0.0390625	-0.475586	-0.143555	-0.0107422	-0.117188	-0.19043	0.117188	38	60	44	36	40	54	39
1.5046e+09	0.0390625	-0.477539	-0.137695	0	-0.0986328	-0.18457	0.125	38	60	44	36	40	54	39
1.5046e+09	0.0390625	-0.463867	-0.137695	0	-0.109375	-0.158203	0.125	38	60	44	36	40	54	39
1.5046e+09	0.03125	-0.4375	-0.151367	0	-0.101562	-0.15625	0.117188	38	60	44	36	40	54	39
1.5046e+09	0.0390625	-0.421875	-0.129883	0	-0.109375	-0.161133	0.125	38	60	44	36	40	54	39
1.5046e+09	0.03125	-0.40625	-0.149414	0	-0.101562	-0.142578	0.117188	38	60	44	36	40	54	39
1.5046e+09	0.0390625	-0.411133	-0.157227	0	-0.109375	-0.142578	0.117188	38	60	44	36	40	54	39
1.5046e+09	0.03125	-0.398438	-0.151367	0	-0.125	-0.148438	0.117188	38	60	44	36	40	54	39
1.5046e+09	0.0390625	-0.382812	-0.143555	0.015625	-0.125	-0.166992	0.117188	38	60	44	36	40	54	39
1.5046e+09	0.03125	-0.393555	-0.165039	0.015625	-0.114258	-0.168945	0.117188	38	60	44	35	40	54	39
1.5046e+09	0.0234375	-0.385742	-0.143555	0.0234375	-0.106445	-0.161133	0.117188	38	60	44	35	40	54	39
1.5046e+09	0.015625	-0.393555	-0.151367	0.0234375	-0.100586	-0.176758	0.117188	38	60	44	35	40	54	39
1.5046e+09	0.0234375	-0.420898	-0.151367	0.015625	-0.106445	-0.171875	0.117188	38	60	44	35	40	54	39
1.5046e+09	0.0234375	-0.422852	-0.145508	0.015625	-0.106445	-0.179688	0.117188	38	60	44	35	40	54	39
1.5046e+09	0.03125	-0.430664	-0.145508	0.0078125	-0.0849609	-0.144531	0.117188	38	60	44	36	40	54	39
1.5046e+09	0.03125	-0.446289	-0.145508	0	-0.0986328	-0.158203	0.117188	38	60	44	36	40	54	39
1.5046e+09	0.03125	-0.426758	-0.129883	0	-0.0771484	-0.158203	0.125	38	60	44	36	40	54	39
1.5046e+09	0.03125	-0.421875	-0.137695	0	-0.0830078	-0.158203	0.125	38	60	44	36	40	54	39
1.5046e+09	0.03125	-0.398438	-0.157227	0	-0.101562	-0.148438	0.117188	38	60	44	36	40	54	39
1.5046e+09	0.03125	-0.411133	-0.15918	0	-0.109375	-0.164062	0.117188	38	60	44	36	40	54	39
1.5046e+09	0.03125	-0.390625	-0.145508	0	-0.109375	-0.148438	0.125	38	60	44	36	40	54	39
1.5046e+09	0.03125	-0.395508	-0.132812	0	-0.0986328	-0.142578	0.117188	38	60	44	36	40	54	39
1.5046e+09	0.03125	-0.387695	-0.129883	0.0078125	-0.106445	-0.134766	0.125	38	60	44	36	40	54	39
1.5046e+09	0.03125	-0.401367	-0.157227	0.0078125	-0.0986328	-0.15625	0.125	38	60	44	36	40	54	39
1.5046e+09	0.03125	-0.415039	-0.178711	0.0078125	-0.0908203	-0.142578	0.117188	38	60	44	36	40	54	39
1.5046e+09	0.03125	-0.428711	-0.15332	0	-0.0849609	-0.164062	0.117188	38	60	44	36	40	54	39
1.5046e+09	0.0390625	-0.430664	-0.111328	0	-0.0751953	-0.142578	0.125	38	60	44	36	40	54	39
1.5046e+09	0.0390625	-0.438477	-0.129883	0	-0.0830078	-0.164062	0.125	38	60	44	36	40	54	39
1.5046e+09	0.03125	-0.424805	-0.141602	0	-0.0693359	-0.148438	0.125	38	60	44	36	40	54	39
1.5046e+09	0.03125	-0.424805	-0.143555	0	-0.0830078	-0.161133	0.125	38	60	44	36	40	54	39
1.5046e+09	0.0390625	-0.424805	-0.143555	0	-0.101562	-0.15625	0.117188	38	60	44	36	40	54	39
1.5046e+09	0.03125	-0.398438	-0.137695	0	-0.109375	-0.158203	0.117188	38	60	44	36	40	54	39
1.5046e+09	0.0390625	-0.382812	-0.143555	0	-0.0986328	-0.136719	0.117188	38	60	44	36	40	54	39
1.5046e+09	0.0390625	-0.353516	-0.143555	0	-0.106445	-0.134766	0.117188	38	60	44	36	40	54	39
1.5046e+09	0.03125	-0.359375	-0.143555	0.0078125	-0.0986328	-0.121094	0.117188	38	60	44	36	40	54	39
1.5046e+09	0.03125	-0.34082	-0.125	0.015625	-0.0927734	-0.140625	0.117188	38	60	44	36	40	54	39
1.5046e+09	0.03125	-0.360352	-0.120117	0.0078125	-0.0771484	-0.114258	0.125	38	60	44	36	40	54	39
1.5046e+09	0.03125	-0.366211	-0.15332	0.0078125	-0.0908203	-0.143555	0.125	38	60	44	36	40	54	39
1.5046e+09	0.03125	-0.421875	-0.1875	0.0078125	-0.0849609	-0.172852	0.117188	38	60	44	36	40	54	39
1.5046e+09	0.0390625	-0.460938	-0.178711	-0.0185547	-0.0986328	-0.174805	0.117188	38	60	44	36	40	54	39
1.5046e+09	0.0390625	-0.476562	-0.166992	-0.0078125	-0.0712891	-0.158203	0.117188	38	60	44	36	40	54	39
1.5046e+09	0.0390625	-0.461914	-0.140625	0	-0.0498047	-0.144531	0.117188	38	60	44	36	40	54	39
1.5046e+09	0.0390625	-0.43457	-0.125	0	-0.0205078	-0.115234	0.125	38	60	45	36	40	54	39
1.5046e+09	0.0390625	-0.414062	-0.141602	0	-0.0322266	-0.105469	0.117188	38	60	45	36	40	54	39
1.5046e+09	0.03125	-0.398438	-0.141602	0.0078125	-0.0625	-0.12207	0.117188	38	60	45	36	40	54	39
1.5046e+09	0.0390625	-0.387695	-0.155273	0.0078125	-0.0859375	-0.117188	0.117188	38	60	45	36	40	54	39
1.5046e+09	0.03125	-0.393555	-0.141602	0.0078125	-0.09375	-0.12207	0.117188	38	60	45	36	40	54	39
1.5046e+09	0.0390625	-0.364258	-0.129883	0	-0.101562	-0.12207	0.117188	38	60	44	36	40	54	39
1.5046e+09	0.0390625	-0.375977	-0.141602	0	-0.101562	-0.12207	0.117188	38	60	44	36	40	54	39
1.5046e+09	0.0390625	-0.383789	-0.15332	0	-0.0830078	-0.12793	0.125	38	60	44	36	40	54	39
1.5046e+09	0.03125	-0.381836	-0.179688	0	-0.101562	-0.12793	0.117188	38	60	44	36	40	54	39
1.5046e+09	0.03125	-0.387695	-0.155273	0	-0.101562	-0.133789	0.117188	38	60	44	36	40	54	39
1.5046e+09	0.03125	-0.395508	-0.149414	0	-0.0908203	-0.12793	0.125	38	60	44	36	40	54	39
1.5046e+09	0.0390625	-0.414062	-0.147461	0	-0.0693359	-0.133789	0.125	38	60	44	36	40	54	39
1.5046e+09	0.0390625	-0.429688	-0.133789	-0.0078125	-0.0693359	-0.141602	0.117188	38	60	44	36	40	54	39
1.5046e+09	0.03125	-0.445312	-0.139648	-0.0078125	-0.0478516	-0.133789	0.117188	38	60	44	36	40	54	39
1.5046e+09	0.0390625	-0.453125	-0.15332	0	-0.0322266	-0.141602	0.117188	38	60	44	36	40	54	39
1.5046e+09	0.0390625	-0.46875	-0.145508	-0.0078125	-0.0439453	-0.147461	0.117188	38	61	44	36	40	54	39
1.5046e+09	0.0390625	-0.476562	-0.164062	-0.0078125	-0.0224609	-0.139648	0.117188	38	61	44	36	40	54	39
