DingWan/Reconbot3Ddemo/02_MATLAB_Code/sensors_data/IGM_3s70steps_0905_encoders_data_SmallCamera.txt
time_stamp	actual_pos_joint_4	actual_pos_joint_5	actual_pos_joint_3	actual_pos_joint_1	actual_pos_joint_2	actual_pos_joint_6	actual_pos_joint_7	actual_vel_joint_4	actual_vel_joint_5	actual_vel_joint_3	actual_vel_joint_1	actual_vel_joint_2	actual_vel_joint_6	actual_vel_joint_7	actual_acc_joint_4	actual_acc_joint_5	actual_acc_joint_3	actual_acc_joint_1	actual_acc_joint_2	actual_acc_joint_6	actual_acc_joint_7	actual_time_from_start	desired_pos_joint_4	desired_pos_joint_5	desired_pos_joint_3	desired_pos_joint_1	desired_pos_joint_2	desired_pos_joint_6	desired_pos_joint_7	desired_vel_joint_4	desired_vel_joint_5	desired_vel_joint_3	desired_vel_joint_1	desired_vel_joint_2	desired_vel_joint_6	desired_vel_joint_7	desired_acc_joint_4	desired_acc_joint_5	desired_acc_joint_3	desired_acc_joint_1	desired_acc_joint_2	desired_acc_joint_6	desired_acc_joint_7	desired_time_from_start
1504601791.769217967	0.00613592	0.776194	-0.809942	0.00920388	0.786932	-1.60915	-0.0122718	0	0	0	0	0	0	0	0	0	0	0	0	0	0	0.000000000	1.11022e-15	0.788798	-0.788798	1.11022e-15	0.828698	-1.5708	8.88178e-16	0.1	0.1	0.1	0.1	0.1	0.1	0.1	0	0	0	0	0	0	0	0.000000000
1504601791.789357900	0.00613592	0.776194	-0.809942	0.00920388	0.786932	-1.60915	-0.0122718	0	0	0	0	0	0	0	0	0	0	0	0	0	0	0.000000000	1.11022e-15	0.788798	-0.788798	1.11022e-15	0.828698	-1.5708	8.88178e-16	0.1	0.1	0.1	0.1	0.1	0.1	0.1	0	0	0	0	0	0	0	0.000000000
1504601791.809238910	0.00613592	0.776194	-0.809942	0.00920388	0.786932	-1.60915	-0.0122718	0	0	0	0	0	0	0	0	0	0	0	0	0	0	0.000000000	1.11022e-15	0.788798	-0.788798	1.11022e-15	0.828698	-1.5708	8.88178e-16	0.1	0.1	0.1	0.1	0.1	0.1	0.1	0	0	0	0	0	0	0	0.000000000
1504601791.829349994	0.00613592	0.776194	-0.808408	0.0107379	0.786932	-1.60915	-0.0122718	0	0	0	0	0	0	0	0	0	0	0	0	0	0	0.000000000	1.11022e-15	0.788798	-0.788798	1.11022e-15	0.828698	-1.5708	8.88178e-16	0.1	0.1	0.1	0.1	0.1	0.1	0.1	0	0	0	0	0	0	0	0.000000000
1504601791.849108934	0.00613592	0.776194	-0.809942	0.0107379	0.786932	-1.60915	-0.0122718	0	0	0	0	0	0	0	0	0	0	0	0	0	0	0.000000000	1.11022e-15	0.788798	-0.788798	1.11022e-15	0.828698	-1.5708	8.88178e-16	0.1	0.1	0.1	0.1	0.1	0.1	0.1	0	0	0	0	0	0	0	0.000000000
1504601791.869095087	0.00613592	0.776194	-0.809942	0.0107379	0.786932	-1.60915	-0.0122718	0	0	0	0	0	0	0	0	0	0	0	0	0	0	0.000000000	1.11022e-15	0.788798	-0.788798	1.11022e-15	0.828698	-1.5708	8.88178e-16	0.1	0.1	0.1	0.1	0.1	0.1	0.1	0	0	0	0	0	0	0	0.000000000
1504601791.889265060	0.00613592	0.776194	-0.809942	0.00920388	0.786932	-1.61068	-0.0122718	0	0	0	0	0	0	0	0	0	0	0	0	0	0	0.000000000	1.11022e-15	0.788798	-0.788798	1.11022e-15	0.828698	-1.5708	8.88178e-16	0.1	0.1	0.1	0.1	0.1	0.1	0.1	0	0	0	0	0	0	0	0.000000000
1504601791.909184932	0.00613592	0.776194	-0.809942	0.00920388	0.786932	-1.61068	-0.0122718	0	0	0	0	0	0	0	0	0	0	0	0	0	0	0.000000000	1.11022e-15	0.788798	-0.788798	1.11022e-15	0.828698	-1.5708	8.88178e-16	0.1	0.1	0.1	0.1	0.1	0.1	0.1	0	0	0	0	0	0	0	0.000000000
1504601791.929128885	0.00613592	0.776194	-0.809942	0.00920388	0.786932	-1.60915	-0.0122718	0	0	0	0	0	0	0	0	0	0	0	0	0	0	0.000000000	1.11022e-15	0.788798	-0.788798	1.11022e-15	0.828698	-1.5708	8.88178e-16	0.1	0.1	0.1	0.1	0.1	0.1	0.1	0	0	0	0	0	0	0	0.000000000
1504601791.949261903	0.00613592	0.776194	-0.809942	0.00920388	0.786932	-1.60915	-0.0122718	0	0	0	0	0	0	0	0	0	0	0	0	0	0	0.000000000	1.11022e-15	0.788798	-0.788798	1.11022e-15	0.828698	-1.5708	8.88178e-16	0.1	0.1	0.1	0.1	0.1	0.1	0.1	0	0	0	0	0	0	0	0.000000000
1504601791.969135046	0.00613592	0.776194	-0.808408	0.00920388	0.786932	-1.60915	-0.0122718	0	0	0	0	0	0	0	0	0	0	0	0	0	0	0.000000000	1.11022e-15	0.788798	-0.788798	1.11022e-15	0.828698	-1.5708	8.88178e-16	0.1	0.1	0.1	0.1	0.1	0.1	0.1	0	0	0	0	0	0	0	0.000000000
1504601791.993957996	0.00613592	0.776194	-0.809942	0.00920388	0.786932	-1.60915	-0.0122718	0	0	0	0	0	0	0	0	0	0	0	0	0	0	0.000000000	1.11022e-15	0.788798	-0.788798	1.11022e-15	0.828698	-1.5708	8.88178e-16	0.1	0.1	0.1	0.1	0.1	0.1	0.1	0	0	0	0	0	0	0	0.000000000
1504601792.011081933	0.00613592	0.776194	-0.809942	0.00920388	0.786932	-1.60915	-0.0122718	0	0	0	0	0	0	0	0	0	0	0	0	0	0	0.000000000	1.11022e-15	0.788798	-0.788798	1.11022e-15	0.828698	-1.5708	8.88178e-16	0.1	0.1	0.1	0.1	0.1	0.1	0.1	0	0	0	0	0	0	0	0.000000000
1504601792.030436992	0.00613592	0.776194	-0.808408	0.00920388	0.786932	-1.60915	-0.0122718	0	0	0	0	0	0	0	0	0	0	0	0	0	0	0.000000000	1.11022e-15	0.788798	-0.788798	1.11022e-15	0.828698	-1.5708	8.88178e-16	0.1	0.1	0.1	0.1	0.1	0.1	0.1	0	0	0	0	0	0	0	0.000000000
1504601792.049137115	0.00613592	0.776194	-0.809942	0.00920388	0.786932	-1.60915	-0.0122718	0	0	0	0	0	0	0	0	0	0	0	0	0	0	0.000000000	1.11022e-15	0.788798	-0.788798	1.11022e-15	0.828698	-1.5708	8.88178e-16	0.1	0.1	0.1	0.1	0.1	0.1	0.1	0	0	0	0	0	0	0	0.000000000
1504601792.068991899	0.00613592	0.776194	-0.808408	0.00920388	0.786932	-1.60915	-0.0122718	0	0	0	0	0	0	0	0	0	0	0	0	0	0	0.000000000	1.11022e-15	0.788798	-0.788798	1.11022e-15	0.828698	-1.5708	8.88178e-16	0.1	0.1	0.1	0.1	0.1	0.1	0.1	0	0	0	0	0	0	0	0.000000000
1504601792.088979005	0.00613592	0.776194	-0.809942	0.00920388	0.786932	-1.60915	-0.0138058	0	0	0	0	0	0	0	0	0	0	0	0	0	0	0.000000000	1.11022e-15	0.788798	-0.788798	1.11022e-15	0.828698	-1.5708	8.88178e-16	0.1	0.1	0.1	0.1	0.1	0.1	0.1	0	0	0	0	0	0	0	0.000000000
1504601792.109009981	0.00613592	0.776194	-0.809942	0.00920388	0.786932	-1.60915	-0.0122718	0	0	0	0	0	0	0	0	0	0	0	0	0	0	0.000000000	1.11022e-15	0.788798	-0.788798	1.11022e-15	0.828698	-1.5708	8.88178e-16	0.1	0.1	0.1	0.1	0.1	0.1	0.1	0	0	0	0	0	0	0	0.000000000
1504601792.128936052	0.00613592	0.776194	-0.809942	0.00920388	0.786932	-1.60915	-0.0122718	0	0	0	0	0	0	0	0	0	0	0	0	0	0	0.000000000	1.11022e-15	0.788798	-0.788798	1.11022e-15	0.828698	-1.5708	8.88178e-16	0.1	0.1	0.1	0.1	0.1	0.1	0.1	0	0	0	0	0	0	0	0.000000000
1504601792.148962974	0.00613592	0.776194	-0.809942	0.0107379	0.786932	-1.60915	-0.0122718	0	0	0	0	0	0	0	0	0	0	0	0	0	0	0.000000000	1.11022e-15	0.788798	-0.788798	1.11022e-15	0.828698	-1.5708	8.88178e-16	0.1	0.1	0.1	0.1	0.1	0.1	0.1	0	0	0	0	0	0	0	0.000000000
1504601792.169003963	0.00613592	0.776194	-0.808408	0.0107379	0.786932	-1.61068	-0.0122718	0	0	0	0	0	0	0	0	0	0	0	0	0	0	0.000000000	1.11022e-15	0.788798	-0.788798	1.11022e-15	0.828698	-1.5708	8.88178e-16	0.1	0.1	0.1	0.1	0.1	0.1	0.1	0	0	0	0	0	0	0	0.000000000
1504601792.188949108	0.00613592	0.776194	-0.808408	0.0107379	0.786932	-1.60915	-0.0122718	0	0	0	0	0	0	0	0	0	0	0	0	0	0	0.000000000	1.11022e-15	0.788798	-0.788798	1.11022e-15	0.828698	-1.5708	8.88178e-16	0.1	0.1	0.1	0.1	0.1	0.1	0.1	0	0	0	0	0	0	0	0.000000000
1504601792.208965063	0.00613592	0.776194	-0.809942	0.0107379	0.786932	-1.61068	-0.0122718	0	0	0	0	0	0	0	0	0	0	0	0	0	0	0.000000000	1.11022e-15	0.788798	-0.788798	1.11022e-15	0.828698	-1.5708	8.88178e-16	0.1	0.1	0.1	0.1	0.1	0.1	0.1	0	0	0	0	0	0	0	0.000000000
1504601792.229509115	0.00613592	0.776194	-0.809942	0.0107379	0.786932	-1.61068	-0.0122718	0	0	0	0	0	0	0	0	0	0	0	0	0	0	0.000000000	1.11022e-15	0.788798	-0.788798	1.11022e-15	0.828698	-1.5708	8.88178e-16	0.1	0.1	0.1	0.1	0.1	0.1	0.1	0	0	0	0	0	0	0	0.000000000
1504601792.249048948	0.00613592	0.776194	-0.809942	0.00920388	0.786932	-1.60915	-0.0122718	0	0	0	0	0	0	0	0	0	0	0	0	0	0	0.000000000	1.11022e-15	0.788798	-0.788798	1.11022e-15	0.828698	-1.5708	8.88178e-16	0.1	0.1	0.1	0.1	0.1	0.1	0.1	0	0	0	0	0	0	0	0.000000000
1504601792.269129991	0.00613592	0.776194	-0.808408	0.00920388	0.786932	-1.60915	-0.0122718	0	0	0	0	0	0	0	0	0	0	0	0	0	0	0.000000000	1.11022e-15	0.788798	-0.788798	1.11022e-15	0.828698	-1.5708	8.88178e-16	0.1	0.1	0.1	0.1	0.1	0.1	0.1	0	0	0	0	0	0	0	0.000000000
1504601792.289073944	0.00613592	0.776194	-0.809942	0.00920388	0.786932	-1.60915	-0.0122718	0	0	0	0	0	0	0	0	0	0	0	0	0	0	0.000000000	1.11022e-15	0.788798	-0.788798	1.11022e-15	0.828698	-1.5708	8.88178e-16	0.1	0.1	0.1	0.1	0.1	0.1	0.1	0	0	0	0	0	0	0	0.000000000
1504601792.309081077	0.00613592	0.776194	-0.809942	0.00920388	0.786932	-1.60915	-0.0122718	0	0	0	0	0	0	0	0	0	0	0	0	0	0	0.000000000	1.11022e-15	0.788798	-0.788798	1.11022e-15	0.828698	-1.5708	8.88178e-16	0.1	0.1	0.1	0.1	0.1	0.1	0.1	0	0	0	0	0	0	0	0.000000000
1504601792.329044103	0.00613592	0.776194	-0.809942	0.0107379	0.786932	-1.60915	-0.0122718	0	0	0	0	0	0	0	0	0	0	0	0	0	0	0.000000000	1.11022e-15	0.788798	-0.788798	1.11022e-15	0.828698	-1.5708	8.88178e-16	0.1	0.1	0.1	0.1	0.1	0.1	0.1	0	0	0	0	0	0	0	0.000000000
1504601792.349106073	0.00613592	0.776194	-0.809942	0.00920388	0.786932	-1.60915	-0.0122718	0	0	0	0	0	0	0	0	0	0	0	0	0	0	0.000000000	1.11022e-15	0.788798	-0.788798	1.11022e-15	0.828698	-1.5708	8.88178e-16	0.1	0.1	0.1	0.1	0.1	0.1	0.1	0	0	0	0	0	0	0	0.000000000
1504601792.369061946	0.00613592	0.776194	-0.809942	0.0107379	0.786932	-1.60915	-0.0122718	0	0	0	0	0	0	0	0	0	0	0	0	0	0	0.000000000	1.11022e-15	0.788798	-0.788798	1.11022e-15	0.828698	-1.5708	8.88178e-16	0.1	0.1	0.1	0.1	0.1	0.1	0.1	0	0	0	0	0	0	0	0.000000000
1504601792.389058113	0.00613592	0.776194	-0.809942	0.0107379	0.786932	-1.60915	-0.0122718	0	0	0	0	0	0	0	0	0	0	0	0	0	0	0.000000000	1.11022e-15	0.788798	-0.788798	1.11022e-15	0.828698	-1.5708	8.88178e-16	0.1	0.1	0.1	0.1	0.1	0.1	0.1	0	0	0	0	0	0	0	0.000000000
1504601792.409261941	0.00613592	0.776194	-0.809942	0.0107379	0.786932	-1.60915	-0.0122718	0	0	0	0	0	0	0	0	0	0	0	0	0	0	0.000000000	1.11022e-15	0.788798	-0.788798	1.11022e-15	0.828698	-1.5708	8.88178e-16	0.1	0.1	0.1	0.1	0.1	0.1	0.1	0	0	0	0	0	0	0	0.000000000
1504601792.429126024	0.00613592	0.776194	-0.809942	0.0107379	0.786932	-1.60915	-0.0122718	0	0	0	0	0	0	0	0	0	0	0	0	0	0	0.000000000	1.11022e-15	0.788798	-0.788798	1.11022e-15	0.828698	-1.5708	8.88178e-16	0.1	0.1	0.1	0.1	0.1	0.1	0.1	0	0	0	0	0	0	0	0.000000000
1504601792.449151992	0.00613592	0.776194	-0.809942	0.00920388	0.786932	-1.60915	-0.0122718	0	0	0	0	0	0	0	0	0	0	0	0	0	0	0.000000000	1.11022e-15	0.788798	-0.788798	1.11022e-15	0.828698	-1.5708	8.88178e-16	0.1	0.1	0.1	0.1	0.1	0.1	0.1	0	0	0	0	0	0	0	0.000000000
1504601792.469070911	0.00613592	0.776194	-0.809942	0.00920388	0.786932	-1.61068	-0.0122718	0	0	0	0	0	0	0	0	0	0	0	0	0	0	0.000000000	1.11022e-15	0.788798	-0.788798	1.11022e-15	0.828698	-1.5708	8.88178e-16	0.1	0.1	0.1	0.1	0.1	0.1	0.1	0	0	0	0	0	0	0	0.000000000
1504601792.489027976	0.00613592	0.776194	-0.809942	0.0107379	0.786932	-1.60915	-0.0138058	0	0	0	0	0	0	0	0	0	0	0	0	0	0	0.000000000	1.11022e-15	0.788798	-0.788798	1.11022e-15	0.828698	-1.5708	8.88178e-16	0.1	0.1	0.1	0.1	0.1	0.1	0.1	0	0	0	0	0	0	0	0.000000000
1504601792.508999109	0.00613592	0.776194	-0.809942	0.0107379	0.786932	-1.60915	-0.0138058	0	0	0	0	0	0	0	0	0	0	0	0	0	0	0.000000000	1.11022e-15	0.788798	-0.788798	1.11022e-15	0.828698	-1.5708	8.88178e-16	0.1	0.1	0.1	0.1	0.1	0.1	0.1	0	0	0	0	0	0	0	0.000000000
1504601792.529090881	0.00613592	0.776194	-0.808408	0.0107379	0.786932	-1.60915	-0.0122718	0	0	0	0	0	0	0	0	0	0	0	0	0	0	0.000000000	1.11022e-15	0.788798	-0.788798	1.11022e-15	0.828698	-1.5708	8.88178e-16	0.1	0.1	0.1	0.1	0.1	0.1	0.1	0	0	0	0	0	0	0	0.000000000
1504601792.549065113	0.00613592	0.776194	-0.809942	0.00920388	0.786932	-1.60915	-0.0122718	0	0	0	0	0	0	0	0	0	0	0	0	0	0	0.000000000	1.11022e-15	0.788798	-0.788798	1.11022e-15	0.828698	-1.5708	8.88178e-16	0.1	0.1	0.1	0.1	0.1	0.1	0.1	0	0	0	0	0	0	0	0.000000000
1504601792.569048881	0.00613592	0.776194	-0.809942	0.0107379	0.786932	-1.60915	-0.0122718	0	0	0	0	0	0	0	0	0	0	0	0	0	0	0.000000000	1.11022e-15	0.788798	-0.788798	1.11022e-15	0.828698	-1.5708	8.88178e-16	0.1	0.1	0.1	0.1	0.1	0.1	0.1	0	0	0	0	0	0	0	0.000000000
1504601792.589111089	0.00613592	0.776194	-0.809942	0.00920388	0.786932	-1.61068	-0.0122718	0	0	0	0	0	0	0	0	0	0	0	0	0	0	0.000000000	1.11022e-15	0.788798	-0.788798	1.11022e-15	0.828698	-1.5708	8.88178e-16	0.1	0.1	0.1	0.1	0.1	0.1	0.1	0	0	0	0	0	0	0	0.000000000
1504601792.609193086	0.00613592	0.776194	-0.809942	0.00920388	0.786932	-1.61068	-0.0122718	0	0	0	0	0	0	0	0	0	0	0	0	0	0	0.000000000	1.11022e-15	0.788798	-0.788798	1.11022e-15	0.828698	-1.5708	8.88178e-16	0.1	0.1	0.1	0.1	0.1	0.1	0.1	0	0	0	0	0	0	0	0.000000000
1504601792.629226922	0.00613592	0.776194	-0.808408	0.00920388	0.786932	-1.61068	-0.0122718	0	0	0	0	0	0	0	0	0	0	0	0	0	0	0.000000000	1.11022e-15	0.788798	-0.788798	1.11022e-15	0.828698	-1.5708	8.88178e-16	0.1	0.1	0.1	0.1	0.1	0.1	0.1	0	0	0	0	0	0	0	0.000000000
1504601792.649080038	0.00613592	0.776194	-0.808408	0.00920388	0.786932	-1.60915	-0.0122718	0	0	0	0	0	0	0	0	0	0	0	0	0	0	0.000000000	1.11022e-15	0.788798	-0.788798	1.11022e-15	0.828698	-1.5708	8.88178e-16	0.1	0.1	0.1	0.1	0.1	0.1	0.1	0	0	0	0	0	0	0	0.000000000
1504601792.669034957	0.00613592	0.776194	-0.809942	0.0107379	0.786932	-1.60915	-0.0122718	0	0	0	0	0	0	0	0	0	0	0	0	0	0	0.000000000	1.11022e-15	0.788798	-0.788798	1.11022e-15	0.828698	-1.5708	8.88178e-16	0.1	0.1	0.1	0.1	0.1	0.1	0.1	0	0	0	0	0	0	0	0.000000000
1504601792.689043998	0.00613592	0.776194	-0.808408	0.00920388	0.786932	-1.60915	-0.0138058	0	0	0	0	0	0	0	0	0	0	0	0	0	0	0.000000000	1.11022e-15	0.788798	-0.788798	1.11022e-15	0.828698	-1.5708	8.88178e-16	0.1	0.1	0.1	0.1	0.1	0.1	0.1	0	0	0	0	0	0	0	0.000000000
1504601792.709067106	0.00613592	0.776194	-0.808408	0.00920388	0.786932	-1.60915	-0.0138058	0	0	0	0	0	0	0	0	0	0	0	0	0	0	0.000000000	1.11022e-15	0.788798	-0.788798	1.11022e-15	0.828698	-1.5708	8.88178e-16	0.1	0.1	0.1	0.1	0.1	0.1	0.1	0	0	0	0	0	0	0	0.000000000
1504601792.729980945	0.00613592	0.776194	-0.809942	0.0107379	0.786932	-1.60915	-0.0122718	0	0	0	0	0	0	0	0	0	0	0	0	0	0	0.000000000	1.11022e-15	0.788798	-0.788798	1.11022e-15	0.828698	-1.5708	8.88178e-16	0.1	0.1	0.1	0.1	0.1	0.1	0.1	0	0	0	0	0	0	0	0.000000000
1504601792.749078989	0.00613592	0.776194	-0.808408	0.0107379	0.786932	-1.61068	-0.0122718	0	0	0	0	0	0	0	0	0	0	0	0	0	0	0.000000000	1.11022e-15	0.788798	-0.788798	1.11022e-15	0.828698	-1.5708	8.88178e-16	0.1	0.1	0.1	0.1	0.1	0.1	0.1	0	0	0	0	0	0	0	0.000000000
1504601792.769071102	0.00613592	0.776194	-0.809942	0.0107379	0.786932	-1.60915	-0.0138058	0	0	0	0	0	0	0	0	0	0	0	0	0	0	0.000000000	1.11022e-15	0.788798	-0.788798	1.11022e-15	0.828698	-1.5708	8.88178e-16	0.1	0.1	0.1	0.1	0.1	0.1	0.1	0	0	0	0	0	0	0	0.000000000
1504601792.789028882	0.00613592	0.776194	-0.809942	0.0107379	0.786932	-1.60915	-0.0122718	0	0	0	0	0	0	0	0	0	0	0	0	0	0	0.000000000	1.11022e-15	0.788798	-0.788798	1.11022e-15	0.828698	-1.5708	8.88178e-16	0.1	0.1	0.1	0.1	0.1	0.1	0.1	0	0	0	0	0	0	0	0.000000000
1504601792.810204982	0.00613592	0.776194	-0.809942	0.0107379	0.786932	-1.60915	-0.0122718	0	0	0	0	0	0	0	0	0	0	0	0	0	0	0.000000000	1.11022e-15	0.788798	-0.788798	1.11022e-15	0.828698	-1.5708	8.88178e-16	0.1	0.1	0.1	0.1	0.1	0.1	0.1	0	0	0	0	0	0	0	0.000000000
1504601792.829171895	0.00613592	0.776194	-0.809942	0.0107379	0.786932	-1.60915	-0.0122718	0	0	0	0	0	0	0	0	0	0	0	0	0	0	0.000000000	1.11022e-15	0.788798	-0.788798	1.11022e-15	0.828698	-1.5708	8.88178e-16	0.1	0.1	0.1	0.1	0.1	0.1	0.1	0	0	0	0	0	0	0	0.000000000
1504601792.849097013	0.00613592	0.776194	-0.808408	0.0107379	0.786932	-1.60915	-0.0122718	0	0	0	0	0	0	0	0	0	0	0	0	0	0	0.000000000	1.11022e-15	0.788798	-0.788798	1.11022e-15	0.828698	-1.5708	8.88178e-16	0.1	0.1	0.1	0.1	0.1	0.1	0.1	0	0	0	0	0	0	0	0.000000000
1504601792.869064092	0.00613592	0.776194	-0.808408	0.0107379	0.786932	-1.60915	-0.0122718	0	0	0	0	0	0	0	0	0	0	0	0	0	0	0.000000000	1.11022e-15	0.788798	-0.788798	1.11022e-15	0.828698	-1.5708	8.88178e-16	0.1	0.1	0.1	0.1	0.1	0.1	0.1	0	0	0	0	0	0	0	0.000000000
1504601792.889015913	0.00613592	0.776194	-0.809942	0.0107379	0.786932	-1.60915	-0.0122718	0	0	0	0	0	0	0	0	0	0	0	0	0	0	0.000000000	1.11022e-15	0.788798	-0.788798	1.11022e-15	0.828698	-1.5708	8.88178e-16	0.1	0.1	0.1	0.1	0.1	0.1	0.1	0	0	0	0	0	0	0	0.000000000
1504601792.908960103	0.00613592	0.776194	-0.809942	0.00920388	0.786932	-1.61068	-0.0122718	0	0	0	0	0	0	0	0	0	0	0	0	0	0	0.000000000	1.11022e-15	0.788798	-0.788798	1.11022e-15	0.828698	-1.5708	8.88178e-16	0.1	0.1	0.1	0.1	0.1	0.1	0.1	0	0	0	0	0	0	0	0.000000000
1504601792.929028034	0.00613592	0.776194	-0.809942	0.00920388	0.786932	-1.61068	-0.0122718	0	0	0	0	0	0	0	0	0	0	0	0	0	0	0.000000000	1.11022e-15	0.788798	-0.788798	1.11022e-15	0.828698	-1.5708	8.88178e-16	0.1	0.1	0.1	0.1	0.1	0.1	0.1	0	0	0	0	0	0	0	0.000000000
1504601792.949601888	0.00613592	0.776194	-0.809942	0.0107379	0.786932	-1.60915	-0.0122718	0	0	0	0	0	0	0	0	0	0	0	0	0	0	0.000000000	1.11022e-15	0.788798	-0.788798	1.11022e-15	0.828698	-1.5708	8.88178e-16	0.1	0.1	0.1	0.1	0.1	0.1	0.1	0	0	0	0	0	0	0	0.000000000
1504601792.969208955	0.00613592	0.776194	-0.809942	0.0107379	0.786932	-1.60915	-0.0122718	0	0	0	0	0	0	0	0	0	0	0	0	0	0	0.000000000	1.11022e-15	0.788798	-0.788798	1.11022e-15	0.828698	-1.5708	8.88178e-16	0.1	0.1	0.1	0.1	0.1	0.1	0.1	0	0	0	0	0	0	0	0.000000000
1504601792.989415884	0.00613592	0.776194	-0.809942	0.0107379	0.786932	-1.60915	-0.0122718	0	0	0	0	0	0	0	0	0	0	0	0	0	0	0.000000000	1.11022e-15	0.788798	-0.788798	1.11022e-15	0.828698	-1.5708	8.88178e-16	0.1	0.1	0.1	0.1	0.1	0.1	0.1	0	0	0	0	0	0	0	0.000000000
1504601793.010777950	0.00613592	0.776194	-0.809942	0.0107379	0.786932	-1.60915	-0.0122718	0	0	0	0	0	0	0	0	0	0	0	0	0	0	0.000000000	1.11022e-15	0.788798	-0.788798	1.11022e-15	0.828698	-1.5708	8.88178e-16	0.1	0.1	0.1	0.1	0.1	0.1	0.1	0	0	0	0	0	0	0	0.000000000
1504601793.029937028	0.00613592	0.776194	-0.809942	0.00920388	0.786932	-1.60915	-0.0122718	0	0	0	0	0	0	0	0	0	0	0	0	0	0	0.000000000	1.11022e-15	0.788798	-0.788798	1.11022e-15	0.828698	-1.5708	8.88178e-16	0.1	0.1	0.1	0.1	0.1	0.1	0.1	0	0	0	0	0	0	0	0.000000000
1504601793.049478054	0.00613592	0.776194	-0.809942	0.0107379	0.786932	-1.60915	-0.0122718	0	0	0	0	0	0	0	0	0	0	0	0	0	0	0.000000000	1.11022e-15	0.788798	-0.788798	1.11022e-15	0.828698	-1.5708	8.88178e-16	0.1	0.1	0.1	0.1	0.1	0.1	0.1	0	0	0	0	0	0	0	0.000000000
1504601793.070039987	0.00613592	0.776194	-0.809942	0.0107379	0.786932	-1.60915	-0.0122718	0	0	0	0	0	0	0	0	0	0	0	0	0	0	0.000000000	1.11022e-15	0.788798	-0.788798	1.11022e-15	0.828698	-1.5708	8.88178e-16	0.1	0.1	0.1	0.1	0.1	0.1	0.1	0	0	0	0	0	0	0	0.000000000
1504601793.089179039	0.00613592	0.776194	-0.809942	0.00920388	0.786932	-1.60915	-0.0122718	0	0	0	0	0	0	0	0	0	0	0	0	0	0	0.000000000	1.11022e-15	0.788798	-0.788798	1.11022e-15	0.828698	-1.5708	8.88178e-16	0.1	0.1	0.1	0.1	0.1	0.1	0.1	0	0	0	0	0	0	0	0.000000000
1504601793.109154939	0.00613592	0.776194	-0.809942	0.00920388	0.786932	-1.60915	-0.0122718	0	0	0	0	0	0	0	0	0	0	0	0	0	0	0.000000000	1.11022e-15	0.788798	-0.788798	1.11022e-15	0.828698	-1.5708	8.88178e-16	0.1	0.1	0.1	0.1	0.1	0.1	0.1	0	0	0	0	0	0	0	0.000000000
1504601793.129192113	0.00613592	0.776194	-0.808408	0.0107379	0.786932	-1.60915	-0.0122718	0	0	0	0	0	0	0	0	0	0	0	0	0	0	0.000000000	1.11022e-15	0.788798	-0.788798	1.11022e-15	0.828698	-1.5708	8.88178e-16	0.1	0.1	0.1	0.1	0.1	0.1	0.1	0	0	0	0	0	0	0	0.000000000
1504601793.149286985	0.00613592	0.776194	-0.808408	0.00920388	0.786932	-1.60915	-0.0138058	0	0	0	0	0	0	0	0	0	0	0	0	0	0	0.000000000	1.11022e-15	0.788798	-0.788798	1.11022e-15	0.828698	-1.5708	8.88178e-16	0.1	0.1	0.1	0.1	0.1	0.1	0.1	0	0	0	0	0	0	0	0.000000000
1504601793.169193029	0.00613592	0.776194	-0.809942	0.0107379	0.786932	-1.60915	-0.0122718	0	0	0	0	0	0	0	0	0	0	0	0	0	0	0.000000000	1.11022e-15	0.788798	-0.788798	1.11022e-15	0.828698	-1.5708	8.88178e-16	0.1	0.1	0.1	0.1	0.1	0.1	0.1	0	0	0	0	0	0	0	0.000000000
1504601793.193092107	0.00613592	0.776194	-0.809942	0.0107379	0.786932	-1.60915	-0.0122718	0	0	0	0	0	0	0	0	0	0	0	0	0	0	0.000000000	1.11022e-15	0.788798	-0.788798	1.11022e-15	0.828698	-1.5708	8.88178e-16	0.1	0.1	0.1	0.1	0.1	0.1	0.1	0	0	0	0	0	0	0	0.000000000
1504601793.209357023	0.00613592	0.776194	-0.808408	0.00920388	0.786932	-1.60915	-0.0122718	0	0	0	0	0	0	0	0	0	0	0	0	0	0	0.000000000	1.11022e-15	0.788798	-0.788798	1.11022e-15	0.828698	-1.5708	8.88178e-16	0.1	0.1	0.1	0.1	0.1	0.1	0.1	0	0	0	0	0	0	0	0.000000000
1504601793.230274915	0.00613592	0.776194	-0.808408	0.0107379	0.786932	-1.60915	-0.0122718	0	0	0	0	0	0	0	0	0	0	0	0	0	0	0.000000000	1.11022e-15	0.788798	-0.788798	1.11022e-15	0.828698	-1.5708	8.88178e-16	0.1	0.1	0.1	0.1	0.1	0.1	0.1	0	0	0	0	0	0	0	0.000000000
1504601793.249169111	0.00613592	0.776194	-0.809942	0.0107379	0.786932	-1.60915	-0.0122718	0	0	0	0	0	0	0	0	0	0	0	0	0	0	0.000000000	1.11022e-15	0.788798	-0.788798	1.11022e-15	0.828698	-1.5708	8.88178e-16	0.1	0.1	0.1	0.1	0.1	0.1	0.1	0	0	0	0	0	0	0	0.000000000
1504601793.269181966	0.00613592	0.776194	-0.808408	0.0107379	0.786932	-1.60915	-0.0122718	0	0	0	0	0	0	0	0	0	0	0	0	0	0	0.000000000	1.11022e-15	0.788798	-0.788798	1.11022e-15	0.828698	-1.5708	8.88178e-16	0.1	0.1	0.1	0.1	0.1	0.1	0.1	0	0	0	0	0	0	0	0.000000000
1504601793.289220094	0.00613592	0.776194	-0.809942	0.0107379	0.786932	-1.60915	-0.0122718	0	0	0	0	0	0	0	0	0	0	0	0	0	0	0.000000000	1.11022e-15	0.788798	-0.788798	1.11022e-15	0.828698	-1.5708	8.88178e-16	0.1	0.1	0.1	0.1	0.1	0.1	0.1	0	0	0	0	0	0	0	0.000000000
1504601793.309134960	0.00613592	0.776194	-0.809942	0.0107379	0.786932	-1.60915	-0.0122718	0	0	0	0	0	0	0	0	0	0	0	0	0	0	0.000000000	1.11022e-15	0.788798	-0.788798	1.11022e-15	0.828698	-1.5708	8.88178e-16	0.1	0.1	0.1	0.1	0.1	0.1	0.1	0	0	0	0	0	0	0	0.000000000
1504601793.329180955	0.00613592	0.776194	-0.809942	0.00920388	0.786932	-1.60915	-0.0122718	0	0	0	0	0	0	0	0	0	0	0	0	0	0	0.000000000	1.11022e-15	0.788798	-0.788798	1.11022e-15	0.828698	-1.5708	8.88178e-16	0.1	0.1	0.1	0.1	0.1	0.1	0.1	0	0	0	0	0	0	0	0.000000000
1504601793.349150896	0.00613592	0.776194	-0.809942	0.0107379	0.786932	-1.60915	-0.0122718	0	0	0	0	0	0	0	0	0	0	0	0	0	0	0.000000000	1.11022e-15	0.788798	-0.788798	1.11022e-15	0.828698	-1.5708	8.88178e-16	0.1	0.1	0.1	0.1	0.1	0.1	0.1	0	0	0	0	0	0	0	0.000000000
1504601793.369152069	0.00613592	0.776194	-0.809942	0.0107379	0.786932	-1.60915	-0.0122718	0	0	0	0	0	0	0	0	0	0	0	0	0	0	0.000000000	1.11022e-15	0.788798	-0.788798	1.11022e-15	0.828698	-1.5708	8.88178e-16	0.1	0.1	0.1	0.1	0.1	0.1	0.1	0	0	0	0	0	0	0	0.000000000
1504601793.389321088	0.00613592	0.776194	-0.809942	0.0107379	0.786932	-1.60915	-0.0122718	0	0	0	0	0	0	0	0	0	0	0	0	0	0	0.000000000	1.11022e-15	0.788798	-0.788798	1.11022e-15	0.828698	-1.5708	8.88178e-16	0.1	0.1	0.1	0.1	0.1	0.1	0.1	0	0	0	0	0	0	0	0.000000000
1504601793.409284114	0.00613592	0.776194	-0.809942	0.0107379	0.786932	-1.60915	-0.0122718	0	0	0	0	0	0	0	0	0	0	0	0	0	0	0.000000000	1.11022e-15	0.788798	-0.788798	1.11022e-15	0.828698	-1.5708	8.88178e-16	0.1	0.1	0.1	0.1	0.1	0.1	0.1	0	0	0	0	0	0	0	0.000000000
1504601793.429119110	0.00613592	0.776194	-0.809942	0.0107379	0.786932	-1.60915	-0.0122718	0	0	0	0	0	0	0	0	0	0	0	0	0	0	0.000000000	1.11022e-15	0.788798	-0.788798	1.11022e-15	0.828698	-1.5708	8.88178e-16	0.1	0.1	0.1	0.1	0.1	0.1	0.1	0	0	0	0	0	0	0	0.000000000
1504601793.449650049	0.00613592	0.776194	-0.808408	0.00920388	0.786932	-1.60915	-0.0122718	0	0	0	0	0	0	0	0	0	0	0	0	0	0	0.000000000	1.11022e-15	0.788798	-0.788798	1.11022e-15	0.828698	-1.5708	8.88178e-16	0.1	0.1	0.1	0.1	0.1	0.1	0.1	0	0	0	0	0	0	0	0.000000000
1504601793.469177007	0.00613592	0.776194	-0.808408	0.00920388	0.786932	-1.60915	-0.0122718	0	0	0	0	0	0	0	0	0	0	0	0	0	0	0.000000000	1.11022e-15	0.788798	-0.788798	1.11022e-15	0.828698	-1.5708	8.88178e-16	0.1	0.1	0.1	0.1	0.1	0.1	0.1	0	0	0	0	0	0	0	0.000000000
1504601793.489201068	0.00613592	0.776194	-0.808408	0.00920388	0.786932	-1.60915	-0.0122718	0	0	0	0	0	0	0	0	0	0	0	0	0	0	0.000000000	1.11022e-15	0.788798	-0.788798	1.11022e-15	0.828698	-1.5708	8.88178e-16	0.1	0.1	0.1	0.1	0.1	0.1	0.1	0	0	0	0	0	0	0	0.000000000
1504601793.509227991	0.00613592	0.776194	-0.809942	0.00920388	0.786932	-1.61068	-0.0122718	0	0	0	0	0	0	0	0	0	0	0	0	0	0	0.000000000	1.11022e-15	0.788798	-0.788798	1.11022e-15	0.828698	-1.5708	8.88178e-16	0.1	0.1	0.1	0.1	0.1	0.1	0.1	0	0	0	0	0	0	0	0.000000000
1504601793.529140949	0.00613592	0.776194	-0.808408	0.0107379	0.786932	-1.60915	-0.0122718	0	0	0	0	0	0	0	0	0	0	0	0	0	0	0.000000000	1.11022e-15	0.788798	-0.788798	1.11022e-15	0.828698	-1.5708	8.88178e-16	0.1	0.1	0.1	0.1	0.1	0.1	0.1	0	0	0	0	0	0	0	0.000000000
1504601793.549237012	0.00613592	0.776194	-0.808408	0.0107379	0.786932	-1.60915	-0.0122718	0	0	0	0	0	0	0	0	0	0	0	0	0	0	0.000000000	1.11022e-15	0.788798	-0.788798	1.11022e-15	0.828698	-1.5708	8.88178e-16	0.1	0.1	0.1	0.1	0.1	0.1	0.1	0	0	0	0	0	0	0	0.000000000
1504601793.569339990	0.00613592	0.776194	-0.809942	0.0107379	0.786932	-1.60915	-0.0122718	0	0	0	0	0	0	0	0	0	0	0	0	0	0	0.000000000	1.11022e-15	0.788798	-0.788798	1.11022e-15	0.828698	-1.5708	8.88178e-16	0.1	0.1	0.1	0.1	0.1	0.1	0.1	0	0	0	0	0	0	0	0.000000000
1504601793.589512109	0.00613592	0.776194	-0.808408	0.0107379	0.786932	-1.61068	-0.0122718	0	0	0	0	0	0	0	0	0	0	0	0	0	0	0.000000000	1.11022e-15	0.788798	-0.788798	1.11022e-15	0.828698	-1.5708	8.88178e-16	0.1	0.1	0.1	0.1	0.1	0.1	0.1	0	0	0	0	0	0	0	0.000000000
1504601793.609150886	0.00613592	0.776194	-0.808408	0.0107379	0.786932	-1.61068	-0.0122718	0	0	0	0	0	0	0	0	0	0	0	0	0	0	0.000000000	1.11022e-15	0.788798	-0.788798	1.11022e-15	0.828698	-1.5708	8.88178e-16	0.1	0.1	0.1	0.1	0.1	0.1	0.1	0	0	0	0	0	0	0	0.000000000
1504601793.629473924	0.00613592	0.776194	-0.809942	0.00920388	0.786932	-1.60915	-0.0122718	0	0	0	0	0	0	0	0	0	0	0	0	0	0	0.000000000	1.11022e-15	0.788798	-0.788798	1.11022e-15	0.828698	-1.5708	8.88178e-16	0.1	0.1	0.1	0.1	0.1	0.1	0.1	0	0	0	0	0	0	0	0.000000000
1504601793.649970054	0.00613592	0.776194	-0.809942	0.0107379	0.786932	-1.60915	-0.0122718	0	0	0	0	0	0	0	0	0	0	0	0	0	0	0.000000000	1.11022e-15	0.788798	-0.788798	1.11022e-15	0.828698	-1.5708	8.88178e-16	0.1	0.1	0.1	0.1	0.1	0.1	0.1	0	0	0	0	0	0	0	0.000000000
1504601793.669199943	0.00613592	0.776194	-0.809942	0.0107379	0.786932	-1.60915	-0.0138058	0	0	0	0	0	0	0	0	0	0	0	0	0	0	0.000000000	1.11022e-15	0.788798	-0.788798	1.11022e-15	0.828698	-1.5708	8.88178e-16	0.1	0.1	0.1	0.1	0.1	0.1	0.1	0	0	0	0	0	0	0	0.000000000
1504601793.689218997	0.00613592	0.776194	-0.809942	0.0107379	0.786932	-1.60915	-0.0122718	0	0	0	0	0	0	0	0	0	0	0	0	0	0	0.000000000	1.11022e-15	0.788798	-0.788798	1.11022e-15	0.828698	-1.5708	8.88178e-16	0.1	0.1	0.1	0.1	0.1	0.1	0.1	0	0	0	0	0	0	0	0.000000000
1504601793.709307909	0.00613592	0.776194	-0.809942	0.0107379	0.786932	-1.60915	-0.0122718	0	0	0	0	0	0	0	0	0	0	0	0	0	0	0.000000000	1.11022e-15	0.788798	-0.788798	1.11022e-15	0.828698	-1.5708	8.88178e-16	0.1	0.1	0.1	0.1	0.1	0.1	0.1	0	0	0	0	0	0	0	0.000000000
1504601793.729206085	0.00613592	0.776194	-0.809942	0.00920388	0.786932	-1.60915	-0.0122718	0	0	0	0	0	0	0	0	0	0	0	0	0	0	0.000000000	1.11022e-15	0.788798	-0.788798	1.11022e-15	0.828698	-1.5708	8.88178e-16	0.1	0.1	0.1	0.1	0.1	0.1	0.1	0	0	0	0	0	0	0	0.000000000
1504601793.749142885	0.00613592	0.776194	-0.809942	0.00920388	0.786932	-1.60915	-0.0122718	0	0	0	0	0	0	0	0	0	0	0	0	0	0	0.000000000	1.11022e-15	0.788798	-0.788798	1.11022e-15	0.828698	-1.5708	8.88178e-16	0.1	0.1	0.1	0.1	0.1	0.1	0.1	0	0	0	0	0	0	0	0.000000000
1504601793.769231081	0.00613592	0.776194	-0.809942	0.0107379	0.786932	-1.60915	-0.0122718	0	0	0	0	0	0	0	0	0	0	0	0	0	0	0.000000000	1.11022e-15	0.788798	-0.788798	1.11022e-15	0.828698	-1.5708	8.88178e-16	0.1	0.1	0.1	0.1	0.1	0.1	0.1	0	0	0	0	0	0	0	0.000000000
1504601793.793795108	0.00613592	0.776194	-0.809942	0.00920388	0.786932	-1.61068	-0.0122718	0	0	0	0	0	0	0	0	0	0	0	0	0	0	0.000000000	1.11022e-15	0.788798	-0.788798	1.11022e-15	0.828698	-1.5708	8.88178e-16	0.1	0.1	0.1	0.1	0.1	0.1	0.1	0	0	0	0	0	0	0	0.000000000
1504601793.809242010	0.00613592	0.776194	-0.809942	0.00920388	0.786932	-1.61068	-0.0122718	0	0	0	0	0	0	0	0	0	0	0	0	0	0	0.000000000	1.11022e-15	0.788798	-0.788798	1.11022e-15	0.828698	-1.5708	8.88178e-16	0.1	0.1	0.1	0.1	0.1	0.1	0.1	0	0	0	0	0	0	0	0.000000000
1504601793.829988002	0.00613592	0.776194	-0.809942	0.0107379	0.786932	-1.60915	-0.0122718	0	0	0	0	0	0	0	0	0	0	0	0	0	0	0.000000000	1.11022e-15	0.788798	-0.788798	1.11022e-15	0.828698	-1.5708	8.88178e-16	0.1	0.1	0.1	0.1	0.1	0.1	0.1	0	0	0	0	0	0	0	0.000000000
1504601793.849160909	0.00613592	0.776194	-0.809942	0.0107379	0.786932	-1.60915	-0.0122718	0	0	0	0	0	0	0	0	0	0	0	0	0	0	0.000000000	1.11022e-15	0.788798	-0.788798	1.11022e-15	0.828698	-1.5708	8.88178e-16	0.1	0.1	0.1	0.1	0.1	0.1	0.1	0	0	0	0	0	0	0	0.000000000
1504601793.869175910	0.00613592	0.776194	-0.809942	0.0107379	0.786932	-1.60915	-0.0122718	0	0	0	0	0	0	0	0	0	0	0	0	0	0	0.000000000	1.11022e-15	0.788798	-0.788798	1.11022e-15	0.828698	-1.5708	8.88178e-16	0.1	0.1	0.1	0.1	0.1	0.1	0.1	0	0	0	0	0	0	0	0.000000000
1504601793.890068054	0.00613592	0.776194	-0.809942	0.0107379	0.786932	-1.60915	-0.0122718	0	0	0	0	0	0	0	0	0	0	0	0	0	0	0.000000000	1.11022e-15	0.788798	-0.788798	1.11022e-15	0.828698	-1.5708	8.88178e-16	0.1	0.1	0.1	0.1	0.1	0.1	0.1	0	0	0	0	0	0	0	0.000000000
1504601793.909379959	0.00613592	0.776194	-0.809942	0.0107379	0.786932	-1.60915	-0.0122718	0	0	0	0	0	0	0	0	0	0	0	0	0	0	0.000000000	1.11022e-15	0.788798	-0.788798	1.11022e-15	0.828698	-1.5708	8.88178e-16	0.1	0.1	0.1	0.1	0.1	0.1	0.1	0	0	0	0	0	0	0	0.000000000
1504601793.929472923	0.00613592	0.776194	-0.809942	0.00920388	0.786932	-1.60915	-0.0122718	0	0	0	0	0	0	0	0	0	0	0	0	0	0	0.000000000	1.11022e-15	0.788798	-0.788798	1.11022e-15	0.828698	-1.5708	8.88178e-16	0.1	0.1	0.1	0.1	0.1	0.1	0.1	0	0	0	0	0	0	0	0.000000000
1504601793.949208021	0.00613592	0.776194	-0.809942	0.0107379	0.786932	-1.60915	-0.0122718	0	0	0	0	0	0	0	0	0	0	0	0	0	0	0.000000000	1.11022e-15	0.788798	-0.788798	1.11022e-15	0.828698	-1.5708	8.88178e-16	0.1	0.1	0.1	0.1	0.1	0.1	0.1	0	0	0	0	0	0	0	0.000000000
1504601793.969360113	0.00613592	0.776194	-0.809942	0.00920388	0.786932	-1.61068	-0.0122718	0	0	0	0	0	0	0	0	0	0	0	0	0	0	0.000000000	1.11022e-15	0.788798	-0.788798	1.11022e-15	0.828698	-1.5708	8.88178e-16	0.1	0.1	0.1	0.1	0.1	0.1	0.1	0	0	0	0	0	0	0	0.000000000
1504601793.989336967	0.00613592	0.776194	-0.809942	0.00920388	0.786932	-1.61068	-0.0122718	0	0	0	0	0	0	0	0	0	0	0	0	0	0	0.000000000	1.11022e-15	0.788798	-0.788798	1.11022e-15	0.828698	-1.5708	8.88178e-16	0.1	0.1	0.1	0.1	0.1	0.1	0.1	0	0	0	0	0	0	0	0.000000000
1504601794.009207010	0.00613592	0.776194	-0.809942	0.00920388	0.786932	-1.61068	-0.0122718	0	0	0	0	0	0	0	0	0	0	0	0	0	0	0.000000000	1.11022e-15	0.788798	-0.788798	1.11022e-15	0.828698	-1.5708	8.88178e-16	0.1	0.1	0.1	0.1	0.1	0.1	0.1	0	0	0	0	0	0	0	0.000000000
1504601794.029253005	0.00613592	0.776194	-0.809942	0.0107379	0.786932	-1.60915	-0.0122718	0	0	0	0	0	0	0	0	0	0	0	0	0	0	0.000000000	1.11022e-15	0.788798	-0.788798	1.11022e-15	0.828698	-1.5708	8.88178e-16	0.1	0.1	0.1	0.1	0.1	0.1	0.1	0	0	0	0	0	0	0	0.000000000
1504601794.051611900	0.00613592	0.776194	-0.809942	0.0107379	0.786932	-1.60915	-0.0122718	0	0	0	0	0	0	0	0	0	0	0	0	0	0	0.000000000	1.11022e-15	0.788798	-0.788798	1.11022e-15	0.828698	-1.5708	8.88178e-16	0.1	0.1	0.1	0.1	0.1	0.1	0.1	0	0	0	0	0	0	0	0.000000000
1504601794.069994926	0.00613592	0.776194	-0.809942	0.0107379	0.786932	-1.60915	-0.0122718	0	0	0	0	0	0	0	0	0	0	0	0	0	0	0.000000000	1.11022e-15	0.788798	-0.788798	1.11022e-15	0.828698	-1.5708	8.88178e-16	0.1	0.1	0.1	0.1	0.1	0.1	0.1	0	0	0	0	0	0	0	0.000000000
1504601794.089118003	0.00613592	0.776194	-0.809942	0.00920388	0.786932	-1.60915	-0.0122718	0	0	0	0	0	0	0	0	0	0	0	0	0	0	0.000000000	1.11022e-15	0.788798	-0.788798	1.11022e-15	0.828698	-1.5708	8.88178e-16	0.1	0.1	0.1	0.1	0.1	0.1	0.1	0	0	0	0	0	0	0	0.000000000
1504601794.109497070	0.00613592	0.776194	-0.809942	0.00920388	0.786932	-1.60915	-0.0122718	0	0	0	0	0	0	0	0	0	0	0	0	0	0	0.000000000	1.11022e-15	0.788798	-0.788798	1.11022e-15	0.828698	-1.5708	8.88178e-16	0.1	0.1	0.1	0.1	0.1	0.1	0.1	0	0	0	0	0	0	0	0.000000000
1504601794.129165887	0.00613592	0.776194	-0.809942	0.0107379	0.786932	-1.60915	-0.0122718	0	0	0	0	0	0	0	0	0	0	0	0	0	0	0.000000000	1.11022e-15	0.788798	-0.788798	1.11022e-15	0.828698	-1.5708	8.88178e-16	0.1	0.1	0.1	0.1	0.1	0.1	0.1	0	0	0	0	0	0	0	0.000000000
1504601794.149276018	0.00613592	0.776194	-0.809942	0.0107379	0.786932	-1.60915	-0.0122718	0	0	0	0	0	0	0	0	0	0	0	0	0	0	0.000000000	1.11022e-15	0.788798	-0.788798	1.11022e-15	0.828698	-1.5708	8.88178e-16	0.1	0.1	0.1	0.1	0.1	0.1	0.1	0	0	0	0	0	0	0	0.000000000
1504601794.169404029	0.00613592	0.776194	-0.809942	0.0107379	0.786932	-1.60915	-0.0122718	0	0	0	0	0	0	0	0	0	0	0	0	0	0	0.000000000	1.11022e-15	0.788798	-0.788798	1.11022e-15	0.828698	-1.5708	8.88178e-16	0.1	0.1	0.1	0.1	0.1	0.1	0.1	0	0	0	0	0	0	0	0.000000000
1504601794.190267086	0.00613592	0.776194	-0.809942	0.0107379	0.786932	-1.60915	-0.0122718	0	0	0	0	0	0	0	0	0	0	0	0	0	0	0.000000000	1.11022e-15	0.788798	-0.788798	1.11022e-15	0.828698	-1.5708	8.88178e-16	0.1	0.1	0.1	0.1	0.1	0.1	0.1	0	0	0	0	0	0	0	0.000000000
1504601794.209352970	0.00613592	0.776194	-0.809942	0.0107379	0.786932	-1.60915	-0.0122718	0	0	0	0	0	0	0	0	0	0	0	0	0	0	0.000000000	1.11022e-15	0.788798	-0.788798	1.11022e-15	0.828698	-1.5708	8.88178e-16	0.1	0.1	0.1	0.1	0.1	0.1	0.1	0	0	0	0	0	0	0	0.000000000
1504601794.229681015	0.00613592	0.776194	-0.808408	0.0107379	0.786932	-1.60915	-0.0122718	0	0	0	0	0	0	0	0	0	0	0	0	0	0	0.000000000	1.11022e-15	0.788798	-0.788798	1.11022e-15	0.828698	-1.5708	8.88178e-16	0.1	0.1	0.1	0.1	0.1	0.1	0.1	0	0	0	0	0	0	0	0.000000000
1504601794.249401092	0.00613592	0.776194	-0.809942	0.00920388	0.786932	-1.60915	-0.0122718	0	0	0	0	0	0	0	0	0	0	0	0	0	0	0.000000000	1.11022e-15	0.788798	-0.788798	1.11022e-15	0.828698	-1.5708	8.88178e-16	0.1	0.1	0.1	0.1	0.1	0.1	0.1	0	0	0	0	0	0	0	0.000000000
1504601794.269126892	0.00613592	0.776194	-0.808408	0.00920388	0.786932	-1.61068	-0.0122718	0	0	0	0	0	0	0	0	0	0	0	0	0	0	0.000000000	1.11022e-15	0.788798	-0.788798	1.11022e-15	0.828698	-1.5708	8.88178e-16	0.1	0.1	0.1	0.1	0.1	0.1	0.1	0	0	0	0	0	0	0	0.000000000
1504601794.289406061	0.00613592	0.776194	-0.808408	0.00920388	0.786932	-1.60915	-0.0122718	0	0	0	0	0	0	0	0	0	0	0	0	0	0	0.000000000	1.11022e-15	0.788798	-0.788798	1.11022e-15	0.828698	-1.5708	8.88178e-16	0.1	0.1	0.1	0.1	0.1	0.1	0.1	0	0	0	0	0	0	0	0.000000000
1504601794.309348106	0.00613592	0.776194	-0.808408	0.00920388	0.786932	-1.60915	-0.0122718	0	0	0	0	0	0	0	0	0	0	0	0	0	0	0.000000000	1.11022e-15	0.788798	-0.788798	1.11022e-15	0.828698	-1.5708	8.88178e-16	0.1	0.1	0.1	0.1	0.1	0.1	0.1	0	0	0	0	0	0	0	0.000000000
1504601794.330377101	0.00613592	0.776194	-0.809942	0.00920388	0.786932	-1.60915	-0.0122718	0	0	0	0	0	0	0	0	0	0	0	0	0	0	0.000000000	1.11022e-15	0.788798	-0.788798	1.11022e-15	0.828698	-1.5708	8.88178e-16	0.1	0.1	0.1	0.1	0.1	0.1	0.1	0	0	0	0	0	0	0	0.000000000
1504601794.349276065	0.00613592	0.776194	-0.809942	0.00920388	0.786932	-1.61068	-0.0138058	0	0	0	0	0	0	0	0	0	0	0	0	0	0	0.000000000	1.11022e-15	0.788798	-0.788798	1.11022e-15	0.828698	-1.5708	8.88178e-16	0.1	0.1	0.1	0.1	0.1	0.1	0.1	0	0	0	0	0	0	0	0.000000000
1504601794.369240045	0.00613592	0.776194	-0.809942	0.0107379	0.786932	-1.60915	-0.0122718	0	0	0	0	0	0	0	0	0	0	0	0	0	0	0.000000000	1.11022e-15	0.788798	-0.788798	1.11022e-15	0.828698	-1.5708	8.88178e-16	0.1	0.1	0.1	0.1	0.1	0.1	0.1	0	0	0	0	0	0	0	0.000000000
1504601794.389503002	0.00613592	0.776194	-0.808408	0.0107379	0.786932	-1.60915	-0.0122718	0	0	0	0	0	0	0	0	0	0	0	0	0	0	0.000000000	1.11022e-15	0.788798	-0.788798	1.11022e-15	0.828698	-1.5708	8.88178e-16	0.1	0.1	0.1	0.1	0.1	0.1	0.1	0	0	0	0	0	0	0	0.000000000
1504601794.409135103	0.00613592	0.776194	-0.808408	0.0107379	0.786932	-1.60915	-0.0122718	0	0	0	0	0	0	0	0	0	0	0	0	0	0	0.000000000	1.11022e-15	0.788798	-0.788798	1.11022e-15	0.828698	-1.5708	8.88178e-16	0.1	0.1	0.1	0.1	0.1	0.1	0.1	0	0	0	0	0	0	0	0.000000000
1504601794.431109905	0.00460194	0.776194	-0.809942	0.00920388	0.786932	-1.60915	-0.0122718	0	0	0	0	0	0	0	0	0	0	0	0	0	0	0.000000000	1.11022e-15	0.788798	-0.788798	1.11022e-15	0.828698	-1.5708	8.88178e-16	0.1	0.1	0.1	0.1	0.1	0.1	0.1	0	0	0	0	0	0	0	0.000000000
1504601794.449306964	0.00613592	0.776194	-0.809942	0.0107379	0.786932	-1.60915	-0.0122718	0	0	0	0	0	0	0	0	0	0	0	0	0	0	0.000000000	1.11022e-15	0.788798	-0.788798	1.11022e-15	0.828698	-1.5708	8.88178e-16	0.1	0.1	0.1	0.1	0.1	0.1	0.1	0	0	0	0	0	0	0	0.000000000
1504601794.469172954	0.00613592	0.776194	-0.809942	0.00920388	0.786932	-1.60915	-0.0122718	0	0	0	0	0	0	0	0	0	0	0	0	0	0	0.000000000	1.11022e-15	0.788798	-0.788798	1.11022e-15	0.828698	-1.5708	8.88178e-16	0.1	0.1	0.1	0.1	0.1	0.1	0.1	0	0	0	0	0	0	0	0.000000000
1504601794.489134073	0.00613592	0.776194	-0.809942	0.00920388	0.786932	-1.60915	-0.0122718	0	0	0	0	0	0	0	0	0	0	0	0	0	0	0.000000000	1.11022e-15	0.788798	-0.788798	1.11022e-15	0.828698	-1.5708	8.88178e-16	0.1	0.1	0.1	0.1	0.1	0.1	0.1	0	0	0	0	0	0	0	0.000000000
1504601794.509152889	0.00613592	0.776194	-0.809942	0.00920388	0.786932	-1.60915	-0.0122718	0	0	0	0	0	0	0	0	0	0	0	0	0	0	0.000000000	1.11022e-15	0.788798	-0.788798	1.11022e-15	0.828698	-1.5708	8.88178e-16	0.1	0.1	0.1	0.1	0.1	0.1	0.1	0	0	0	0	0	0	0	0.000000000
1504601794.529197931	0.00613592	0.776194	-0.809942	0.00920388	0.786932	-1.60915	-0.0122718	0	0	0	0	0	0	0	0	0	0	0	0	0	0	0.000000000	1.11022e-15	0.788798	-0.788798	1.11022e-15	0.828698	-1.5708	8.88178e-16	0.1	0.1	0.1	0.1	0.1	0.1	0.1	0	0	0	0	0	0	0	0.000000000
1504601794.549182891	0.00613592	0.776194	-0.809942	0.0107379	0.786932	-1.60915	-0.0122718	0	0	0	0	0	0	0	0	0	0	0	0	0	0	0.000000000	1.11022e-15	0.788798	-0.788798	1.11022e-15	0.828698	-1.5708	8.88178e-16	0.1	0.1	0.1	0.1	0.1	0.1	0.1	0	0	0	0	0	0	0	0.000000000
1504601794.569392919	0.00613592	0.776194	-0.808408	0.0107379	0.786932	-1.60915	-0.0138058	0	0	0	0	0	0	0	0	0	0	0	0	0	0	0.000000000	1.11022e-15	0.788798	-0.788798	1.11022e-15	0.828698	-1.5708	8.88178e-16	0.1	0.1	0.1	0.1	0.1	0.1	0.1	0	0	0	0	0	0	0	0.000000000
1504601794.591448068	0.00613592	0.776194	-0.808408	0.00920388	0.786932	-1.60915	-0.0122718	0	0	0	0	0	0	0	0	0	0	0	0	0	0	0.000000000	1.11022e-15	0.788798	-0.788798	1.11022e-15	0.828698	-1.5708	8.88178e-16	0.1	0.1	0.1	0.1	0.1	0.1	0.1	0	0	0	0	0	0	0	0.000000000
1504601794.610023975	0.00613592	0.776194	-0.808408	0.00920388	0.786932	-1.60915	-0.0122718	0	0	0	0	0	0	0	0	0	0	0	0	0	0	0.000000000	1.11022e-15	0.788798	-0.788798	1.11022e-15	0.828698	-1.5708	8.88178e-16	0.1	0.1	0.1	0.1	0.1	0.1	0.1	0	0	0	0	0	0	0	0.000000000
1504601794.630249023	0.00613592	0.776194	-0.808408	0.0107379	0.786932	-1.60915	-0.0122718	0	0	0	0	0	0	0	0	0	0	0	0	0	0	0.000000000	1.11022e-15	0.788798	-0.788798	1.11022e-15	0.828698	-1.5708	8.88178e-16	0.1	0.1	0.1	0.1	0.1	0.1	0.1	0	0	0	0	0	0	0	0.000000000
1504601794.649828910	0.00613592	0.776194	-0.809942	0.0107379	0.786932	-1.60915	-0.0122718	0	0	0	0	0	0	0	0	0	0	0	0	0	0	0.000000000	1.11022e-15	0.788798	-0.788798	1.11022e-15	0.828698	-1.5708	8.88178e-16	0.1	0.1	0.1	0.1	0.1	0.1	0.1	0	0	0	0	0	0	0	0.000000000
1504601794.669210910	0.00460194	0.776194	-0.809942	0.0107379	0.786932	-1.60915	-0.0122718	0	0	0	0	0	0	0	0	0	0	0	0	0	0	0.000000000	1.11022e-15	0.788798	-0.788798	1.11022e-15	0.828698	-1.5708	8.88178e-16	0.1	0.1	0.1	0.1	0.1	0.1	0.1	0	0	0	0	0	0	0	0.000000000
1504601794.689330101	0.00613592	0.776194	-0.809942	0.0107379	0.786932	-1.60915	-0.0122718	0	0	0	0	0	0	0	0	0	0	0	0	0	0	0.000000000	1.11022e-15	0.788798	-0.788798	1.11022e-15	0.828698	-1.5708	8.88178e-16	0.1	0.1	0.1	0.1	0.1	0.1	0.1	0	0	0	0	0	0	0	0.000000000
1504601794.709165096	0.00613592	0.776194	-0.809942	0.0107379	0.786932	-1.60915	-0.0122718	0	0	0	0	0	0	0	0	0	0	0	0	0	0	0.000000000	1.11022e-15	0.788798	-0.788798	1.11022e-15	0.828698	-1.5708	8.88178e-16	0.1	0.1	0.1	0.1	0.1	0.1	0.1	0	0	0	0	0	0	0	0.000000000
1504601794.729190111	0.00613592	0.776194	-0.808408	0.0107379	0.786932	-1.60915	-0.0122718	0	0	0	0	0	0	0	0	0	0	0	0	0	0	0.000000000	1.11022e-15	0.788798	-0.788798	1.11022e-15	0.828698	-1.5708	8.88178e-16	0.1	0.1	0.1	0.1	0.1	0.1	0.1	0	0	0	0	0	0	0	0.000000000
1504601794.749310970	0.00613592	0.776194	-0.809942	0.00920388	0.786932	-1.60915	-0.0122718	0	0	0	0	0	0	0	0	0	0	0	0	0	0	0.000000000	1.11022e-15	0.788798	-0.788798	1.11022e-15	0.828698	-1.5708	8.88178e-16	0.1	0.1	0.1	0.1	0.1	0.1	0.1	0	0	0	0	0	0	0	0.000000000
1504601794.769179105	0.00613592	0.776194	-0.809942	0.00920388	0.786932	-1.60915	-0.0122718	0	0	0	0	0	0	0	0	0	0	0	0	0	0	0.000000000	1.11022e-15	0.788798	-0.788798	1.11022e-15	0.828698	-1.5708	8.88178e-16	0.1	0.1	0.1	0.1	0.1	0.1	0.1	0	0	0	0	0	0	0	0.000000000
1504601794.790292978	0.00613592	0.776194	-0.809942	0.00920388	0.786932	-1.60915	-0.0122718	0	0	0	0	0	0	0	0	0	0	0	0	0	0	0.000000000	1.11022e-15	0.788798	-0.788798	1.11022e-15	0.828698	-1.5708	8.88178e-16	0.1	0.1	0.1	0.1	0.1	0.1	0.1	0	0	0	0	0	0	0	0.000000000
1504601794.809319019	0.00613592	0.776194	-0.809942	0.00920388	0.786932	-1.60915	-0.0122718	0	0	0	0	0	0	0	0	0	0	0	0	0	0	0.000000000	1.11022e-15	0.788798	-0.788798	1.11022e-15	0.828698	-1.5708	8.88178e-16	0.1	0.1	0.1	0.1	0.1	0.1	0.1	0	0	0	0	0	0	0	0.000000000
1504601794.829824924	0.00613592	0.77466	-0.809942	0.0107379	0.786932	-1.60915	-0.0122718	0	0	0	0	0	0	0	0	0	0	0	0	0	0	0.000000000	1.11022e-15	0.788798	-0.788798	1.11022e-15	0.828698	-1.5708	8.88178e-16	0.1	0.1	0.1	0.1	0.1	0.1	0.1	0	0	0	0	0	0	0	0.000000000
1504601794.849838972	0.00613592	0.776194	-0.808408	0.0107379	0.786932	-1.60915	-0.0122718	0	0	0	0	0	0	0	0	0	0	0	0	0	0	0.000000000	1.11022e-15	0.788798	-0.788798	1.11022e-15	0.828698	-1.5708	8.88178e-16	0.1	0.1	0.1	0.1	0.1	0.1	0.1	0	0	0	0	0	0	0	0.000000000
1504601794.873680114	0.00613592	0.776194	-0.809942	0.0107379	0.786932	-1.60915	-0.0122718	0	0	0	0	0	0	0	0	0	0	0	0	0	0	0.000000000	1.11022e-15	0.788798	-0.788798	1.11022e-15	0.828698	-1.5708	8.88178e-16	0.1	0.1	0.1	0.1	0.1	0.1	0.1	0	0	0	0	0	0	0	0.000000000
1504601794.893269062	0.00613592	0.776194	-0.809942	0.0107379	0.786932	-1.60915	-0.0122718	0	0	0	0	0	0	0	0	0	0	0	0	0	0	0.000000000	1.11022e-15	0.788798	-0.788798	1.11022e-15	0.828698	-1.5708	8.88178e-16	0.1	0.1	0.1	0.1	0.1	0.1	0.1	0	0	0	0	0	0	0	0.000000000
1504601794.909204006	0.00613592	0.776194	-0.809942	0.0107379	0.786932	-1.60915	-0.0122718	0	0	0	0	0	0	0	0	0	0	0	0	0	0	0.000000000	1.11022e-15	0.788798	-0.788798	1.11022e-15	0.828698	-1.5708	8.88178e-16	0.1	0.1	0.1	0.1	0.1	0.1	0.1	0	0	0	0	0	0	0	0.000000000
1504601794.929205894	0.00613592	0.776194	-0.808408	0.0107379	0.786932	-1.60915	-0.0122718	0	0	0	0	0	0	0	0	0	0	0	0	0	0	0.000000000	1.11022e-15	0.788798	-0.788798	1.11022e-15	0.828698	-1.5708	8.88178e-16	0.1	0.1	0.1	0.1	0.1	0.1	0.1	0	0	0	0	0	0	0	0.000000000
1504601794.949208974	0.00613592	0.776194	-0.809942	0.0107379	0.786932	-1.60915	-0.0122718	0	0	0	0	0	0	0	0	0	0	0	0	0	0	0.000000000	1.11022e-15	0.788798	-0.788798	1.11022e-15	0.828698	-1.5708	8.88178e-16	0.1	0.1	0.1	0.1	0.1	0.1	0.1	0	0	0	0	0	0	0	0.000000000
1504601794.969218969	0.00613592	0.776194	-0.809942	0.0107379	0.786932	-1.60915	-0.0138058	0	0	0	0	0	0	0	0	0	0	0	0	0	0	0.000000000	1.11022e-15	0.788798	-0.788798	1.11022e-15	0.828698	-1.5708	8.88178e-16	0.1	0.1	0.1	0.1	0.1	0.1	0.1	0	0	0	0	0	0	0	0.000000000
1504601794.989308118	0.00613592	0.776194	-0.809942	0.0107379	0.786932	-1.60915	-0.0138058	0	0	0	0	0	0	0	0	0	0	0	0	0	0	0.000000000	1.11022e-15	0.788798	-0.788798	1.11022e-15	0.828698	-1.5708	8.88178e-16	0.1	0.1	0.1	0.1	0.1	0.1	0.1	0	0	0	0	0	0	0	0.000000000
1504601795.009340047	0.00613592	0.776194	-0.809942	0.0107379	0.786932	-1.60915	-0.0122718	0	0	0	0	0	0	0	0	0	0	0	0	0	0	0.000000000	1.11022e-15	0.788798	-0.788798	1.11022e-15	0.828698	-1.5708	8.88178e-16	0.1	0.1	0.1	0.1	0.1	0.1	0.1	0	0	0	0	0	0	0	0.000000000
1504601795.029476881	0.00613592	0.776194	-0.808408	0.0107379	0.786932	-1.60915	-0.0122718	0	0	0	0	0	0	0	0	0	0	0	0	0	0	0.000000000	1.11022e-15	0.788798	-0.788798	1.11022e-15	0.828698	-1.5708	8.88178e-16	0.1	0.1	0.1	0.1	0.1	0.1	0.1	0	0	0	0	0	0	0	0.000000000
1504601795.049328088	0.00613592	0.776194	-0.809942	0.0107379	0.786932	-1.60915	-0.0122718	0	0	0	0	0	0	0	0	0	0	0	0	0	0	0.000000000	1.11022e-15	0.788798	-0.788798	1.11022e-15	0.828698	-1.5708	8.88178e-16	0.1	0.1	0.1	0.1	0.1	0.1	0.1	0	0	0	0	0	0	0	0.000000000
1504601795.069103002	0.00613592	0.776194	-0.808408	0.0107379	0.786932	-1.60915	-0.0122718	0	0	0	0	0	0	0	0	0	0	0	0	0	0	0.000000000	1.11022e-15	0.788798	-0.788798	1.11022e-15	0.828698	-1.5708	8.88178e-16	0.1	0.1	0.1	0.1	0.1	0.1	0.1	0	0	0	0	0	0	0	0.000000000
1504601795.091471910	0.00613592	0.776194	-0.809942	0.0107379	0.786932	-1.60915	-0.0122718	0	0	0	0	0	0	0	0	0	0	0	0	0	0	0.000000000	1.11022e-15	0.788798	-0.788798	1.11022e-15	0.828698	-1.5708	8.88178e-16	0.1	0.1	0.1	0.1	0.1	0.1	0.1	0	0	0	0	0	0	0	0.000000000
1504601795.109225988	0.00613592	0.776194	-0.809942	0.0107379	0.786932	-1.60915	-0.0122718	0	0	0	0	0	0	0	0	0	0	0	0	0	0	0.000000000	1.11022e-15	0.788798	-0.788798	1.11022e-15	0.828698	-1.5708	8.88178e-16	0.1	0.1	0.1	0.1	0.1	0.1	0.1	0	0	0	0	0	0	0	0.000000000
1504601795.129231929	0.00613592	0.776194	-0.809942	0.00920388	0.786932	-1.60915	-0.0122718	0	0	0	0	0	0	0	0	0	0	0	0	0	0	0.000000000	1.11022e-15	0.788798	-0.788798	1.11022e-15	0.828698	-1.5708	8.88178e-16	0.1	0.1	0.1	0.1	0.1	0.1	0.1	0	0	0	0	0	0	0	0.000000000
1504601795.150212049	0.00460194	0.776194	-0.809942	0.00920388	0.786932	-1.60915	-0.0122718	0	0	0	0	0	0	0	0	0	0	0	0	0	0	0.000000000	1.11022e-15	0.788798	-0.788798	1.11022e-15	0.828698	-1.5708	8.88178e-16	0.1	0.1	0.1	0.1	0.1	0.1	0.1	0	0	0	0	0	0	0	0.000000000
1504601795.169490098	0.00613592	0.776194	-0.809942	0.00920388	0.786932	-1.61068	-0.0122718	0	0	0	0	0	0	0	0	0	0	0	0	0	0	0.000000000	1.11022e-15	0.788798	-0.788798	1.11022e-15	0.828698	-1.5708	8.88178e-16	0.1	0.1	0.1	0.1	0.1	0.1	0.1	0	0	0	0	0	0	0	0.000000000
1504601795.190583944	0.00613592	0.776194	-0.809942	0.00920388	0.786932	-1.61068	-0.0122718	0	0	0	0	0	0	0	0	0	0	0	0	0	0	0.000000000	1.11022e-15	0.788798	-0.788798	1.11022e-15	0.828698	-1.5708	8.88178e-16	0.1	0.1	0.1	0.1	0.1	0.1	0.1	0	0	0	0	0	0	0	0.000000000
1504601795.209306001	0.00613592	0.776194	-0.809942	0.00920388	0.786932	-1.60915	-0.0122718	0	0	0	0	0	0	0	0	0	0	0	0	0	0	0.000000000	1.11022e-15	0.788798	-0.788798	1.11022e-15	0.828698	-1.5708	8.88178e-16	0.1	0.1	0.1	0.1	0.1	0.1	0.1	0	0	0	0	0	0	0	0.000000000
1504601795.229420900	0.00613592	0.776194	-0.809942	0.00920388	0.786932	-1.61068	-0.0122718	0	0	0	0	0	0	0	0	0	0	0	0	0	0	0.000000000	1.11022e-15	0.788798	-0.788798	1.11022e-15	0.828698	-1.5708	8.88178e-16	0.1	0.1	0.1	0.1	0.1	0.1	0.1	0	0	0	0	0	0	0	0.000000000
1504601795.249248981	0.00613592	0.77466	-0.809942	0.0107379	0.786932	-1.60915	-0.0122718	0	0	0	0	0	0	0	0	0	0	0	0	0	0	0.000000000	1.11022e-15	0.788798	-0.788798	1.11022e-15	0.828698	-1.5708	8.88178e-16	0.1	0.1	0.1	0.1	0.1	0.1	0.1	0	0	0	0	0	0	0	0.000000000
1504601795.269202947	0.00613592	0.776194	-0.809942	0.0107379	0.786932	-1.61068	-0.0122718	0	0	0	0	0	0	0	0	0	0	0	0	0	0	0.000000000	1.11022e-15	0.788798	-0.788798	1.11022e-15	0.828698	-1.5708	8.88178e-16	0.1	0.1	0.1	0.1	0.1	0.1	0.1	0	0	0	0	0	0	0	0.000000000
1504601795.289244890	0.00460194	0.776194	-0.809942	0.00920388	0.786932	-1.60915	-0.0122718	0	0	0	0	0	0	0	0	0	0	0	0	0	0	0.000000000	1.11022e-15	0.788798	-0.788798	1.11022e-15	0.828698	-1.5708	8.88178e-16	0.1	0.1	0.1	0.1	0.1	0.1	0.1	0	0	0	0	0	0	0	0.000000000
1504601795.310075044	0.00460194	0.776194	-0.809942	0.00920388	0.786932	-1.60915	-0.0122718	0	0	0	0	0	0	0	0	0	0	0	0	0	0	0.000000000	1.11022e-15	0.788798	-0.788798	1.11022e-15	0.828698	-1.5708	8.88178e-16	0.1	0.1	0.1	0.1	0.1	0.1	0.1	0	0	0	0	0	0	0	0.000000000
1504601795.329205036	0.00613592	0.776194	-0.809942	0.00920388	0.786932	-1.60915	-0.0122718	0	0	0	0	0	0	0	0	0	0	0	0	0	0	0.000000000	1.11022e-15	0.788798	-0.788798	1.11022e-15	0.828698	-1.5708	8.88178e-16	0.1	0.1	0.1	0.1	0.1	0.1	0.1	0	0	0	0	0	0	0	0.000000000
1504601795.349230051	0.00613592	0.776194	-0.809942	0.0107379	0.786932	-1.60915	-0.0122718	0	0	0	0	0	0	0	0	0	0	0	0	0	0	0.000000000	1.11022e-15	0.788798	-0.788798	1.11022e-15	0.828698	-1.5708	8.88178e-16	0.1	0.1	0.1	0.1	0.1	0.1	0.1	0	0	0	0	0	0	0	0.000000000
1504601795.369159936	0.00613592	0.776194	-0.809942	0.0107379	0.786932	-1.60915	-0.0122718	0	0	0	0	0	0	0	0	0	0	0	0	0	0	0.000000000	1.11022e-15	0.788798	-0.788798	1.11022e-15	0.828698	-1.5708	8.88178e-16	0.1	0.1	0.1	0.1	0.1	0.1	0.1	0	0	0	0	0	0	0	0.000000000
1504601795.390805006	0.00613592	0.776194	-0.809942	0.0107379	0.786932	-1.60915	-0.0122718	0	0	0	0	0	0	0	0	0	0	0	0	0	0	0.000000000	1.11022e-15	0.788798	-0.788798	1.11022e-15	0.828698	-1.5708	8.88178e-16	0.1	0.1	0.1	0.1	0.1	0.1	0.1	0	0	0	0	0	0	0	0.000000000
1504601795.409347057	0.00613592	0.776194	-0.809942	0.0107379	0.786932	-1.60915	-0.0122718	0	0	0	0	0	0	0	0	0	0	0	0	0	0	0.000000000	1.11022e-15	0.788798	-0.788798	1.11022e-15	0.828698	-1.5708	8.88178e-16	0.1	0.1	0.1	0.1	0.1	0.1	0.1	0	0	0	0	0	0	0	0.000000000
1504601795.429342031	0.00613592	0.776194	-0.809942	0.00920388	0.786932	-1.60915	-0.0122718	0	0	0	0	0	0	0	0	0	0	0	0	0	0	0.000000000	1.11022e-15	0.788798	-0.788798	1.11022e-15	0.828698	-1.5708	8.88178e-16	0.1	0.1	0.1	0.1	0.1	0.1	0.1	0	0	0	0	0	0	0	0.000000000
1504601795.449223041	0.00613592	0.776194	-0.809942	0.00920388	0.786932	-1.61068	-0.0122718	0	0	0	0	0	0	0	0	0	0	0	0	0	0	0.000000000	1.11022e-15	0.788798	-0.788798	1.11022e-15	0.828698	-1.5708	8.88178e-16	0.1	0.1	0.1	0.1	0.1	0.1	0.1	0	0	0	0	0	0	0	0.000000000
1504601795.469177961	0.00613592	0.776194	-0.808408	0.0107379	0.786932	-1.60915	-0.0138058	0	0	0	0	0	0	0	0	0	0	0	0	0	0	0.000000000	1.11022e-15	0.788798	-0.788798	1.11022e-15	0.828698	-1.5708	8.88178e-16	0.1	0.1	0.1	0.1	0.1	0.1	0.1	0	0	0	0	0	0	0	0.000000000
1504601795.490235090	0.00613592	0.776194	-0.808408	0.00920388	0.786932	-1.60915	-0.0122718	0	0	0	0	0	0	0	0	0	0	0	0	0	0	0.000000000	1.11022e-15	0.788798	-0.788798	1.11022e-15	0.828698	-1.5708	8.88178e-16	0.1	0.1	0.1	0.1	0.1	0.1	0.1	0	0	0	0	0	0	0	0.000000000
1504601795.509171962	0.00613592	0.776194	-0.808408	0.00920388	0.786932	-1.60915	-0.0122718	0	0	0	0	0	0	0	0	0	0	0	0	0	0	0.000000000	1.11022e-15	0.788798	-0.788798	1.11022e-15	0.828698	-1.5708	8.88178e-16	0.1	0.1	0.1	0.1	0.1	0.1	0.1	0	0	0	0	0	0	0	0.000000000
1504601795.529268980	0.00613592	0.776194	-0.809942	0.0107379	0.786932	-1.60915	-0.0122718	0	0	0	0	0	0	0	0	0	0	0	0	0	0	0.000000000	1.11022e-15	0.788798	-0.788798	1.11022e-15	0.828698	-1.5708	8.88178e-16	0.1	0.1	0.1	0.1	0.1	0.1	0.1	0	0	0	0	0	0	0	0.000000000
1504601795.549201965	0.00613592	0.776194	-0.809942	0.0107379	0.786932	-1.60915	-0.0122718	0	0	0	0	0	0	0	0	0	0	0	0	0	0	0.000000000	1.11022e-15	0.788798	-0.788798	1.11022e-15	0.828698	-1.5708	8.88178e-16	0.1	0.1	0.1	0.1	0.1	0.1	0.1	0	0	0	0	0	0	0	0.000000000
1504601795.569313049	0.00613592	0.776194	-0.809942	0.00920388	0.786932	-1.60915	-0.0122718	0	0	0	0	0	0	0	0	0	0	0	0	0	0	0.000000000	1.11022e-15	0.788798	-0.788798	1.11022e-15	0.828698	-1.5708	8.88178e-16	0.1	0.1	0.1	0.1	0.1	0.1	0.1	0	0	0	0	0	0	0	0.000000000
1504601795.589181900	0.00613592	0.776194	-0.809942	0.0107379	0.786932	-1.60915	-0.0122718	0	0	0	0	0	0	0	0	0	0	0	0	0	0	0.000000000	1.11022e-15	0.788798	-0.788798	1.11022e-15	0.828698	-1.5708	8.88178e-16	0.1	0.1	0.1	0.1	0.1	0.1	0.1	0	0	0	0	0	0	0	0.000000000
1504601795.609227895	0.00613592	0.776194	-0.809942	0.0107379	0.786932	-1.60915	-0.0122718	0	0	0	0	0	0	0	0	0	0	0	0	0	0	0.000000000	1.11022e-15	0.788798	-0.788798	1.11022e-15	0.828698	-1.5708	8.88178e-16	0.1	0.1	0.1	0.1	0.1	0.1	0.1	0	0	0	0	0	0	0	0.000000000
1504601795.630033969	0.00613592	0.776194	-0.808408	0.00920388	0.786932	-1.60915	-0.0122718	0	0	0	0	0	0	0	0	0	0	0	0	0	0	0.000000000	1.11022e-15	0.788798	-0.788798	1.11022e-15	0.828698	-1.5708	8.88178e-16	0.1	0.1	0.1	0.1	0.1	0.1	0.1	0	0	0	0	0	0	0	0.000000000
1504601795.649393081	0.00613592	0.776194	-0.808408	0.00920388	0.786932	-1.60915	-0.0122718	0	0	0	0	0	0	0	0	0	0	0	0	0	0	0.000000000	1.11022e-15	0.788798	-0.788798	1.11022e-15	0.828698	-1.5708	8.88178e-16	0.1	0.1	0.1	0.1	0.1	0.1	0.1	0	0	0	0	0	0	0	0.000000000
1504601795.669095993	0.00613592	0.776194	-0.809942	0.0107379	0.786932	-1.60915	-0.0122718	0	0	0	0	0	0	0	0	0	0	0	0	0	0	0.000000000	1.11022e-15	0.788798	-0.788798	1.11022e-15	0.828698	-1.5708	8.88178e-16	0.1	0.1	0.1	0.1	0.1	0.1	0.1	0	0	0	0	0	0	0	0.000000000
1504601795.689337968	0.00613592	0.776194	-0.809942	0.0107379	0.786932	-1.60915	-0.0122718	0	0	0	0	0	0	0	0	0	0	0	0	0	0	0.000000000	1.11022e-15	0.788798	-0.788798	1.11022e-15	0.828698	-1.5708	8.88178e-16	0.1	0.1	0.1	0.1	0.1	0.1	0.1	0	0	0	0	0	0	0	0.000000000
1504601795.709323883	0.00613592	0.776194	-0.809942	0.00920388	0.786932	-1.60915	-0.0138058	0	0	0	0	0	0	0	0	0	0	0	0	0	0	0.000000000	1.11022e-15	0.788798	-0.788798	1.11022e-15	0.828698	-1.5708	8.88178e-16	0.1	0.1	0.1	0.1	0.1	0.1	0.1	0	0	0	0	0	0	0	0.000000000
1504601795.729300022	0.00613592	0.776194	-0.808408	0.00920388	0.786932	-1.60915	-0.0122718	0	0	0	0	0	0	0	0	0	0	0	0	0	0	0.000000000	1.11022e-15	0.788798	-0.788798	1.11022e-15	0.828698	-1.5708	8.88178e-16	0.1	0.1	0.1	0.1	0.1	0.1	0.1	0	0	0	0	0	0	0	0.000000000
1504601795.749237060	0.00613592	0.776194	-0.809942	0.0107379	0.788466	-1.61068	-0.0122718	0	0	0	0	0	0	0	0	0	0	0	0	0	0	0.000000000	1.11022e-15	0.788798	-0.788798	1.11022e-15	0.828698	-1.5708	8.88178e-16	0.1	0.1	0.1	0.1	0.1	0.1	0.1	0	0	0	0	0	0	0	0.000000000
1504601795.769211053	0.00613592	0.776194	-0.809942	0.0107379	0.786932	-1.60915	-0.0122718	0	0	0	0	0	0	0	0	0	0	0	0	0	0	0.000000000	1.11022e-15	0.788798	-0.788798	1.11022e-15	0.828698	-1.5708	8.88178e-16	0.1	0.1	0.1	0.1	0.1	0.1	0.1	0	0	0	0	0	0	0	0.000000000
1504601795.789381027	0.00613592	0.776194	-0.809942	0.0107379	0.786932	-1.60915	-0.0122718	0	0	0	0	0	0	0	0	0	0	0	0	0	0	0.000000000	1.11022e-15	0.788798	-0.788798	1.11022e-15	0.828698	-1.5708	8.88178e-16	0.1	0.1	0.1	0.1	0.1	0.1	0.1	0	0	0	0	0	0	0	0.000000000
1504601795.809312105	0.00613592	0.776194	-0.809942	0.0107379	0.786932	-1.60915	-0.0122718	0	0	0	0	0	0	0	0	0	0	0	0	0	0	0.000000000	1.11022e-15	0.788798	-0.788798	1.11022e-15	0.828698	-1.5708	8.88178e-16	0.1	0.1	0.1	0.1	0.1	0.1	0.1	0	0	0	0	0	0	0	0.000000000
1504601795.829591989	0.00613592	0.776194	-0.809942	0.00920388	0.786932	-1.61068	-0.0122718	0	0	0	0	0	0	0	0	0	0	0	0	0	0	0.000000000	1.11022e-15	0.788798	-0.788798	1.11022e-15	0.828698	-1.5708	8.88178e-16	0.1	0.1	0.1	0.1	0.1	0.1	0.1	0	0	0	0	0	0	0	0.000000000
1504601795.849390983	0.00613592	0.776194	-0.809942	0.0107379	0.786932	-1.60915	-0.0122718	0	0	0	0	0	0	0	0	0	0	0	0	0	0	0.000000000	1.11022e-15	0.788798	-0.788798	1.11022e-15	0.828698	-1.5708	8.88178e-16	0.1	0.1	0.1	0.1	0.1	0.1	0.1	0	0	0	0	0	0	0	0.000000000
1504601795.869112014	0.00613592	0.776194	-0.809942	0.0107379	0.786932	-1.61068	-0.0122718	0	0	0	0	0	0	0	0	0	0	0	0	0	0	0.000000000	1.11022e-15	0.788798	-0.788798	1.11022e-15	0.828698	-1.5708	8.88178e-16	0.1	0.1	0.1	0.1	0.1	0.1	0.1	0	0	0	0	0	0	0	0.000000000
1504601795.889251947	0.00613592	0.776194	-0.809942	0.00920388	0.786932	-1.60915	-0.0122718	0	0	0	0	0	0	0	0	0	0	0	0	0	0	0.000000000	1.11022e-15	0.788798	-0.788798	1.11022e-15	0.828698	-1.5708	8.88178e-16	0.1	0.1	0.1	0.1	0.1	0.1	0.1	0	0	0	0	0	0	0	0.000000000
1504601795.909372091	0.00613592	0.776194	-0.809942	0.00920388	0.786932	-1.60915	-0.0122718	0	0	0	0	0	0	0	0	0	0	0	0	0	0	0.000000000	1.11022e-15	0.788798	-0.788798	1.11022e-15	0.828698	-1.5708	8.88178e-16	0.1	0.1	0.1	0.1	0.1	0.1	0.1	0	0	0	0	0	0	0	0.000000000
1504601795.929558038	0.00613592	0.776194	-0.809942	0.0107379	0.786932	-1.61068	-0.0122718	0	0	0	0	0	0	0	0	0	0	0	0	0	0	0.000000000	1.11022e-15	0.788798	-0.788798	1.11022e-15	0.828698	-1.5708	8.88178e-16	0.1	0.1	0.1	0.1	0.1	0.1	0.1	0	0	0	0	0	0	0	0.000000000
1504601795.949193000	0.00613592	0.776194	-0.809942	0.00920388	0.786932	-1.60915	-0.0122718	0	0	0	0	0	0	0	0	0	0	0	0	0	0	0.000000000	1.11022e-15	0.788798	-0.788798	1.11022e-15	0.828698	-1.5708	8.88178e-16	0.1	0.1	0.1	0.1	0.1	0.1	0.1	0	0	0	0	0	0	0	0.000000000
1504601795.969317913	0.00613592	0.776194	-0.809942	0.0107379	0.786932	-1.60915	-0.0122718	0	0	0	0	0	0	0	0	0	0	0	0	0	0	0.000000000	1.11022e-15	0.788798	-0.788798	1.11022e-15	0.828698	-1.5708	8.88178e-16	0.1	0.1	0.1	0.1	0.1	0.1	0.1	0	0	0	0	0	0	0	0.000000000
1504601795.991120100	0.00613592	0.776194	-0.809942	0.0107379	0.786932	-1.60915	-0.0122718	0	0	0	0	0	0	0	0	0	0	0	0	0	0	0.000000000	1.11022e-15	0.788798	-0.788798	1.11022e-15	0.828698	-1.5708	8.88178e-16	0.1	0.1	0.1	0.1	0.1	0.1	0.1	0	0	0	0	0	0	0	0.000000000
1504601796.009241104	0.00613592	0.776194	-0.809942	0.0107379	0.786932	-1.60915	-0.0122718	0	0	0	0	0	0	0	0	0	0	0	0	0	0	0.000000000	1.11022e-15	0.788798	-0.788798	1.11022e-15	0.828698	-1.5708	8.88178e-16	0.1	0.1	0.1	0.1	0.1	0.1	0.1	0	0	0	0	0	0	0	0.000000000
1504601796.029228925	0.00613592	0.776194	-0.809942	0.0107379	0.786932	-1.61068	-0.0122718	0	0	0	0	0	0	0	0	0	0	0	0	0	0	0.000000000	1.11022e-15	0.788798	-0.788798	1.11022e-15	0.828698	-1.5708	8.88178e-16	0.1	0.1	0.1	0.1	0.1	0.1	0.1	0	0	0	0	0	0	0	0.000000000
1504601796.049218893	0.00613592	0.776194	-0.809942	0.0107379	0.786932	-1.60915	-0.0122718	0	0	0	0	0	0	0	0	0	0	0	0	0	0	0.000000000	1.11022e-15	0.788798	-0.788798	1.11022e-15	0.828698	-1.5708	8.88178e-16	0.1	0.1	0.1	0.1	0.1	0.1	0.1	0	0	0	0	0	0	0	0.000000000
1504601796.069159984	0.00613592	0.776194	-0.809942	0.00920388	0.786932	-1.61068	-0.0122718	0	0	0	0	0	0	0	0	0	0	0	0	0	0	0.000000000	1.11022e-15	0.788798	-0.788798	1.11022e-15	0.828698	-1.5708	8.88178e-16	0.1	0.1	0.1	0.1	0.1	0.1	0.1	0	0	0	0	0	0	0	0.000000000
1504601796.089153051	0.00613592	0.776194	-0.809942	0.00920388	0.786932	-1.60915	-0.0122718	0	0	0	0	0	0	0	0	0	0	0	0	0	0	0.000000000	1.11022e-15	0.788798	-0.788798	1.11022e-15	0.828698	-1.5708	8.88178e-16	0.1	0.1	0.1	0.1	0.1	0.1	0.1	0	0	0	0	0	0	0	0.000000000
1504601796.109200954	0.00613592	0.776194	-0.809942	0.00920388	0.786932	-1.60915	-0.0122718	0	0	0	0	0	0	0	0	0	0	0	0	0	0	0.000000000	1.11022e-15	0.788798	-0.788798	1.11022e-15	0.828698	-1.5708	8.88178e-16	0.1	0.1	0.1	0.1	0.1	0.1	0.1	0	0	0	0	0	0	0	0.000000000
1504601796.129221916	0.00613592	0.776194	-0.808408	0.0107379	0.786932	-1.60915	-0.0122718	0	0	0	0	0	0	0	0	0	0	0	0	0	0	0.000000000	1.11022e-15	0.788798	-0.788798	1.11022e-15	0.828698	-1.5708	8.88178e-16	0.1	0.1	0.1	0.1	0.1	0.1	0.1	0	0	0	0	0	0	0	0.000000000
1504601796.149527072	0.00613592	0.776194	-0.809942	0.0107379	0.786932	-1.60915	-0.0122718	0	0	0	0	0	0	0	0	0	0	0	0	0	0	0.000000000	1.11022e-15	0.788798	-0.788798	1.11022e-15	0.828698	-1.5708	8.88178e-16	0.1	0.1	0.1	0.1	0.1	0.1	0.1	0	0	0	0	0	0	0	0.000000000
1504601796.169415950	0.00613592	0.776194	-0.809942	0.0107379	0.786932	-1.60915	-0.0122718	0	0	0	0	0	0	0	0	0	0	0	0	0	0	0.000000000	1.11022e-15	0.788798	-0.788798	1.11022e-15	0.828698	-1.5708	8.88178e-16	0.1	0.1	0.1	0.1	0.1	0.1	0.1	0	0	0	0	0	0	0	0.000000000
1504601796.190828084	0.00613592	0.776194	-0.809942	0.0107379	0.786932	-1.60915	-0.0122718	0	0	0	0	0	0	0	0	0	0	0	0	0	0	0.000000000	1.11022e-15	0.788798	-0.788798	1.11022e-15	0.828698	-1.5708	8.88178e-16	0.1	0.1	0.1	0.1	0.1	0.1	0.1	0	0	0	0	0	0	0	0.000000000
1504601796.209129095	0.00613592	0.776194	-0.809942	0.00920388	0.786932	-1.60915	-0.0138058	0	0	0	0	0	0	0	0	0	0	0	0	0	0	0.000000000	1.11022e-15	0.788798	-0.788798	1.11022e-15	0.828698	-1.5708	8.88178e-16	0.1	0.1	0.1	0.1	0.1	0.1	0.1	0	0	0	0	0	0	0	0.000000000
1504601796.229863882	0.00613592	0.776194	-0.809942	0.0107379	0.786932	-1.60915	-0.0122718	0	0	0	0	0	0	0	0	0	0	0	0	0	0	0.000000000	1.11022e-15	0.788798	-0.788798	1.11022e-15	0.828698	-1.5708	8.88178e-16	0.1	0.1	0.1	0.1	0.1	0.1	0.1	0	0	0	0	0	0	0	0.000000000
1504601796.249387979	0.00613592	0.776194	-0.809942	0.0107379	0.786932	-1.60915	-0.0122718	0	0	0	0	0	0	0	0	0	0	0	0	0	0	0.000000000	1.11022e-15	0.788798	-0.788798	1.11022e-15	0.828698	-1.5708	8.88178e-16	0.1	0.1	0.1	0.1	0.1	0.1	0.1	0	0	0	0	0	0	0	0.000000000
1504601796.270013093	0.00613592	0.776194	-0.809942	0.0107379	0.786932	-1.60915	-0.0122718	0	0	0	0	0	0	0	0	0	0	0	0	0	0	0.000000000	1.11022e-15	0.788798	-0.788798	1.11022e-15	0.828698	-1.5708	8.88178e-16	0.1	0.1	0.1	0.1	0.1	0.1	0.1	0	0	0	0	0	0	0	0.000000000
1504601796.289187908	0.00613592	0.776194	-0.809942	0.0107379	0.786932	-1.60915	-0.0122718	0	0	0	0	0	0	0	0	0	0	0	0	0	0	0.000000000	1.11022e-15	0.788798	-0.788798	1.11022e-15	0.828698	-1.5708	8.88178e-16	0.1	0.1	0.1	0.1	0.1	0.1	0.1	0	0	0	0	0	0	0	0.000000000
1504601796.309437990	0.00613592	0.776194	-0.809942	0.0107379	0.786932	-1.60915	-0.0122718	0	0	0	0	0	0	0	0	0	0	0	0	0	0	0.000000000	1.11022e-15	0.788798	-0.788798	1.11022e-15	0.828698	-1.5708	8.88178e-16	0.1	0.1	0.1	0.1	0.1	0.1	0.1	0	0	0	0	0	0	0	0.000000000
1504601796.329224109	0.00613592	0.776194	-0.809942	0.0107379	0.786932	-1.61068	-0.0122718	0	0	0	0	0	0	0	0	0	0	0	0	0	0	0.000000000	1.11022e-15	0.788798	-0.788798	1.11022e-15	0.828698	-1.5708	8.88178e-16	0.1	0.1	0.1	0.1	0.1	0.1	0.1	0	0	0	0	0	0	0	0.000000000
1504601796.349555015	0.00613592	0.776194	-0.809942	0.0107379	0.786932	-1.61068	-0.0122718	0	0	0	0	0	0	0	0	0	0	0	0	0	0	0.000000000	1.11022e-15	0.788798	-0.788798	1.11022e-15	0.828698	-1.5708	8.88178e-16	0.1	0.1	0.1	0.1	0.1	0.1	0.1	0	0	0	0	0	0	0	0.000000000
1504601796.369204998	0.00613592	0.776194	-0.809942	0.0107379	0.786932	-1.60915	-0.0122718	0	0	0	0	0	0	0	0	0	0	0	0	0	0	0.000000000	1.11022e-15	0.788798	-0.788798	1.11022e-15	0.828698	-1.5708	8.88178e-16	0.1	0.1	0.1	0.1	0.1	0.1	0.1	0	0	0	0	0	0	0	0.000000000
1504601796.391680002	0.00613592	0.776194	-0.809942	0.0107379	0.786932	-1.60915	-0.0122718	0	0	0	0	0	0	0	0	0	0	0	0	0	0	0.000000000	1.11022e-15	0.788798	-0.788798	1.11022e-15	0.828698	-1.5708	8.88178e-16	0.1	0.1	0.1	0.1	0.1	0.1	0.1	0	0	0	0	0	0	0	0.000000000
1504601796.409451961	0.00613592	0.776194	-0.809942	0.0107379	0.786932	-1.60915	-0.0122718	0	0	0	0	0	0	0	0	0	0	0	0	0	0	0.000000000	1.11022e-15	0.788798	-0.788798	1.11022e-15	0.828698	-1.5708	8.88178e-16	0.1	0.1	0.1	0.1	0.1	0.1	0.1	0	0	0	0	0	0	0	0.000000000
1504601796.429914951	0.00613592	0.776194	-0.809942	0.00920388	0.786932	-1.60915	-0.0122718	0	0	0	0	0	0	0	0	0	0	0	0	0	0	0.000000000	1.11022e-15	0.788798	-0.788798	1.11022e-15	0.828698	-1.5708	8.88178e-16	0.1	0.1	0.1	0.1	0.1	0.1	0.1	0	0	0	0	0	0	0	0.000000000
1504601796.449224948	0.0076699	0.776194	-0.808408	0.00920388	0.786932	-1.60915	-0.0122718	0	0	0	0	0	0	0	0	0	0	0	0	0	0	0.000000000	1.11022e-15	0.788798	-0.788798	1.11022e-15	0.828698	-1.5708	8.88178e-16	0.1	0.1	0.1	0.1	0.1	0.1	0.1	0	0	0	0	0	0	0	0.000000000
1504601796.469131946	0.00613592	0.776194	-0.809942	0.00920388	0.786932	-1.60915	-0.0122718	0	0	0	0	0	0	0	0	0	0	0	0	0	0	0.000000000	1.11022e-15	0.788798	-0.788798	1.11022e-15	0.828698	-1.5708	8.88178e-16	0.1	0.1	0.1	0.1	0.1	0.1	0.1	0	0	0	0	0	0	0	0.000000000
1504601796.489341020	0.00613592	0.776194	-0.809942	0.00920388	0.786932	-1.60915	-0.0122718	0	0	0	0	0	0	0	0	0	0	0	0	0	0	0.000000000	1.11022e-15	0.788798	-0.788798	1.11022e-15	0.828698	-1.5708	8.88178e-16	0.1	0.1	0.1	0.1	0.1	0.1	0.1	0	0	0	0	0	0	0	0.000000000
1504601796.509543895	0.00613592	0.776194	-0.809942	0.0107379	0.786932	-1.60915	-0.0122718	0	0	0	0	0	0	0	0	0	0	0	0	0	0	0.000000000	1.11022e-15	0.788798	-0.788798	1.11022e-15	0.828698	-1.5708	8.88178e-16	0.1	0.1	0.1	0.1	0.1	0.1	0.1	0	0	0	0	0	0	0	0.000000000
1504601796.529241085	0.00613592	0.776194	-0.809942	0.0107379	0.786932	-1.61068	-0.0122718	0	0	0	0	0	0	0	0	0	0	0	0	0	0	0.000000000	1.11022e-15	0.788798	-0.788798	1.11022e-15	0.828698	-1.5708	8.88178e-16	0.1	0.1	0.1	0.1	0.1	0.1	0.1	0	0	0	0	0	0	0	0.000000000
1504601796.549161911	0.00613592	0.776194	-0.809942	0.00920388	0.786932	-1.60915	-0.0122718	0	0	0	0	0	0	0	0	0	0	0	0	0	0	0.000000000	1.11022e-15	0.788798	-0.788798	1.11022e-15	0.828698	-1.5708	8.88178e-16	0.1	0.1	0.1	0.1	0.1	0.1	0.1	0	0	0	0	0	0	0	0.000000000
1504601796.569272994	0.00613592	0.776194	-0.809942	0.00920388	0.786932	-1.60915	-0.0122718	0	0	0	0	0	0	0	0	0	0	0	0	0	0	0.000000000	1.11022e-15	0.788798	-0.788798	1.11022e-15	0.828698	-1.5708	8.88178e-16	0.1	0.1	0.1	0.1	0.1	0.1	0.1	0	0	0	0	0	0	0	0.000000000
1504601796.590049982	0.00613592	0.776194	-0.808408	0.00920388	0.786932	-1.60915	-0.0122718	0	0	0	0	0	0	0	0	0	0	0	0	0	0	0.000000000	1.11022e-15	0.788798	-0.788798	1.11022e-15	0.828698	-1.5708	8.88178e-16	0.1	0.1	0.1	0.1	0.1	0.1	0.1	0	0	0	0	0	0	0	0.000000000
1504601796.609252929	0.00613592	0.776194	-0.808408	0.00920388	0.786932	-1.60915	-0.0122718	0	0	0	0	0	0	0	0	0	0	0	0	0	0	0.000000000	1.11022e-15	0.788798	-0.788798	1.11022e-15	0.828698	-1.5708	8.88178e-16	0.1	0.1	0.1	0.1	0.1	0.1	0.1	0	0	0	0	0	0	0	0.000000000
1504601796.629216909	0.00613592	0.776194	-0.809942	0.00920388	0.786932	-1.60915	-0.0122718	0	0	0	0	0	0	0	0	0	0	0	0	0	0	0.000000000	1.11022e-15	0.788798	-0.788798	1.11022e-15	0.828698	-1.5708	8.88178e-16	0.1	0.1	0.1	0.1	0.1	0.1	0.1	0	0	0	0	0	0	0	0.000000000
1504601796.649279117	0.00613592	0.776194	-0.809942	0.0107379	0.786932	-1.60915	-0.0122718	0	0	0	0	0	0	0	0	0	0	0	0	0	0	0.000000000	1.11022e-15	0.788798	-0.788798	1.11022e-15	0.828698	-1.5708	8.88178e-16	0.1	0.1	0.1	0.1	0.1	0.1	0.1	0	0	0	0	0	0	0	0.000000000
1504601796.669198989	0.00613592	0.776194	-0.809942	0.00920388	0.786932	-1.60915	-0.0122718	0	0	0	0	0	0	0	0	0	0	0	0	0	0	0.000000000	1.11022e-15	0.788798	-0.788798	1.11022e-15	0.828698	-1.5708	8.88178e-16	0.1	0.1	0.1	0.1	0.1	0.1	0.1	0	0	0	0	0	0	0	0.000000000
1504601796.690395116	0.00613592	0.776194	-0.809942	0.00920388	0.786932	-1.60915	-0.0122718	0	0	0	0	0	0	0	0	0	0	0	0	0	0	0.000000000	1.11022e-15	0.788798	-0.788798	1.11022e-15	0.828698	-1.5708	8.88178e-16	0.1	0.1	0.1	0.1	0.1	0.1	0.1	0	0	0	0	0	0	0	0.000000000
1504601796.709197998	0.00613592	0.776194	-0.809942	0.00920388	0.786932	-1.60915	-0.0122718	0	0	0	0	0	0	0	0	0	0	0	0	0	0	0.000000000	1.11022e-15	0.788798	-0.788798	1.11022e-15	0.828698	-1.5708	8.88178e-16	0.1	0.1	0.1	0.1	0.1	0.1	0.1	0	0	0	0	0	0	0	0.000000000
1504601796.729223012	0.00613592	0.776194	-0.808408	0.0107379	0.786932	-1.60915	-0.0122718	0	0	0	0	0	0	0	0	0	0	0	0	0	0	0.000000000	1.11022e-15	0.788798	-0.788798	1.11022e-15	0.828698	-1.5708	8.88178e-16	0.1	0.1	0.1	0.1	0.1	0.1	0.1	0	0	0	0	0	0	0	0.000000000
1504601796.749209880	0.00460194	0.776194	-0.808408	0.0107379	0.786932	-1.60915	-0.0122718	0	0	0	0	0	0	0	0	0	0	0	0	0	0	0.000000000	1.11022e-15	0.788798	-0.788798	1.11022e-15	0.828698	-1.5708	8.88178e-16	0.1	0.1	0.1	0.1	0.1	0.1	0.1	0	0	0	0	0	0	0	0.000000000
1504601796.769435882	0.00613592	0.776194	-0.808408	0.00920388	0.786932	-1.60915	-0.0122718	0	0	0	0	0	0	0	0	0	0	0	0	0	0	0.000000000	1.11022e-15	0.788798	-0.788798	1.11022e-15	0.828698	-1.5708	8.88178e-16	0.1	0.1	0.1	0.1	0.1	0.1	0.1	0	0	0	0	0	0	0	0.000000000
1504601796.789855957	0.00613592	0.776194	-0.809942	0.00920388	0.786932	-1.60915	-0.0122718	0	0	0	0	0	0	0	0	0	0	0	0	0	0	0.000000000	1.11022e-15	0.788798	-0.788798	1.11022e-15	0.828698	-1.5708	8.88178e-16	0.1	0.1	0.1	0.1	0.1	0.1	0.1	0	0	0	0	0	0	0	0.000000000
1504601796.809192895	0.00613592	0.776194	-0.809942	0.00920388	0.786932	-1.60915	-0.0122718	0	0	0	0	0	0	0	0	0	0	0	0	0	0	0.000000000	1.11022e-15	0.788798	-0.788798	1.11022e-15	0.828698	-1.5708	8.88178e-16	0.1	0.1	0.1	0.1	0.1	0.1	0.1	0	0	0	0	0	0	0	0.000000000
1504601796.829488992	0.00613592	0.776194	-0.809942	0.00920388	0.786932	-1.61068	-0.0122718	0	0	0	0	0	0	0	0	0	0	0	0	0	0	0.000000000	1.11022e-15	0.788798	-0.788798	1.11022e-15	0.828698	-1.5708	8.88178e-16	0.1	0.1	0.1	0.1	0.1	0.1	0.1	0	0	0	0	0	0	0	0.000000000
1504601796.849173069	0.00613592	0.776194	-0.809942	0.0107379	0.786932	-1.60915	-0.0122718	0	0	0	0	0	0	0	0	0	0	0	0	0	0	0.000000000	1.11022e-15	0.788798	-0.788798	1.11022e-15	0.828698	-1.5708	8.88178e-16	0.1	0.1	0.1	0.1	0.1	0.1	0.1	0	0	0	0	0	0	0	0.000000000
1504601796.869261026	0.00613592	0.776194	-0.808408	0.0107379	0.786932	-1.60915	-0.0122718	0	0	0	0	0	0	0	0	0	0	0	0	0	0	0.000000000	1.11022e-15	0.788798	-0.788798	1.11022e-15	0.828698	-1.5708	8.88178e-16	0.1	0.1	0.1	0.1	0.1	0.1	0.1	0	0	0	0	0	0	0	0.000000000
1504601796.890088081	0.00613592	0.776194	-0.809942	0.0107379	0.786932	-1.60915	-0.0122718	0	0	0	0	0	0	0	0	0	0	0	0	0	0	0.000000000	1.11022e-15	0.788798	-0.788798	1.11022e-15	0.828698	-1.5708	8.88178e-16	0.1	0.1	0.1	0.1	0.1	0.1	0.1	0	0	0	0	0	0	0	0.000000000
1504601796.909202098	0.00613592	0.776194	-0.809942	0.0107379	0.786932	-1.60915	-0.0122718	0	0	0	0	0	0	0	0	0	0	0	0	0	0	0.000000000	1.11022e-15	0.788798	-0.788798	1.11022e-15	0.828698	-1.5708	8.88178e-16	0.1	0.1	0.1	0.1	0.1	0.1	0.1	0	0	0	0	0	0	0	0.000000000
1504601796.929294109	0.00613592	0.776194	-0.809942	0.0107379	0.786932	-1.60915	-0.0122718	0	0	0	0	0	0	0	0	0	0	0	0	0	0	0.000000000	1.11022e-15	0.788798	-0.788798	1.11022e-15	0.828698	-1.5708	8.88178e-16	0.1	0.1	0.1	0.1	0.1	0.1	0.1	0	0	0	0	0	0	0	0.000000000
1504601796.949136018	0.00613592	0.776194	-0.809942	0.00920388	0.786932	-1.61068	-0.0122718	0	0	0	0	0	0	0	0	0	0	0	0	0	0	0.000000000	1.11022e-15	0.788798	-0.788798	1.11022e-15	0.828698	-1.5708	8.88178e-16	0.1	0.1	0.1	0.1	0.1	0.1	0.1	0	0	0	0	0	0	0	0.000000000
1504601796.969223022	0.00613592	0.776194	-0.808408	0.00920388	0.786932	-1.60915	-0.0138058	0	0	0	0	0	0	0	0	0	0	0	0	0	0	0.000000000	1.11022e-15	0.788798	-0.788798	1.11022e-15	0.828698	-1.5708	8.88178e-16	0.1	0.1	0.1	0.1	0.1	0.1	0.1	0	0	0	0	0	0	0	0.000000000
1504601796.990246057	0.00613592	0.776194	-0.808408	0.0107379	0.786932	-1.60915	-0.0122718	0	0	0	0	0	0	0	0	0	0	0	0	0	0	0.000000000	1.11022e-15	0.788798	-0.788798	1.11022e-15	0.828698	-1.5708	8.88178e-16	0.1	0.1	0.1	0.1	0.1	0.1	0.1	0	0	0	0	0	0	0	0.000000000
1504601797.009207010	0.00613592	0.776194	-0.808408	0.0107379	0.786932	-1.60915	-0.0122718	0	0	0	0	0	0	0	0	0	0	0	0	0	0	0.000000000	1.11022e-15	0.788798	-0.788798	1.11022e-15	0.828698	-1.5708	8.88178e-16	0.1	0.1	0.1	0.1	0.1	0.1	0.1	0	0	0	0	0	0	0	0.000000000
1504601797.029742956	0.00613592	0.776194	-0.809942	0.0107379	0.786932	-1.60915	-0.0122718	0	0	0	0	0	0	0	0	0	0	0	0	0	0	0.000000000	1.11022e-15	0.788798	-0.788798	1.11022e-15	0.828698	-1.5708	8.88178e-16	0.1	0.1	0.1	0.1	0.1	0.1	0.1	0	0	0	0	0	0	0	0.000000000
1504601797.049309968	0.00613592	0.776194	-0.809942	0.00920388	0.786932	-1.60915	-0.0122718	0	0	0	0	0	0	0	0	0	0	0	0	0	0	0.000000000	1.11022e-15	0.788798	-0.788798	1.11022e-15	0.828698	-1.5708	8.88178e-16	0.1	0.1	0.1	0.1	0.1	0.1	0.1	0	0	0	0	0	0	0	0.000000000
1504601797.069318056	0.00613592	0.776194	-0.809942	0.0107379	0.786932	-1.61068	-0.0122718	0	0	0	0	0	0	0	0	0	0	0	0	0	0	0.000000000	1.11022e-15	0.788798	-0.788798	1.11022e-15	0.828698	-1.5708	8.88178e-16	0.1	0.1	0.1	0.1	0.1	0.1	0.1	0	0	0	0	0	0	0	0.000000000
1504601797.089972972	0.00613592	0.776194	-0.809942	0.0107379	0.786932	-1.61068	-0.0122718	0	0	0	0	0	0	0	0	0	0	0	0	0	0	0.000000000	1.11022e-15	0.788798	-0.788798	1.11022e-15	0.828698	-1.5708	8.88178e-16	0.1	0.1	0.1	0.1	0.1	0.1	0.1	0	0	0	0	0	0	0	0.000000000
1504601797.109179019	0.00613592	0.776194	-0.808408	0.00920388	0.786932	-1.61068	-0.0122718	0	0	0	0	0	0	0	0	0	0	0	0	0	0	0.000000000	1.11022e-15	0.788798	-0.788798	1.11022e-15	0.828698	-1.5708	8.88178e-16	0.1	0.1	0.1	0.1	0.1	0.1	0.1	0	0	0	0	0	0	0	0.000000000
1504601797.129256010	0.00613592	0.776194	-0.809942	0.00920388	0.786932	-1.61068	-0.0122718	0	0	0	0	0	0	0	0	0	0	0	0	0	0	0.000000000	1.11022e-15	0.788798	-0.788798	1.11022e-15	0.828698	-1.5708	8.88178e-16	0.1	0.1	0.1	0.1	0.1	0.1	0.1	0	0	0	0	0	0	0	0.000000000
1504601797.149434089	0.00613592	0.776194	-0.809942	0.00920388	0.786932	-1.60915	-0.0122718	0	0	0	0	0	0	0	0	0	0	0	0	0	0	0.000000000	1.11022e-15	0.788798	-0.788798	1.11022e-15	0.828698	-1.5708	8.88178e-16	0.1	0.1	0.1	0.1	0.1	0.1	0.1	0	0	0	0	0	0	0	0.000000000
1504601797.169208049	0.00613592	0.776194	-0.809942	0.0107379	0.786932	-1.60915	-0.0122718	0	0	0	0	0	0	0	0	0	0	0	0	0	0	0.000000000	1.11022e-15	0.788798	-0.788798	1.11022e-15	0.828698	-1.5708	8.88178e-16	0.1	0.1	0.1	0.1	0.1	0.1	0.1	0	0	0	0	0	0	0	0.000000000
1504601797.190397977	0.00613592	0.776194	-0.809942	0.0107379	0.786932	-1.60915	-0.0122718	0	0	0	0	0	0	0	0	0	0	0	0	0	0	0.000000000	1.11022e-15	0.788798	-0.788798	1.11022e-15	0.828698	-1.5708	8.88178e-16	0.1	0.1	0.1	0.1	0.1	0.1	0.1	0	0	0	0	0	0	0	0.000000000
1504601797.209213972	0.00613592	0.776194	-0.809942	0.0107379	0.786932	-1.60915	-0.0122718	0	0	0	0	0	0	0	0	0	0	0	0	0	0	0.000000000	1.11022e-15	0.788798	-0.788798	1.11022e-15	0.828698	-1.5708	8.88178e-16	0.1	0.1	0.1	0.1	0.1	0.1	0.1	0	0	0	0	0	0	0	0.000000000
1504601797.229489088	0.00613592	0.776194	-0.808408	0.00920388	0.786932	-1.60915	-0.0122718	0	0	0	0	0	0	0	0	0	0	0	0	0	0	0.000000000	1.11022e-15	0.788798	-0.788798	1.11022e-15	0.828698	-1.5708	8.88178e-16	0.1	0.1	0.1	0.1	0.1	0.1	0.1	0	0	0	0	0	0	0	0.000000000
1504601797.249679088	0.00613592	0.776194	-0.809942	0.00920388	0.786932	-1.60915	-0.0122718	0	0	0	0	0	0	0	0	0	0	0	0	0	0	0.000000000	1.11022e-15	0.788798	-0.788798	1.11022e-15	0.828698	-1.5708	8.88178e-16	0.1	0.1	0.1	0.1	0.1	0.1	0.1	0	0	0	0	0	0	0	0.000000000
1504601797.269207000	0.00613592	0.776194	-0.809942	0.0107379	0.786932	-1.60915	-0.0122718	0	0	0	0	0	0	0	0	0	0	0	0	0	0	0.000000000	1.11022e-15	0.788798	-0.788798	1.11022e-15	0.828698	-1.5708	8.88178e-16	0.1	0.1	0.1	0.1	0.1	0.1	0.1	0	0	0	0	0	0	0	0.000000000
1504601797.289237022	0.00613592	0.776194	-0.809942	0.0107379	0.786932	-1.61068	-0.0122718	0	0	0	0	0	0	0	0	0	0	0	0	0	0	0.000000000	1.11022e-15	0.788798	-0.788798	1.11022e-15	0.828698	-1.5708	8.88178e-16	0.1	0.1	0.1	0.1	0.1	0.1	0.1	0	0	0	0	0	0	0	0.000000000
1504601797.309938907	0.00613592	0.776194	-0.809942	0.0107379	0.786932	-1.61068	-0.0122718	0	0	0	0	0	0	0	0	0	0	0	0	0	0	0.000000000	1.11022e-15	0.788798	-0.788798	1.11022e-15	0.828698	-1.5708	8.88178e-16	0.1	0.1	0.1	0.1	0.1	0.1	0.1	0	0	0	0	0	0	0	0.000000000
1504601797.329252004	0.00613592	0.776194	-0.809942	0.00920388	0.786932	-1.60915	-0.0122718	0	0	0	0	0	0	0	0	0	0	0	0	0	0	0.000000000	1.11022e-15	0.788798	-0.788798	1.11022e-15	0.828698	-1.5708	8.88178e-16	0.1	0.1	0.1	0.1	0.1	0.1	0.1	0	0	0	0	0	0	0	0.000000000
1504601797.349222898	0.00613592	0.776194	-0.809942	0.00920388	0.786932	-1.60915	-0.0122718	0	0	0	0	0	0	0	0	0	0	0	0	0	0	0.000000000	1.11022e-15	0.788798	-0.788798	1.11022e-15	0.828698	-1.5708	8.88178e-16	0.1	0.1	0.1	0.1	0.1	0.1	0.1	0	0	0	0	0	0	0	0.000000000
1504601797.369229078	0.00613592	0.776194	-0.809942	0.0107379	0.786932	-1.60915	-0.0122718	0	0	0	0	0	0	0	0	0	0	0	0	0	0	0.000000000	1.11022e-15	0.788798	-0.788798	1.11022e-15	0.828698	-1.5708	8.88178e-16	0.1	0.1	0.1	0.1	0.1	0.1	0.1	0	0	0	0	0	0	0	0.000000000
1504601797.389816999	0.00613592	0.776194	-0.809942	0.0107379	0.786932	-1.60915	-0.0122718	0	0	0	0	0	0	0	0	0	0	0	0	0	0	0.000000000	1.11022e-15	0.788798	-0.788798	1.11022e-15	0.828698	-1.5708	8.88178e-16	0.1	0.1	0.1	0.1	0.1	0.1	0.1	0	0	0	0	0	0	0	0.000000000
1504601797.409256935	0.00613592	0.776194	-0.809942	0.00920388	0.786932	-1.60915	-0.0122718	0	0	0	0	0	0	0	0	0	0	0	0	0	0	0.000000000	1.11022e-15	0.788798	-0.788798	1.11022e-15	0.828698	-1.5708	8.88178e-16	0.1	0.1	0.1	0.1	0.1	0.1	0.1	0	0	0	0	0	0	0	0.000000000
1504601797.430263042	0.00613592	0.776194	-0.808408	0.00920388	0.786932	-1.60915	-0.0138058	0	0	0	0	0	0	0	0	0	0	0	0	0	0	0.000000000	1.11022e-15	0.788798	-0.788798	1.11022e-15	0.828698	-1.5708	8.88178e-16	0.1	0.1	0.1	0.1	0.1	0.1	0.1	0	0	0	0	0	0	0	0.000000000
1504601797.449208021	0.00613592	0.776194	-0.809942	0.00920388	0.786932	-1.60915	-0.0122718	0	0	0	0	0	0	0	0	0	0	0	0	0	0	0.000000000	1.11022e-15	0.788798	-0.788798	1.11022e-15	0.828698	-1.5708	8.88178e-16	0.1	0.1	0.1	0.1	0.1	0.1	0.1	0	0	0	0	0	0	0	0.000000000
1504601797.469326019	0.00613592	0.776194	-0.809942	0.0107379	0.786932	-1.60915	-0.0122718	0	0	0	0	0	0	0	0	0	0	0	0	0	0	0.000000000	1.11022e-15	0.788798	-0.788798	1.11022e-15	0.828698	-1.5708	8.88178e-16	0.1	0.1	0.1	0.1	0.1	0.1	0.1	0	0	0	0	0	0	0	0.000000000
1504601797.489590883	0.00613592	0.776194	-0.809942	0.0107379	0.786932	-1.60915	-0.0122718	0	0	0	0	0	0	0	0	0	0	0	0	0	0	0.000000000	1.11022e-15	0.788798	-0.788798	1.11022e-15	0.828698	-1.5708	8.88178e-16	0.1	0.1	0.1	0.1	0.1	0.1	0.1	0	0	0	0	0	0	0	0.000000000
1504601797.509629964	0.00613592	0.776194	-0.808408	0.0107379	0.786932	-1.60915	-0.0122718	0	0	0	0	0	0	0	0	0	0	0	0	0	0	0.000000000	1.11022e-15	0.788798	-0.788798	1.11022e-15	0.828698	-1.5708	8.88178e-16	0.1	0.1	0.1	0.1	0.1	0.1	0.1	0	0	0	0	0	0	0	0.000000000
1504601797.529417991	0.00613592	0.776194	-0.808408	0.0107379	0.786932	-1.60915	-0.0122718	0	0	0	0	0	0	0	0	0	0	0	0	0	0	0.000000000	1.11022e-15	0.788798	-0.788798	1.11022e-15	0.828698	-1.5708	8.88178e-16	0.1	0.1	0.1	0.1	0.1	0.1	0.1	0	0	0	0	0	0	0	0.000000000
1504601797.549329996	0.00613592	0.776194	-0.808408	0.00920388	0.786932	-1.60915	-0.0122718	0	0	0	0	0	0	0	0	0	0	0	0	0	0	0.000000000	1.11022e-15	0.788798	-0.788798	1.11022e-15	0.828698	-1.5708	8.88178e-16	0.1	0.1	0.1	0.1	0.1	0.1	0.1	0	0	0	0	0	0	0	0.000000000
1504601797.569220066	0.00613592	0.776194	-0.808408	0.00920388	0.786932	-1.60915	-0.0122718	0	0	0	0	0	0	0	0	0	0	0	0	0	0	0.000000000	1.11022e-15	0.788798	-0.788798	1.11022e-15	0.828698	-1.5708	8.88178e-16	0.1	0.1	0.1	0.1	0.1	0.1	0.1	0	0	0	0	0	0	0	0.000000000
1504601797.589462995	0.00613592	0.776194	-0.809942	0.0107379	0.786932	-1.60915	-0.0122718	0	0	0	0	0	0	0	0	0	0	0	0	0	0	0.000000000	1.11022e-15	0.788798	-0.788798	1.11022e-15	0.828698	-1.5708	8.88178e-16	0.1	0.1	0.1	0.1	0.1	0.1	0.1	0	0	0	0	0	0	0	0.000000000
1504601797.611135959	0.00613592	0.776194	-0.809942	0.0107379	0.786932	-1.60915	-0.0122718	0	0	0	0	0	0	0	0	0	0	0	0	0	0	0.000000000	1.11022e-15	0.788798	-0.788798	1.11022e-15	0.828698	-1.5708	8.88178e-16	0.1	0.1	0.1	0.1	0.1	0.1	0.1	0	0	0	0	0	0	0	0.000000000
1504601797.629961967	0.00613592	0.776194	-0.809942	0.00920388	0.786932	-1.60915	-0.0122718	0	0	0	0	0	0	0	0	0	0	0	0	0	0	0.000000000	1.11022e-15	0.788798	-0.788798	1.11022e-15	0.828698	-1.5708	8.88178e-16	0.1	0.1	0.1	0.1	0.1	0.1	0.1	0	0	0	0	0	0	0	0.000000000
1504601797.649544954	0.00613592	0.776194	-0.808408	0.0107379	0.786932	-1.60915	-0.0122718	0	0	0	0	0	0	0	0	0	0	0	0	0	0	0.000000000	1.11022e-15	0.788798	-0.788798	1.11022e-15	0.828698	-1.5708	8.88178e-16	0.1	0.1	0.1	0.1	0.1	0.1	0.1	0	0	0	0	0	0	0	0.000000000
1504601797.669213056	0.00613592	0.776194	-0.809942	0.0107379	0.786932	-1.60915	-0.0122718	0	0	0	0	0	0	0	0	0	0	0	0	0	0	0.000000000	1.11022e-15	0.788798	-0.788798	1.11022e-15	0.828698	-1.5708	8.88178e-16	0.1	0.1	0.1	0.1	0.1	0.1	0.1	0	0	0	0	0	0	0	0.000000000
1504601797.689547061	0.00613592	0.776194	-0.809942	0.0107379	0.786932	-1.60915	-0.0122718	0	0	0	0	0	0	0	0	0	0	0	0	0	0	0.000000000	1.11022e-15	0.788798	-0.788798	1.11022e-15	0.828698	-1.5708	8.88178e-16	0.1	0.1	0.1	0.1	0.1	0.1	0.1	0	0	0	0	0	0	0	0.000000000
1504601797.709225893	0.00613592	0.776194	-0.809942	0.00920388	0.786932	-1.60915	-0.0122718	0	0	0	0	0	0	0	0	0	0	0	0	0	0	0.000000000	1.11022e-15	0.788798	-0.788798	1.11022e-15	0.828698	-1.5708	8.88178e-16	0.1	0.1	0.1	0.1	0.1	0.1	0.1	0	0	0	0	0	0	0	0.000000000
1504601797.729202985	0.00460194	0.776194	-0.809942	0.00920388	0.786932	-1.60915	-0.0122718	0	0	0	0	0	0	0	0	0	0	0	0	0	0	0.000000000	1.11022e-15	0.788798	-0.788798	1.11022e-15	0.828698	-1.5708	8.88178e-16	0.1	0.1	0.1	0.1	0.1	0.1	0.1	0	0	0	0	0	0	0	0.000000000
1504601797.749366044	0.00613592	0.776194	-0.809942	0.0107379	0.786932	-1.60915	-0.0138058	0	0	0	0	0	0	0	0	0	0	0	0	0	0	0.000000000	1.11022e-15	0.788798	-0.788798	1.11022e-15	0.828698	-1.5708	8.88178e-16	0.1	0.1	0.1	0.1	0.1	0.1	0.1	0	0	0	0	0	0	0	0.000000000
1504601797.769191980	0.00613592	0.776194	-0.809942	0.0107379	0.786932	-1.60915	-0.0122718	0	0	0	0	0	0	0	0	0	0	0	0	0	0	0.000000000	1.11022e-15	0.788798	-0.788798	1.11022e-15	0.828698	-1.5708	8.88178e-16	0.1	0.1	0.1	0.1	0.1	0.1	0.1	0	0	0	0	0	0	0	0.000000000
1504601797.790189027	0.00613592	0.776194	-0.809942	0.0107379	0.786932	-1.60915	-0.0122718	0	0	0	0	0	0	0	0	0	0	0	0	0	0	0.000000000	1.11022e-15	0.788798	-0.788798	1.11022e-15	0.828698	-1.5708	8.88178e-16	0.1	0.1	0.1	0.1	0.1	0.1	0.1	0	0	0	0	0	0	0	0.000000000
1504601797.809554100	0.00613592	0.776194	-0.809942	0.0107379	0.786932	-1.60915	-0.0122718	0	0	0	0	0	0	0	0	0	0	0	0	0	0	0.000000000	1.11022e-15	0.788798	-0.788798	1.11022e-15	0.828698	-1.5708	8.88178e-16	0.1	0.1	0.1	0.1	0.1	0.1	0.1	0	0	0	0	0	0	0	0.000000000
1504601797.830349922	0.00613592	0.776194	-0.809942	0.00920388	0.786932	-1.60915	-0.0122718	0	0	0	0	0	0	0	0	0	0	0	0	0	0	0.000000000	1.11022e-15	0.788798	-0.788798	1.11022e-15	0.828698	-1.5708	8.88178e-16	0.1	0.1	0.1	0.1	0.1	0.1	0.1	0	0	0	0	0	0	0	0.000000000
1504601797.849261999	0.00613592	0.776194	-0.809942	0.00920388	0.786932	-1.60915	-0.0122718	0	0	0	0	0	0	0	0	0	0	0	0	0	0	0.000000000	1.11022e-15	0.788798	-0.788798	1.11022e-15	0.828698	-1.5708	8.88178e-16	0.1	0.1	0.1	0.1	0.1	0.1	0.1	0	0	0	0	0	0	0	0.000000000
1504601797.869132995	0.00613592	0.776194	-0.809942	0.00920388	0.786932	-1.60915	-0.0122718	0	0	0	0	0	0	0	0	0	0	0	0	0	0	0.000000000	1.11022e-15	0.788798	-0.788798	1.11022e-15	0.828698	-1.5708	8.88178e-16	0.1	0.1	0.1	0.1	0.1	0.1	0.1	0	0	0	0	0	0	0	0.000000000
1504601797.889586925	0.00613592	0.776194	-0.809942	0.00920388	0.786932	-1.60915	-0.0122718	0	0	0	0	0	0	0	0	0	0	0	0	0	0	0.000000000	1.11022e-15	0.788798	-0.788798	1.11022e-15	0.828698	-1.5708	8.88178e-16	0.1	0.1	0.1	0.1	0.1	0.1	0.1	0	0	0	0	0	0	0	0.000000000
1504601797.910006999	0.00613592	0.776194	-0.809942	0.0107379	0.786932	-1.60915	-0.0122718	0	0	0	0	0	0	0	0	0	0	0	0	0	0	0.000000000	1.11022e-15	0.788798	-0.788798	1.11022e-15	0.828698	-1.5708	8.88178e-16	0.1	0.1	0.1	0.1	0.1	0.1	0.1	0	0	0	0	0	0	0	0.000000000
1504601797.929156064	0.00613592	0.776194	-0.808408	0.0107379	0.786932	-1.60915	-0.0122718	0	0	0	0	0	0	0	0	0	0	0	0	0	0	0.000000000	1.11022e-15	0.788798	-0.788798	1.11022e-15	0.828698	-1.5708	8.88178e-16	0.1	0.1	0.1	0.1	0.1	0.1	0.1	0	0	0	0	0	0	0	0.000000000
1504601797.949379920	0.00613592	0.776194	-0.809942	0.00920388	0.786932	-1.60915	-0.0122718	0	0	0	0	0	0	0	0	0	0	0	0	0	0	0.000000000	1.11022e-15	0.788798	-0.788798	1.11022e-15	0.828698	-1.5708	8.88178e-16	0.1	0.1	0.1	0.1	0.1	0.1	0.1	0	0	0	0	0	0	0	0.000000000
1504601797.969187021	0.00613592	0.776194	-0.809942	0.0107379	0.786932	-1.60915	-0.0122718	0	0	0	0	0	0	0	0	0	0	0	0	0	0	0.000000000	1.11022e-15	0.788798	-0.788798	1.11022e-15	0.828698	-1.5708	8.88178e-16	0.1	0.1	0.1	0.1	0.1	0.1	0.1	0	0	0	0	0	0	0	0.000000000
1504601797.989450931	0.00613592	0.776194	-0.809942	0.0107379	0.786932	-1.60915	-0.0122718	0	0	0	0	0	0	0	0	0	0	0	0	0	0	0.000000000	1.11022e-15	0.788798	-0.788798	1.11022e-15	0.828698	-1.5708	8.88178e-16	0.1	0.1	0.1	0.1	0.1	0.1	0.1	0	0	0	0	0	0	0	0.000000000
1504601798.010483026	0.00613592	0.776194	-0.808408	0.0107379	0.786932	-1.60915	-0.0122718	0	0	0	0	0	0	0	0	0	0	0	0	0	0	0.000000000	1.11022e-15	0.788798	-0.788798	1.11022e-15	0.828698	-1.5708	8.88178e-16	0.1	0.1	0.1	0.1	0.1	0.1	0.1	0	0	0	0	0	0	0	0.000000000
1504601798.030209064	0.00613592	0.776194	-0.809942	0.00920388	0.786932	-1.60915	-0.0122718	0	0	0	0	0	0	0	0	0	0	0	0	0	0	0.000000000	1.11022e-15	0.788798	-0.788798	1.11022e-15	0.828698	-1.5708	8.88178e-16	0.1	0.1	0.1	0.1	0.1	0.1	0.1	0	0	0	0	0	0	0	0.000000000
1504601798.049180030	0.00613592	0.776194	-0.809942	0.0107379	0.786932	-1.60915	-0.0122718	0	0	0	0	0	0	0	0	0	0	0	0	0	0	0.000000000	1.11022e-15	0.788798	-0.788798	1.11022e-15	0.828698	-1.5708	8.88178e-16	0.1	0.1	0.1	0.1	0.1	0.1	0.1	0	0	0	0	0	0	0	0.000000000
1504601798.069243907	0.00613592	0.776194	-0.809942	0.00920388	0.786932	-1.60915	-0.0122718	0	0	0	0	0	0	0	0	0	0	0	0	0	0	0.000000000	1.11022e-15	0.788798	-0.788798	1.11022e-15	0.828698	-1.5708	8.88178e-16	0.1	0.1	0.1	0.1	0.1	0.1	0.1	0	0	0	0	0	0	0	0.000000000
1504601798.093183040	0.00613592	0.776194	-0.809942	0.0107379	0.786932	-1.60915	-0.0122718	0	0	0	0	0	0	0	0	0	0	0	0	0	0	0.000000000	1.11022e-15	0.788798	-0.788798	1.11022e-15	0.828698	-1.5708	8.88178e-16	0.1	0.1	0.1	0.1	0.1	0.1	0.1	0	0	0	0	0	0	0	0.000000000
1504601798.109365940	0.00613592	0.776194	-0.809942	0.0107379	0.786932	-1.60915	-0.0122718	0	0	0	0	0	0	0	0	0	0	0	0	0	0	0.000000000	1.11022e-15	0.788798	-0.788798	1.11022e-15	0.828698	-1.5708	8.88178e-16	0.1	0.1	0.1	0.1	0.1	0.1	0.1	0	0	0	0	0	0	0	0.000000000
1504601798.129379034	0.00613592	0.776194	-0.809942	0.00920388	0.786932	-1.60915	-0.0122718	0	0	0	0	0	0	0	0	0	0	0	0	0	0	0.000000000	1.11022e-15	0.788798	-0.788798	1.11022e-15	0.828698	-1.5708	8.88178e-16	0.1	0.1	0.1	0.1	0.1	0.1	0.1	0	0	0	0	0	0	0	0.000000000
1504601798.149291038	0.00613592	0.776194	-0.809942	0.0107379	0.786932	-1.60915	-0.0122718	0	0	0	0	0	0	0	0	0	0	0	0	0	0	0.000000000	1.11022e-15	0.788798	-0.788798	1.11022e-15	0.828698	-1.5708	8.88178e-16	0.1	0.1	0.1	0.1	0.1	0.1	0.1	0	0	0	0	0	0	0	0.000000000
1504601798.169246912	0.00613592	0.776194	-0.809942	0.0107379	0.786932	-1.60915	-0.0122718	0	0	0	0	0	0	0	0	0	0	0	0	0	0	0.000000000	1.11022e-15	0.788798	-0.788798	1.11022e-15	0.828698	-1.5708	8.88178e-16	0.1	0.1	0.1	0.1	0.1	0.1	0.1	0	0	0	0	0	0	0	0.000000000
1504601798.189235925	0.00613592	0.776194	-0.809942	0.0107379	0.786932	-1.60915	-0.0122718	0	0	0	0	0	0	0	0	0	0	0	0	0	0	0.000000000	1.11022e-15	0.788798	-0.788798	1.11022e-15	0.828698	-1.5708	8.88178e-16	0.1	0.1	0.1	0.1	0.1	0.1	0.1	0	0	0	0	0	0	0	0.000000000
1504601798.209245920	0.00613592	0.776194	-0.808408	0.0107379	0.786932	-1.60915	-0.0122718	0	0	0	0	0	0	0	0	0	0	0	0	0	0	0.000000000	1.11022e-15	0.788798	-0.788798	1.11022e-15	0.828698	-1.5708	8.88178e-16	0.1	0.1	0.1	0.1	0.1	0.1	0.1	0	0	0	0	0	0	0	0.000000000
1504601798.229491949	0.00613592	0.776194	-0.808408	0.0107379	0.786932	-1.60915	-0.0122718	0	0	0	0	0	0	0	0	0	0	0	0	0	0	0.000000000	1.11022e-15	0.788798	-0.788798	1.11022e-15	0.828698	-1.5708	8.88178e-16	0.1	0.1	0.1	0.1	0.1	0.1	0.1	0	0	0	0	0	0	0	0.000000000
1504601798.249104022	0.00613592	0.776194	-0.809942	0.00920388	0.786932	-1.61068	-0.0122718	0	0	0	0	0	0	0	0	0	0	0	0	0	0	0.000000000	1.11022e-15	0.788798	-0.788798	1.11022e-15	0.828698	-1.5708	8.88178e-16	0.1	0.1	0.1	0.1	0.1	0.1	0.1	0	0	0	0	0	0	0	0.000000000
1504601798.269238948	0.00613592	0.776194	-0.808408	0.0107379	0.786932	-1.60915	-0.0122718	0	0	0	0	0	0	0	0	0	0	0	0	0	0	0.000000000	1.11022e-15	0.788798	-0.788798	1.11022e-15	0.828698	-1.5708	8.88178e-16	0.1	0.1	0.1	0.1	0.1	0.1	0.1	0	0	0	0	0	0	0	0.000000000
1504601798.289223909	0.00613592	0.776194	-0.809942	0.00920388	0.786932	-1.60915	-0.0122718	0	0	0	0	0	0	0	0	0	0	0	0	0	0	0.000000000	1.11022e-15	0.788798	-0.788798	1.11022e-15	0.828698	-1.5708	8.88178e-16	0.1	0.1	0.1	0.1	0.1	0.1	0.1	0	0	0	0	0	0	0	0.000000000
1504601798.309385061	0.00613592	0.776194	-0.809942	0.00920388	0.786932	-1.60915	-0.0122718	0	0	0	0	0	0	0	0	0	0	0	0	0	0	0.000000000	1.11022e-15	0.788798	-0.788798	1.11022e-15	0.828698	-1.5708	8.88178e-16	0.1	0.1	0.1	0.1	0.1	0.1	0.1	0	0	0	0	0	0	0	0.000000000
1504601798.329216003	0.00613592	0.776194	-0.809942	0.00920388	0.786932	-1.60915	-0.0122718	0	0	0	0	0	0	0	0	0	0	0	0	0	0	0.000000000	1.11022e-15	0.788798	-0.788798	1.11022e-15	0.828698	-1.5708	8.88178e-16	0.1	0.1	0.1	0.1	0.1	0.1	0.1	0	0	0	0	0	0	0	0.000000000
1504601798.350424051	0.00613592	0.776194	-0.808408	0.00920388	0.786932	-1.61068	-0.0122718	0	0	0	0	0	0	0	0	0	0	0	0	0	0	0.000000000	1.11022e-15	0.788798	-0.788798	1.11022e-15	0.828698	-1.5708	8.88178e-16	0.1	0.1	0.1	0.1	0.1	0.1	0.1	0	0	0	0	0	0	0	0.000000000
1504601798.369282960	0.00613592	0.776194	-0.809942	0.00920388	0.786932	-1.60915	-0.0122718	0	0	0	0	0	0	0	0	0	0	0	0	0	0	0.000000000	1.11022e-15	0.788798	-0.788798	1.11022e-15	0.828698	-1.5708	8.88178e-16	0.1	0.1	0.1	0.1	0.1	0.1	0.1	0	0	0	0	0	0	0	0.000000000
1504601798.392795085	0.00613592	0.776194	-0.809942	0.0107379	0.786932	-1.61068	-0.0122718	0	0	0	0	0	0	0	0	0	0	0	0	0	0	0.000000000	1.11022e-15	0.788798	-0.788798	1.11022e-15	0.828698	-1.5708	8.88178e-16	0.1	0.1	0.1	0.1	0.1	0.1	0.1	0	0	0	0	0	0	0	0.000000000
1504601798.409401893	0.00613592	0.776194	-0.809942	0.0107379	0.786932	-1.61068	-0.0122718	0	0	0	0	0	0	0	0	0	0	0	0	0	0	0.000000000	1.11022e-15	0.788798	-0.788798	1.11022e-15	0.828698	-1.5708	8.88178e-16	0.1	0.1	0.1	0.1	0.1	0.1	0.1	0	0	0	0	0	0	0	0.000000000
1504601798.429816961	0.00613592	0.776194	-0.809942	0.00920388	0.786932	-1.60915	-0.0122718	0	0	0	0	0	0	0	0	0	0	0	0	0	0	0.000000000	1.11022e-15	0.788798	-0.788798	1.11022e-15	0.828698	-1.5708	8.88178e-16	0.1	0.1	0.1	0.1	0.1	0.1	0.1	0	0	0	0	0	0	0	0.000000000
1504601798.449270963	0.00613592	0.77466	-0.809942	0.0107379	0.786932	-1.60915	-0.0122718	0	0	0	0	0	0	0	0	0	0	0	0	0	0	0.000000000	1.11022e-15	0.788798	-0.788798	1.11022e-15	0.828698	-1.5708	8.88178e-16	0.1	0.1	0.1	0.1	0.1	0.1	0.1	0	0	0	0	0	0	0	0.000000000
1504601798.469398975	0.00613592	0.77466	-0.809942	0.0107379	0.786932	-1.60915	-0.0122718	0	0	0	0	0	0	0	0	0	0	0	0	0	0	0.000000000	1.11022e-15	0.788798	-0.788798	1.11022e-15	0.828698	-1.5708	8.88178e-16	0.1	0.1	0.1	0.1	0.1	0.1	0.1	0	0	0	0	0	0	0	0.000000000
1504601798.492501974	0.00613592	0.776194	-0.809942	0.0107379	0.786932	-1.60915	-0.0138058	0	0	0	0	0	0	0	0	0	0	0	0	0	0	0.000000000	1.11022e-15	0.788798	-0.788798	1.11022e-15	0.828698	-1.5708	8.88178e-16	0.1	0.1	0.1	0.1	0.1	0.1	0.1	0	0	0	0	0	0	0	0.000000000
1504601798.509557008	0.00613592	0.776194	-0.809942	0.0107379	0.786932	-1.60915	-0.0122718	0	0	0	0	0	0	0	0	0	0	0	0	0	0	0.000000000	1.11022e-15	0.788798	-0.788798	1.11022e-15	0.828698	-1.5708	8.88178e-16	0.1	0.1	0.1	0.1	0.1	0.1	0.1	0	0	0	0	0	0	0	0.000000000
1504601798.529216051	0.00613592	0.776194	-0.809942	0.0107379	0.786932	-1.60915	-0.0122718	0	0	0	0	0	0	0	0	0	0	0	0	0	0	0.000000000	1.11022e-15	0.788798	-0.788798	1.11022e-15	0.828698	-1.5708	8.88178e-16	0.1	0.1	0.1	0.1	0.1	0.1	0.1	0	0	0	0	0	0	0	0.000000000
1504601798.549141883	0.00613592	0.776194	-0.809942	0.00920388	0.786932	-1.60915	-0.0138058	0	0	0	0	0	0	0	0	0	0	0	0	0	0	0.000000000	1.11022e-15	0.788798	-0.788798	1.11022e-15	0.828698	-1.5708	8.88178e-16	0.1	0.1	0.1	0.1	0.1	0.1	0.1	0	0	0	0	0	0	0	0.000000000
1504601798.569431066	0.00613592	0.776194	-0.808408	0.00920388	0.786932	-1.60915	-0.0122718	0	0	0	0	0	0	0	0	0	0	0	0	0	0	0.000000000	1.11022e-15	0.788798	-0.788798	1.11022e-15	0.828698	-1.5708	8.88178e-16	0.1	0.1	0.1	0.1	0.1	0.1	0.1	0	0	0	0	0	0	0	0.000000000
1504601798.590569019	0.00613592	0.776194	-0.809942	0.00920388	0.786932	-1.60915	-0.0122718	0	0	0	0	0	0	0	0	0	0	0	0	0	0	0.000000000	1.11022e-15	0.788798	-0.788798	1.11022e-15	0.828698	-1.5708	8.88178e-16	0.1	0.1	0.1	0.1	0.1	0.1	0.1	0	0	0	0	0	0	0	0.000000000
1504601798.609477996	0.00613592	0.776194	-0.809942	0.00920388	0.786932	-1.60915	-0.0122718	0	0	0	0	0	0	0	0	0	0	0	0	0	0	0.000000000	1.11022e-15	0.788798	-0.788798	1.11022e-15	0.828698	-1.5708	8.88178e-16	0.1	0.1	0.1	0.1	0.1	0.1	0.1	0	0	0	0	0	0	0	0.000000000
1504601798.629273891	0.00613592	0.776194	-0.808408	0.00920388	0.786932	-1.60915	-0.0122718	0	0	0	0	0	0	0	0	0	0	0	0	0	0	0.000000000	1.11022e-15	0.788798	-0.788798	1.11022e-15	0.828698	-1.5708	8.88178e-16	0.1	0.1	0.1	0.1	0.1	0.1	0.1	0	0	0	0	0	0	0	0.000000000
1504601798.649435043	0.00613592	0.776194	-0.809942	0.00920388	0.786932	-1.60915	-0.0138058	0	0	0	0	0	0	0	0	0	0	0	0	0	0	0.000000000	1.11022e-15	0.788798	-0.788798	1.11022e-15	0.828698	-1.5708	8.88178e-16	0.1	0.1	0.1	0.1	0.1	0.1	0.1	0	0	0	0	0	0	0	0.000000000
1504601798.669375896	0.00613592	0.776194	-0.808408	0.00920388	0.786932	-1.60915	-0.0122718	0	0	0	0	0	0	0	0	0	0	0	0	0	0	0.000000000	1.11022e-15	0.788798	-0.788798	1.11022e-15	0.828698	-1.5708	8.88178e-16	0.1	0.1	0.1	0.1	0.1	0.1	0.1	0	0	0	0	0	0	0	0.000000000
1504601798.689273118	0.00613592	0.776194	-0.809942	0.00920388	0.786932	-1.60915	-0.0122718	0	0	0	0	0	0	0	0	0	0	0	0	0	0	0.000000000	1.11022e-15	0.788798	-0.788798	1.11022e-15	0.828698	-1.5708	8.88178e-16	0.1	0.1	0.1	0.1	0.1	0.1	0.1	0	0	0	0	0	0	0	0.000000000
1504601798.709223031	0.00613592	0.776194	-0.809942	0.00920388	0.786932	-1.60915	-0.0122718	0	0	0	0	0	0	0	0	0	0	0	0	0	0	0.000000000	1.11022e-15	0.788798	-0.788798	1.11022e-15	0.828698	-1.5708	8.88178e-16	0.1	0.1	0.1	0.1	0.1	0.1	0.1	0	0	0	0	0	0	0	0.000000000
1504601798.729372978	0.00613592	0.776194	-0.808408	0.0107379	0.786932	-1.60915	-0.0122718	0	0	0	0	0	0	0	0	0	0	0	0	0	0	0.000000000	1.11022e-15	0.788798	-0.788798	1.11022e-15	0.828698	-1.5708	8.88178e-16	0.1	0.1	0.1	0.1	0.1	0.1	0.1	0	0	0	0	0	0	0	0.000000000
1504601798.750071048	0.00613592	0.776194	-0.809942	0.00920388	0.786932	-1.60915	-0.0122718	0	0	0	0	0	0	0	0	0	0	0	0	0	0	0.000000000	1.11022e-15	0.788798	-0.788798	1.11022e-15	0.828698	-1.5708	8.88178e-16	0.1	0.1	0.1	0.1	0.1	0.1	0.1	0	0	0	0	0	0	0	0.000000000
1504601798.769119024	0.00613592	0.776194	-0.809942	0.0107379	0.786932	-1.60915	-0.0122718	0	0	0	0	0	0	0	0	0	0	0	0	0	0	0.000000000	1.11022e-15	0.788798	-0.788798	1.11022e-15	0.828698	-1.5708	8.88178e-16	0.1	0.1	0.1	0.1	0.1	0.1	0.1	0	0	0	0	0	0	0	0.000000000
1504601798.789840936	0.00613592	0.776194	-0.809942	0.00920388	0.786932	-1.60915	-0.0122718	0	0	0	0	0	0	0	0	0	0	0	0	0	0	0.000000000	1.11022e-15	0.788798	-0.788798	1.11022e-15	0.828698	-1.5708	8.88178e-16	0.1	0.1	0.1	0.1	0.1	0.1	0.1	0	0	0	0	0	0	0	0.000000000
1504601798.809406995	0.00613592	0.776194	-0.809942	0.00920388	0.786932	-1.60915	-0.0122718	0	0	0	0	0	0	0	0	0	0	0	0	0	0	0.000000000	1.11022e-15	0.788798	-0.788798	1.11022e-15	0.828698	-1.5708	8.88178e-16	0.1	0.1	0.1	0.1	0.1	0.1	0.1	0	0	0	0	0	0	0	0.000000000
1504601798.829653024	0.00613592	0.776194	-0.809942	0.0107379	0.786932	-1.60915	-0.0122718	0	0	0	0	0	0	0	0	0	0	0	0	0	0	0.000000000	1.11022e-15	0.788798	-0.788798	1.11022e-15	0.828698	-1.5708	8.88178e-16	0.1	0.1	0.1	0.1	0.1	0.1	0.1	0	0	0	0	0	0	0	0.000000000
1504601798.849272966	0.00613592	0.776194	-0.808408	0.0107379	0.786932	-1.60915	-0.0122718	0	0	0	0	0	0	0	0	0	0	0	0	0	0	0.000000000	1.11022e-15	0.788798	-0.788798	1.11022e-15	0.828698	-1.5708	8.88178e-16	0.1	0.1	0.1	0.1	0.1	0.1	0.1	0	0	0	0	0	0	0	0.000000000
1504601798.869141101	0.00613592	0.776194	-0.809942	0.00920388	0.786932	-1.61068	-0.0122718	0	0	0	0	0	0	0	0	0	0	0	0	0	0	0.000000000	1.11022e-15	0.788798	-0.788798	1.11022e-15	0.828698	-1.5708	8.88178e-16	0.1	0.1	0.1	0.1	0.1	0.1	0.1	0	0	0	0	0	0	0	0.000000000
1504601798.893935918	0.00613592	0.776194	-0.809942	0.0107379	0.786932	-1.60915	-0.0122718	0	0	0	0	0	0	0	0	0	0	0	0	0	0	0.000000000	1.11022e-15	0.788798	-0.788798	1.11022e-15	0.828698	-1.5708	8.88178e-16	0.1	0.1	0.1	0.1	0.1	0.1	0.1	0	0	0	0	0	0	0	0.000000000
1504601798.910737991	0.00613592	0.776194	-0.809942	0.0107379	0.786932	-1.60915	-0.0122718	0	0	0	0	0	0	0	0	0	0	0	0	0	0	0.000000000	1.11022e-15	0.788798	-0.788798	1.11022e-15	0.828698	-1.5708	8.88178e-16	0.1	0.1	0.1	0.1	0.1	0.1	0.1	0	0	0	0	0	0	0	0.000000000
1504601798.929239988	0.00613592	0.776194	-0.809942	0.0107379	0.786932	-1.60915	-0.0122718	0	0	0	0	0	0	0	0	0	0	0	0	0	0	0.000000000	1.11022e-15	0.788798	-0.788798	1.11022e-15	0.828698	-1.5708	8.88178e-16	0.1	0.1	0.1	0.1	0.1	0.1	0.1	0	0	0	0	0	0	0	0.000000000
1504601798.949156045	0.00613592	0.776194	-0.808408	0.00920388	0.786932	-1.60915	-0.0122718	0	0	0	0	0	0	0	0	0	0	0	0	0	0	0.000000000	1.11022e-15	0.788798	-0.788798	1.11022e-15	0.828698	-1.5708	8.88178e-16	0.1	0.1	0.1	0.1	0.1	0.1	0.1	0	0	0	0	0	0	0	0.000000000
1504601798.972759008	0.00613592	0.776194	-0.809942	0.00920388	0.786932	-1.60915	-0.0122718	0	0	0	0	0	0	0	0	0	0	0	0	0	0	0.000000000	1.11022e-15	0.788798	-0.788798	1.11022e-15	0.828698	-1.5708	8.88178e-16	0.1	0.1	0.1	0.1	0.1	0.1	0.1	0	0	0	0	0	0	0	0.000000000
1504601798.994000911	0.00613592	0.776194	-0.809942	0.0107379	0.786932	-1.60915	-0.0122718	0	0	0	0	0	0	0	0	0	0	0	0	0	0	0.000000000	1.11022e-15	0.788798	-0.788798	1.11022e-15	0.828698	-1.5708	8.88178e-16	0.1	0.1	0.1	0.1	0.1	0.1	0.1	0	0	0	0	0	0	0	0.000000000
1504601799.009526014	0.00613592	0.776194	-0.809942	0.0107379	0.786932	-1.60915	-0.0122718	0	0	0	0	0	0	0	0	0	0	0	0	0	0	0.000000000	1.11022e-15	0.788798	-0.788798	1.11022e-15	0.828698	-1.5708	8.88178e-16	0.1	0.1	0.1	0.1	0.1	0.1	0.1	0	0	0	0	0	0	0	0.000000000
1504601799.029273986	0.00613592	0.776194	-0.809942	0.0107379	0.786932	-1.60915	-0.0122718	0	0	0	0	0	0	0	0	0	0	0	0	0	0	0.000000000	1.11022e-15	0.788798	-0.788798	1.11022e-15	0.828698	-1.5708	8.88178e-16	0.1	0.1	0.1	0.1	0.1	0.1	0.1	0	0	0	0	0	0	0	0.000000000
1504601799.049449920	0.00613592	0.776194	-0.809942	0.00920388	0.786932	-1.60915	-0.0122718	0	0	0	0	0	0	0	0	0	0	0	0	0	0	0.000000000	1.11022e-15	0.788798	-0.788798	1.11022e-15	0.828698	-1.5708	8.88178e-16	0.1	0.1	0.1	0.1	0.1	0.1	0.1	0	0	0	0	0	0	0	0.000000000
1504601799.069202899	0.00613592	0.776194	-0.809942	0.0107379	0.786932	-1.61068	-0.0122718	0	0	0	0	0	0	0	0	0	0	0	0	0	0	0.000000000	1.11022e-15	0.788798	-0.788798	1.11022e-15	0.828698	-1.5708	8.88178e-16	0.1	0.1	0.1	0.1	0.1	0.1	0.1	0	0	0	0	0	0	0	0.000000000
1504601799.089328050	0.00613592	0.776194	-0.809942	0.0107379	0.786932	-1.60915	-0.0122718	0	0	0	0	0	0	0	0	0	0	0	0	0	0	0.000000000	1.11022e-15	0.788798	-0.788798	1.11022e-15	0.828698	-1.5708	8.88178e-16	0.1	0.1	0.1	0.1	0.1	0.1	0.1	0	0	0	0	0	0	0	0.000000000
1504601799.109277963	0.00613592	0.776194	-0.809942	0.0107379	0.786932	-1.60915	-0.0122718	0	0	0	0	0	0	0	0	0	0	0	0	0	0	0.000000000	1.11022e-15	0.788798	-0.788798	1.11022e-15	0.828698	-1.5708	8.88178e-16	0.1	0.1	0.1	0.1	0.1	0.1	0.1	0	0	0	0	0	0	0	0.000000000
1504601799.129379034	0.00613592	0.776194	-0.808408	0.0107379	0.786932	-1.60915	-0.0122718	0	0	0	0	0	0	0	0	0	0	0	0	0	0	0.000000000	1.11022e-15	0.788798	-0.788798	1.11022e-15	0.828698	-1.5708	8.88178e-16	0.1	0.1	0.1	0.1	0.1	0.1	0.1	0	0	0	0	0	0	0	0.000000000
1504601799.149629116	0.00613592	0.776194	-0.809942	0.00920388	0.786932	-1.60915	-0.0122718	0	0	0	0	0	0	0	0	0	0	0	0	0	0	0.000000000	1.11022e-15	0.788798	-0.788798	1.11022e-15	0.828698	-1.5708	8.88178e-16	0.1	0.1	0.1	0.1	0.1	0.1	0.1	0	0	0	0	0	0	0	0.000000000
1504601799.169356107	0.00613592	0.776194	-0.808408	0.00920388	0.786932	-1.60915	-0.0122718	0	0	0	0	0	0	0	0	0	0	0	0	0	0	0.000000000	1.11022e-15	0.788798	-0.788798	1.11022e-15	0.828698	-1.5708	8.88178e-16	0.1	0.1	0.1	0.1	0.1	0.1	0.1	0	0	0	0	0	0	0	0.000000000
1504601799.189235925	0.00613592	0.776194	-0.808408	0.00920388	0.786932	-1.60915	-0.0122718	0	0	0	0	0	0	0	0	0	0	0	0	0	0	0.000000000	1.11022e-15	0.788798	-0.788798	1.11022e-15	0.828698	-1.5708	8.88178e-16	0.1	0.1	0.1	0.1	0.1	0.1	0.1	0	0	0	0	0	0	0	0.000000000
1504601799.209445953	0.00613592	0.776194	-0.809942	0.0107379	0.786932	-1.60915	-0.0122718	0	0	0	0	0	0	0	0	0	0	0	0	0	0	0.000000000	1.11022e-15	0.788798	-0.788798	1.11022e-15	0.828698	-1.5708	8.88178e-16	0.1	0.1	0.1	0.1	0.1	0.1	0.1	0	0	0	0	0	0	0	0.000000000
1504601799.230092048	0.00613592	0.776194	-0.809942	0.00920388	0.786932	-1.60915	-0.0122718	0	0	0	0	0	0	0	0	0	0	0	0	0	0	0.000000000	1.11022e-15	0.788798	-0.788798	1.11022e-15	0.828698	-1.5708	8.88178e-16	0.1	0.1	0.1	0.1	0.1	0.1	0.1	0	0	0	0	0	0	0	0.000000000
1504601799.249300003	0.00613592	0.776194	-0.809942	0.0107379	0.786932	-1.60915	-0.0122718	0	0	0	0	0	0	0	0	0	0	0	0	0	0	0.000000000	1.11022e-15	0.788798	-0.788798	1.11022e-15	0.828698	-1.5708	8.88178e-16	0.1	0.1	0.1	0.1	0.1	0.1	0.1	0	0	0	0	0	0	0	0.000000000
1504601799.269263982	0.00613592	0.776194	-0.809942	0.0107379	0.786932	-1.60915	-0.0122718	0	0	0	0	0	0	0	0	0	0	0	0	0	0	0.000000000	1.11022e-15	0.788798	-0.788798	1.11022e-15	0.828698	-1.5708	8.88178e-16	0.1	0.1	0.1	0.1	0.1	0.1	0.1	0	0	0	0	0	0	0	0.000000000
1504601799.293114900	0.00613592	0.776194	-0.808408	0.0107379	0.786932	-1.60915	-0.0122718	0	0	0	0	0	0	0	0	0	0	0	0	0	0	0.000000000	1.11022e-15	0.788798	-0.788798	1.11022e-15	0.828698	-1.5708	8.88178e-16	0.1	0.1	0.1	0.1	0.1	0.1	0.1	0	0	0	0	0	0	0	0.000000000
1504601799.309256076	0.00613592	0.776194	-0.808408	0.0107379	0.786932	-1.60915	-0.0122718	0	0	0	0	0	0	0	0	0	0	0	0	0	0	0.000000000	1.11022e-15	0.788798	-0.788798	1.11022e-15	0.828698	-1.5708	8.88178e-16	0.1	0.1	0.1	0.1	0.1	0.1	0.1	0	0	0	0	0	0	0	0.000000000
1504601799.329360961	0.00460194	0.776194	-0.809942	0.0107379	0.786932	-1.60915	-0.0122718	0	0	0	0	0	0	0	0	0	0	0	0	0	0	0.000000000	1.11022e-15	0.788798	-0.788798	1.11022e-15	0.828698	-1.5708	8.88178e-16	0.1	0.1	0.1	0.1	0.1	0.1	0.1	0	0	0	0	0	0	0	0.000000000
1504601799.349205970	0.00613592	0.776194	-0.809942	0.0107379	0.786932	-1.60915	-0.0122718	0	0	0	0	0	0	0	0	0	0	0	0	0	0	0.000000000	1.11022e-15	0.788798	-0.788798	1.11022e-15	0.828698	-1.5708	8.88178e-16	0.1	0.1	0.1	0.1	0.1	0.1	0.1	0	0	0	0	0	0	0	0.000000000
1504601799.369136095	0.00613592	0.776194	-0.809942	0.0107379	0.786932	-1.60915	-0.0122718	0	0	0	0	0	0	0	0	0	0	0	0	0	0	0.000000000	1.11022e-15	0.788798	-0.788798	1.11022e-15	0.828698	-1.5708	8.88178e-16	0.1	0.1	0.1	0.1	0.1	0.1	0.1	0	0	0	0	0	0	0	0.000000000
1504601799.389528989	0.00613592	0.776194	-0.809942	0.0107379	0.786932	-1.60915	-0.0122718	0	0	0	0	0	0	0	0	0	0	0	0	0	0	0.000000000	1.11022e-15	0.788798	-0.788798	1.11022e-15	0.828698	-1.5708	8.88178e-16	0.1	0.1	0.1	0.1	0.1	0.1	0.1	0	0	0	0	0	0	0	0.000000000
1504601799.409507989	0.00613592	0.776194	-0.809942	0.00920388	0.786932	-1.60915	-0.0122718	0	0	0	0	0	0	0	0	0	0	0	0	0	0	0.000000000	1.11022e-15	0.788798	-0.788798	1.11022e-15	0.828698	-1.5708	8.88178e-16	0.1	0.1	0.1	0.1	0.1	0.1	0.1	0	0	0	0	0	0	0	0.000000000
1504601799.430675983	0.00613592	0.776194	-0.808408	0.0107379	0.786932	-1.60915	-0.0122718	0	0	0	0	0	0	0	0	0	0	0	0	0	0	0.000000000	1.11022e-15	0.788798	-0.788798	1.11022e-15	0.828698	-1.5708	8.88178e-16	0.1	0.1	0.1	0.1	0.1	0.1	0.1	0	0	0	0	0	0	0	0.000000000
1504601799.449172019	0.00460194	0.776194	-0.808408	0.0107379	0.786932	-1.60915	-0.0138058	0	0	0	0	0	0	0	0	0	0	0	0	0	0	0.000000000	1.11022e-15	0.788798	-0.788798	1.11022e-15	0.828698	-1.5708	8.88178e-16	0.1	0.1	0.1	0.1	0.1	0.1	0.1	0	0	0	0	0	0	0	0.000000000
1504601799.469327926	0.00613592	0.776194	-0.808408	0.0107379	0.786932	-1.60915	-0.0122718	0	0	0	0	0	0	0	0	0	0	0	0	0	0	0.000000000	1.11022e-15	0.788798	-0.788798	1.11022e-15	0.828698	-1.5708	8.88178e-16	0.1	0.1	0.1	0.1	0.1	0.1	0.1	0	0	0	0	0	0	0	0.000000000
