DingWan/Reconbot3Ddemo/02_MATLAB_Code/sensors_data/IGM_3s70steps_0905_encoders_data_LargeCamera.txt
time_stamp	actual_pos_joint_4	actual_pos_joint_5	actual_pos_joint_3	actual_pos_joint_1	actual_pos_joint_2	actual_pos_joint_6	actual_pos_joint_7	actual_vel_joint_4	actual_vel_joint_5	actual_vel_joint_3	actual_vel_joint_1	actual_vel_joint_2	actual_vel_joint_6	actual_vel_joint_7	actual_acc_joint_4	actual_acc_joint_5	actual_acc_joint_3	actual_acc_joint_1	actual_acc_joint_2	actual_acc_joint_6	actual_acc_joint_7	actual_time_from_start	desired_pos_joint_4	desired_pos_joint_5	desired_pos_joint_3	desired_pos_joint_1	desired_pos_joint_2	desired_pos_joint_6	desired_pos_joint_7	desired_vel_joint_4	desired_vel_joint_5	desired_vel_joint_3	desired_vel_joint_1	desired_vel_joint_2	desired_vel_joint_6	desired_vel_joint_7	desired_acc_joint_4	desired_acc_joint_5	desired_acc_joint_3	desired_acc_joint_1	desired_acc_joint_2	desired_acc_joint_6	desired_acc_joint_7	desired_time_from_start
1504602922.189136981	0.0076699	0.776194	-0.809942	0.00920388	0.785398	-1.61221	-0.0107379	0	0	0	0	0	0	0	0	0	0	0	0	0	0	0.000000000	8.88178e-16	0.788798	-0.788798	8.88178e-16	0.828698	-1.5708	0	0.1	0.1	0.1	0.1	0.1	0.1	0.1	0	0	0	0	0	0	0	0.000000000
1504602922.209927082	0.0076699	0.776194	-0.809942	0.00920388	0.785398	-1.61221	-0.0122718	0	0	0	0	0	0	0	0	0	0	0	0	0	0	0.000000000	8.88178e-16	0.788798	-0.788798	8.88178e-16	0.828698	-1.5708	0	0.1	0.1	0.1	0.1	0.1	0.1	0.1	0	0	0	0	0	0	0	0.000000000
1504602922.229516983	0.0076699	0.776194	-0.809942	0.00920388	0.785398	-1.61221	-0.0122718	0	0	0	0	0	0	0	0	0	0	0	0	0	0	0.000000000	8.88178e-16	0.788798	-0.788798	8.88178e-16	0.828698	-1.5708	0	0.1	0.1	0.1	0.1	0.1	0.1	0.1	0	0	0	0	0	0	0	0.000000000
1504602922.249222993	0.0076699	0.776194	-0.809942	0.00920388	0.785398	-1.61221	-0.0122718	0	0	0	0	0	0	0	0	0	0	0	0	0	0	0.000000000	8.88178e-16	0.788798	-0.788798	8.88178e-16	0.828698	-1.5708	0	0.1	0.1	0.1	0.1	0.1	0.1	0.1	0	0	0	0	0	0	0	0.000000000
1504602922.269243001	0.0076699	0.776194	-0.809942	0.00920388	0.785398	-1.61221	-0.0122718	0	0	0	0	0	0	0	0	0	0	0	0	0	0	0.000000000	8.88178e-16	0.788798	-0.788798	8.88178e-16	0.828698	-1.5708	0	0.1	0.1	0.1	0.1	0.1	0.1	0.1	0	0	0	0	0	0	0	0.000000000
1504602922.289344072	0.00920388	0.776194	-0.809942	0.00920388	0.785398	-1.61221	-0.0122718	0	0	0	0	0	0	0	0	0	0	0	0	0	0	0.000000000	8.88178e-16	0.788798	-0.788798	8.88178e-16	0.828698	-1.5708	0	0.1	0.1	0.1	0.1	0.1	0.1	0.1	0	0	0	0	0	0	0	0.000000000
1504602922.309345960	0.0076699	0.776194	-0.809942	0.00920388	0.785398	-1.61221	-0.0122718	0	0	0	0	0	0	0	0	0	0	0	0	0	0	0.000000000	8.88178e-16	0.788798	-0.788798	8.88178e-16	0.828698	-1.5708	0	0.1	0.1	0.1	0.1	0.1	0.1	0.1	0	0	0	0	0	0	0	0.000000000
1504602922.333962917	0.0076699	0.776194	-0.809942	0.00920388	0.785398	-1.61221	-0.0122718	0	0	0	0	0	0	0	0	0	0	0	0	0	0	0.000000000	8.88178e-16	0.788798	-0.788798	8.88178e-16	0.828698	-1.5708	0	0.1	0.1	0.1	0.1	0.1	0.1	0.1	0	0	0	0	0	0	0	0.000000000
1504602922.349198102	0.0076699	0.776194	-0.809942	0.00920388	0.785398	-1.61221	-0.0122718	0	0	0	0	0	0	0	0	0	0	0	0	0	0	0.000000000	8.88178e-16	0.788798	-0.788798	8.88178e-16	0.828698	-1.5708	0	0.1	0.1	0.1	0.1	0.1	0.1	0.1	0	0	0	0	0	0	0	0.000000000
1504602922.370230913	0.0076699	0.776194	-0.809942	0.00920388	0.785398	-1.61221	-0.0107379	0	0	0	0	0	0	0	0	0	0	0	0	0	0	0.000000000	8.88178e-16	0.788798	-0.788798	8.88178e-16	0.828698	-1.5708	0	0.1	0.1	0.1	0.1	0.1	0.1	0.1	0	0	0	0	0	0	0	0.000000000
1504602922.389259099	0.0076699	0.776194	-0.809942	0.00920388	0.785398	-1.61221	-0.0107379	0	0	0	0	0	0	0	0	0	0	0	0	0	0	0.000000000	8.88178e-16	0.788798	-0.788798	8.88178e-16	0.828698	-1.5708	0	0.1	0.1	0.1	0.1	0.1	0.1	0.1	0	0	0	0	0	0	0	0.000000000
1504602922.409188032	0.0076699	0.776194	-0.809942	0.00920388	0.785398	-1.61221	-0.0122718	0	0	0	0	0	0	0	0	0	0	0	0	0	0	0.000000000	8.88178e-16	0.788798	-0.788798	8.88178e-16	0.828698	-1.5708	0	0.1	0.1	0.1	0.1	0.1	0.1	0.1	0	0	0	0	0	0	0	0.000000000
1504602922.429856061	0.0076699	0.776194	-0.809942	0.00920388	0.785398	-1.61221	-0.0122718	0	0	0	0	0	0	0	0	0	0	0	0	0	0	0.000000000	8.88178e-16	0.788798	-0.788798	8.88178e-16	0.828698	-1.5708	0	0.1	0.1	0.1	0.1	0.1	0.1	0.1	0	0	0	0	0	0	0	0.000000000
1504602922.449332952	0.0076699	0.776194	-0.809942	0.00920388	0.785398	-1.61221	-0.0122718	0	0	0	0	0	0	0	0	0	0	0	0	0	0	0.000000000	8.88178e-16	0.788798	-0.788798	8.88178e-16	0.828698	-1.5708	0	0.1	0.1	0.1	0.1	0.1	0.1	0.1	0	0	0	0	0	0	0	0.000000000
1504602922.469383001	0.0076699	0.776194	-0.809942	0.00920388	0.785398	-1.61221	-0.0107379	0	0	0	0	0	0	0	0	0	0	0	0	0	0	0.000000000	8.88178e-16	0.788798	-0.788798	8.88178e-16	0.828698	-1.5708	0	0.1	0.1	0.1	0.1	0.1	0.1	0.1	0	0	0	0	0	0	0	0.000000000
1504602922.489248037	0.0076699	0.776194	-0.809942	0.00920388	0.785398	-1.61221	-0.0122718	0	0	0	0	0	0	0	0	0	0	0	0	0	0	0.000000000	8.88178e-16	0.788798	-0.788798	8.88178e-16	0.828698	-1.5708	0	0.1	0.1	0.1	0.1	0.1	0.1	0.1	0	0	0	0	0	0	0	0.000000000
1504602922.512429952	0.0076699	0.776194	-0.809942	0.00920388	0.785398	-1.61221	-0.0107379	0	0	0	0	0	0	0	0	0	0	0	0	0	0	0.000000000	8.88178e-16	0.788798	-0.788798	8.88178e-16	0.828698	-1.5708	0	0.1	0.1	0.1	0.1	0.1	0.1	0.1	0	0	0	0	0	0	0	0.000000000
1504602922.529807090	0.0076699	0.776194	-0.809942	0.00920388	0.785398	-1.61221	-0.0107379	0	0	0	0	0	0	0	0	0	0	0	0	0	0	0.000000000	8.88178e-16	0.788798	-0.788798	8.88178e-16	0.828698	-1.5708	0	0.1	0.1	0.1	0.1	0.1	0.1	0.1	0	0	0	0	0	0	0	0.000000000
1504602922.549314975	0.0076699	0.776194	-0.809942	0.00920388	0.785398	-1.61221	-0.0107379	0	0	0	0	0	0	0	0	0	0	0	0	0	0	0.000000000	8.88178e-16	0.788798	-0.788798	8.88178e-16	0.828698	-1.5708	0	0.1	0.1	0.1	0.1	0.1	0.1	0.1	0	0	0	0	0	0	0	0.000000000
1504602922.569108009	0.00920388	0.776194	-0.809942	0.00920388	0.785398	-1.61221	-0.0122718	0	0	0	0	0	0	0	0	0	0	0	0	0	0	0.000000000	8.88178e-16	0.788798	-0.788798	8.88178e-16	0.828698	-1.5708	0	0.1	0.1	0.1	0.1	0.1	0.1	0.1	0	0	0	0	0	0	0	0.000000000
1504602922.589124917	0.0076699	0.776194	-0.809942	0.00920388	0.785398	-1.61221	-0.0122718	0	0	0	0	0	0	0	0	0	0	0	0	0	0	0.000000000	8.88178e-16	0.788798	-0.788798	8.88178e-16	0.828698	-1.5708	0	0.1	0.1	0.1	0.1	0.1	0.1	0.1	0	0	0	0	0	0	0	0.000000000
1504602922.608974933	0.0076699	0.776194	-0.809942	0.00920388	0.785398	-1.61375	-0.0107379	0	0	0	0	0	0	0	0	0	0	0	0	0	0	0.000000000	8.88178e-16	0.788798	-0.788798	8.88178e-16	0.828698	-1.5708	0	0.1	0.1	0.1	0.1	0.1	0.1	0.1	0	0	0	0	0	0	0	0.000000000
1504602922.629174947	0.0076699	0.776194	-0.809942	0.00920388	0.785398	-1.61221	-0.0122718	0	0	0	0	0	0	0	0	0	0	0	0	0	0	0.000000000	8.88178e-16	0.788798	-0.788798	8.88178e-16	0.828698	-1.5708	0	0.1	0.1	0.1	0.1	0.1	0.1	0.1	0	0	0	0	0	0	0	0.000000000
1504602922.649164915	0.0076699	0.776194	-0.809942	0.00920388	0.785398	-1.61221	-0.0122718	0	0	0	0	0	0	0	0	0	0	0	0	0	0	0.000000000	8.88178e-16	0.788798	-0.788798	8.88178e-16	0.828698	-1.5708	0	0.1	0.1	0.1	0.1	0.1	0.1	0.1	0	0	0	0	0	0	0	0.000000000
1504602922.669137954	0.0076699	0.776194	-0.809942	0.00920388	0.785398	-1.61221	-0.0122718	0	0	0	0	0	0	0	0	0	0	0	0	0	0	0.000000000	8.88178e-16	0.788798	-0.788798	8.88178e-16	0.828698	-1.5708	0	0.1	0.1	0.1	0.1	0.1	0.1	0.1	0	0	0	0	0	0	0	0.000000000
1504602922.689234018	0.0076699	0.776194	-0.809942	0.00920388	0.785398	-1.61221	-0.0107379	0	0	0	0	0	0	0	0	0	0	0	0	0	0	0.000000000	8.88178e-16	0.788798	-0.788798	8.88178e-16	0.828698	-1.5708	0	0.1	0.1	0.1	0.1	0.1	0.1	0.1	0	0	0	0	0	0	0	0.000000000
1504602922.709182024	0.0076699	0.776194	-0.809942	0.00920388	0.785398	-1.61221	-0.0122718	0	0	0	0	0	0	0	0	0	0	0	0	0	0	0.000000000	8.88178e-16	0.788798	-0.788798	8.88178e-16	0.828698	-1.5708	0	0.1	0.1	0.1	0.1	0.1	0.1	0.1	0	0	0	0	0	0	0	0.000000000
1504602922.731081008	0.0076699	0.776194	-0.809942	0.00920388	0.785398	-1.61221	-0.0122718	0	0	0	0	0	0	0	0	0	0	0	0	0	0	0.000000000	8.88178e-16	0.788798	-0.788798	8.88178e-16	0.828698	-1.5708	0	0.1	0.1	0.1	0.1	0.1	0.1	0.1	0	0	0	0	0	0	0	0.000000000
1504602922.749609947	0.0076699	0.776194	-0.809942	0.00920388	0.785398	-1.61375	-0.0107379	0	0	0	0	0	0	0	0	0	0	0	0	0	0	0.000000000	8.88178e-16	0.788798	-0.788798	8.88178e-16	0.828698	-1.5708	0	0.1	0.1	0.1	0.1	0.1	0.1	0.1	0	0	0	0	0	0	0	0.000000000
1504602922.769898891	0.0076699	0.776194	-0.809942	0.00920388	0.785398	-1.61221	-0.0122718	0	0	0	0	0	0	0	0	0	0	0	0	0	0	0.000000000	8.88178e-16	0.788798	-0.788798	8.88178e-16	0.828698	-1.5708	0	0.1	0.1	0.1	0.1	0.1	0.1	0.1	0	0	0	0	0	0	0	0.000000000
1504602922.790103912	0.0076699	0.776194	-0.809942	0.00920388	0.785398	-1.61221	-0.0107379	0	0	0	0	0	0	0	0	0	0	0	0	0	0	0.000000000	8.88178e-16	0.788798	-0.788798	8.88178e-16	0.828698	-1.5708	0	0.1	0.1	0.1	0.1	0.1	0.1	0.1	0	0	0	0	0	0	0	0.000000000
1504602922.809225082	0.0076699	0.776194	-0.809942	0.00920388	0.785398	-1.61375	-0.0122718	0	0	0	0	0	0	0	0	0	0	0	0	0	0	0.000000000	8.88178e-16	0.788798	-0.788798	8.88178e-16	0.828698	-1.5708	0	0.1	0.1	0.1	0.1	0.1	0.1	0.1	0	0	0	0	0	0	0	0.000000000
1504602922.830060005	0.0076699	0.776194	-0.809942	0.00920388	0.785398	-1.61375	-0.0122718	0	0	0	0	0	0	0	0	0	0	0	0	0	0	0.000000000	8.88178e-16	0.788798	-0.788798	8.88178e-16	0.828698	-1.5708	0	0.1	0.1	0.1	0.1	0.1	0.1	0.1	0	0	0	0	0	0	0	0.000000000
1504602922.849235057	0.00920388	0.776194	-0.809942	0.00920388	0.785398	-1.61221	-0.0107379	0	0	0	0	0	0	0	0	0	0	0	0	0	0	0.000000000	8.88178e-16	0.788798	-0.788798	8.88178e-16	0.828698	-1.5708	0	0.1	0.1	0.1	0.1	0.1	0.1	0.1	0	0	0	0	0	0	0	0.000000000
1504602922.869153976	0.0076699	0.776194	-0.809942	0.00920388	0.785398	-1.61221	-0.0122718	0	0	0	0	0	0	0	0	0	0	0	0	0	0	0.000000000	8.88178e-16	0.788798	-0.788798	8.88178e-16	0.828698	-1.5708	0	0.1	0.1	0.1	0.1	0.1	0.1	0.1	0	0	0	0	0	0	0	0.000000000
1504602922.889601945	0.0076699	0.776194	-0.809942	0.00920388	0.785398	-1.61221	-0.0122718	0	0	0	0	0	0	0	0	0	0	0	0	0	0	0.000000000	8.88178e-16	0.788798	-0.788798	8.88178e-16	0.828698	-1.5708	0	0.1	0.1	0.1	0.1	0.1	0.1	0.1	0	0	0	0	0	0	0	0.000000000
1504602922.909564971	0.0076699	0.776194	-0.809942	0.00920388	0.785398	-1.61221	-0.0122718	0	0	0	0	0	0	0	0	0	0	0	0	0	0	0.000000000	8.88178e-16	0.788798	-0.788798	8.88178e-16	0.828698	-1.5708	0	0.1	0.1	0.1	0.1	0.1	0.1	0.1	0	0	0	0	0	0	0	0.000000000
1504602922.929301023	0.00920388	0.776194	-0.809942	0.00920388	0.785398	-1.61375	-0.0122718	0	0	0	0	0	0	0	0	0	0	0	0	0	0	0.000000000	8.88178e-16	0.788798	-0.788798	8.88178e-16	0.828698	-1.5708	0	0.1	0.1	0.1	0.1	0.1	0.1	0.1	0	0	0	0	0	0	0	0.000000000
1504602922.949184894	0.00920388	0.776194	-0.809942	0.00920388	0.785398	-1.61375	-0.0122718	0	0	0	0	0	0	0	0	0	0	0	0	0	0	0.000000000	8.88178e-16	0.788798	-0.788798	8.88178e-16	0.828698	-1.5708	0	0.1	0.1	0.1	0.1	0.1	0.1	0.1	0	0	0	0	0	0	0	0.000000000
1504602922.969449996	0.0076699	0.776194	-0.809942	0.00920388	0.785398	-1.61221	-0.0122718	0	0	0	0	0	0	0	0	0	0	0	0	0	0	0.000000000	8.88178e-16	0.788798	-0.788798	8.88178e-16	0.828698	-1.5708	0	0.1	0.1	0.1	0.1	0.1	0.1	0.1	0	0	0	0	0	0	0	0.000000000
1504602922.989270925	0.0076699	0.776194	-0.809942	0.00920388	0.785398	-1.61221	-0.0122718	0	0	0	0	0	0	0	0	0	0	0	0	0	0	0.000000000	8.88178e-16	0.788798	-0.788798	8.88178e-16	0.828698	-1.5708	0	0.1	0.1	0.1	0.1	0.1	0.1	0.1	0	0	0	0	0	0	0	0.000000000
1504602923.009618997	0.0076699	0.776194	-0.809942	0.00920388	0.785398	-1.61221	-0.0122718	0	0	0	0	0	0	0	0	0	0	0	0	0	0	0.000000000	8.88178e-16	0.788798	-0.788798	8.88178e-16	0.828698	-1.5708	0	0.1	0.1	0.1	0.1	0.1	0.1	0.1	0	0	0	0	0	0	0	0.000000000
1504602923.029412984	0.0076699	0.776194	-0.809942	0.00920388	0.785398	-1.61221	-0.0107379	0	0	0	0	0	0	0	0	0	0	0	0	0	0	0.000000000	8.88178e-16	0.788798	-0.788798	8.88178e-16	0.828698	-1.5708	0	0.1	0.1	0.1	0.1	0.1	0.1	0.1	0	0	0	0	0	0	0	0.000000000
1504602923.049297094	0.0076699	0.776194	-0.809942	0.00920388	0.785398	-1.61221	-0.0122718	0	0	0	0	0	0	0	0	0	0	0	0	0	0	0.000000000	8.88178e-16	0.788798	-0.788798	8.88178e-16	0.828698	-1.5708	0	0.1	0.1	0.1	0.1	0.1	0.1	0.1	0	0	0	0	0	0	0	0.000000000
1504602923.069511890	0.0076699	0.776194	-0.809942	0.00920388	0.785398	-1.61375	-0.0122718	0	0	0	0	0	0	0	0	0	0	0	0	0	0	0.000000000	8.88178e-16	0.788798	-0.788798	8.88178e-16	0.828698	-1.5708	0	0.1	0.1	0.1	0.1	0.1	0.1	0.1	0	0	0	0	0	0	0	0.000000000
1504602923.089323043	0.0076699	0.776194	-0.809942	0.00920388	0.785398	-1.61375	-0.0122718	0	0	0	0	0	0	0	0	0	0	0	0	0	0	0.000000000	8.88178e-16	0.788798	-0.788798	8.88178e-16	0.828698	-1.5708	0	0.1	0.1	0.1	0.1	0.1	0.1	0.1	0	0	0	0	0	0	0	0.000000000
1504602923.109117984	0.0076699	0.776194	-0.809942	0.00920388	0.785398	-1.61221	-0.0122718	0	0	0	0	0	0	0	0	0	0	0	0	0	0	0.000000000	8.88178e-16	0.788798	-0.788798	8.88178e-16	0.828698	-1.5708	0	0.1	0.1	0.1	0.1	0.1	0.1	0.1	0	0	0	0	0	0	0	0.000000000
1504602923.129523038	0.0076699	0.776194	-0.809942	0.00920388	0.785398	-1.61221	-0.0122718	0	0	0	0	0	0	0	0	0	0	0	0	0	0	0.000000000	8.88178e-16	0.788798	-0.788798	8.88178e-16	0.828698	-1.5708	0	0.1	0.1	0.1	0.1	0.1	0.1	0.1	0	0	0	0	0	0	0	0.000000000
1504602923.149271011	0.0076699	0.776194	-0.809942	0.00920388	0.785398	-1.61221	-0.0107379	0	0	0	0	0	0	0	0	0	0	0	0	0	0	0.000000000	8.88178e-16	0.788798	-0.788798	8.88178e-16	0.828698	-1.5708	0	0.1	0.1	0.1	0.1	0.1	0.1	0.1	0	0	0	0	0	0	0	0.000000000
1504602923.169182062	0.0076699	0.776194	-0.809942	0.00920388	0.785398	-1.61221	-0.0122718	0	0	0	0	0	0	0	0	0	0	0	0	0	0	0.000000000	8.88178e-16	0.788798	-0.788798	8.88178e-16	0.828698	-1.5708	0	0.1	0.1	0.1	0.1	0.1	0.1	0.1	0	0	0	0	0	0	0	0.000000000
1504602923.189182043	0.0076699	0.776194	-0.809942	0.00920388	0.785398	-1.61221	-0.0107379	0	0	0	0	0	0	0	0	0	0	0	0	0	0	0.000000000	8.88178e-16	0.788798	-0.788798	8.88178e-16	0.828698	-1.5708	0	0.1	0.1	0.1	0.1	0.1	0.1	0.1	0	0	0	0	0	0	0	0.000000000
1504602923.209182024	0.0076699	0.776194	-0.809942	0.00920388	0.785398	-1.61221	-0.0107379	0	0	0	0	0	0	0	0	0	0	0	0	0	0	0.000000000	8.88178e-16	0.788798	-0.788798	8.88178e-16	0.828698	-1.5708	0	0.1	0.1	0.1	0.1	0.1	0.1	0.1	0	0	0	0	0	0	0	0.000000000
1504602923.229728937	0.0076699	0.776194	-0.809942	0.00920388	0.785398	-1.61221	-0.0107379	0	0	0	0	0	0	0	0	0	0	0	0	0	0	0.000000000	8.88178e-16	0.788798	-0.788798	8.88178e-16	0.828698	-1.5708	0	0.1	0.1	0.1	0.1	0.1	0.1	0.1	0	0	0	0	0	0	0	0.000000000
1504602923.249211072	0.0076699	0.776194	-0.809942	0.00920388	0.785398	-1.61221	-0.0107379	0	0	0	0	0	0	0	0	0	0	0	0	0	0	0.000000000	8.88178e-16	0.788798	-0.788798	8.88178e-16	0.828698	-1.5708	0	0.1	0.1	0.1	0.1	0.1	0.1	0.1	0	0	0	0	0	0	0	0.000000000
1504602923.270842075	0.0076699	0.776194	-0.809942	0.00920388	0.785398	-1.61221	-0.0107379	0	0	0	0	0	0	0	0	0	0	0	0	0	0	0.000000000	8.88178e-16	0.788798	-0.788798	8.88178e-16	0.828698	-1.5708	0	0.1	0.1	0.1	0.1	0.1	0.1	0.1	0	0	0	0	0	0	0	0.000000000
1504602923.289455890	0.0076699	0.776194	-0.809942	0.00920388	0.785398	-1.61221	-0.0107379	0	0	0	0	0	0	0	0	0	0	0	0	0	0	0.000000000	8.88178e-16	0.788798	-0.788798	8.88178e-16	0.828698	-1.5708	0	0.1	0.1	0.1	0.1	0.1	0.1	0.1	0	0	0	0	0	0	0	0.000000000
1504602923.309380054	0.0076699	0.776194	-0.809942	0.00920388	0.785398	-1.61375	-0.0122718	0	0	0	0	0	0	0	0	0	0	0	0	0	0	0.000000000	8.88178e-16	0.788798	-0.788798	8.88178e-16	0.828698	-1.5708	0	0.1	0.1	0.1	0.1	0.1	0.1	0.1	0	0	0	0	0	0	0	0.000000000
1504602923.329456090	0.0076699	0.776194	-0.809942	0.00920388	0.785398	-1.61221	-0.0107379	0	0	0	0	0	0	0	0	0	0	0	0	0	0	0.000000000	8.88178e-16	0.788798	-0.788798	8.88178e-16	0.828698	-1.5708	0	0.1	0.1	0.1	0.1	0.1	0.1	0.1	0	0	0	0	0	0	0	0.000000000
1504602923.349291086	0.0076699	0.776194	-0.809942	0.00920388	0.785398	-1.61221	-0.0107379	0	0	0	0	0	0	0	0	0	0	0	0	0	0	0.000000000	8.88178e-16	0.788798	-0.788798	8.88178e-16	0.828698	-1.5708	0	0.1	0.1	0.1	0.1	0.1	0.1	0.1	0	0	0	0	0	0	0	0.000000000
1504602923.369216918	0.0076699	0.776194	-0.809942	0.00920388	0.785398	-1.61221	-0.0107379	0	0	0	0	0	0	0	0	0	0	0	0	0	0	0.000000000	8.88178e-16	0.788798	-0.788798	8.88178e-16	0.828698	-1.5708	0	0.1	0.1	0.1	0.1	0.1	0.1	0.1	0	0	0	0	0	0	0	0.000000000
1504602923.389125108	0.0076699	0.776194	-0.809942	0.00920388	0.785398	-1.61221	-0.0107379	0	0	0	0	0	0	0	0	0	0	0	0	0	0	0.000000000	8.88178e-16	0.788798	-0.788798	8.88178e-16	0.828698	-1.5708	0	0.1	0.1	0.1	0.1	0.1	0.1	0.1	0	0	0	0	0	0	0	0.000000000
1504602923.409343957	0.0076699	0.776194	-0.809942	0.00920388	0.785398	-1.61221	-0.0107379	0	0	0	0	0	0	0	0	0	0	0	0	0	0	0.000000000	8.88178e-16	0.788798	-0.788798	8.88178e-16	0.828698	-1.5708	0	0.1	0.1	0.1	0.1	0.1	0.1	0.1	0	0	0	0	0	0	0	0.000000000
1504602923.429872989	0.0076699	0.776194	-0.809942	0.00920388	0.785398	-1.61221	-0.0107379	0	0	0	0	0	0	0	0	0	0	0	0	0	0	0.000000000	8.88178e-16	0.788798	-0.788798	8.88178e-16	0.828698	-1.5708	0	0.1	0.1	0.1	0.1	0.1	0.1	0.1	0	0	0	0	0	0	0	0.000000000
1504602923.449193000	0.0076699	0.776194	-0.809942	0.00920388	0.785398	-1.61221	-0.0122718	0	0	0	0	0	0	0	0	0	0	0	0	0	0	0.000000000	8.88178e-16	0.788798	-0.788798	8.88178e-16	0.828698	-1.5708	0	0.1	0.1	0.1	0.1	0.1	0.1	0.1	0	0	0	0	0	0	0	0.000000000
1504602923.470755100	0.0076699	0.776194	-0.809942	0.00920388	0.785398	-1.61221	-0.0122718	0	0	0	0	0	0	0	0	0	0	0	0	0	0	0.000000000	8.88178e-16	0.788798	-0.788798	8.88178e-16	0.828698	-1.5708	0	0.1	0.1	0.1	0.1	0.1	0.1	0.1	0	0	0	0	0	0	0	0.000000000
1504602923.489114999	0.0076699	0.776194	-0.809942	0.00920388	0.785398	-1.61375	-0.0107379	0	0	0	0	0	0	0	0	0	0	0	0	0	0	0.000000000	8.88178e-16	0.788798	-0.788798	8.88178e-16	0.828698	-1.5708	0	0.1	0.1	0.1	0.1	0.1	0.1	0.1	0	0	0	0	0	0	0	0.000000000
1504602923.508997917	0.0076699	0.776194	-0.809942	0.00920388	0.785398	-1.61221	-0.0122718	0	0	0	0	0	0	0	0	0	0	0	0	0	0	0.000000000	8.88178e-16	0.788798	-0.788798	8.88178e-16	0.828698	-1.5708	0	0.1	0.1	0.1	0.1	0.1	0.1	0.1	0	0	0	0	0	0	0	0.000000000
1504602923.528987884	0.0076699	0.776194	-0.809942	0.00920388	0.785398	-1.61375	-0.0122718	0	0	0	0	0	0	0	0	0	0	0	0	0	0	0.000000000	8.88178e-16	0.788798	-0.788798	8.88178e-16	0.828698	-1.5708	0	0.1	0.1	0.1	0.1	0.1	0.1	0.1	0	0	0	0	0	0	0	0.000000000
1504602923.549841880	0.0076699	0.776194	-0.809942	0.00920388	0.785398	-1.61221	-0.0107379	0	0	0	0	0	0	0	0	0	0	0	0	0	0	0.000000000	8.88178e-16	0.788798	-0.788798	8.88178e-16	0.828698	-1.5708	0	0.1	0.1	0.1	0.1	0.1	0.1	0.1	0	0	0	0	0	0	0	0.000000000
1504602923.568938016	0.0076699	0.776194	-0.809942	0.00920388	0.785398	-1.61221	-0.0107379	0	0	0	0	0	0	0	0	0	0	0	0	0	0	0.000000000	8.88178e-16	0.788798	-0.788798	8.88178e-16	0.828698	-1.5708	0	0.1	0.1	0.1	0.1	0.1	0.1	0.1	0	0	0	0	0	0	0	0.000000000
1504602923.589000940	0.0076699	0.776194	-0.809942	0.00920388	0.785398	-1.61221	-0.0122718	0	0	0	0	0	0	0	0	0	0	0	0	0	0	0.000000000	8.88178e-16	0.788798	-0.788798	8.88178e-16	0.828698	-1.5708	0	0.1	0.1	0.1	0.1	0.1	0.1	0.1	0	0	0	0	0	0	0	0.000000000
1504602923.608958959	0.0076699	0.776194	-0.809942	0.00920388	0.785398	-1.61221	-0.0107379	0	0	0	0	0	0	0	0	0	0	0	0	0	0	0.000000000	8.88178e-16	0.788798	-0.788798	8.88178e-16	0.828698	-1.5708	0	0.1	0.1	0.1	0.1	0.1	0.1	0.1	0	0	0	0	0	0	0	0.000000000
1504602923.629107952	0.00920388	0.776194	-0.809942	0.00920388	0.785398	-1.61221	-0.0122718	0	0	0	0	0	0	0	0	0	0	0	0	0	0	0.000000000	8.88178e-16	0.788798	-0.788798	8.88178e-16	0.828698	-1.5708	0	0.1	0.1	0.1	0.1	0.1	0.1	0.1	0	0	0	0	0	0	0	0.000000000
1504602923.648952007	0.0076699	0.776194	-0.809942	0.00920388	0.785398	-1.61221	-0.0122718	0	0	0	0	0	0	0	0	0	0	0	0	0	0	0.000000000	8.88178e-16	0.788798	-0.788798	8.88178e-16	0.828698	-1.5708	0	0.1	0.1	0.1	0.1	0.1	0.1	0.1	0	0	0	0	0	0	0	0.000000000
1504602923.669049978	0.0076699	0.776194	-0.809942	0.00920388	0.785398	-1.61221	-0.0122718	0	0	0	0	0	0	0	0	0	0	0	0	0	0	0.000000000	8.88178e-16	0.788798	-0.788798	8.88178e-16	0.828698	-1.5708	0	0.1	0.1	0.1	0.1	0.1	0.1	0.1	0	0	0	0	0	0	0	0.000000000
1504602923.689368963	0.0076699	0.776194	-0.809942	0.00920388	0.785398	-1.61221	-0.0122718	0	0	0	0	0	0	0	0	0	0	0	0	0	0	0.000000000	8.88178e-16	0.788798	-0.788798	8.88178e-16	0.828698	-1.5708	0	0.1	0.1	0.1	0.1	0.1	0.1	0.1	0	0	0	0	0	0	0	0.000000000
1504602923.710840940	0.0076699	0.776194	-0.809942	0.00920388	0.785398	-1.61221	-0.0122718	0	0	0	0	0	0	0	0	0	0	0	0	0	0	0.000000000	8.88178e-16	0.788798	-0.788798	8.88178e-16	0.828698	-1.5708	0	0.1	0.1	0.1	0.1	0.1	0.1	0.1	0	0	0	0	0	0	0	0.000000000
1504602923.729121923	0.0076699	0.776194	-0.809942	0.00920388	0.785398	-1.61221	-0.0122718	0	0	0	0	0	0	0	0	0	0	0	0	0	0	0.000000000	8.88178e-16	0.788798	-0.788798	8.88178e-16	0.828698	-1.5708	0	0.1	0.1	0.1	0.1	0.1	0.1	0.1	0	0	0	0	0	0	0	0.000000000
1504602923.749495983	0.0076699	0.77466	-0.809942	0.00920388	0.785398	-1.61221	-0.0107379	0	0	0	0	0	0	0	0	0	0	0	0	0	0	0.000000000	8.88178e-16	0.788798	-0.788798	8.88178e-16	0.828698	-1.5708	0	0.1	0.1	0.1	0.1	0.1	0.1	0.1	0	0	0	0	0	0	0	0.000000000
1504602923.769582986	0.0076699	0.776194	-0.809942	0.00920388	0.785398	-1.61221	-0.0107379	0	0	0	0	0	0	0	0	0	0	0	0	0	0	0.000000000	8.88178e-16	0.788798	-0.788798	8.88178e-16	0.828698	-1.5708	0	0.1	0.1	0.1	0.1	0.1	0.1	0.1	0	0	0	0	0	0	0	0.000000000
1504602923.789251089	0.0076699	0.776194	-0.809942	0.00920388	0.785398	-1.61221	-0.0107379	0	0	0	0	0	0	0	0	0	0	0	0	0	0	0.000000000	8.88178e-16	0.788798	-0.788798	8.88178e-16	0.828698	-1.5708	0	0.1	0.1	0.1	0.1	0.1	0.1	0.1	0	0	0	0	0	0	0	0.000000000
1504602923.813069105	0.0076699	0.776194	-0.809942	0.00920388	0.785398	-1.61221	-0.0122718	0	0	0	0	0	0	0	0	0	0	0	0	0	0	0.000000000	8.88178e-16	0.788798	-0.788798	8.88178e-16	0.828698	-1.5708	0	0.1	0.1	0.1	0.1	0.1	0.1	0.1	0	0	0	0	0	0	0	0.000000000
1504602923.829447031	0.0076699	0.776194	-0.809942	0.00920388	0.785398	-1.61221	-0.0122718	0	0	0	0	0	0	0	0	0	0	0	0	0	0	0.000000000	8.88178e-16	0.788798	-0.788798	8.88178e-16	0.828698	-1.5708	0	0.1	0.1	0.1	0.1	0.1	0.1	0.1	0	0	0	0	0	0	0	0.000000000
1504602923.849483966	0.0076699	0.776194	-0.809942	0.00920388	0.785398	-1.61221	-0.0122718	0	0	0	0	0	0	0	0	0	0	0	0	0	0	0.000000000	8.88178e-16	0.788798	-0.788798	8.88178e-16	0.828698	-1.5708	0	0.1	0.1	0.1	0.1	0.1	0.1	0.1	0	0	0	0	0	0	0	0.000000000
1504602923.869338035	0.0076699	0.776194	-0.809942	0.00920388	0.785398	-1.61221	-0.0122718	0	0	0	0	0	0	0	0	0	0	0	0	0	0	0.000000000	8.88178e-16	0.788798	-0.788798	8.88178e-16	0.828698	-1.5708	0	0.1	0.1	0.1	0.1	0.1	0.1	0.1	0	0	0	0	0	0	0	0.000000000
1504602923.889188051	0.0076699	0.776194	-0.809942	0.00920388	0.785398	-1.61221	-0.0107379	0	0	0	0	0	0	0	0	0	0	0	0	0	0	0.000000000	8.88178e-16	0.788798	-0.788798	8.88178e-16	0.828698	-1.5708	0	0.1	0.1	0.1	0.1	0.1	0.1	0.1	0	0	0	0	0	0	0	0.000000000
1504602923.909390926	0.0076699	0.776194	-0.809942	0.00920388	0.785398	-1.61221	-0.0107379	0	0	0	0	0	0	0	0	0	0	0	0	0	0	0.000000000	8.88178e-16	0.788798	-0.788798	8.88178e-16	0.828698	-1.5708	0	0.1	0.1	0.1	0.1	0.1	0.1	0.1	0	0	0	0	0	0	0	0.000000000
1504602923.929157972	0.0076699	0.776194	-0.809942	0.00920388	0.785398	-1.61221	-0.0107379	0	0	0	0	0	0	0	0	0	0	0	0	0	0	0.000000000	8.88178e-16	0.788798	-0.788798	8.88178e-16	0.828698	-1.5708	0	0.1	0.1	0.1	0.1	0.1	0.1	0.1	0	0	0	0	0	0	0	0.000000000
1504602923.949321031	0.0076699	0.776194	-0.809942	0.00920388	0.785398	-1.61375	-0.0107379	0	0	0	0	0	0	0	0	0	0	0	0	0	0	0.000000000	8.88178e-16	0.788798	-0.788798	8.88178e-16	0.828698	-1.5708	0	0.1	0.1	0.1	0.1	0.1	0.1	0.1	0	0	0	0	0	0	0	0.000000000
1504602923.969336032	0.0076699	0.776194	-0.809942	0.00920388	0.785398	-1.61221	-0.0107379	0	0	0	0	0	0	0	0	0	0	0	0	0	0	0.000000000	8.88178e-16	0.788798	-0.788798	8.88178e-16	0.828698	-1.5708	0	0.1	0.1	0.1	0.1	0.1	0.1	0.1	0	0	0	0	0	0	0	0.000000000
1504602923.989295959	0.0076699	0.776194	-0.809942	0.00920388	0.785398	-1.61221	-0.0122718	0	0	0	0	0	0	0	0	0	0	0	0	0	0	0.000000000	8.88178e-16	0.788798	-0.788798	8.88178e-16	0.828698	-1.5708	0	0.1	0.1	0.1	0.1	0.1	0.1	0.1	0	0	0	0	0	0	0	0.000000000
1504602924.009150981	0.0076699	0.776194	-0.809942	0.00920388	0.785398	-1.61375	-0.0107379	0	0	0	0	0	0	0	0	0	0	0	0	0	0	0.000000000	8.88178e-16	0.788798	-0.788798	8.88178e-16	0.828698	-1.5708	0	0.1	0.1	0.1	0.1	0.1	0.1	0.1	0	0	0	0	0	0	0	0.000000000
1504602924.029583930	0.0076699	0.776194	-0.809942	0.00920388	0.785398	-1.61375	-0.0107379	0	0	0	0	0	0	0	0	0	0	0	0	0	0	0.000000000	8.88178e-16	0.788798	-0.788798	8.88178e-16	0.828698	-1.5708	0	0.1	0.1	0.1	0.1	0.1	0.1	0.1	0	0	0	0	0	0	0	0.000000000
1504602924.049197912	0.0076699	0.776194	-0.809942	0.00920388	0.785398	-1.61221	-0.0122718	0	0	0	0	0	0	0	0	0	0	0	0	0	0	0.000000000	8.88178e-16	0.788798	-0.788798	8.88178e-16	0.828698	-1.5708	0	0.1	0.1	0.1	0.1	0.1	0.1	0.1	0	0	0	0	0	0	0	0.000000000
1504602924.069206953	0.00920388	0.776194	-0.809942	0.00920388	0.785398	-1.61221	-0.0107379	0	0	0	0	0	0	0	0	0	0	0	0	0	0	0.000000000	8.88178e-16	0.788798	-0.788798	8.88178e-16	0.828698	-1.5708	0	0.1	0.1	0.1	0.1	0.1	0.1	0.1	0	0	0	0	0	0	0	0.000000000
1504602924.089185953	0.0076699	0.776194	-0.809942	0.00920388	0.785398	-1.61221	-0.0122718	0	0	0	0	0	0	0	0	0	0	0	0	0	0	0.000000000	8.88178e-16	0.788798	-0.788798	8.88178e-16	0.828698	-1.5708	0	0.1	0.1	0.1	0.1	0.1	0.1	0.1	0	0	0	0	0	0	0	0.000000000
1504602924.109250068	0.0076699	0.776194	-0.809942	0.00920388	0.785398	-1.61375	-0.0122718	0	0	0	0	0	0	0	0	0	0	0	0	0	0	0.000000000	8.88178e-16	0.788798	-0.788798	8.88178e-16	0.828698	-1.5708	0	0.1	0.1	0.1	0.1	0.1	0.1	0.1	0	0	0	0	0	0	0	0.000000000
1504602924.129116058	0.0076699	0.776194	-0.809942	0.00920388	0.785398	-1.61221	-0.0107379	0	0	0	0	0	0	0	0	0	0	0	0	0	0	0.000000000	8.88178e-16	0.788798	-0.788798	8.88178e-16	0.828698	-1.5708	0	0.1	0.1	0.1	0.1	0.1	0.1	0.1	0	0	0	0	0	0	0	0.000000000
1504602924.149502038	0.0076699	0.776194	-0.809942	0.00920388	0.785398	-1.61221	-0.0107379	0	0	0	0	0	0	0	0	0	0	0	0	0	0	0.000000000	8.88178e-16	0.788798	-0.788798	8.88178e-16	0.828698	-1.5708	0	0.1	0.1	0.1	0.1	0.1	0.1	0.1	0	0	0	0	0	0	0	0.000000000
1504602924.169179916	0.00920388	0.776194	-0.809942	0.00920388	0.785398	-1.61221	-0.0122718	0	0	0	0	0	0	0	0	0	0	0	0	0	0	0.000000000	8.88178e-16	0.788798	-0.788798	8.88178e-16	0.828698	-1.5708	0	0.1	0.1	0.1	0.1	0.1	0.1	0.1	0	0	0	0	0	0	0	0.000000000
1504602924.189361095	0.0076699	0.776194	-0.809942	0.00920388	0.785398	-1.61221	-0.0107379	0	0	0	0	0	0	0	0	0	0	0	0	0	0	0.000000000	8.88178e-16	0.788798	-0.788798	8.88178e-16	0.828698	-1.5708	0	0.1	0.1	0.1	0.1	0.1	0.1	0.1	0	0	0	0	0	0	0	0.000000000
1504602924.209983110	0.0076699	0.776194	-0.809942	0.00920388	0.785398	-1.61221	-0.0107379	0	0	0	0	0	0	0	0	0	0	0	0	0	0	0.000000000	8.88178e-16	0.788798	-0.788798	8.88178e-16	0.828698	-1.5708	0	0.1	0.1	0.1	0.1	0.1	0.1	0.1	0	0	0	0	0	0	0	0.000000000
1504602924.229185104	0.0076699	0.776194	-0.809942	0.00920388	0.785398	-1.61221	-0.0107379	0	0	0	0	0	0	0	0	0	0	0	0	0	0	0.000000000	8.88178e-16	0.788798	-0.788798	8.88178e-16	0.828698	-1.5708	0	0.1	0.1	0.1	0.1	0.1	0.1	0.1	0	0	0	0	0	0	0	0.000000000
1504602924.249156951	0.0076699	0.77466	-0.809942	0.00920388	0.785398	-1.61221	-0.0122718	0	0	0	0	0	0	0	0	0	0	0	0	0	0	0.000000000	8.88178e-16	0.788798	-0.788798	8.88178e-16	0.828698	-1.5708	0	0.1	0.1	0.1	0.1	0.1	0.1	0.1	0	0	0	0	0	0	0	0.000000000
1504602924.269153118	0.00920388	0.776194	-0.809942	0.00920388	0.785398	-1.61221	-0.0107379	0	0	0	0	0	0	0	0	0	0	0	0	0	0	0.000000000	8.88178e-16	0.788798	-0.788798	8.88178e-16	0.828698	-1.5708	0	0.1	0.1	0.1	0.1	0.1	0.1	0.1	0	0	0	0	0	0	0	0.000000000
1504602924.289237976	0.0076699	0.776194	-0.809942	0.00920388	0.785398	-1.61221	-0.0122718	0	0	0	0	0	0	0	0	0	0	0	0	0	0	0.000000000	8.88178e-16	0.788798	-0.788798	8.88178e-16	0.828698	-1.5708	0	0.1	0.1	0.1	0.1	0.1	0.1	0.1	0	0	0	0	0	0	0	0.000000000
1504602924.309334993	0.0076699	0.776194	-0.809942	0.00920388	0.785398	-1.61221	-0.0122718	0	0	0	0	0	0	0	0	0	0	0	0	0	0	0.000000000	8.88178e-16	0.788798	-0.788798	8.88178e-16	0.828698	-1.5708	0	0.1	0.1	0.1	0.1	0.1	0.1	0.1	0	0	0	0	0	0	0	0.000000000
1504602924.329180002	0.0076699	0.776194	-0.809942	0.00920388	0.785398	-1.61221	-0.0122718	0	0	0	0	0	0	0	0	0	0	0	0	0	0	0.000000000	8.88178e-16	0.788798	-0.788798	8.88178e-16	0.828698	-1.5708	0	0.1	0.1	0.1	0.1	0.1	0.1	0.1	0	0	0	0	0	0	0	0.000000000
1504602924.349678039	0.0076699	0.776194	-0.809942	0.00920388	0.785398	-1.61221	-0.0122718	0	0	0	0	0	0	0	0	0	0	0	0	0	0	0.000000000	8.88178e-16	0.788798	-0.788798	8.88178e-16	0.828698	-1.5708	0	0.1	0.1	0.1	0.1	0.1	0.1	0.1	0	0	0	0	0	0	0	0.000000000
1504602924.369210004	0.0076699	0.776194	-0.809942	0.00920388	0.785398	-1.61375	-0.0122718	0	0	0	0	0	0	0	0	0	0	0	0	0	0	0.000000000	8.88178e-16	0.788798	-0.788798	8.88178e-16	0.828698	-1.5708	0	0.1	0.1	0.1	0.1	0.1	0.1	0.1	0	0	0	0	0	0	0	0.000000000
1504602924.389251947	0.0076699	0.776194	-0.809942	0.00920388	0.785398	-1.61221	-0.0107379	0	0	0	0	0	0	0	0	0	0	0	0	0	0	0.000000000	8.88178e-16	0.788798	-0.788798	8.88178e-16	0.828698	-1.5708	0	0.1	0.1	0.1	0.1	0.1	0.1	0.1	0	0	0	0	0	0	0	0.000000000
1504602924.409867048	0.0076699	0.776194	-0.809942	0.00920388	0.785398	-1.61221	-0.0122718	0	0	0	0	0	0	0	0	0	0	0	0	0	0	0.000000000	8.88178e-16	0.788798	-0.788798	8.88178e-16	0.828698	-1.5708	0	0.1	0.1	0.1	0.1	0.1	0.1	0.1	0	0	0	0	0	0	0	0.000000000
1504602924.429424047	0.0076699	0.776194	-0.809942	0.00920388	0.785398	-1.61221	-0.0122718	0	0	0	0	0	0	0	0	0	0	0	0	0	0	0.000000000	8.88178e-16	0.788798	-0.788798	8.88178e-16	0.828698	-1.5708	0	0.1	0.1	0.1	0.1	0.1	0.1	0.1	0	0	0	0	0	0	0	0.000000000
1504602924.449263095	0.0076699	0.776194	-0.809942	0.00920388	0.785398	-1.61221	-0.0122718	0	0	0	0	0	0	0	0	0	0	0	0	0	0	0.000000000	8.88178e-16	0.788798	-0.788798	8.88178e-16	0.828698	-1.5708	0	0.1	0.1	0.1	0.1	0.1	0.1	0.1	0	0	0	0	0	0	0	0.000000000
1504602924.471429109	0.0076699	0.776194	-0.809942	0.00920388	0.785398	-1.61221	-0.0122718	0	0	0	0	0	0	0	0	0	0	0	0	0	0	0.000000000	8.88178e-16	0.788798	-0.788798	8.88178e-16	0.828698	-1.5708	0	0.1	0.1	0.1	0.1	0.1	0.1	0.1	0	0	0	0	0	0	0	0.000000000
1504602924.489217042	0.0076699	0.776194	-0.809942	0.00920388	0.785398	-1.61221	-0.0122718	0	0	0	0	0	0	0	0	0	0	0	0	0	0	0.000000000	8.88178e-16	0.788798	-0.788798	8.88178e-16	0.828698	-1.5708	0	0.1	0.1	0.1	0.1	0.1	0.1	0.1	0	0	0	0	0	0	0	0.000000000
1504602924.509083032	0.0076699	0.776194	-0.809942	0.00920388	0.785398	-1.61221	-0.0107379	0	0	0	0	0	0	0	0	0	0	0	0	0	0	0.000000000	8.88178e-16	0.788798	-0.788798	8.88178e-16	0.828698	-1.5708	0	0.1	0.1	0.1	0.1	0.1	0.1	0.1	0	0	0	0	0	0	0	0.000000000
1504602924.528990983	0.0076699	0.776194	-0.809942	0.00920388	0.785398	-1.61221	-0.0107379	0	0	0	0	0	0	0	0	0	0	0	0	0	0	0.000000000	8.88178e-16	0.788798	-0.788798	8.88178e-16	0.828698	-1.5708	0	0.1	0.1	0.1	0.1	0.1	0.1	0.1	0	0	0	0	0	0	0	0.000000000
1504602924.549238920	0.0076699	0.776194	-0.809942	0.00920388	0.785398	-1.61221	-0.0107379	0	0	0	0	0	0	0	0	0	0	0	0	0	0	0.000000000	8.88178e-16	0.788798	-0.788798	8.88178e-16	0.828698	-1.5708	0	0.1	0.1	0.1	0.1	0.1	0.1	0.1	0	0	0	0	0	0	0	0.000000000
1504602924.569155931	0.0076699	0.776194	-0.809942	0.00920388	0.785398	-1.61221	-0.0107379	0	0	0	0	0	0	0	0	0	0	0	0	0	0	0.000000000	8.88178e-16	0.788798	-0.788798	8.88178e-16	0.828698	-1.5708	0	0.1	0.1	0.1	0.1	0.1	0.1	0.1	0	0	0	0	0	0	0	0.000000000
1504602924.589041948	0.0076699	0.776194	-0.809942	0.00920388	0.785398	-1.61221	-0.0122718	0	0	0	0	0	0	0	0	0	0	0	0	0	0	0.000000000	8.88178e-16	0.788798	-0.788798	8.88178e-16	0.828698	-1.5708	0	0.1	0.1	0.1	0.1	0.1	0.1	0.1	0	0	0	0	0	0	0	0.000000000
1504602924.609323024	0.00920388	0.776194	-0.809942	0.00920388	0.785398	-1.61221	-0.0122718	0	0	0	0	0	0	0	0	0	0	0	0	0	0	0.000000000	8.88178e-16	0.788798	-0.788798	8.88178e-16	0.828698	-1.5708	0	0.1	0.1	0.1	0.1	0.1	0.1	0.1	0	0	0	0	0	0	0	0.000000000
1504602924.629965066	0.00920388	0.776194	-0.809942	0.00920388	0.785398	-1.61221	-0.0122718	0	0	0	0	0	0	0	0	0	0	0	0	0	0	0.000000000	8.88178e-16	0.788798	-0.788798	8.88178e-16	0.828698	-1.5708	0	0.1	0.1	0.1	0.1	0.1	0.1	0.1	0	0	0	0	0	0	0	0.000000000
1504602924.649218082	0.0076699	0.776194	-0.809942	0.00920388	0.785398	-1.61375	-0.0107379	0	0	0	0	0	0	0	0	0	0	0	0	0	0	0.000000000	8.88178e-16	0.788798	-0.788798	8.88178e-16	0.828698	-1.5708	0	0.1	0.1	0.1	0.1	0.1	0.1	0.1	0	0	0	0	0	0	0	0.000000000
1504602924.669244050	0.0076699	0.776194	-0.809942	0.00920388	0.785398	-1.61221	-0.0122718	0	0	0	0	0	0	0	0	0	0	0	0	0	0	0.000000000	8.88178e-16	0.788798	-0.788798	8.88178e-16	0.828698	-1.5708	0	0.1	0.1	0.1	0.1	0.1	0.1	0.1	0	0	0	0	0	0	0	0.000000000
1504602924.689433097	0.00920388	0.776194	-0.809942	0.00920388	0.785398	-1.61221	-0.0107379	0	0	0	0	0	0	0	0	0	0	0	0	0	0	0.000000000	8.88178e-16	0.788798	-0.788798	8.88178e-16	0.828698	-1.5708	0	0.1	0.1	0.1	0.1	0.1	0.1	0.1	0	0	0	0	0	0	0	0.000000000
1504602924.709593057	0.00920388	0.776194	-0.809942	0.00920388	0.785398	-1.61221	-0.0107379	0	0	0	0	0	0	0	0	0	0	0	0	0	0	0.000000000	8.88178e-16	0.788798	-0.788798	8.88178e-16	0.828698	-1.5708	0	0.1	0.1	0.1	0.1	0.1	0.1	0.1	0	0	0	0	0	0	0	0.000000000
1504602924.729156017	0.0076699	0.776194	-0.809942	0.00920388	0.785398	-1.61221	-0.0122718	0	0	0	0	0	0	0	0	0	0	0	0	0	0	0.000000000	8.88178e-16	0.788798	-0.788798	8.88178e-16	0.828698	-1.5708	0	0.1	0.1	0.1	0.1	0.1	0.1	0.1	0	0	0	0	0	0	0	0.000000000
1504602924.749012947	0.0076699	0.776194	-0.809942	0.00920388	0.785398	-1.61375	-0.0122718	0	0	0	0	0	0	0	0	0	0	0	0	0	0	0.000000000	8.88178e-16	0.788798	-0.788798	8.88178e-16	0.828698	-1.5708	0	0.1	0.1	0.1	0.1	0.1	0.1	0.1	0	0	0	0	0	0	0	0.000000000
1504602924.768944025	0.0076699	0.776194	-0.809942	0.00920388	0.785398	-1.61221	-0.0122718	0	0	0	0	0	0	0	0	0	0	0	0	0	0	0.000000000	8.88178e-16	0.788798	-0.788798	8.88178e-16	0.828698	-1.5708	0	0.1	0.1	0.1	0.1	0.1	0.1	0.1	0	0	0	0	0	0	0	0.000000000
1504602924.788925886	0.0076699	0.776194	-0.809942	0.00920388	0.785398	-1.61221	-0.0122718	0	0	0	0	0	0	0	0	0	0	0	0	0	0	0.000000000	8.88178e-16	0.788798	-0.788798	8.88178e-16	0.828698	-1.5708	0	0.1	0.1	0.1	0.1	0.1	0.1	0.1	0	0	0	0	0	0	0	0.000000000
1504602924.808952093	0.0076699	0.776194	-0.809942	0.00920388	0.785398	-1.61221	-0.0107379	0	0	0	0	0	0	0	0	0	0	0	0	0	0	0.000000000	8.88178e-16	0.788798	-0.788798	8.88178e-16	0.828698	-1.5708	0	0.1	0.1	0.1	0.1	0.1	0.1	0.1	0	0	0	0	0	0	0	0.000000000
1504602924.829040050	0.0076699	0.776194	-0.809942	0.00920388	0.785398	-1.61221	-0.0107379	0	0	0	0	0	0	0	0	0	0	0	0	0	0	0.000000000	8.88178e-16	0.788798	-0.788798	8.88178e-16	0.828698	-1.5708	0	0.1	0.1	0.1	0.1	0.1	0.1	0.1	0	0	0	0	0	0	0	0.000000000
1504602924.848938941	0.0076699	0.776194	-0.809942	0.00920388	0.785398	-1.61221	-0.0107379	0	0	0	0	0	0	0	0	0	0	0	0	0	0	0.000000000	8.88178e-16	0.788798	-0.788798	8.88178e-16	0.828698	-1.5708	0	0.1	0.1	0.1	0.1	0.1	0.1	0.1	0	0	0	0	0	0	0	0.000000000
1504602924.868932962	0.0076699	0.77466	-0.809942	0.00920388	0.785398	-1.61221	-0.0122718	0	0	0	0	0	0	0	0	0	0	0	0	0	0	0.000000000	8.88178e-16	0.788798	-0.788798	8.88178e-16	0.828698	-1.5708	0	0.1	0.1	0.1	0.1	0.1	0.1	0.1	0	0	0	0	0	0	0	0.000000000
1504602924.888921022	0.0076699	0.776194	-0.809942	0.00920388	0.785398	-1.61221	-0.0122718	0	0	0	0	0	0	0	0	0	0	0	0	0	0	0.000000000	8.88178e-16	0.788798	-0.788798	8.88178e-16	0.828698	-1.5708	0	0.1	0.1	0.1	0.1	0.1	0.1	0.1	0	0	0	0	0	0	0	0.000000000
1504602924.908976078	0.00920388	0.776194	-0.809942	0.0107379	0.785398	-1.61221	-0.0122718	0	0	0	0	0	0	0	0	0	0	0	0	0	0	0.000000000	8.88178e-16	0.788798	-0.788798	8.88178e-16	0.828698	-1.5708	0	0.1	0.1	0.1	0.1	0.1	0.1	0.1	0	0	0	0	0	0	0	0.000000000
1504602924.928972959	0.0076699	0.776194	-0.809942	0.00920388	0.785398	-1.61221	-0.0122718	0	0	0	0	0	0	0	0	0	0	0	0	0	0	0.000000000	8.88178e-16	0.788798	-0.788798	8.88178e-16	0.828698	-1.5708	0	0.1	0.1	0.1	0.1	0.1	0.1	0.1	0	0	0	0	0	0	0	0.000000000
1504602924.949079036	0.0076699	0.776194	-0.809942	0.00920388	0.785398	-1.61221	-0.0122718	0	0	0	0	0	0	0	0	0	0	0	0	0	0	0.000000000	8.88178e-16	0.788798	-0.788798	8.88178e-16	0.828698	-1.5708	0	0.1	0.1	0.1	0.1	0.1	0.1	0.1	0	0	0	0	0	0	0	0.000000000
1504602924.968947887	0.0076699	0.776194	-0.809942	0.00920388	0.785398	-1.61221	-0.0122718	0	0	0	0	0	0	0	0	0	0	0	0	0	0	0.000000000	8.88178e-16	0.788798	-0.788798	8.88178e-16	0.828698	-1.5708	0	0.1	0.1	0.1	0.1	0.1	0.1	0.1	0	0	0	0	0	0	0	0.000000000
1504602924.988966941	0.0076699	0.776194	-0.809942	0.00920388	0.785398	-1.61221	-0.0122718	0	0	0	0	0	0	0	0	0	0	0	0	0	0	0.000000000	8.88178e-16	0.788798	-0.788798	8.88178e-16	0.828698	-1.5708	0	0.1	0.1	0.1	0.1	0.1	0.1	0.1	0	0	0	0	0	0	0	0.000000000
1504602925.008990049	0.0076699	0.776194	-0.809942	0.00920388	0.785398	-1.61221	-0.0122718	0	0	0	0	0	0	0	0	0	0	0	0	0	0	0.000000000	8.88178e-16	0.788798	-0.788798	8.88178e-16	0.828698	-1.5708	0	0.1	0.1	0.1	0.1	0.1	0.1	0.1	0	0	0	0	0	0	0	0.000000000
1504602925.028954982	0.0076699	0.776194	-0.809942	0.00920388	0.785398	-1.61221	-0.0122718	0	0	0	0	0	0	0	0	0	0	0	0	0	0	0.000000000	8.88178e-16	0.788798	-0.788798	8.88178e-16	0.828698	-1.5708	0	0.1	0.1	0.1	0.1	0.1	0.1	0.1	0	0	0	0	0	0	0	0.000000000
1504602925.048930883	0.0076699	0.776194	-0.809942	0.00920388	0.785398	-1.61221	-0.0107379	0	0	0	0	0	0	0	0	0	0	0	0	0	0	0.000000000	8.88178e-16	0.788798	-0.788798	8.88178e-16	0.828698	-1.5708	0	0.1	0.1	0.1	0.1	0.1	0.1	0.1	0	0	0	0	0	0	0	0.000000000
1504602925.068933963	0.0076699	0.776194	-0.809942	0.00920388	0.785398	-1.61221	-0.0107379	0	0	0	0	0	0	0	0	0	0	0	0	0	0	0.000000000	8.88178e-16	0.788798	-0.788798	8.88178e-16	0.828698	-1.5708	0	0.1	0.1	0.1	0.1	0.1	0.1	0.1	0	0	0	0	0	0	0	0.000000000
1504602925.088965892	0.0076699	0.776194	-0.809942	0.00920388	0.785398	-1.61221	-0.0122718	0	0	0	0	0	0	0	0	0	0	0	0	0	0	0.000000000	8.88178e-16	0.788798	-0.788798	8.88178e-16	0.828698	-1.5708	0	0.1	0.1	0.1	0.1	0.1	0.1	0.1	0	0	0	0	0	0	0	0.000000000
1504602925.108990907	0.0076699	0.776194	-0.809942	0.00920388	0.785398	-1.61221	-0.0107379	0	0	0	0	0	0	0	0	0	0	0	0	0	0	0.000000000	8.88178e-16	0.788798	-0.788798	8.88178e-16	0.828698	-1.5708	0	0.1	0.1	0.1	0.1	0.1	0.1	0.1	0	0	0	0	0	0	0	0.000000000
1504602925.128921031	0.0076699	0.776194	-0.809942	0.00920388	0.785398	-1.61375	-0.0122718	0	0	0	0	0	0	0	0	0	0	0	0	0	0	0.000000000	8.88178e-16	0.788798	-0.788798	8.88178e-16	0.828698	-1.5708	0	0.1	0.1	0.1	0.1	0.1	0.1	0.1	0	0	0	0	0	0	0	0.000000000
1504602925.149251937	0.0076699	0.776194	-0.809942	0.00920388	0.785398	-1.61375	-0.0122718	0	0	0	0	0	0	0	0	0	0	0	0	0	0	0.000000000	8.88178e-16	0.788798	-0.788798	8.88178e-16	0.828698	-1.5708	0	0.1	0.1	0.1	0.1	0.1	0.1	0.1	0	0	0	0	0	0	0	0.000000000
1504602925.169131040	0.0076699	0.776194	-0.809942	0.00920388	0.785398	-1.61221	-0.0122718	0	0	0	0	0	0	0	0	0	0	0	0	0	0	0.000000000	8.88178e-16	0.788798	-0.788798	8.88178e-16	0.828698	-1.5708	0	0.1	0.1	0.1	0.1	0.1	0.1	0.1	0	0	0	0	0	0	0	0.000000000
1504602925.189172029	0.0076699	0.776194	-0.809942	0.00920388	0.785398	-1.61221	-0.0107379	0	0	0	0	0	0	0	0	0	0	0	0	0	0	0.000000000	8.88178e-16	0.788798	-0.788798	8.88178e-16	0.828698	-1.5708	0	0.1	0.1	0.1	0.1	0.1	0.1	0.1	0	0	0	0	0	0	0	0.000000000
1504602925.209435939	0.0076699	0.776194	-0.809942	0.00920388	0.785398	-1.61221	-0.0107379	0	0	0	0	0	0	0	0	0	0	0	0	0	0	0.000000000	8.88178e-16	0.788798	-0.788798	8.88178e-16	0.828698	-1.5708	0	0.1	0.1	0.1	0.1	0.1	0.1	0.1	0	0	0	0	0	0	0	0.000000000
1504602925.229146957	0.0076699	0.776194	-0.811476	0.00920388	0.785398	-1.61221	-0.0122718	0	0	0	0	0	0	0	0	0	0	0	0	0	0	0.000000000	8.88178e-16	0.788798	-0.788798	8.88178e-16	0.828698	-1.5708	0	0.1	0.1	0.1	0.1	0.1	0.1	0.1	0	0	0	0	0	0	0	0.000000000
1504602925.249047040	0.0076699	0.776194	-0.811476	0.00920388	0.785398	-1.61221	-0.0122718	0	0	0	0	0	0	0	0	0	0	0	0	0	0	0.000000000	8.88178e-16	0.788798	-0.788798	8.88178e-16	0.828698	-1.5708	0	0.1	0.1	0.1	0.1	0.1	0.1	0.1	0	0	0	0	0	0	0	0.000000000
1504602925.269018888	0.0076699	0.776194	-0.809942	0.00920388	0.785398	-1.61221	-0.0122718	0	0	0	0	0	0	0	0	0	0	0	0	0	0	0.000000000	8.88178e-16	0.788798	-0.788798	8.88178e-16	0.828698	-1.5708	0	0.1	0.1	0.1	0.1	0.1	0.1	0.1	0	0	0	0	0	0	0	0.000000000
1504602925.289053916	0.0076699	0.776194	-0.809942	0.00920388	0.785398	-1.61221	-0.0122718	0	0	0	0	0	0	0	0	0	0	0	0	0	0	0.000000000	8.88178e-16	0.788798	-0.788798	8.88178e-16	0.828698	-1.5708	0	0.1	0.1	0.1	0.1	0.1	0.1	0.1	0	0	0	0	0	0	0	0.000000000
1504602925.309048891	0.0076699	0.776194	-0.809942	0.00920388	0.785398	-1.61221	-0.0122718	0	0	0	0	0	0	0	0	0	0	0	0	0	0	0.000000000	8.88178e-16	0.788798	-0.788798	8.88178e-16	0.828698	-1.5708	0	0.1	0.1	0.1	0.1	0.1	0.1	0.1	0	0	0	0	0	0	0	0.000000000
1504602925.329039096	0.0076699	0.776194	-0.809942	0.00920388	0.785398	-1.61221	-0.0107379	0	0	0	0	0	0	0	0	0	0	0	0	0	0	0.000000000	8.88178e-16	0.788798	-0.788798	8.88178e-16	0.828698	-1.5708	0	0.1	0.1	0.1	0.1	0.1	0.1	0.1	0	0	0	0	0	0	0	0.000000000
1504602925.349086999	0.0076699	0.776194	-0.809942	0.00920388	0.785398	-1.61221	-0.0107379	0	0	0	0	0	0	0	0	0	0	0	0	0	0	0.000000000	8.88178e-16	0.788798	-0.788798	8.88178e-16	0.828698	-1.5708	0	0.1	0.1	0.1	0.1	0.1	0.1	0.1	0	0	0	0	0	0	0	0.000000000
1504602925.369213104	0.0076699	0.776194	-0.809942	0.00920388	0.785398	-1.61221	-0.0122718	0	0	0	0	0	0	0	0	0	0	0	0	0	0	0.000000000	8.88178e-16	0.788798	-0.788798	8.88178e-16	0.828698	-1.5708	0	0.1	0.1	0.1	0.1	0.1	0.1	0.1	0	0	0	0	0	0	0	0.000000000
1504602925.389225006	0.0076699	0.776194	-0.809942	0.00920388	0.785398	-1.61221	-0.0107379	0	0	0	0	0	0	0	0	0	0	0	0	0	0	0.000000000	8.88178e-16	0.788798	-0.788798	8.88178e-16	0.828698	-1.5708	0	0.1	0.1	0.1	0.1	0.1	0.1	0.1	0	0	0	0	0	0	0	0.000000000
1504602925.409073114	0.0076699	0.776194	-0.809942	0.00920388	0.785398	-1.61221	-0.0107379	0	0	0	0	0	0	0	0	0	0	0	0	0	0	0.000000000	8.88178e-16	0.788798	-0.788798	8.88178e-16	0.828698	-1.5708	0	0.1	0.1	0.1	0.1	0.1	0.1	0.1	0	0	0	0	0	0	0	0.000000000
1504602925.429847002	0.0076699	0.776194	-0.809942	0.00920388	0.785398	-1.61221	-0.0122718	0	0	0	0	0	0	0	0	0	0	0	0	0	0	0.000000000	8.88178e-16	0.788798	-0.788798	8.88178e-16	0.828698	-1.5708	0	0.1	0.1	0.1	0.1	0.1	0.1	0.1	0	0	0	0	0	0	0	0.000000000
1504602925.449112892	0.0076699	0.776194	-0.809942	0.00920388	0.785398	-1.61221	-0.0122718	0	0	0	0	0	0	0	0	0	0	0	0	0	0	0.000000000	8.88178e-16	0.788798	-0.788798	8.88178e-16	0.828698	-1.5708	0	0.1	0.1	0.1	0.1	0.1	0.1	0.1	0	0	0	0	0	0	0	0.000000000
1504602925.469156980	0.00920388	0.776194	-0.809942	0.00920388	0.785398	-1.61221	-0.0107379	0	0	0	0	0	0	0	0	0	0	0	0	0	0	0.000000000	8.88178e-16	0.788798	-0.788798	8.88178e-16	0.828698	-1.5708	0	0.1	0.1	0.1	0.1	0.1	0.1	0.1	0	0	0	0	0	0	0	0.000000000
1504602925.489132881	0.00920388	0.776194	-0.809942	0.00920388	0.785398	-1.61221	-0.0122718	0	0	0	0	0	0	0	0	0	0	0	0	0	0	0.000000000	8.88178e-16	0.788798	-0.788798	8.88178e-16	0.828698	-1.5708	0	0.1	0.1	0.1	0.1	0.1	0.1	0.1	0	0	0	0	0	0	0	0.000000000
1504602925.509145021	0.0076699	0.776194	-0.809942	0.00920388	0.785398	-1.61375	-0.0122718	0	0	0	0	0	0	0	0	0	0	0	0	0	0	0.000000000	8.88178e-16	0.788798	-0.788798	8.88178e-16	0.828698	-1.5708	0	0.1	0.1	0.1	0.1	0.1	0.1	0.1	0	0	0	0	0	0	0	0.000000000
1504602925.529160976	0.0076699	0.776194	-0.809942	0.00920388	0.785398	-1.61375	-0.0122718	0	0	0	0	0	0	0	0	0	0	0	0	0	0	0.000000000	8.88178e-16	0.788798	-0.788798	8.88178e-16	0.828698	-1.5708	0	0.1	0.1	0.1	0.1	0.1	0.1	0.1	0	0	0	0	0	0	0	0.000000000
1504602925.549367904	0.0076699	0.776194	-0.809942	0.00920388	0.785398	-1.61221	-0.0122718	0	0	0	0	0	0	0	0	0	0	0	0	0	0	0.000000000	8.88178e-16	0.788798	-0.788798	8.88178e-16	0.828698	-1.5708	0	0.1	0.1	0.1	0.1	0.1	0.1	0.1	0	0	0	0	0	0	0	0.000000000
1504602925.569061994	0.0076699	0.776194	-0.809942	0.00920388	0.785398	-1.61375	-0.0122718	0	0	0	0	0	0	0	0	0	0	0	0	0	0	0.000000000	8.88178e-16	0.788798	-0.788798	8.88178e-16	0.828698	-1.5708	0	0.1	0.1	0.1	0.1	0.1	0.1	0.1	0	0	0	0	0	0	0	0.000000000
1504602925.589200973	0.0076699	0.776194	-0.809942	0.00920388	0.785398	-1.61221	-0.0122718	0	0	0	0	0	0	0	0	0	0	0	0	0	0	0.000000000	8.88178e-16	0.788798	-0.788798	8.88178e-16	0.828698	-1.5708	0	0.1	0.1	0.1	0.1	0.1	0.1	0.1	0	0	0	0	0	0	0	0.000000000
1504602925.609134912	0.0076699	0.776194	-0.809942	0.00920388	0.785398	-1.61221	-0.0122718	0	0	0	0	0	0	0	0	0	0	0	0	0	0	0.000000000	8.88178e-16	0.788798	-0.788798	8.88178e-16	0.828698	-1.5708	0	0.1	0.1	0.1	0.1	0.1	0.1	0.1	0	0	0	0	0	0	0	0.000000000
1504602925.629410982	0.0076699	0.776194	-0.809942	0.00920388	0.785398	-1.61221	-0.0122718	0	0	0	0	0	0	0	0	0	0	0	0	0	0	0.000000000	8.88178e-16	0.788798	-0.788798	8.88178e-16	0.828698	-1.5708	0	0.1	0.1	0.1	0.1	0.1	0.1	0.1	0	0	0	0	0	0	0	0.000000000
1504602925.649198055	0.0076699	0.776194	-0.809942	0.00920388	0.785398	-1.61221	-0.0107379	0	0	0	0	0	0	0	0	0	0	0	0	0	0	0.000000000	8.88178e-16	0.788798	-0.788798	8.88178e-16	0.828698	-1.5708	0	0.1	0.1	0.1	0.1	0.1	0.1	0.1	0	0	0	0	0	0	0	0.000000000
1504602925.669158935	0.0076699	0.776194	-0.809942	0.00920388	0.785398	-1.61221	-0.0122718	0	0	0	0	0	0	0	0	0	0	0	0	0	0	0.000000000	8.88178e-16	0.788798	-0.788798	8.88178e-16	0.828698	-1.5708	0	0.1	0.1	0.1	0.1	0.1	0.1	0.1	0	0	0	0	0	0	0	0.000000000
1504602925.689171075	0.0076699	0.776194	-0.809942	0.00920388	0.785398	-1.61221	-0.0122718	0	0	0	0	0	0	0	0	0	0	0	0	0	0	0.000000000	8.88178e-16	0.788798	-0.788798	8.88178e-16	0.828698	-1.5708	0	0.1	0.1	0.1	0.1	0.1	0.1	0.1	0	0	0	0	0	0	0	0.000000000
1504602925.709127902	0.0076699	0.776194	-0.809942	0.00920388	0.785398	-1.61221	-0.0122718	0	0	0	0	0	0	0	0	0	0	0	0	0	0	0.000000000	8.88178e-16	0.788798	-0.788798	8.88178e-16	0.828698	-1.5708	0	0.1	0.1	0.1	0.1	0.1	0.1	0.1	0	0	0	0	0	0	0	0.000000000
1504602925.729105949	0.0076699	0.776194	-0.809942	0.00920388	0.785398	-1.61221	-0.0122718	0	0	0	0	0	0	0	0	0	0	0	0	0	0	0.000000000	8.88178e-16	0.788798	-0.788798	8.88178e-16	0.828698	-1.5708	0	0.1	0.1	0.1	0.1	0.1	0.1	0.1	0	0	0	0	0	0	0	0.000000000
1504602925.749291896	0.0076699	0.776194	-0.809942	0.00920388	0.785398	-1.61221	-0.0122718	0	0	0	0	0	0	0	0	0	0	0	0	0	0	0.000000000	8.88178e-16	0.788798	-0.788798	8.88178e-16	0.828698	-1.5708	0	0.1	0.1	0.1	0.1	0.1	0.1	0.1	0	0	0	0	0	0	0	0.000000000
1504602925.769112110	0.0076699	0.776194	-0.809942	0.00920388	0.785398	-1.61221	-0.0122718	0	0	0	0	0	0	0	0	0	0	0	0	0	0	0.000000000	8.88178e-16	0.788798	-0.788798	8.88178e-16	0.828698	-1.5708	0	0.1	0.1	0.1	0.1	0.1	0.1	0.1	0	0	0	0	0	0	0	0.000000000
1504602925.789902925	0.0076699	0.776194	-0.809942	0.00920388	0.785398	-1.61221	-0.0122718	0	0	0	0	0	0	0	0	0	0	0	0	0	0	0.000000000	8.88178e-16	0.788798	-0.788798	8.88178e-16	0.828698	-1.5708	0	0.1	0.1	0.1	0.1	0.1	0.1	0.1	0	0	0	0	0	0	0	0.000000000
1504602925.809066057	0.0076699	0.776194	-0.809942	0.00920388	0.785398	-1.61221	-0.0107379	0	0	0	0	0	0	0	0	0	0	0	0	0	0	0.000000000	8.88178e-16	0.788798	-0.788798	8.88178e-16	0.828698	-1.5708	0	0.1	0.1	0.1	0.1	0.1	0.1	0.1	0	0	0	0	0	0	0	0.000000000
1504602925.830923080	0.0076699	0.776194	-0.809942	0.00920388	0.785398	-1.61221	-0.0107379	0	0	0	0	0	0	0	0	0	0	0	0	0	0	0.000000000	8.88178e-16	0.788798	-0.788798	8.88178e-16	0.828698	-1.5708	0	0.1	0.1	0.1	0.1	0.1	0.1	0.1	0	0	0	0	0	0	0	0.000000000
1504602925.849195957	0.0076699	0.776194	-0.809942	0.00920388	0.785398	-1.61221	-0.0107379	0	0	0	0	0	0	0	0	0	0	0	0	0	0	0.000000000	8.88178e-16	0.788798	-0.788798	8.88178e-16	0.828698	-1.5708	0	0.1	0.1	0.1	0.1	0.1	0.1	0.1	0	0	0	0	0	0	0	0.000000000
1504602925.869164943	0.0076699	0.776194	-0.809942	0.00920388	0.785398	-1.61221	-0.0122718	0	0	0	0	0	0	0	0	0	0	0	0	0	0	0.000000000	8.88178e-16	0.788798	-0.788798	8.88178e-16	0.828698	-1.5708	0	0.1	0.1	0.1	0.1	0.1	0.1	0.1	0	0	0	0	0	0	0	0.000000000
1504602925.889936923	0.0076699	0.776194	-0.809942	0.00920388	0.785398	-1.61221	-0.0107379	0	0	0	0	0	0	0	0	0	0	0	0	0	0	0.000000000	8.88178e-16	0.788798	-0.788798	8.88178e-16	0.828698	-1.5708	0	0.1	0.1	0.1	0.1	0.1	0.1	0.1	0	0	0	0	0	0	0	0.000000000
1504602925.909243106	0.0076699	0.776194	-0.809942	0.00920388	0.785398	-1.61221	-0.0107379	0	0	0	0	0	0	0	0	0	0	0	0	0	0	0.000000000	8.88178e-16	0.788798	-0.788798	8.88178e-16	0.828698	-1.5708	0	0.1	0.1	0.1	0.1	0.1	0.1	0.1	0	0	0	0	0	0	0	0.000000000
1504602925.932849884	0.0076699	0.776194	-0.809942	0.00920388	0.785398	-1.61375	-0.0107379	0	0	0	0	0	0	0	0	0	0	0	0	0	0	0.000000000	8.88178e-16	0.788798	-0.788798	8.88178e-16	0.828698	-1.5708	0	0.1	0.1	0.1	0.1	0.1	0.1	0.1	0	0	0	0	0	0	0	0.000000000
1504602925.950059890	0.0076699	0.776194	-0.809942	0.00920388	0.785398	-1.61375	-0.0107379	0	0	0	0	0	0	0	0	0	0	0	0	0	0	0.000000000	8.88178e-16	0.788798	-0.788798	8.88178e-16	0.828698	-1.5708	0	0.1	0.1	0.1	0.1	0.1	0.1	0.1	0	0	0	0	0	0	0	0.000000000
1504602925.969459056	0.0076699	0.776194	-0.809942	0.00920388	0.785398	-1.61221	-0.0107379	0	0	0	0	0	0	0	0	0	0	0	0	0	0	0.000000000	8.88178e-16	0.788798	-0.788798	8.88178e-16	0.828698	-1.5708	0	0.1	0.1	0.1	0.1	0.1	0.1	0.1	0	0	0	0	0	0	0	0.000000000
1504602925.989207029	0.0076699	0.776194	-0.809942	0.00920388	0.785398	-1.61221	-0.0107379	0	0	0	0	0	0	0	0	0	0	0	0	0	0	0.000000000	8.88178e-16	0.788798	-0.788798	8.88178e-16	0.828698	-1.5708	0	0.1	0.1	0.1	0.1	0.1	0.1	0.1	0	0	0	0	0	0	0	0.000000000
1504602926.009232997	0.0076699	0.776194	-0.809942	0.00920388	0.785398	-1.61221	-0.0107379	0	0	0	0	0	0	0	0	0	0	0	0	0	0	0.000000000	8.88178e-16	0.788798	-0.788798	8.88178e-16	0.828698	-1.5708	0	0.1	0.1	0.1	0.1	0.1	0.1	0.1	0	0	0	0	0	0	0	0.000000000
1504602926.031645059	0.0076699	0.776194	-0.809942	0.00920388	0.785398	-1.61221	-0.0122718	0	0	0	0	0	0	0	0	0	0	0	0	0	0	0.000000000	8.88178e-16	0.788798	-0.788798	8.88178e-16	0.828698	-1.5708	0	0.1	0.1	0.1	0.1	0.1	0.1	0.1	0	0	0	0	0	0	0	0.000000000
1504602926.049189090	0.0076699	0.776194	-0.809942	0.00920388	0.785398	-1.61221	-0.0122718	0	0	0	0	0	0	0	0	0	0	0	0	0	0	0.000000000	8.88178e-16	0.788798	-0.788798	8.88178e-16	0.828698	-1.5708	0	0.1	0.1	0.1	0.1	0.1	0.1	0.1	0	0	0	0	0	0	0	0.000000000
1504602926.069185018	0.0076699	0.776194	-0.809942	0.00920388	0.785398	-1.61221	-0.0107379	0	0	0	0	0	0	0	0	0	0	0	0	0	0	0.000000000	8.88178e-16	0.788798	-0.788798	8.88178e-16	0.828698	-1.5708	0	0.1	0.1	0.1	0.1	0.1	0.1	0.1	0	0	0	0	0	0	0	0.000000000
1504602926.090105056	0.0076699	0.776194	-0.809942	0.00920388	0.785398	-1.61221	-0.0122718	0	0	0	0	0	0	0	0	0	0	0	0	0	0	0.000000000	8.88178e-16	0.788798	-0.788798	8.88178e-16	0.828698	-1.5708	0	0.1	0.1	0.1	0.1	0.1	0.1	0.1	0	0	0	0	0	0	0	0.000000000
1504602926.109025001	0.0076699	0.776194	-0.809942	0.00920388	0.785398	-1.61221	-0.0107379	0	0	0	0	0	0	0	0	0	0	0	0	0	0	0.000000000	8.88178e-16	0.788798	-0.788798	8.88178e-16	0.828698	-1.5708	0	0.1	0.1	0.1	0.1	0.1	0.1	0.1	0	0	0	0	0	0	0	0.000000000
1504602926.128959894	0.0076699	0.776194	-0.809942	0.00920388	0.785398	-1.61221	-0.0107379	0	0	0	0	0	0	0	0	0	0	0	0	0	0	0.000000000	8.88178e-16	0.788798	-0.788798	8.88178e-16	0.828698	-1.5708	0	0.1	0.1	0.1	0.1	0.1	0.1	0.1	0	0	0	0	0	0	0	0.000000000
1504602926.158961057	0.0076699	0.776194	-0.809942	0.00920388	0.785398	-1.61221	-0.0107379	0	0	0	0	0	0	0	0	0	0	0	0	0	0	0.000000000	8.88178e-16	0.788798	-0.788798	8.88178e-16	0.828698	-1.5708	0	0.1	0.1	0.1	0.1	0.1	0.1	0.1	0	0	0	0	0	0	0	0.000000000
1504602926.172231912	0.0076699	0.776194	-0.809942	0.00920388	0.785398	-1.61221	-0.0107379	0	0	0	0	0	0	0	0	0	0	0	0	0	0	0.000000000	8.88178e-16	0.788798	-0.788798	8.88178e-16	0.828698	-1.5708	0	0.1	0.1	0.1	0.1	0.1	0.1	0.1	0	0	0	0	0	0	0	0.000000000
1504602926.188967943	0.0076699	0.776194	-0.809942	0.00920388	0.785398	-1.61221	-0.0107379	0	0	0	0	0	0	0	0	0	0	0	0	0	0	0.000000000	8.88178e-16	0.788798	-0.788798	8.88178e-16	0.828698	-1.5708	0	0.1	0.1	0.1	0.1	0.1	0.1	0.1	0	0	0	0	0	0	0	0.000000000
1504602926.210861921	0.0076699	0.776194	-0.809942	0.00920388	0.785398	-1.61221	-0.0107379	0	0	0	0	0	0	0	0	0	0	0	0	0	0	0.000000000	8.88178e-16	0.788798	-0.788798	8.88178e-16	0.828698	-1.5708	0	0.1	0.1	0.1	0.1	0.1	0.1	0.1	0	0	0	0	0	0	0	0.000000000
1504602926.229955911	0.0076699	0.776194	-0.809942	0.00920388	0.785398	-1.61221	-0.0107379	0	0	0	0	0	0	0	0	0	0	0	0	0	0	0.000000000	0.000778608	0.788798	-0.788798	0.000778608	0.828698	-1.5708	0	0.1	0.1	0.1	0.1	0.1	0.1	0.1	0	0	0	0	0	0	0	0.000000000
1504602926.248982906	0.00920388	0.776194	-0.809942	0.00920388	0.785398	-1.61221	-0.0122718	0	0	0	0	0	0	0	0	0	0	0	0	0	0	0.000000000	0.00180446	0.788798	-0.788798	0.00180446	0.828698	-1.5708	0	0.1	0.1	0.1	0.1	0.1	0.1	0.1	0	0	0	0	0	0	0	0.000000000
1504602926.268987894	0.0076699	0.776194	-0.809942	0.00920388	0.785398	-1.61221	-0.0107379	0	0	0	0	0	0	0	0	0	0	0	0	0	0	0.000000000	0.00180446	0.788798	-0.788798	0.00180446	0.828698	-1.5708	0	0.1	0.1	0.1	0.1	0.1	0.1	0.1	0	0	0	0	0	0	0	0.000000000
1504602926.289088964	0.0076699	0.776194	-0.809942	0.00920388	0.785398	-1.61221	-0.0107379	0	0	0	0	0	0	0	0	0	0	0	0	0	0	0.000000000	0.00344498	0.788798	-0.788798	0.00344498	0.828698	-1.5708	0	0.1	0.1	0.1	0.1	0.1	0.1	0.1	0	0	0	0	0	0	0	0.000000000
1504602926.309230089	0.0076699	0.77466	-0.809942	0.00920388	0.785398	-1.61221	-0.0122718	0	0	0	0	0	0	0	0	0	0	0	0	0	0	0.000000000	0.00344498	0.788798	-0.788798	0.00344498	0.828698	-1.5708	0	0.1	0.1	0.1	0.1	0.1	0.1	0.1	0	0	0	0	0	0	0	0.000000000
1504602926.329052925	0.0076699	0.77466	-0.809942	0.00920388	0.785398	-1.61221	-0.0122718	0	0	0	0	0	0	0	0	0	0	0	0	0	0	0.000000000	0.00581746	0.788798	-0.788798	0.00581746	0.828698	-1.5708	0	0.1	0.1	0.1	0.1	0.1	0.1	0.1	0	0	0	0	0	0	0	0.000000000
1504602926.349086046	0.0076699	0.776194	-0.809942	0.00920388	0.785398	-1.61221	-0.0122718	0	0	0	0	0	0	0	0	0	0	0	0	0	0	0.000000000	0.00581746	0.788798	-0.788798	0.00581746	0.828698	-1.5708	0	0.1	0.1	0.1	0.1	0.1	0.1	0.1	0	0	0	0	0	0	0	0.000000000
1504602926.369215965	0.0076699	0.776194	-0.809942	0.00920388	0.785398	-1.61221	-0.0107379	0	0	0	0	0	0	0	0	0	0	0	0	0	0	0.000000000	0.00581746	0.788798	-0.788798	0.00581746	0.828698	-1.5708	0	0.1	0.1	0.1	0.1	0.1	0.1	0.1	0	0	0	0	0	0	0	0.000000000
1504602926.389019966	0.0076699	0.776194	-0.809942	0.00920388	0.785398	-1.61221	-0.0107379	0	0	0	0	0	0	0	0	0	0	0	0	0	0	0.000000000	0.00902548	0.788798	-0.788798	0.00902548	0.828698	-1.5708	0	0.1	0.1	0.1	0.1	0.1	0.1	0.1	0	0	0	0	0	0	0	0.000000000
1504602926.409090042	0.0076699	0.776194	-0.809942	0.00920388	0.785398	-1.61221	-0.0107379	0	0	0	0	0	0	0	0	0	0	0	0	0	0	0.000000000	0.00902548	0.788798	-0.788798	0.00902548	0.828698	-1.5708	0	0.1	0.1	0.1	0.1	0.1	0.1	0.1	0	0	0	0	0	0	0	0.000000000
1504602926.429331064	0.0076699	0.776194	-0.809942	0.00920388	0.785398	-1.61221	-0.0107379	0	0	0	0	0	0	0	0	0	0	0	0	0	0	0.000000000	0.0131593	0.788798	-0.788798	0.0131593	0.828698	-1.5708	0	0.1	0.1	0.1	0.1	0.1	0.1	0.1	0	0	0	0	0	0	0	0.000000000
1504602926.449295997	0.0076699	0.776194	-0.809942	0.00920388	0.785398	-1.61221	-0.0107379	0	0	0	0	0	0	0	0	0	0	0	0	0	0	0.000000000	0.0131593	0.788798	-0.788798	0.0131593	0.828698	-1.5708	0	0.1	0.1	0.1	0.1	0.1	0.1	0.1	0	0	0	0	0	0	0	0.000000000
1504602926.469043016	0.0076699	0.776194	-0.809942	0.00920388	0.785398	-1.61221	-0.0107379	0	0	0	0	0	0	0	0	0	0	0	0	0	0	0.000000000	0.0182964	0.788798	-0.788798	0.0182964	0.828698	-1.5708	0	0.118154	0.1	0.1	0.118154	0.1	0.1	0.1	0	0	0	0	0	0	0	0.000000000
1504602926.489089012	0.0076699	0.776194	-0.809942	0.00920388	0.785398	-1.61221	-0.0122718	0	0	0	0	0	0	0	0	0	0	0	0	0	0	0.000000000	0.0182964	0.788798	-0.788798	0.0182964	0.828698	-1.5708	0	0.118154	0.1	0.1	0.118154	0.1	0.1	0.1	0	0	0	0	0	0	0	0.000000000
1504602926.509054899	0.0076699	0.776194	-0.809942	0.00920388	0.785398	-1.61221	-0.0122718	0	0	0	0	0	0	0	0	0	0	0	0	0	0	0.000000000	0.0245019	0.788798	-0.788798	0.0245019	0.828698	-1.5708	0	0.142727	0.1	0.1	0.142727	0.1	0.1	0.1	0	0	0	0	0	0	0	0.000000000
1504602926.529134988	0.0076699	0.776194	-0.809942	0.00920388	0.785398	-1.61221	-0.0122718	0	0	0	0	0	0	0	0	0	0	0	0	0	0	0.000000000	0.0245019	0.788798	-0.788798	0.0245019	0.828698	-1.5708	0	0.142727	0.1	0.1	0.142727	0.1	0.1	0.1	0	0	0	0	0	0	0	0.000000000
1504602926.549091100	0.00920388	0.776194	-0.809942	0.00920388	0.785398	-1.61221	-0.0122718	0	0	0	0	0	0	0	0	0	0	0	0	0	0	0.000000000	0.0318291	0.788798	-0.788798	0.0318291	0.828698	-1.5708	0	0.168524	0.1	0.1	0.168524	0.1	0.1	0.1	0	0	0	0	0	0	0	0.000000000
1504602926.569355010	0.0107379	0.776194	-0.809942	0.0107379	0.785398	-1.61221	-0.0122718	0	0	0	0	0	0	0	0	0	0	0	0	0	0	0.000000000	0.0318291	0.788798	-0.788798	0.0318291	0.828698	-1.5708	0	0.168524	0.1	0.1	0.168524	0.1	0.1	0.1	0	0	0	0	0	0	0	0.000000000
1504602926.589139938	0.0153398	0.776194	-0.809942	0.0138058	0.785398	-1.61221	-0.0122718	0.191009	0	0	0.0955044	0	0	0	0	0	0	0	0	0	0	0.000000000	0.0318291	0.788798	-0.788798	0.0318291	0.828698	-1.5708	0	0.168524	0.1	0.1	0.168524	0.1	0.1	0.1	0	0	0	0	0	0	0	0.000000000
1504602926.609551906	0.0153398	0.776194	-0.809942	0.0138058	0.785398	-1.61221	-0.0122718	0.191009	0	0	0.0955044	0	0	0	0	0	0	0	0	0	0	0.000000000	0.0403197	0.788798	-0.788798	0.0403197	0.828698	-1.5708	0	0.195284	0.1	0.1	0.195284	0.1	0.1	0.1	0	0	0	0	0	0	0	0.000000000
1504602926.631755113	0.0199418	0.776194	-0.809942	0.0199418	0.785398	-1.61375	-0.0107379	0.191009	0	0	0.191009	0	0	0	0	0	0	0	0	0	0	0.000000000	0.0403197	0.788798	-0.788798	0.0403197	0.828698	-1.5708	0	0.195284	0.1	0.1	0.195284	0.1	0.1	0.1	0	0	0	0	0	0	0	0.000000000
1504602926.649451971	0.0260777	0.776194	-0.809942	0.0245437	0.785398	-1.61221	-0.0107379	0.191009	0	0	0.143257	0	0	0	0	0	0	0	0	0	0	0.000000000	0.0500046	0.788798	-0.788798	0.0500046	0.828698	-1.5708	0	0.222753	0.1	0.1	0.222753	0.1	0.1	0.1	0	0	0	0	0	0	0	0.000000000
1504602926.669326066	0.0260777	0.776194	-0.809942	0.0245437	0.785398	-1.61221	-0.0107379	0.191009	0	0	0.143257	0	0	0	0	0	0	0	0	0	0	0.000000000	0.0500046	0.788798	-0.788798	0.0500046	0.828698	-1.5708	0	0.222753	0.1	0.1	0.222753	0.1	0.1	0.1	0	0	0	0	0	0	0	0.000000000
1504602926.689930915	0.0306796	0.776194	-0.809942	0.0306796	0.785398	-1.61221	-0.0107379	0.191009	0	0	0.238761	0	0	0	0	0	0	0	0	0	0	0.000000000	0.0609042	0.788798	-0.788798	0.0609042	0.828698	-1.5708	0	0.250691	0.1	0.1	0.250691	0.1	0.1	0.1	0	0	0	0	0	0	0	0.000000000
1504602926.709165096	0.0352816	0.776194	-0.809942	0.0368155	0.785398	-1.61221	-0.0122718	0.143257	0	0	0.191009	0	0	0	0	0	0	0	0	0	0	0.000000000	0.0609042	0.788798	-0.788798	0.0609042	0.828698	-1.5708	0	0.250691	0.1	0.1	0.250691	0.1	0.1	0.1	0	0	0	0	0	0	0	0.000000000
1504602926.729161977	0.0429515	0.776194	-0.809942	0.0414175	0.785398	-1.61221	-0.0107379	0.286513	0	0	0.191009	0	0	0	0	0	0	0	0	0	0	0.000000000	0.0730289	0.788798	-0.788798	0.0730289	0.828698	-1.5708	0	0.278868	0.1	0.1	0.278868	0.1	0.1	0.1	0	0	0	0	0	0	0	0.000000000
1504602926.749147891	0.0475534	0.776194	-0.809942	0.0460194	0.785398	-1.61221	-0.0122718	0.191009	0	0	0.191009	0	0	0	0	0	0	0	0	0	0	0.000000000	0.0730289	0.788798	-0.788798	0.0730289	0.828698	-1.5708	0	0.278868	0.1	0.1	0.278868	0.1	0.1	0.1	0	0	0	0	0	0	0	0.000000000
1504602926.769500017	0.0552233	0.776194	-0.809942	0.0521553	0.785398	-1.61221	-0.0122718	0.238761	0	0	0.238761	0	0	0	0	0	0	0	0	0	0	0.000000000	0.0863795	0.788798	-0.788798	0.0863795	0.828698	-1.5708	0	0.307064	0.1	0.1	0.307064	0.1	0.1	0.1	0	0	0	0	0	0	0	0.000000000
1504602926.789223909	0.0552233	0.776194	-0.809942	0.0521553	0.785398	-1.61221	-0.0122718	0.238761	0	0	0.238761	0	0	0	0	0	0	0	0	0	0	0.000000000	0.0863795	0.788798	-0.788798	0.0863795	0.828698	-1.5708	0	0.307064	0.1	0.1	0.307064	0.1	0.1	0.1	0	0	0	0	0	0	0	0.000000000
1504602926.809235095	0.0613592	0.776194	-0.809942	0.0598253	0.785398	-1.61221	-0.0122718	0.238761	0	0	0.238761	0	0	0	0	0	0	0	0	0	0	0.000000000	0.100948	0.788798	-0.788798	0.100948	0.828698	-1.5708	0	0.335069	0.1	0.1	0.335069	0.1	0.1	0.1	0	0	0	0	0	0	0	0.000000000
1504602926.829302072	0.0690291	0.776194	-0.809942	0.0674952	0.785398	-1.61221	-0.0122718	0.286513	0	0	0.286513	0	0	0	0	0	0	0	0	0	0	0.000000000	0.100948	0.788798	-0.788798	0.100948	0.828698	-1.5708	0	0.335069	0.1	0.1	0.335069	0.1	0.1	0.1	0	0	0	0	0	0	0	0.000000000
1504602926.849253892	0.078233	0.776194	-0.809942	0.078233	0.785398	-1.61221	-0.0122718	0.334265	0	0	0.382018	0	0	0	0	0	0	0	0	0	0	0.000000000	0.100948	0.788798	-0.788798	0.100948	0.828698	-1.5708	0	0.335069	0.1	0.1	0.335069	0.1	0.1	0.1	0	0	0	0	0	0	0	0.000000000
1504602926.871110916	0.0859029	0.776194	-0.809942	0.0859029	0.785398	-1.61221	-0.0107379	0.334265	0	0	0.286513	0	0	0	0	0	0	0	0	0	0	0.000000000	0.116717	0.788798	-0.788798	0.116717	0.828698	-1.5708	0	0.362686	0.1	0.1	0.362686	0.1	0.1	0.1	0	0	0	0	0	0	0	0.000000000
1504602926.889734983	0.0859029	0.776194	-0.809942	0.0859029	0.785398	-1.61221	-0.0107379	0.334265	0	0	0.286513	0	0	0	0	0	0	0	0	0	0	0.000000000	0.116717	0.788798	-0.788798	0.116717	0.828698	-1.5708	0	0.362686	0.1	0.1	0.362686	0.1	0.1	0.1	0	0	0	0	0	0	0	0.000000000
1504602926.909123897	0.0935728	0.776194	-0.809942	0.0920388	0.785398	-1.61221	-0.0122718	0.286513	0	0	0.191009	0	0	0	0	0	0	0	0	0	0	0.000000000	0.133661	0.788798	-0.788798	0.133661	0.828698	-1.5708	0	0.389727	0.1	0.1	0.389727	0.1	0.1	0.1	0	0	0	0	0	0	0	0.000000000
1504602926.929536104	0.104311	0.776194	-0.809942	0.101243	0.785398	-1.61221	-0.0107379	0.334265	0	0	0.334265	0	0	0	0	0	0	0	0	0	0	0.000000000	0.133661	0.788798	-0.788798	0.133661	0.828698	-1.5708	0	0.389727	0.1	0.1	0.389727	0.1	0.1	0.1	0	0	0	0	0	0	0	0.000000000
1504602926.949354887	0.113515	0.776194	-0.809942	0.108913	0.785398	-1.61221	-0.0122718	0.334265	0	0	0.334265	0	0	0	0	0	0	0	0	0	0	0.000000000	0.151749	0.788798	-0.788798	0.151749	0.828698	-1.5708	0	0.416014	0.1	0.1	0.416014	0.1	0.1	0.1	0	0	0	0	0	0	0	0.000000000
1504602926.969094038	0.113515	0.776194	-0.809942	0.108913	0.785398	-1.61221	-0.0122718	0.334265	0	0	0.334265	0	0	0	0	0	0	0	0	0	0	0.000000000	0.151749	0.788798	-0.788798	0.151749	0.828698	-1.5708	0	0.416014	0.1	0.1	0.416014	0.1	0.1	0.1	0	0	0	0	0	0	0	0.000000000
1504602926.989386081	0.122718	0.776194	-0.809942	0.121184	0.785398	-1.61221	-0.0107379	0.286513	0	0	0.382018	0	0	0	0	0	0	0	0	0	0	0.000000000	0.170939	0.788798	-0.788798	0.170939	0.828698	-1.5708	0	0.441382	0.1	0.1	0.441382	0.1	0.1	0.1	0	0	0	0	0	0	0	0.000000000
1504602927.009217023	0.13499	0.776194	-0.809942	0.13499	0.785398	-1.61221	-0.0122718	0.382018	0	0	0.42977	0	0	0	0	0	0	0	0	0	0	0.000000000	0.170939	0.788798	-0.788798	0.170939	0.828698	-1.5708	0	0.441382	0.1	0.1	0.441382	0.1	0.1	0.1	0	0	0	0	0	0	0	0.000000000
1504602927.029674053	0.13499	0.776194	-0.809942	0.13499	0.785398	-1.61221	-0.0122718	0.382018	0	0	0.42977	0	0	0	0	0	0	0	0	0	0	0.000000000	0.191186	0.788798	-0.788798	0.191186	0.828698	-1.5708	0	0.465678	0.1	0.1	0.465678	0.1	0.1	0.1	0	0	0	0	0	0	0	0.000000000
1504602927.050498008	0.145728	0.776194	-0.809942	0.148796	0.785398	-1.61221	-0.0122718	0.334265	0	0	0.42977	0	0	0	0	0	0	0	0	0	0	0.000000000	0.191186	0.788798	-0.788798	0.191186	0.828698	-1.5708	0	0.465678	0.1	0.1	0.465678	0.1	0.1	0.1	0	0	0	0	0	0	0	0.000000000
1504602927.069307088	0.158	0.776194	-0.809942	0.159534	0.785398	-1.61375	-0.0107379	0.382018	0	0	0.334265	0	0	0	0	0	0	0	0	0	0	0.000000000	0.212436	0.788798	-0.788798	0.212436	0.828698	-1.5708	0	0.488753	0.1	0.1	0.488753	0.1	0.1	0.1	0	0	0	0	0	0	0	0.000000000
1504602927.089473009	0.170272	0.776194	-0.809942	0.170272	0.785398	-1.61221	-0.0107379	0.477522	0	0	0.42977	0	0	0	0	0	0	0	0	0	0	0.000000000	0.212436	0.788798	-0.788798	0.212436	0.828698	-1.5708	0	0.488753	0.1	0.1	0.488753	0.1	0.1	0.1	0	0	0	0	0	0	0	0.000000000
1504602927.113908052	0.179476	0.776194	-0.809942	0.179476	0.785398	-1.61221	-0.0107379	0.42977	0	0	0.42977	0	0	0	0	0	0	0	0	0	0	0.000000000	0.234631	0.788798	-0.788798	0.234631	0.828698	-1.5708	0	0.510475	0.1	0.1	0.510475	0.1	0.1	0.1	0	0	0	0	0	0	0	0.000000000
1504602927.129540920	0.190214	0.776194	-0.809942	0.18868	0.785398	-1.61375	-0.0122718	0.477522	0	0	0.382018	0	0	0	0	0	0	0	0	0	0	0.000000000	0.234631	0.788798	-0.788798	0.234631	0.828698	-1.5708	0	0.510475	0.1	0.1	0.510475	0.1	0.1	0.1	0	0	0	0	0	0	0	0.000000000
1504602927.149415969	0.204019	0.776194	-0.809942	0.200951	0.785398	-1.61221	-0.0107379	0.42977	0	0	0.42977	0	0	0	0	0	0	0	0	0	0	0.000000000	0.234631	0.788798	-0.788798	0.234631	0.828698	-1.5708	0	0.510475	0.1	0.1	0.510475	0.1	0.1	0.1	0	0	0	0	0	0	0	0.000000000
1504602927.171195983	0.213223	0.776194	-0.809942	0.210155	0.785398	-1.61221	-0.0122718	0.42977	0	0	0.42977	0	0	0	0	0	0	0	0	0	0	0.000000000	0.257706	0.788798	-0.788798	0.257706	0.828698	-1.5708	0	0.530722	0.1	0.1	0.530722	0.1	0.1	0.1	0	0	0	0	0	0	0	0.000000000
1504602927.189093112	0.213223	0.776194	-0.809942	0.210155	0.785398	-1.61221	-0.0122718	0.42977	0	0	0.42977	0	0	0	0	0	0	0	0	0	0	0.000000000	0.257706	0.788798	-0.788798	0.257706	0.828698	-1.5708	0	0.530722	0.1	0.1	0.530722	0.1	0.1	0.1	0	0	0	0	0	0	0	0.000000000
1504602927.209124088	0.228563	0.776194	-0.809942	0.222427	0.785398	-1.61221	-0.0107379	0.477522	0	0	0.477522	0	0	0	0	0	0	0	0	0	0	0.000000000	0.281592	0.788798	-0.788798	0.281592	0.828698	-1.5708	0	0.549379	0.1	0.1	0.549379	0.1	0.1	0.1	0	0	0	0	0	0	0	0.000000000
1504602927.234939098	0.246971	0.776194	-0.809942	0.240835	0.785398	-1.61221	-0.0107379	0.573026	0	0	0.525274	0	0	0	0	0	0	0	0	0	0	0.000000000	0.281592	0.788798	-0.788798	0.281592	0.828698	-1.5708	0	0.549379	0.1	0.1	0.549379	0.1	0.1	0.1	0	0	0	0	0	0	0	0.000000000
1504602927.249551057	0.246971	0.776194	-0.809942	0.240835	0.785398	-1.61221	-0.0107379	0.573026	0	0	0.525274	0	0	0	0	0	0	0	0	0	0	0.000000000	0.306216	0.788798	-0.788798	0.306216	0.828698	-1.5708	0	0.566346	0.1	0.1	0.566346	0.1	0.1	0.1	0	0	0	0	0	0	0	0.000000000
1504602927.269406080	0.260777	0.776194	-0.809942	0.256175	0.785398	-1.61221	-0.0107379	0.42977	0	0	0.477522	0	0	0	0	0	0	0	0	0	0	0.000000000	0.306216	0.788798	-0.788798	0.306216	0.828698	-1.5708	0	0.566346	0.1	0.1	0.566346	0.1	0.1	0.1	0	0	0	0	0	0	0	0.000000000
1504602927.289355993	0.274583	0.776194	-0.809942	0.268447	0.785398	-1.61221	-0.0122718	0.525274	0	0	0.525274	0	0	0	0	0	0	0	0	0	0	0.000000000	0.3315	0.788798	-0.788798	0.3315	0.828698	-1.5708	0	0.581531	0.1	0.1	0.581531	0.1	0.1	0.1	0	0	0	0	0	0	0	0.000000000
1504602927.310172080	0.289922	0.776194	-0.809942	0.286854	0.785398	-1.61221	-0.0122718	0.573026	0	0	0.525274	0	0	0	0	0	0	0	0	0	0	0.000000000	0.3315	0.788798	-0.788798	0.3315	0.828698	-1.5708	0	0.581531	0.1	0.1	0.581531	0.1	0.1	0.1	0	0	0	0	0	0	0	0.000000000
1504602927.329644918	0.303728	0.776194	-0.809942	0.299126	0.785398	-1.61221	-0.0122718	0.525274	0	0	0.525274	0	0	0	0	0	0	0	0	0	0	0.000000000	0.3315	0.788798	-0.788798	0.3315	0.828698	-1.5708	0	0.581531	0.1	0.1	0.581531	0.1	0.1	0.1	0	0	0	0	0	0	0	0.000000000
1504602927.350119113	0.314466	0.776194	-0.809942	0.311398	0.785398	-1.61221	-0.0122718	0.525274	0	0	0.525274	0	0	0	0	0	0	0	0	0	0	0.000000000	0.357363	0.788798	-0.788798	0.357363	0.828698	-1.5708	0	0.594851	0.1	0.1	0.594851	0.1	0.1	0.1	0	0	0	0	0	0	0	0.000000000
1504602927.370009899	0.325204	0.776194	-0.809942	0.325204	0.785398	-1.61221	-0.0107379	0.42977	0	0	0.573026	0	0	0	0	0	0	0	0	0	0	0.000000000	0.357363	0.788798	-0.788798	0.357363	0.828698	-1.5708	0	0.594851	0.1	0.1	0.594851	0.1	0.1	0.1	0	0	0	0	0	0	0	0.000000000
1504602927.390609025	0.325204	0.776194	-0.809942	0.325204	0.785398	-1.61221	-0.0107379	0.42977	0	0	0.573026	0	0	0	0	0	0	0	0	0	0	0.000000000	0.383721	0.788798	-0.788798	0.383721	0.828698	-1.5708	0	0.606244	0.1	0.1	0.606244	0.1	0.1	0.1	0	0	0	0	0	0	0	0.000000000
1504602927.409162044	0.337476	0.776194	-0.809942	0.337476	0.785398	-1.61221	-0.0122718	0.42977	0	0	0.525274	0	0	0	0	0	0	0	0	0	0	0.000000000	0.383721	0.788798	-0.788798	0.383721	0.828698	-1.5708	0	0.606244	0.1	0.1	0.606244	0.1	0.1	0.1	0	0	0	0	0	0	0	0.000000000
1504602927.429797887	0.352816	0.776194	-0.809942	0.348214	0.785398	-1.61221	-0.0122718	0.573026	0	0	0.42977	0	0	0	0	0	0	0	0	0	0	0.000000000	0.410488	0.788798	-0.788798	0.410488	0.828698	-1.5708	0	0.615644	0.1	0.1	0.615644	0.1	0.1	0.1	0	0	0	0	0	0	0	0.000000000
1504602927.449502944	0.374291	0.776194	-0.809942	0.365087	0.785398	-1.61221	-0.0122718	0.620779	0	0	0.573026	0	0	0	0	0	0	0	0	0	0	0.000000000	0.410488	0.788798	-0.788798	0.410488	0.828698	-1.5708	0	0.615644	0.1	0.1	0.615644	0.1	0.1	0.1	0	0	0	0	0	0	0	0.000000000
1504602927.469151973	0.374291	0.776194	-0.809942	0.365087	0.785398	-1.61221	-0.0122718	0.620779	0	0	0.573026	0	0	0	0	0	0	0	0	0	0	0.000000000	0.437575	0.788798	-0.788798	0.437575	0.828698	-1.5708	0	0.623006	0.1	0.1	0.623006	0.1	0.1	0.1	0	0	0	0	0	0	0	0.000000000
1504602927.489124059	0.388097	0.776194	-0.809942	0.381961	0.785398	-1.61221	-0.0107379	0.620779	0	0	0.573026	0	0	0	0	0	0	0	0	0	0	0.000000000	0.437575	0.788798	-0.788798	0.437575	0.828698	-1.5708	0	0.623006	0.1	0.1	0.623006	0.1	0.1	0.1	0	0	0	0	0	0	0	0.000000000
1504602927.509059906	0.401903	0.776194	-0.809942	0.400369	0.785398	-1.61221	-0.0107379	0.477522	0	0	0.620779	0	0	0	0	0	0	0	0	0	0	0.000000000	0.464892	0.788798	-0.788798	0.464892	0.828698	-1.5708	0	0.628291	0.1	0.1	0.628291	0.1	0.1	0.1	0	0	0	0	0	0	0	0.000000000
1504602927.529352903	0.418777	0.776194	-0.809942	0.414175	0.785398	-1.61221	-0.0122718	0.573026	0	0	0.573026	0	0	0	0	0	0	0	0	0	0	0.000000000	0.464892	0.788798	-0.788798	0.464892	0.828698	-1.5708	0	0.628291	0.1	0.1	0.628291	0.1	0.1	0.1	0	0	0	0	0	0	0	0.000000000
1504602927.549079895	0.432583	0.776194	-0.809942	0.431049	0.785398	-1.61221	-0.0107379	0.525274	0	0	0.525274	0	0	0	0	0	0	0	0	0	0	0.000000000	0.492348	0.788798	-0.788798	0.492348	0.828698	-1.5708	0	0.631472	0.1	0.1	0.631472	0.1	0.1	0.1	0	0	0	0	0	0	0	0.000000000
1504602927.569087982	0.444854	0.776194	-0.809942	0.44332	0.785398	-1.61221	-0.0122718	0.525274	0	0	0.573026	0	0	0	0	0	0	0	0	0	0	0.000000000	0.492348	0.788798	-0.788798	0.492348	0.828698	-1.5708	0	0.631472	0.1	0.1	0.631472	0.1	0.1	0.1	0	0	0	0	0	0	0	0.000000000
1504602927.589298963	0.461728	0.776194	-0.809942	0.44332	0.785398	-1.61221	-0.0122718	0.573026	0	0	0.573026	0	0	0	0	0	0	0	0	0	0	0.000000000	0.492348	0.788798	-0.788798	0.492348	0.828698	-1.5708	0	0.631472	0.1	0.1	0.631472	0.1	0.1	0.1	0	0	0	0	0	0	0	0.000000000
1504602927.609502077	0.461728	0.776194	-0.809942	0.45866	0.785398	-1.61221	-0.0122718	0.573026	0	0	0.573026	0	0	0	0	0	0	0	0	0	0	0.000000000	0.519849	0.788798	-0.788798	0.519849	0.828698	-1.5708	0	0.632534	0.1	0.1	0.632534	0.1	0.1	0.1	0	0	0	0	0	0	0	0.000000000
1504602927.629388093	0.483204	0.776194	-0.809942	0.475534	0.785398	-1.61221	-0.0107379	0.620779	0	0	0.620779	0	0	0	0	0	0	0	0	0	0	0.000000000	0.519849	0.788798	-0.788798	0.519849	0.828698	-1.5708	0	0.632534	0.1	0.1	0.632534	0.1	0.1	0.1	0	0	0	0	0	0	0	0.000000000
1504602927.649384021	0.483204	0.776194	-0.809942	0.475534	0.785398	-1.61221	-0.0107379	0.620779	0	0	0.620779	0	0	0	0	0	0	0	0	0	0	0.000000000	0.547305	0.788798	-0.788798	0.547305	0.828698	-1.5708	0	0.631473	0.1	0.1	0.631473	0.1	0.1	0.1	0	0	0	0	0	0	0	0.000000000
1504602927.669291019	0.506214	0.776194	-0.809942	0.493942	0.785398	-1.61221	-0.0107379	0.573026	0	0	0.620779	0	0	0	0	0	0	0	0	0	0	0.000000000	0.547305	0.788798	-0.788798	0.547305	0.828698	-1.5708	0	0.631473	0.1	0.1	0.631473	0.1	0.1	0.1	0	0	0	0	0	0	0	0.000000000
1504602927.689249992	0.520019	0.776194	-0.809942	0.510816	0.785398	-1.61221	-0.0122718	0.477522	0	0	0.525274	0	0	0	0	0	0	0	0	0	0	0.000000000	0.574622	0.788798	-0.788798	0.574622	0.828698	-1.5708	0	0.628291	0.1	0.1	0.628291	0.1	0.1	0.1	0	0	0	0	0	0	0	0.000000000
1504602927.709209918	0.532291	0.776194	-0.809942	0.529223	0.785398	-1.61221	-0.0122718	0.525274	0	0	0.573026	0	0	0	0	0	0	0	0	0	0	0.000000000	0.574622	0.788798	-0.788798	0.574622	0.828698	-1.5708	0	0.628291	0.1	0.1	0.628291	0.1	0.1	0.1	0	0	0	0	0	0	0	0.000000000
1504602927.729609966	0.544563	0.776194	-0.809942	0.538427	0.785398	-1.61221	-0.0107379	0.620779	0	0	0.525274	0	0	0	0	0	0	0	0	0	0	0.000000000	0.601709	0.788798	-0.788798	0.601709	0.828698	-1.5708	0	0.623006	0.1	0.1	0.623006	0.1	0.1	0.1	0	0	0	0	0	0	0	0.000000000
1504602927.749175071	0.562971	0.776194	-0.809942	0.558369	0.785398	-1.61221	-0.0107379	0.573026	0	0	0.620779	0	0	0	0	0	0	0	0	0	0	0.000000000	0.601709	0.788798	-0.788798	0.601709	0.828698	-1.5708	0	0.623006	0.1	0.1	0.623006	0.1	0.1	0.1	0	0	0	0	0	0	0	0.000000000
1504602927.770903110	0.572175	0.776194	-0.809942	0.570641	0.785398	-1.61221	-0.0107379	0.525274	0	0	0.573026	0	0	0	0	0	0	0	0	0	0	0.000000000	0.628476	0.788798	-0.788798	0.628476	0.828698	-1.5708	0	0.615644	0.1	0.1	0.615644	0.1	0.1	0.1	0	0	0	0	0	0	0	0.000000000
1504602927.789170980	0.572175	0.776194	-0.809942	0.570641	0.785398	-1.61221	-0.0107379	0.525274	0	0	0.573026	0	0	0	0	0	0	0	0	0	0	0.000000000	0.628476	0.788798	-0.788798	0.628476	0.828698	-1.5708	0	0.615644	0.1	0.1	0.615644	0.1	0.1	0.1	0	0	0	0	0	0	0	0.000000000
1504602927.809251070	0.585981	0.776194	-0.809942	0.581379	0.785398	-1.61375	-0.0122718	0.477522	0	0	0.382018	0	0	0	0	0	0	0	0	0	0	0.000000000	0.654834	0.788798	-0.788798	0.654834	0.828698	-1.5708	0	0.606244	0.1	0.1	0.606244	0.1	0.1	0.1	0	0	0	0	0	0	0	0.000000000
1504602927.832102060	0.602854	0.776194	-0.809942	0.595185	0.785398	-1.61221	-0.0122718	0.573026	0	0	0.477522	0	0	0	0	0	0	0	0	0	0	0.000000000	0.654834	0.788798	-0.788798	0.654834	0.828698	-1.5708	0	0.606244	0.1	0.1	0.606244	0.1	0.1	0.1	0	0	0	0	0	0	0	0.000000000
1504602927.849468946	0.618194	0.776194	-0.809942	0.613592	0.785398	-1.61221	-0.0107379	0.668531	0	0	0.620779	0	0	0	0	0	0	0	0	0	0	0.000000000	0.654834	0.788798	-0.788798	0.654834	0.828698	-1.5708	0	0.606244	0.1	0.1	0.606244	0.1	0.1	0.1	0	0	0	0	0	0	0	0.000000000
1504602927.869287014	0.618194	0.776194	-0.809942	0.613592	0.785398	-1.61221	-0.0107379	0.668531	0	0	0.620779	0	0	0	0	0	0	0	0	0	0	0.000000000	0.680698	0.788798	-0.788798	0.680698	0.828698	-1.5708	0	0.594851	0.1	0.1	0.594851	0.1	0.1	0.1	0	0	0	0	0	0	0	0.000000000
1504602927.889087915	0.636602	0.776194	-0.809942	0.630466	0.785398	-1.61221	-0.0107379	0.620779	0	0	0.668531	0	0	0	0	0	0	0	0	0	0	0.000000000	0.680698	0.788798	-0.788798	0.680698	0.828698	-1.5708	0	0.594851	0.1	0.1	0.594851	0.1	0.1	0.1	0	0	0	0	0	0	0	0.000000000
1504602927.909167051	0.653476	0.776194	-0.809942	0.64734	0.785398	-1.61375	-0.0107379	0.573026	0	0	0.525274	0	0	0	0	0	0	0	0	0	0	0.000000000	0.705981	0.788798	-0.788798	0.705981	0.828698	-1.5708	0	0.581531	0.1	0.1	0.581531	0.1	0.1	0.1	0	0	0	0	0	0	0	0.000000000
1504602927.929141044	0.667282	0.776194	-0.809942	0.661146	0.785398	-1.61221	-0.0107379	0.620779	0	0	0.573026	0	0	0	0	0	0	0	0	0	0	0.000000000	0.705981	0.788798	-0.788798	0.705981	0.828698	-1.5708	0	0.581531	0.1	0.1	0.581531	0.1	0.1	0.1	0	0	0	0	0	0	0	0.000000000
1504602927.949222087	0.681087	0.77466	-0.809942	0.674952	0.785398	-1.61221	-0.0122718	0.573026	0	0	0.477522	0	0	0	0	0	0	0	0	0	0	0.000000000	0.730605	0.788798	-0.788798	0.730605	0.828698	-1.5708	0	0.566345	0.1	0.1	0.566345	0.1	0.1	0.1	0	0	0	0	0	0	0	0.000000000
1504602927.971647024	0.697961	0.776194	-0.809942	0.674952	0.785398	-1.61221	-0.0122718	0.477522	0	0	0.477522	0	0	0	0	0	0	0	0	0	0	0.000000000	0.730605	0.788798	-0.788798	0.730605	0.828698	-1.5708	0	0.566345	0.1	0.1	0.566345	0.1	0.1	0.1	0	0	0	0	0	0	0	0.000000000
1504602927.989340066	0.697961	0.776194	-0.809942	0.690291	0.785398	-1.61221	-0.0122718	0.477522	0	0	0.573026	0	0	0	0	0	0	0	0	0	0	0.000000000	0.754491	0.788798	-0.788798	0.754491	0.828698	-1.5708	0	0.549379	0.1	0.1	0.549379	0.1	0.1	0.1	0	0	0	0	0	0	0	0.000000000
1504602928.011451959	0.713301	0.77466	-0.809942	0.705631	0.785398	-1.61221	-0.0107379	0.477522	0	0	0.525274	0	0	0	0	0	0	0	0	0	0	0.000000000	0.754491	0.788798	-0.788798	0.754491	0.828698	-1.5708	0	0.549379	0.1	0.1	0.549379	0.1	0.1	0.1	0	0	0	0	0	0	0	0.000000000
1504602928.029874086	0.713301	0.77466	-0.809942	0.705631	0.785398	-1.61221	-0.0107379	0.477522	0	0	0.525274	0	0	0	0	0	0	0	0	0	0	0.000000000	0.777566	0.788798	-0.788798	0.777566	0.828698	-1.5708	0	0.530722	0.1	0.1	0.530722	0.1	0.1	0.1	0	0	0	0	0	0	0	0.000000000
1504602928.049216032	0.731709	0.776194	-0.809942	0.727107	0.785398	-1.61221	-0.0122718	0.42977	0	0	0.525274	0	0	0	0	0	0	0	0	0	0	0.000000000	0.777566	0.788798	-0.788798	0.777566	0.828698	-1.5708	0	0.530722	0.1	0.1	0.530722	0.1	0.1	0.1	0	0	0	0	0	0	0	0.000000000
1504602928.069480895	0.745515	0.776194	-0.809942	0.743981	0.785398	-1.61221	-0.0122718	0.477522	0	0	0.477522	0	0	0	0	0	0	0	0	0	0	0.000000000	0.799761	0.788798	-0.788798	0.799761	0.828698	-1.5708	0	0.510475	0.1	0.1	0.510475	0.1	0.1	0.1	0	0	0	0	0	0	0	0.000000000
1504602928.089301109	0.75932	0.776194	-0.809942	0.753185	0.785398	-1.61221	-0.0107379	0.477522	0	0	0.42977	0	0	0	0	0	0	0	0	0	0	0.000000000	0.799761	0.788798	-0.788798	0.799761	0.828698	-1.5708	0	0.510475	0.1	0.1	0.510475	0.1	0.1	0.1	0	0	0	0	0	0	0	0.000000000
1504602928.109473943	0.75932	0.776194	-0.809942	0.753185	0.785398	-1.61221	-0.0107379	0.477522	0	0	0.42977	0	0	0	0	0	0	0	0	0	0	0.000000000	0.799761	0.788798	-0.788798	0.799761	0.828698	-1.5708	0	0.510475	0.1	0.1	0.510475	0.1	0.1	0.1	0	0	0	0	0	0	0	0.000000000
1504602928.129158020	0.77466	0.776194	-0.809942	0.768524	0.785398	-1.61221	-0.0107379	0.525274	0	0	0.477522	0	0	0	0	0	0	0	0	0	0	0.000000000	0.821011	0.788798	-0.788798	0.821011	0.828698	-1.5708	0	0.488753	0.1	0.1	0.488753	0.1	0.1	0.1	0	0	0	0	0	0	0	0.000000000
1504602928.150098085	0.791534	0.776194	-0.809942	0.785398	0.785398	-1.61221	-0.0107379	0.525274	0	0	0.525274	0	0	0	0	0	0	0	0	0	0	0.000000000	0.821011	0.788798	-0.788798	0.821011	0.828698	-1.5708	0	0.488753	0.1	0.1	0.488753	0.1	0.1	0.1	0	0	0	0	0	0	0	0.000000000
1504602928.169771909	0.791534	0.776194	-0.809942	0.785398	0.785398	-1.61221	-0.0107379	0.525274	0	0	0.525274	0	0	0	0	0	0	0	0	0	0	0.000000000	0.841258	0.788798	-0.788798	0.841258	0.828698	-1.5708	0	0.465678	0.1	0.1	0.465678	0.1	0.1	0.1	0	0	0	0	0	0	0	0.000000000
1504602928.189868927	0.802272	0.776194	-0.809942	0.79767	0.785398	-1.61221	-0.0122718	0.334265	0	0	0.477522	0	0	0	0	0	0	0	0	0	0	0.000000000	0.841258	0.788798	-0.788798	0.841258	0.828698	-1.5708	0	0.465678	0.1	0.1	0.465678	0.1	0.1	0.1	0	0	0	0	0	0	0	0.000000000
1504602928.209122896	0.816078	0.776194	-0.809942	0.811476	0.785398	-1.61221	-0.0122718	0.42977	0	0	0.477522	0	0	0	0	0	0	0	0	0	0	0.000000000	0.860448	0.788798	-0.788798	0.860448	0.828698	-1.5708	0	0.441384	0.1	0.1	0.441384	0.1	0.1	0.1	0	0	0	0	0	0	0	0.000000000
1504602928.229584932	0.82835	0.776194	-0.809942	0.82835	0.785398	-1.61221	-0.0122718	0.42977	0	0	0.477522	0	0	0	0	0	0	0	0	0	0	0.000000000	0.860448	0.788798	-0.788798	0.860448	0.828698	-1.5708	0	0.441384	0.1	0.1	0.441384	0.1	0.1	0.1	0	0	0	0	0	0	0	0.000000000
1504602928.249805927	0.82835	0.776194	-0.809942	0.82835	0.785398	-1.61221	-0.0107379	0.42977	0	0	0.477522	0	0	0	0	0	0	0	0	0	0	0.000000000	0.878536	0.788798	-0.788798	0.878536	0.828698	-1.5708	0	0.416014	0.1	0.1	0.416014	0.1	0.1	0.1	0	0	0	0	0	0	0	0.000000000
1504602928.269185066	0.839087	0.776194	-0.809942	0.837554	0.785398	-1.61221	-0.0122718	0.382018	0	0	0.42977	0	0	0	0	0	0	0	0	0	0	0.000000000	0.878536	0.788798	-0.788798	0.878536	0.828698	-1.5708	0	0.416014	0.1	0.1	0.416014	0.1	0.1	0.1	0	0	0	0	0	0	0	0.000000000
1504602928.289186954	0.851359	0.776194	-0.809942	0.845223	0.785398	-1.61221	-0.0107379	0.42977	0	0	0.334265	0	0	0	0	0	0	0	0	0	0	0.000000000	0.89548	0.788798	-0.788798	0.89548	0.828698	-1.5708	0	0.389727	0.1	0.1	0.389727	0.1	0.1	0.1	0	0	0	0	0	0	0	0.000000000
1504602928.310281038	0.863631	0.776194	-0.809942	0.860563	0.785398	-1.61221	-0.0122718	0.42977	0	0	0.42977	0	0	0	0	0	0	0	0	0	0	0.000000000	0.89548	0.788798	-0.788798	0.89548	0.828698	-1.5708	0	0.389727	0.1	0.1	0.389727	0.1	0.1	0.1	0	0	0	0	0	0	0	0.000000000
1504602928.330080986	0.875903	0.776194	-0.809942	0.871301	0.785398	-1.61221	-0.0122718	0.42977	0	0	0.42977	0	0	0	0	0	0	0	0	0	0	0.000000000	0.911249	0.788798	-0.788798	0.911249	0.828698	-1.5708	0	0.362686	0.1	0.1	0.362686	0.1	0.1	0.1	0	0	0	0	0	0	0	0.000000000
1504602928.350673913	0.875903	0.776194	-0.809942	0.871301	0.785398	-1.61221	-0.0107379	0.42977	0	0	0.42977	0	0	0	0	0	0	0	0	0	0	0.000000000	0.911249	0.788798	-0.788798	0.911249	0.828698	-1.5708	0	0.362686	0.1	0.1	0.362686	0.1	0.1	0.1	0	0	0	0	0	0	0	0.000000000
1504602928.369538068	0.885107	0.776194	-0.809942	0.882039	0.785398	-1.61221	-0.0107379	0.382018	0	0	0.382018	0	0	0	0	0	0	0	0	0	0	0.000000000	0.911249	0.788798	-0.788798	0.911249	0.828698	-1.5708	0	0.362686	0.1	0.1	0.362686	0.1	0.1	0.1	0	0	0	0	0	0	0	0.000000000
1504602928.389163017	0.892777	0.776194	-0.809942	0.889709	0.785398	-1.61221	-0.0122718	0.334265	0	0	0.382018	0	0	0	0	0	0	0	0	0	0	0.000000000	0.925818	0.788798	-0.788798	0.925818	0.828698	-1.5708	0	0.335069	0.1	0.1	0.335069	0.1	0.1	0.1	0	0	0	0	0	0	0	0.000000000
1504602928.409611940	0.903515	0.776194	-0.809942	0.900447	0.785398	-1.61221	-0.0122718	0.334265	0	0	0.382018	0	0	0	0	0	0	0	0	0	0	0.000000000	0.925818	0.788798	-0.788798	0.925818	0.828698	-1.5708	0	0.335069	0.1	0.1	0.335069	0.1	0.1	0.1	0	0	0	0	0	0	0	0.000000000
1504602928.429487943	0.903515	0.776194	-0.809942	0.900447	0.785398	-1.61221	-0.0107379	0.334265	0	0	0.382018	0	0	0	0	0	0	0	0	0	0	0.000000000	0.939168	0.788798	-0.788798	0.939168	0.828698	-1.5708	0	0.307063	0.1	0.1	0.307063	0.1	0.1	0.1	0	0	0	0	0	0	0	0.000000000
1504602928.449615955	0.911185	0.776194	-0.809942	0.903515	0.785398	-1.61221	-0.0107379	0.238761	0	0	0.286513	0	0	0	0	0	0	0	0	0	0	0.000000000	0.939168	0.788798	-0.788798	0.939168	0.828698	-1.5708	0	0.307063	0.1	0.1	0.307063	0.1	0.1	0.1	0	0	0	0	0	0	0	0.000000000
1504602928.469235897	0.921922	0.776194	-0.809942	0.912719	0.785398	-1.61221	-0.0107379	0.286513	0	0	0.238761	0	0	0	0	0	0	0	0	0	0	0.000000000	0.951293	0.788798	-0.788798	0.951293	0.828698	-1.5708	0	0.278869	0.1	0.1	0.278869	0.1	0.1	0.1	0	0	0	0	0	0	0	0.000000000
1504602928.489335060	0.929592	0.776194	-0.809942	0.920388	0.785398	-1.61221	-0.0107379	0.286513	0	0	0.238761	0	0	0	0	0	0	0	0	0	0	0.000000000	0.951293	0.788798	-0.788798	0.951293	0.828698	-1.5708	0	0.278869	0.1	0.1	0.278869	0.1	0.1	0.1	0	0	0	0	0	0	0	0.000000000
1504602928.509639978	0.934194	0.776194	-0.809942	0.926524	0.785398	-1.61221	-0.0107379	0.286513	0	0	0.286513	0	0	0	0	0	0	0	0	0	0	0.000000000	0.951293	0.788798	-0.788798	0.951293	0.828698	-1.5708	0	0.278869	0.1	0.1	0.278869	0.1	0.1	0.1	0	0	0	0	0	0	0	0.000000000
1504602928.530047893	0.934194	0.776194	-0.809942	0.926524	0.785398	-1.61221	-0.0107379	0.286513	0	0	0.286513	0	0	0	0	0	0	0	0	0	0	0.000000000	0.962192	0.788798	-0.788798	0.962192	0.828698	-1.5708	0	0.250691	0.1	0.1	0.250691	0.1	0.1	0.1	0	0	0	0	0	0	0	0.000000000
1504602928.549169063	0.94033	0.776194	-0.809942	0.934194	0.785398	-1.61221	-0.0107379	0.191009	0	0	0.286513	0	0	0	0	0	0	0	0	0	0	0.000000000	0.971877	0.788798	-0.788798	0.971877	0.828698	-1.5708	0	0.222753	0.1	0.1	0.222753	0.1	0.1	0.1	0	0	0	0	0	0	0	0.000000000
1504602928.569152116	0.946466	0.776194	-0.809942	0.938796	0.785398	-1.61221	-0.0107379	0.191009	0	0	0.191009	0	0	0	0	0	0	0	0	0	0	0.000000000	0.971877	0.788798	-0.788798	0.971877	0.828698	-1.5708	0	0.222753	0.1	0.1	0.222753	0.1	0.1	0.1	0	0	0	0	0	0	0	0.000000000
1504602928.589248895	0.952602	0.776194	-0.809942	0.943398	0.785398	-1.61221	-0.0122718	0.238761	0	0	0.191009	0	0	0	0	0	0	0	0	0	0	0.000000000	0.971877	0.788798	-0.788798	0.971877	0.828698	-1.5708	0	0.222753	0.1	0.1	0.222753	0.1	0.1	0.1	0	0	0	0	0	0	0	0.000000000
1504602928.609453916	0.960272	0.776194	-0.809942	0.948	0.785398	-1.61221	-0.0122718	0.238761	0	0	0.191009	0	0	0	0	0	0	0	0	0	0	0.000000000	0.980368	0.788798	-0.788798	0.980368	0.828698	-1.5708	0	0.195283	0.1	0.1	0.195283	0.1	0.1	0.1	0	0	0	0	0	0	0	0.000000000
1504602928.630589962	0.960272	0.776194	-0.809942	0.948	0.785398	-1.61221	-0.0122718	0.238761	0	0	0.191009	0	0	0	0	0	0	0	0	0	0	0.000000000	0.980368	0.788798	-0.788798	0.980368	0.828698	-1.5708	0	0.195283	0.1	0.1	0.195283	0.1	0.1	0.1	0	0	0	0	0	0	0	0.000000000
1504602928.649916887	0.966408	0.776194	-0.809942	0.958738	0.785398	-1.61221	-0.0122718	0.238761	0	0	0.334265	0	0	0	0	0	0	0	0	0	0	0.000000000	0.987695	0.788798	-0.788798	0.987695	0.828698	-1.5708	0	0.168524	0.1	0.1	0.168524	0.1	0.1	0.1	0	0	0	0	0	0	0	0.000000000
1504602928.669729948	0.972544	0.776194	-0.809942	0.966408	0.785398	-1.61221	-0.0107379	0.238761	0	0	0.286513	0	0	0	0	0	0	0	0	0	0	0.000000000	0.987695	0.788798	-0.788798	0.987695	0.828698	-1.5708	0	0.168524	0.1	0.1	0.168524	0.1	0.1	0.1	0	0	0	0	0	0	0	0.000000000
1504602928.689266920	0.972544	0.776194	-0.809942	0.966408	0.785398	-1.61221	-0.0107379	0.238761	0	0	0.286513	0	0	0	0	0	0	0	0	0	0	0.000000000	0.993901	0.788798	-0.788798	0.993901	0.828698	-1.5708	0	0.142727	0.1	0.1	0.142727	0.1	0.1	0.1	0	0	0	0	0	0	0	0.000000000
1504602928.709542036	0.975612	0.776194	-0.809942	0.972544	0.785398	-1.61221	-0.0107379	0.0955044	0	0	0.238761	0	0	0	0	0	0	0	0	0	0	0.000000000	0.993901	0.788798	-0.788798	0.993901	0.828698	-1.5708	0	0.142727	0.1	0.1	0.142727	0.1	0.1	0.1	0	0	0	0	0	0	0	0.000000000
1504602928.729238033	0.980214	0.776194	-0.809942	0.974078	0.785398	-1.61221	-0.0122718	0.143257	0	0	0	0	0	0	0	0	0	0	0	0	0	0.000000000	0.999038	0.788798	-0.788798	0.999038	0.828698	-1.5708	0	0.118153	0.1	0.1	0.118153	0.1	0.1	0.1	0	0	0	0	0	0	0	0.000000000
1504602928.749533891	0.983282	0.776194	-0.809942	0.977146	0.785398	-1.61221	-0.0107379	0.0955044	0	0	0.143257	0	0	0	0	0	0	0	0	0	0	0.000000000	0.999038	0.788798	-0.788798	0.999038	0.828698	-1.5708	0	0.118153	0.1	0.1	0.118153	0.1	0.1	0.1	0	0	0	0	0	0	0	0.000000000
1504602928.769227981	0.98635	0.776194	-0.809942	0.981748	0.785398	-1.61221	-0.0107379	0.0955044	0	0	0.191009	0	0	0	0	0	0	0	0	0	0	0.000000000	1.00317	0.788798	-0.788798	1.00317	0.828698	-1.5708	0	0.1	0.1	0.1	0.1	0.1	0.1	0.1	0	0	0	0	0	0	0	0.000000000
1504602928.793253898	0.990952	0.776194	-0.809942	0.98635	0.785398	-1.61221	-0.0107379	0.0955044	0	0	0.238761	0	0	0	0	0	0	0	0	0	0	0.000000000	1.00317	0.788798	-0.788798	1.00317	0.828698	-1.5708	0	0.1	0.1	0.1	0.1	0.1	0.1	0.1	0	0	0	0	0	0	0	0.000000000
1504602928.809132099	0.990952	0.776194	-0.809942	0.98635	0.785398	-1.61221	-0.0107379	0.0955044	0	0	0.238761	0	0	0	0	0	0	0	0	0	0	0.000000000	1.00638	0.788798	-0.788798	1.00638	0.828698	-1.5708	0	0.1	0.1	0.1	0.1	0.1	0.1	0.1	0	0	0	0	0	0	0	0.000000000
1504602928.829061031	0.99402	0.776194	-0.809942	0.990952	0.785398	-1.61221	-0.0122718	0.0955044	0	0	0.143257	0	0	0	0	0	0	0	0	0	0	0.000000000	1.00638	0.788798	-0.788798	1.00638	0.828698	-1.5708	0	0.1	0.1	0.1	0.1	0.1	0.1	0.1	0	0	0	0	0	0	0	0.000000000
1504602928.849302053	0.995554	0.776194	-0.809942	0.99402	0.785398	-1.61221	-0.0122718	0.0955044	0	0	0.0955044	0	0	0	0	0	0	0	0	0	0	0.000000000	1.00638	0.788798	-0.788798	1.00638	0.828698	-1.5708	0	0.1	0.1	0.1	0.1	0.1	0.1	0.1	0	0	0	0	0	0	0	0.000000000
1504602928.871961116	0.998621	0.776194	-0.809942	0.995554	0.785398	-1.61221	-0.0122718	0.0955044	0	0	0	0	0	0	0	0	0	0	0	0	0	0.000000000	1.00875	0.788798	-0.788798	1.00875	0.828698	-1.5708	0	0.1	0.1	0.1	0.1	0.1	0.1	0.1	0	0	0	0	0	0	0	0.000000000
1504602928.889072895	1.00016	0.776194	-0.809942	0.998621	0.785398	-1.61221	-0.0122718	0.0955044	0	0	0.0955044	0	0	0	0	0	0	0	0	0	0	0.000000000	1.00875	0.788798	-0.788798	1.00875	0.828698	-1.5708	0	0.1	0.1	0.1	0.1	0.1	0.1	0.1	0	0	0	0	0	0	0	0.000000000
1504602928.912648916	1.00169	0.776194	-0.809942	0.998621	0.785398	-1.61221	-0.0122718	0.0955044	0	0	0.0955044	0	0	0	0	0	0	0	0	0	0	0.000000000	1.01039	0.788798	-0.788798	1.01039	0.828698	-1.5708	0	0.1	0.1	0.1	0.1	0.1	0.1	0.1	0	0	0	0	0	0	0	0.000000000
1504602928.929167985	1.00169	0.776194	-0.809942	0.998621	0.785398	-1.61221	-0.0107379	0.0955044	0	0	0	0	0	0	0	0	0	0	0	0	0	0.000000000	1.01039	0.788798	-0.788798	1.01039	0.828698	-1.5708	0	0.1	0.1	0.1	0.1	0.1	0.1	0.1	0	0	0	0	0	0	0	0.000000000
1504602928.949606895	1.00476	0.776194	-0.809942	1.00016	0.785398	-1.61221	-0.0122718	0.0955044	0	0	0	0	0	0	0	0	0	0	0	0	0	0.000000000	1.01142	0.788798	-0.788798	1.01142	0.828698	-1.5708	0	0.1	0.1	0.1	0.1	0.1	0.1	0.1	0	0	0	0	0	0	0	0.000000000
1504602928.969095945	1.00476	0.776194	-0.809942	1.00016	0.785398	-1.61221	-0.0122718	0	0	0	0	0	0	0	0	0	0	0	0	0	0	0.000000000	1.01142	0.788798	-0.788798	1.01142	0.828698	-1.5708	0	0.1	0.1	0.1	0.1	0.1	0.1	0.1	0	0	0	0	0	0	0	0.000000000
1504602928.990334033	1.00476	0.776194	-0.809942	1.00016	0.785398	-1.61221	-0.0122718	0	0	0	0	0	0	0	0	0	0	0	0	0	0	0.000000000	1.01196	0.788798	-0.788798	1.01196	0.828698	-1.5708	0	0.1	0.1	0.1	0.1	0.1	0.1	0.1	0	0	0	0	0	0	0	0.000000000
1504602929.009301900	1.00476	0.776194	-0.809942	1.00016	0.785398	-1.61221	-0.0122718	0	0	0	0	0	0	0	0	0	0	0	0	0	0	0.000000000	1.01196	0.788798	-0.788798	1.01196	0.828698	-1.5708	0	0.1	0.1	0.1	0.1	0.1	0.1	0.1	0	0	0	0	0	0	0	0.000000000
1504602929.029572963	1.00476	0.776194	-0.809942	1.00016	0.785398	-1.61221	-0.0122718	0	0	0	0	0	0	0	0	0	0	0	0	0	0	0.000000000	1.01217	0.788798	-0.788798	1.01217	0.828698	-1.5708	0	0.1	0.1	0.1	0.1	0.1	0.1	0.1	0	0	0	0	0	0	0	0.000000000
1504602929.049143075	1.00629	0.776194	-0.809942	1.00016	0.785398	-1.61221	-0.0122718	0	0	0	0	0	0	0	0	0	0	0	0	0	0	0.000000000	1.01217	0.788798	-0.788798	1.01217	0.828698	-1.5708	0	0.1	0.1	0.1	0.1	0.1	0.1	0.1	0	0	0	0	0	0	0	0.000000000
1504602929.069308042	1.00629	0.776194	-0.809942	1.00016	0.785398	-1.61221	-0.0107379	0	0	0	0	0	0	0	0	0	0	0	0	0	0	0.000000000	1.0122	0.788798	-0.788798	1.0122	0.828698	-1.5708	0	0.1	0.1	0.1	0.1	0.1	0.1	0.1	0	0	0	0	0	0	0	0.000000000
1504602929.089106082	1.00629	0.776194	-0.809942	1.00169	0.785398	-1.61221	-0.0122718	0	0	0	0	0	0	0	0	0	0	0	0	0	0	0.000000000	1.0122	0.788798	-0.788798	1.0122	0.828698	-1.5708	0	0.1	0.1	0.1	0.1	0.1	0.1	0.1	0	0	0	0	0	0	0	0.000000000
1504602929.109127044	1.00629	0.776194	-0.809942	1.00169	0.785398	-1.61221	-0.0122718	0	0	0	0	0	0	0	0	0	0	0	0	0	0	0.000000000	1.0122	0.788798	-0.788798	1.0122	0.828698	-1.5708	0	0.1	0.1	0.1	0.1	0.1	0.1	0.1	0	0	0	0	0	0	0	0.000000000
1504602929.129287958	1.00629	0.776194	-0.809942	1.00169	0.785398	-1.61221	-0.0122718	0	0	0	0	0	0	0	0	0	0	0	0	0	0	0.000000000	1.0122	0.788807	-0.788822	1.0122	0.828674	-1.57081	0	0.1	0.1	0.1	0.1	0.1	0.1	0.1	0	0	0	0	0	0	0	0.000000000
1504602929.151566028	1.00629	0.776194	-0.809942	1.00016	0.785398	-1.61221	-0.0122718	0	0	0	0	0	0	0	0	0	0	0	0	0	0	0.000000000	1.0122	0.788807	-0.788822	1.0122	0.828674	-1.57081	0	0.1	0.1	0.1	0.1	0.1	0.1	0.1	0	0	0	0	0	0	0	0.000000000
1504602929.169646978	1.00629	0.776194	-0.809942	1.00169	0.785398	-1.61221	-0.0107379	0	0	0	0	0	0	0	0	0	0	0	0	0	0	0.000000000	1.0122	0.788866	-0.788983	1.0122	0.828513	-1.57091	0	0.1	0.1	0.1	0.1	0.1	0.1	0.1	0	0	0	0	0	0	0	0.000000000
1504602929.189266920	1.00629	0.776194	-0.809942	1.00169	0.785398	-1.61221	-0.0107379	0	0	0	0	0	0	0	0	0	0	0	0	0	0	0.000000000	1.0122	0.788866	-0.788983	1.0122	0.828513	-1.57091	0	0.1	0.1	0.1	0.1	0.1	0.1	0.1	0	0	0	0	0	0	0	0.000000000
1504602929.209203958	1.00629	0.776194	-0.809942	1.00169	0.785398	-1.61221	-0.0107379	0	0	0	0	0	0	0	0	0	0	0	0	0	0	0.000000000	1.0122	0.789021	-0.78941	1.0122	0.828087	-1.57119	0	0.1	0.1	0.1	0.1	0.1	0.1	0.1	0	0	0	0	0	0	0	0.000000000
1504602929.229444026	1.00629	0.776194	-0.809942	1.00169	0.785398	-1.61221	-0.0107379	0	0	0	0	0	0	0	0	0	0	0	0	0	0	0.000000000	1.0122	0.789021	-0.78941	1.0122	0.828087	-1.57119	0	0.1	0.1	0.1	0.1	0.1	0.1	0.1	0	0	0	0	0	0	0	0.000000000
1504602929.249491930	1.00629	0.776194	-0.809942	1.00169	0.785398	-1.61221	-0.0107379	0	0	0	0	0	0	0	0	0	0	0	0	0	0	0.000000000	1.0122	0.789314	-0.790216	1.0122	0.827281	-1.5717	0	0.1	0.1	0.1	0.1	0.1	0.1	0.1	0	0	0	0	0	0	0	0.000000000
1504602929.271153926	1.00629	0.776194	-0.809942	1.00169	0.785398	-1.61221	-0.0107379	0	0	0	0	0	0	0	0	0	0	0	0	0	0	0.000000000	1.0122	0.789314	-0.790216	1.0122	0.827281	-1.5717	0	0.1	0.1	0.1	0.1	0.1	0.1	0.1	0	0	0	0	0	0	0	0.000000000
1504602929.289452075	1.00629	0.776194	-0.809942	1.00169	0.785398	-1.61221	-0.0122718	0	0	0	0	0	0	0	0	0	0	0	0	0	0	0.000000000	1.0122	0.789785	-0.791504	1.0122	0.825992	-1.57252	0	0.1	0.1	0.1	0.1	0.1	0.1	0.1	0	0	0	0	0	0	0	0.000000000
1504602929.309499025	1.00629	0.776194	-0.809942	1.00169	0.785398	-1.61221	-0.0107379	0	0	0	0	0	0	0	0	0	0	0	0	0	0	0.000000000	1.0122	0.789785	-0.791504	1.0122	0.825992	-1.57252	0	0.1	0.1	0.1	0.1	0.1	0.1	0.1	0	0	0	0	0	0	0	0.000000000
1504602929.330085992	1.00629	0.776194	-0.809942	1.00016	0.785398	-1.61221	-0.0107379	0	0	0	0	0	0	0	0	0	0	0	0	0	0	0.000000000	1.0122	0.790469	-0.793367	1.0122	0.82413	-1.57369	0	0.1	0.1	0.1	0.1	0.1	0.1	0.1	0	0	0	0	0	0	0	0.000000000
1504602929.349174976	1.00629	0.776194	-0.809942	1.00169	0.785398	-1.61221	-0.0122718	0	0	0	0	0	0	0	0	0	0	0	0	0	0	0.000000000	1.0122	0.790469	-0.793367	1.0122	0.82413	-1.57369	0	0.1	0.1	0.1	0.1	0.1	0.1	0.1	0	0	0	0	0	0	0	0.000000000
1504602929.369143962	1.00629	0.776194	-0.809942	1.00322	0.785398	-1.61221	-0.0107379	0	0	0	0	0	0	0	0	0	0	0	0	0	0	0.000000000	1.0122	0.790469	-0.793367	1.0122	0.82413	-1.57369	0	0.1	0.1	0.1	0.1	0.1	0.1	0.1	0	0	0	0	0	0	0	0.000000000
1504602929.389215946	1.00629	0.776194	-0.809942	1.00322	0.785398	-1.61221	-0.0107379	0	0	0	0	0	0	0	0	0	0	0	0	0	0	0.000000000	1.0122	0.791399	-0.795885	1.0122	0.821611	-1.57528	0	0.1	0.1	0.1	0.1	0.1	0.1	0.1	0	0	0	0	0	0	0	0.000000000
1504602929.409075021	1.00629	0.776194	-0.809942	1.00016	0.785398	-1.61221	-0.0107379	0	0	0	0	0	0	0	0	0	0	0	0	0	0	0.000000000	1.0122	0.791399	-0.795885	1.0122	0.821611	-1.57528	0	0.1	0.1	0.1	0.1	0.1	0.1	0.1	0	0	0	0	0	0	0	0.000000000
1504602929.429074048	1.00629	0.776194	-0.809942	1.00169	0.785398	-1.61221	-0.0122718	0	0	0	0	0	0	0	0	0	0	0	0	0	0	0.000000000	1.0122	0.792606	-0.799128	1.0122	0.818368	-1.57732	0	0.1	0.1	0.1	0.1	0.1	0.1	0.1	0	0	0	0	0	0	0	0.000000000
1504602929.449157953	1.00629	0.776194	-0.809942	1.00169	0.785398	-1.61221	-0.0107379	0	0	0	0	0	0	0	0	0	0	0	0	0	0	0.000000000	1.0122	0.792606	-0.799128	1.0122	0.818368	-1.57732	0	0.1	0.1	0.1	0.1	0.1	0.1	0.1	0	0	0	0	0	0	0	0.000000000
1504602929.469501972	1.00629	0.776194	-0.809942	1.00169	0.785398	-1.61221	-0.0107379	0	0	0	0	0	0	0	0	0	0	0	0	0	0	0.000000000	1.0122	0.794122	-0.803157	1.0122	0.814339	-1.57983	0	0.1	0.1	0.1	0.1	0.1	0.1	0.1	0	0	0	0	0	0	0	0.000000000
1504602929.489404916	1.00629	0.776194	-0.809942	1.00169	0.785398	-1.61221	-0.0122718	0	0	0	0	0	0	0	0	0	0	0	0	0	0	0.000000000	1.0122	0.794122	-0.803157	1.0122	0.814339	-1.57983	0	0.1	0.1	0.1	0.1	0.1	0.1	0.1	0	0	0	0	0	0	0	0.000000000
1504602929.509057998	1.00629	0.776194	-0.809942	1.00169	0.785398	-1.61221	-0.0122718	0	0	0	0	0	0	0	0	0	0	0	0	0	0	0.000000000	1.0122	0.795974	-0.808021	1.0122	0.809475	-1.58284	0	0.1	0.1	0.111869	0.1	0.111869	0.1	0.1	0	0	0	0	0	0	0	0.000000000
1504602929.529309034	1.00629	0.776194	-0.809942	1.00169	0.785398	-1.61221	-0.0122718	0	0	0	0	0	0	0	0	0	0	0	0	0	0	0.000000000	1.0122	0.795974	-0.808021	1.0122	0.809475	-1.58284	0	0.1	0.1	0.111869	0.1	0.111869	0.1	0.1	0	0	0	0	0	0	0	0.000000000
1504602929.549124002	1.00629	0.776194	-0.809942	1.00169	0.785398	-1.61221	-0.0107379	0	0	0	0	0	0	0	0	0	0	0	0	0	0	0.000000000	1.0122	0.798192	-0.81376	1.0122	0.803736	-1.58636	0	0.1	0.1	0.131995	0.1	0.131995	0.1	0.1	0	0	0	0	0	0	0	0.000000000
1504602929.569386005	1.00629	0.776194	-0.809942	1.00169	0.785398	-1.61221	-0.0107379	0	0	0	0	0	0	0	0	0	0	0	0	0	0	0.000000000	1.0122	0.798192	-0.81376	1.0122	0.803736	-1.58636	0	0.1	0.1	0.131995	0.1	0.131995	0.1	0.1	0	0	0	0	0	0	0	0.000000000
1504602929.592019081	1.00629	0.776194	-0.809942	1.00169	0.785398	-1.61221	-0.0122718	0	0	0	0	0	0	0	0	0	0	0	0	0	0	0.000000000	1.0122	0.800803	-0.820405	1.0122	0.797092	-1.5904	0	0.1	0.1	0.152824	0.1	0.152824	0.1	0.1	0	0	0	0	0	0	0	0.000000000
1504602929.609337091	1.00629	0.776194	-0.809942	1.00169	0.785398	-1.61221	-0.0122718	0	0	0	0	0	0	0	0	0	0	0	0	0	0	0.000000000	1.0122	0.800803	-0.820405	1.0122	0.797092	-1.5904	0	0.1	0.1	0.152824	0.1	0.152824	0.1	0.1	0	0	0	0	0	0	0	0.000000000
1504602929.629133939	1.00629	0.776194	-0.811476	1.00169	0.785398	-1.61221	-0.0107379	0	0	0	0	0	0	0	0	0	0	0	0	0	0	0.000000000	1.0122	0.800803	-0.820405	1.0122	0.797092	-1.5904	0	0.1	0.1	0.152824	0.1	0.152824	0.1	0.1	0	0	0	0	0	0	0	0.000000000
1504602929.649250030	1.00629	0.776194	-0.811476	1.00169	0.785398	-1.61221	-0.0107379	0	0	0	0	0	0	0	0	0	0	0	0	0	0	0.000000000	1.0122	0.803834	-0.827976	1.0122	0.78952	-1.59494	0	0.1	0.1	0.17415	0.1	0.17415	0.104422	0.1	0	0	0	0	0	0	0	0.000000000
1504602929.669290065	1.00629	0.776194	-0.814544	1.00169	0.785398	-1.61221	-0.0107379	0	0	0.107442	0	0	0	0	0	0	0	0	0	0	0	0.000000000	1.0122	0.803834	-0.827976	1.0122	0.78952	-1.59494	0	0.1	0.1	0.17415	0.1	0.17415	0.104422	0.1	0	0	0	0	0	0	0	0.000000000
1504602929.689192056	1.00783	0.776194	-0.819146	1.00169	0.785398	-1.61221	-0.0122718	0	0	0.155195	0	0	0	0	0	0	0	0	0	0	0	0.000000000	1.0122	0.807315	-0.836488	1.0122	0.781008	-1.59997	0	0.1	0.1	0.195774	0.1	0.195774	0.115732	0.1	0	0	0	0	0	0	0	0.000000000
1504602929.709283113	1.00629	0.776194	-0.823748	1.00169	0.780796	-1.61221	-0.0122718	0	0	0.202947	0	0.107442	0	0	0	0	0	0	0	0	0	0.000000000	1.0122	0.807315	-0.836488	1.0122	0.781008	-1.59997	0	0.1	0.1	0.195774	0.1	0.195774	0.115732	0.1	0	0	0	0	0	0	0	0.000000000
1504602929.730510950	1.00629	0.776194	-0.82835	1.00169	0.779262	-1.61221	-0.0107379	0	0	0.202947	0	0.107442	0	0	0	0	0	0	0	0	0	0.000000000	1.0122	0.81127	-0.845945	1.0122	0.771551	-1.60547	0	0.1	0.1	0.217501	0.1	0.217501	0.126513	0.1	0	0	0	0	0	0	0	0.000000000
1504602929.750072956	1.00629	0.776194	-0.831418	1.00169	0.776194	-1.61221	-0.0122718	0	0	0.202947	0	0.155195	0	0	0	0	0	0	0	0	0	0.000000000	1.0122	0.81127	-0.845945	1.0122	0.771551	-1.60547	0	0.1	0.1	0.217501	0.1	0.217501	0.126513	0.1	0	0	0	0	0	0	0	0.000000000
1504602929.769644021	1.00629	0.776194	-0.83602	1.00169	0.770058	-1.61375	-0.0122718	0	0	0.202947	0	0.202947	0	0	0	0	0	0	0	0	0	0.000000000	1.0122	0.815729	-0.856343	1.0122	0.761154	-1.61141	0	0.1	0.102549	0.239148	0.1	0.239148	0.1366	0.1	0	0	0	0	0	0	0	0.000000000
1504602929.789227962	1.00629	0.776194	-0.842155	1.00169	0.763922	-1.61835	-0.0107379	0	0	0.202947	0	0.250699	0.155195	0	0	0	0	0	0	0	0	0.000000000	1.0122	0.815729	-0.856343	1.0122	0.761154	-1.61141	0	0.1	0.102549	0.239148	0.1	0.239148	0.1366	0.1	0	0	0	0	0	0	0	0.000000000
1504602929.810116052	1.00629	0.776194	-0.848291	1.00016	0.757787	-1.61835	-0.0107379	0	0	0.202947	0	0.202947	0.155195	0	0	0	0	0	0	0	0	0.000000000	1.0122	0.820717	-0.86767	1.0122	0.749826	-1.61775	0	0.1	0.114715	0.260538	0.1	0.260538	0.145823	0.1	0	0	0	0	0	0	0	0.000000000
1504602929.829107999	1.00629	0.776194	-0.848291	1.00016	0.757787	-1.62295	-0.0122718	0	0	0.202947	0	0.202947	0.202947	0	0	0	0	0	0	0	0	0.000000000	1.0122	0.820717	-0.86767	1.0122	0.749826	-1.61775	0	0.1	0.114715	0.260538	0.1	0.260538	0.145823	0.1	0	0	0	0	0	0	0	0.000000000
1504602929.849569082	1.00629	0.776194	-0.854427	1.00016	0.751651	-1.62602	-0.0122718	0	0	0.250699	0	0.250699	0.155195	0	0	0	0	0	0	0	0	0.000000000	1.0122	0.820717	-0.86767	1.0122	0.749826	-1.61775	0	0.1	0.114715	0.260538	0.1	0.260538	0.145823	0.1	0	0	0	0	0	0	0	0.000000000
1504602929.869132041	1.00629	0.776194	-0.860563	1.00169	0.747049	-1.62909	-0.0122718	0	0	0.250699	0	0.155195	0	0	0	0	0	0	0	0	0	0.000000000	1.0122	0.826259	-0.87991	1.0122	0.737587	-1.62445	0	0.1	0.127461	0.281506	0.1	0.281506	0.154043	0.1	0	0	0	0	0	0	0	0.000000000
1504602929.893630027	1.00629	0.776194	-0.860563	1.00169	0.747049	-1.62909	-0.0122718	0	0	0.250699	0	0.155195	0	0	0	0	0	0	0	0	0	0.000000000	1.0122	0.826259	-0.87991	1.0122	0.737587	-1.62445	0	0.1	0.127461	0.281506	0.1	0.281506	0.154043	0.1	0	0	0	0	0	0	0	0.000000000
1504602929.909138917	1.00629	0.777728	-0.869767	1.00016	0.740913	-1.63216	-0.0107379	0	0	0.298451	0	0.202947	0.107442	0	0	0	0	0	0	0	0	0.000000000	1.0122	0.832379	-0.893035	1.0122	0.724461	-1.63145	0	0.1	0.140761	0.30189	0.1	0.30189	0.161131	0.1	0	0	0	0	0	0	0	0.000000000
1504602929.929172992	1.00783	0.779262	-0.875903	1.00169	0.736311	-1.63676	-0.0107379	0	0	0.250699	0	0.202947	0.202947	0	0	0	0	0	0	0	0	0.000000000	1.0122	0.832379	-0.893035	1.0122	0.724461	-1.63145	0	0.1	0.140761	0.30189	0.1	0.30189	0.161131	0.1	0	0	0	0	0	0	0	0.000000000
1504602929.949903964	1.00783	0.78233	-0.883573	1.00169	0.728641	-1.64136	-0.0107379	0	0.0955044	0.298451	0	0.250699	0.202947	0	0	0	0	0	0	0	0	0.000000000	1.0122	0.839099	-0.907015	1.0122	0.710481	-1.63871	0	0.1	0.154564	0.321538	0.1	0.321538	0.166971	0.1	0	0	0	0	0	0	0	0.000000000
1504602929.969216108	1.00783	0.786932	-0.888175	1.00169	0.719437	-1.64443	-0.0122718	0	0.143257	0.250699	0	0.298451	0.107442	0	0	0	0	0	0	0	0	0.000000000	1.0122	0.839099	-0.907015	1.0122	0.710481	-1.63871	0	0.1	0.154564	0.321538	0.1	0.321538	0.166971	0.1	0	0	0	0	0	0	0	0.000000000
1504602929.992149114	1.00629	0.791534	-0.897379	1.00016	0.713301	-1.6475	-0.0122718	0	0.191009	0.298451	0	0.250699	0.155195	0	0	0	0	0	0	0	0	0.000000000	1.0122	0.846439	-0.921811	1.0122	0.695685	-1.64617	0	0.1	0.168826	0.340307	0.1	0.340307	0.171484	0.1	0	0	0	0	0	0	0	0.000000000
1504602930.009741067	1.00629	0.791534	-0.897379	1.00016	0.713301	-1.6475	-0.0122718	0	0.191009	0.298451	0	0.250699	0.155195	0	0	0	0	0	0	0	0	0.000000000	1.0122	0.846439	-0.921811	1.0122	0.695685	-1.64617	0	0.1	0.168826	0.340307	0.1	0.340307	0.171484	0.1	0	0	0	0	0	0	0	0.000000000
1504602930.029171943	1.00783	0.800738	-0.905049	1.00016	0.702563	-1.65363	-0.0107379	0	0.238761	0.250699	0	0.346204	0.202947	0	0	0	0	0	0	0	0	0.000000000	1.0122	0.854416	-0.937379	1.0122	0.680117	-1.65376	0	0.1	0.183471	0.35806	0.1	0.35806	0.174588	0.1	0	0	0	0	0	0	0	0.000000000
1504602930.049540042	1.00783	0.808408	-0.914253	1.00016	0.690291	-1.65823	-0.0122718	0	0.238761	0.250699	0	0.393956	0.155195	0	0	0	0	0	0	0	0	0.000000000	1.0122	0.854416	-0.937379	1.0122	0.680117	-1.65376	0	0.1	0.183471	0.35806	0.1	0.35806	0.174588	0.1	0	0	0	0	0	0	0	0.000000000
1504602930.077402114	1.00936	0.81301	-0.923456	1.00169	0.681087	-1.65977	-0.0122718	0	0.143257	0.298451	0	0.346204	0.155195	0	0	0	0	0	0	0	0	0.000000000	1.0122	0.863043	-0.953669	1.0122	0.663827	-1.66142	0	0.1	0.198426	0.374673	0.1	0.374673	0.176247	0.1	0	0	0	0	0	0	0	0.000000000
