DingWan/Reconbot3Ddemo/02_MATLAB_Code/sensors_data/IGM_3s70steps_0905_torque_data_joint_LargeCamera.txt
time_stamp	torque_joint_1	torque_joint_2	torque_joint_3	torque_joint_4	torque_joint_5	torque_joint_6	torque_joint_7	temperature_1	temperature_2	temperature_3	temperature_4	temperature_5	temperature_6	temperature_7
1.5046e+09	0.046875	-0.21875	-0.101562	0.0390625	-0.0625	-0.203125	-0.0625	39	63	45	37	40	57	36
1.5046e+09	0.046875	-0.21875	-0.101562	0.0390625	-0.0625	-0.203125	-0.0625	39	63	45	37	40	57	36
1.5046e+09	0.046875	-0.21875	-0.101562	0.0390625	-0.0625	-0.203125	-0.0625	39	63	45	37	40	57	36
1.5046e+09	0.046875	-0.21875	-0.101562	0.0390625	-0.0625	-0.203125	-0.0546875	39	63	45	37	40	57	36
1.5046e+09	0.046875	-0.21875	-0.101562	0.0390625	-0.0625	-0.203125	-0.0546875	39	63	45	37	40	57	36
1.5046e+09	0.046875	-0.21875	-0.101562	0.0390625	-0.0625	-0.210938	-0.0546875	39	63	45	37	40	57	36
1.5046e+09	0.046875	-0.21875	-0.101562	0.0390625	-0.0625	-0.203125	-0.0546875	39	63	45	37	40	57	36
1.5046e+09	0.046875	-0.21875	-0.101562	0.0390625	-0.0625	-0.203125	-0.0625	39	63	45	37	40	57	36
1.5046e+09	0.046875	-0.21875	-0.101562	0.0390625	-0.0625	-0.210938	-0.0546875	39	63	45	37	40	57	36
1.5046e+09	0.046875	-0.21875	-0.101562	0.0390625	-0.0625	-0.203125	-0.0625	39	63	45	37	40	57	36
1.5046e+09	0.046875	-0.21875	-0.101562	0.046875	-0.0625	-0.203125	-0.0546875	39	63	45	37	40	57	36
1.5046e+09	0.046875	-0.21875	-0.101562	0.0390625	-0.0625	-0.203125	-0.0625	39	63	45	37	40	57	36
1.5046e+09	0.046875	-0.21875	-0.101562	0.0390625	-0.0625	-0.210938	-0.0625	39	63	45	37	40	57	36
1.5046e+09	0.046875	-0.21875	-0.101562	0.0390625	-0.0625	-0.203125	-0.0546875	39	63	45	37	40	57	36
1.5046e+09	0.046875	-0.21875	-0.101562	0.046875	-0.0625	-0.203125	-0.0625	39	63	45	37	40	57	36
1.5046e+09	0.046875	-0.21875	-0.101562	0.0390625	-0.0625	-0.203125	-0.0546875	39	63	45	37	40	57	36
1.5046e+09	0.046875	-0.21875	-0.101562	0.0390625	-0.0625	-0.203125	-0.0546875	39	63	45	37	40	57	36
1.5046e+09	0.046875	-0.21875	-0.101562	0.0390625	-0.0703125	-0.203125	-0.0625	39	63	45	37	40	57	36
1.5046e+09	0.046875	-0.21875	-0.101562	0.046875	-0.0625	-0.203125	-0.0546875	39	63	45	37	40	57	36
1.5046e+09	0.046875	-0.21875	-0.101562	0.0390625	-0.0625	-0.203125	-0.0625	39	63	45	37	40	57	36
1.5046e+09	0.046875	-0.21875	-0.101562	0.0390625	-0.0625	-0.203125	-0.0625	39	63	45	37	40	57	36
1.5046e+09	0.046875	-0.21875	-0.101562	0.0390625	-0.0625	-0.203125	-0.0625	39	63	45	37	40	57	36
1.5046e+09	0.046875	-0.21875	-0.101562	0.0390625	-0.0625	-0.210938	-0.0625	39	63	45	37	40	57	36
1.5046e+09	0.046875	-0.21875	-0.101562	0.0390625	-0.0625	-0.203125	-0.0546875	39	63	45	37	40	57	36
1.5046e+09	0.046875	-0.21875	-0.101562	0.0390625	-0.0625	-0.203125	-0.0625	39	63	45	37	40	57	36
1.5046e+09	0.046875	-0.21875	-0.101562	0.0390625	-0.0625	-0.203125	-0.0625	39	63	45	37	40	57	36
1.5046e+09	0.046875	-0.21875	-0.101562	0.0390625	-0.0625	-0.203125	-0.0625	39	63	45	37	40	57	36
1.5046e+09	0.046875	-0.21875	-0.101562	0.0390625	-0.0625	-0.203125	-0.0625	39	63	45	37	40	57	36
1.5046e+09	0.046875	-0.21875	-0.101562	0.0390625	-0.0625	-0.203125	-0.0546875	39	63	45	37	40	57	36
1.5046e+09	0.046875	-0.21875	-0.101562	0.0390625	-0.0625	-0.203125	-0.0546875	39	63	45	37	40	57	36
1.5046e+09	0.046875	-0.21875	-0.101562	0.0390625	-0.0625	-0.203125	-0.0546875	39	63	45	37	40	57	36
1.5046e+09	0.046875	-0.21875	-0.101562	0.0390625	-0.0625	-0.203125	-0.0625	39	63	45	37	40	57	36
1.5046e+09	0.046875	-0.21875	-0.101562	0.046875	-0.0625	-0.203125	-0.0625	39	63	45	37	40	57	36
1.5046e+09	0.046875	-0.21875	-0.101562	0.0390625	-0.0625	-0.210938	-0.0546875	39	63	45	37	40	57	36
1.5046e+09	0.046875	-0.21875	-0.101562	0.0390625	-0.0625	-0.203125	-0.0625	39	63	45	37	40	57	36
1.5046e+09	0.046875	-0.21875	-0.101562	0.046875	-0.0625	-0.203125	-0.0546875	39	63	45	37	40	57	36
1.5046e+09	0.046875	-0.21875	-0.101562	0.0390625	-0.0625	-0.203125	-0.0625	39	63	45	37	40	57	36
1.5046e+09	0.046875	-0.21875	-0.101562	0.0390625	-0.0625	-0.210938	-0.0625	39	63	45	37	40	57	36
1.5046e+09	0.046875	-0.21875	-0.101562	0.0390625	-0.0625	-0.203125	-0.0625	39	63	45	37	40	57	36
1.5046e+09	0.046875	-0.21875	-0.101562	0.0390625	-0.0625	-0.203125	-0.0625	39	63	45	37	40	57	36
1.5046e+09	0.046875	-0.21875	-0.101562	0.0390625	-0.0625	-0.203125	-0.0546875	39	63	45	37	40	57	36
1.5046e+09	0.046875	-0.21875	-0.101562	0.0390625	-0.0625	-0.203125	-0.0546875	39	63	45	37	40	57	36
1.5046e+09	0.046875	-0.21875	-0.101562	0.0390625	-0.0703125	-0.203125	-0.0625	39	63	45	37	40	57	36
1.5046e+09	0.046875	-0.21875	-0.101562	0.0390625	-0.0625	-0.203125	-0.0625	39	63	45	37	40	57	36
1.5046e+09	0.0546875	-0.21875	-0.101562	0.046875	-0.0625	-0.203125	-0.0625	39	63	45	37	40	57	36
1.5046e+09	0.046875	-0.21875	-0.101562	0.0390625	-0.0625	-0.203125	-0.0625	39	63	45	37	40	57	36
1.5046e+09	0.046875	-0.21875	-0.101562	0.0390625	-0.0625	-0.203125	-0.0625	39	63	45	37	40	57	36
1.5046e+09	0.046875	-0.21875	-0.101562	0.0390625	-0.0625	-0.203125	-0.0625	39	63	45	37	40	57	36
1.5046e+09	0.046875	-0.21875	-0.101562	0.0390625	-0.0625	-0.203125	-0.0625	39	63	45	37	40	57	36
1.5046e+09	0.046875	-0.21875	-0.101562	0.0390625	-0.0625	-0.203125	-0.0625	39	63	45	37	40	57	36
1.5046e+09	0.046875	-0.21875	-0.101562	0.0390625	-0.0625	-0.203125	-0.0546875	39	63	45	37	40	57	36
1.5046e+09	0.046875	-0.21875	-0.101562	0.0390625	-0.0625	-0.203125	-0.0625	39	63	45	37	40	57	36
1.5046e+09	0.046875	-0.21875	-0.101562	0.0390625	-0.0625	-0.203125	-0.0546875	39	63	45	37	40	57	36
1.5046e+09	0.046875	-0.21875	-0.101562	0.0390625	-0.0625	-0.210938	-0.0625	39	63	45	37	40	57	36
1.5046e+09	0.046875	-0.21875	-0.101562	0.0390625	-0.0625	-0.203125	-0.0625	39	63	45	37	40	57	36
1.5046e+09	0.046875	-0.21875	-0.101562	0.0390625	-0.0625	-0.203125	-0.0546875	39	63	45	37	40	57	36
1.5046e+09	0.046875	-0.21875	-0.101562	0.0390625	-0.0625	-0.203125	-0.0625	39	63	45	37	40	57	36
1.5046e+09	0.046875	-0.21875	-0.109375	0.0390625	-0.0625	-0.203125	-0.0625	39	63	45	37	40	57	36
1.5046e+09	0.046875	-0.21875	-0.101562	0.0390625	-0.0625	-0.203125	-0.0625	39	63	45	37	40	57	36
1.5046e+09	0.046875	-0.21875	-0.101562	0.0390625	-0.0625	-0.203125	-0.0625	39	63	45	37	40	57	36
1.5046e+09	0.046875	-0.21875	-0.101562	0.0390625	-0.0625	-0.203125	-0.0625	39	63	45	37	40	57	36
1.5046e+09	0.046875	-0.21875	-0.101562	0.0390625	-0.0625	-0.203125	-0.0546875	39	63	45	37	40	57	36
1.5046e+09	0.046875	-0.21875	-0.101562	0.0390625	-0.0625	-0.203125	-0.0625	39	63	45	37	40	57	36
1.5046e+09	0.046875	-0.21875	-0.101562	0.0390625	-0.0625	-0.203125	-0.0546875	39	63	45	37	40	57	36
1.5046e+09	0.046875	-0.21875	-0.101562	0.0390625	-0.0625	-0.203125	-0.0546875	39	63	45	37	40	57	36
1.5046e+09	0.046875	-0.21875	-0.101562	0.0390625	-0.0625	-0.203125	-0.0625	39	63	45	37	40	57	36
1.5046e+09	0.046875	-0.21875	-0.101562	0.046875	-0.0625	-0.203125	-0.0546875	39	63	45	37	40	57	36
1.5046e+09	0.046875	-0.21875	-0.101562	0.046875	-0.0625	-0.203125	-0.0625	39	63	45	37	40	57	36
1.5046e+09	0.046875	-0.21875	-0.101562	0.0390625	-0.0625	-0.210938	-0.0625	39	63	45	37	40	57	36
1.5046e+09	0.046875	-0.21875	-0.101562	0.0390625	-0.0625	-0.203125	-0.0625	39	63	45	37	40	57	36
1.5046e+09	0.046875	-0.21875	-0.101562	0.0390625	-0.0625	-0.210938	-0.0625	39	63	45	37	40	57	36
1.5046e+09	0.046875	-0.21875	-0.101562	0.0390625	-0.0625	-0.203125	-0.0625	39	63	45	37	40	57	36
1.5046e+09	0.046875	-0.21875	-0.101562	0.0390625	-0.0625	-0.203125	-0.0625	39	63	45	37	40	57	36
1.5046e+09	0.046875	-0.21875	-0.101562	0.0390625	-0.0625	-0.203125	-0.0546875	39	63	45	37	40	57	36
1.5046e+09	0.046875	-0.21875	-0.101562	0.0390625	-0.0625	-0.203125	-0.0625	39	63	45	37	40	57	36
1.5046e+09	0.046875	-0.21875	-0.101562	0.0390625	-0.0625	-0.203125	-0.0625	39	63	45	37	40	57	36
1.5046e+09	0.046875	-0.21875	-0.101562	0.0390625	-0.0625	-0.203125	-0.0625	39	63	45	37	40	57	36
1.5046e+09	0.046875	-0.21875	-0.101562	0.0390625	-0.0625	-0.203125	-0.0625	39	63	45	37	40	57	36
1.5046e+09	0.046875	-0.21875	-0.101562	0.0390625	-0.0625	-0.203125	-0.0625	39	63	45	37	40	57	36
1.5046e+09	0.046875	-0.21875	-0.101562	0.0390625	-0.0625	-0.203125	-0.0625	39	63	45	37	40	57	36
1.5046e+09	0.046875	-0.21875	-0.101562	0.0390625	-0.0625	-0.203125	-0.0546875	39	63	45	37	40	57	36
1.5046e+09	0.046875	-0.21875	-0.101562	0.0390625	-0.0625	-0.203125	-0.0546875	39	63	45	37	40	57	36
1.5046e+09	0.046875	-0.21875	-0.101562	0.0390625	-0.0625	-0.203125	-0.0625	39	63	45	37	40	57	36
1.5046e+09	0.046875	-0.21875	-0.101562	0.0390625	-0.0625	-0.203125	-0.0546875	39	63	45	37	40	57	36
1.5046e+09	0.046875	-0.21875	-0.101562	0.0390625	-0.0625	-0.203125	-0.0546875	39	63	45	37	40	57	36
1.5046e+09	0.046875	-0.21875	-0.101562	0.0390625	-0.0625	-0.210938	-0.0546875	39	63	45	37	40	57	36
1.5046e+09	0.046875	-0.21875	-0.101562	0.0390625	-0.0625	-0.203125	-0.0546875	39	63	45	37	40	57	36
1.5046e+09	0.046875	-0.21875	-0.101562	0.0390625	-0.0625	-0.203125	-0.0546875	39	63	45	37	40	57	36
1.5046e+09	0.046875	-0.21875	-0.101562	0.0390625	-0.0625	-0.203125	-0.0625	39	63	45	37	40	57	36
1.5046e+09	0.046875	-0.21875	-0.101562	0.0390625	-0.0625	-0.203125	-0.0625	39	63	45	37	40	57	36
1.5046e+09	0.046875	-0.21875	-0.101562	0.0390625	-0.0625	-0.203125	-0.0546875	39	63	45	37	40	57	36
1.5046e+09	0.046875	-0.21875	-0.101562	0.0390625	-0.0625	-0.203125	-0.0625	39	63	45	37	40	57	36
1.5046e+09	0.046875	-0.21875	-0.101562	0.0390625	-0.0625	-0.203125	-0.0546875	39	63	45	37	40	57	36
1.5046e+09	0.046875	-0.21875	-0.101562	0.0390625	-0.0625	-0.203125	-0.0546875	39	63	45	37	40	57	36
1.5046e+09	0.046875	-0.21875	-0.101562	0.0390625	-0.0625	-0.203125	-0.0546875	39	63	45	37	40	57	36
1.5046e+09	0.046875	-0.21875	-0.101562	0.046875	-0.0625	-0.203125	-0.0625	39	63	45	37	40	57	36
1.5046e+09	0.0390625	-0.21875	-0.101562	0.03125	-0.0625	-0.203125	-0.0546875	39	63	45	37	40	57	36
1.5046e+09	0.0390625	-0.21875	-0.101562	0.03125	-0.0625	-0.203125	-0.0546875	39	63	45	37	40	57	36
1.5046e+09	0.03125	-0.21875	-0.101562	0.0234375	-0.0703125	-0.203125	-0.0625	39	63	45	37	40	57	36
1.5046e+09	0.03125	-0.21875	-0.101562	0.0234375	-0.0625	-0.203125	-0.0625	39	63	45	37	40	57	36
1.5046e+09	0.0234375	-0.21875	-0.101562	0.015625	-0.0625	-0.203125	-0.0546875	39	63	45	37	40	57	36
1.5046e+09	0.015625	-0.21875	-0.101562	0.0078125	-0.0625	-0.203125	-0.0546875	39	63	45	37	40	57	36
1.5046e+09	0.0078125	-0.21875	-0.101562	-0.0078125	-0.0625	-0.203125	-0.0546875	39	63	45	37	40	57	36
1.5046e+09	0	-0.21875	-0.101562	-0.015625	-0.0625	-0.203125	-0.0546875	39	63	45	37	40	57	36
1.5046e+09	-0.015625	-0.21875	-0.101562	-0.03125	-0.0625	-0.203125	-0.0546875	39	63	45	37	40	57	36
1.5046e+09	-0.03125	-0.21875	-0.101562	-0.0390625	-0.0625	-0.203125	-0.0625	39	63	45	37	40	57	36
1.5046e+09	-0.046875	-0.21875	-0.101562	-0.0546875	-0.0625	-0.203125	-0.0625	39	63	45	37	40	57	36
1.5046e+09	-0.0546875	-0.21875	-0.101562	-0.0625	-0.0625	-0.203125	-0.0625	39	63	45	37	40	57	36
1.5046e+09	-0.0703125	-0.21875	-0.101562	-0.0859375	-0.0625	-0.203125	-0.0625	39	63	45	37	40	57	36
1.5046e+09	-0.0673828	-0.21875	-0.101562	-0.0556641	-0.0625	-0.203125	-0.0625	39	63	45	37	40	57	36
1.5046e+09	-0.0478516	-0.21875	-0.101562	-0.0556641	-0.0625	-0.210938	-0.0546875	39	63	45	37	40	57	36
1.5046e+09	-0.0537109	-0.21875	-0.101562	-0.0478516	-0.0625	-0.203125	-0.0546875	39	63	45	37	40	57	36
1.5046e+09	-0.0341797	-0.21875	-0.101562	-0.0478516	-0.0625	-0.203125	-0.0546875	39	63	45	37	40	57	36
1.5046e+09	-0.0400391	-0.21875	-0.101562	-0.0615234	-0.0625	-0.203125	-0.0625	39	63	45	37	40	57	36
1.5046e+09	-0.0478516	-0.21875	-0.101562	-0.0439453	-0.0625	-0.203125	-0.0546875	39	63	45	37	40	57	36
1.5046e+09	-0.0556641	-0.21875	-0.101562	-0.0556641	-0.0625	-0.203125	-0.0625	39	63	45	37	40	57	36
1.5046e+09	-0.0498047	-0.21875	-0.101562	-0.0498047	-0.0625	-0.203125	-0.0625	39	63	45	37	40	57	36
1.5046e+09	-0.0498047	-0.21875	-0.101562	-0.0576172	-0.0625	-0.203125	-0.0625	39	63	45	37	40	57	36
1.5046e+09	-0.0517578	-0.21875	-0.101562	-0.0517578	-0.0625	-0.203125	-0.0625	39	63	45	37	40	57	36
1.5046e+09	-0.0175781	-0.21875	-0.101562	-0.046875	-0.0625	-0.203125	-0.0625	39	63	45	37	40	57	36
1.5046e+09	-0.0361328	-0.21875	-0.101562	-0.0439453	-0.0625	-0.203125	-0.0546875	41	63	45	37	40	57	36
1.5046e+09	-0.0556641	-0.21875	-0.101562	-0.0517578	-0.0625	-0.203125	-0.0625	41	63	45	37	40	57	36
1.5046e+09	-0.0390625	-0.21875	-0.101562	-0.046875	-0.0625	-0.203125	-0.0546875	41	63	45	37	40	57	36
1.5046e+09	-0.046875	-0.21875	-0.101562	-0.0546875	-0.0625	-0.203125	-0.0625	41	63	45	37	40	57	36
1.5046e+09	-0.0332031	-0.21875	-0.101562	-0.0673828	-0.0625	-0.203125	-0.0546875	39	63	45	37	40	57	36
1.5046e+09	-0.0351562	-0.21875	-0.101562	-0.0488281	-0.0625	-0.203125	-0.0625	39	63	45	37	40	57	36
1.5046e+09	-0.0273438	-0.21875	-0.101562	-0.0703125	-0.0625	-0.203125	-0.0625	39	63	45	37	40	57	36
1.5046e+09	-0.046875	-0.21875	-0.101562	-0.0644531	-0.0625	-0.210938	-0.0546875	39	63	45	37	40	57	36
1.5046e+09	-0.0351562	-0.21875	-0.101562	-0.0527344	-0.0625	-0.203125	-0.0546875	39	63	45	37	40	57	36
1.5046e+09	-0.0351562	-0.21875	-0.101562	-0.0585938	-0.0625	-0.203125	-0.0546875	39	63	45	37	40	57	36
1.5046e+09	-0.0566406	-0.21875	-0.101562	-0.0527344	-0.0625	-0.210938	-0.0625	39	63	45	37	40	57	36
1.5046e+09	-0.0273438	-0.21875	-0.101562	-0.0429688	-0.0625	-0.203125	-0.0546875	39	63	45	37	40	57	36
1.5046e+09	-0.0351562	-0.21875	-0.101562	-0.0585938	-0.0625	-0.203125	-0.0625	39	63	45	37	40	57	36
1.5046e+09	-0.0449219	-0.21875	-0.101562	-0.0605469	-0.0625	-0.203125	-0.0546875	39	63	45	37	40	57	36
1.5046e+09	-0.03125	-0.21875	-0.101562	-0.0253906	-0.0625	-0.203125	-0.0546875	39	63	45	37	40	57	36
1.5046e+09	-0.0449219	-0.21875	-0.101562	-0.0585938	-0.0625	-0.203125	-0.0546875	39	63	45	37	40	57	36
1.5046e+09	-0.0390625	-0.21875	-0.101562	-0.0546875	-0.0625	-0.203125	-0.0625	39	63	45	37	40	57	36
1.5046e+09	-0.0390625	-0.21875	-0.101562	-0.0332031	-0.0625	-0.203125	-0.0625	39	63	45	37	40	57	36
1.5046e+09	-0.0390625	-0.21875	-0.101562	-0.0546875	-0.0625	-0.203125	-0.0625	39	63	45	37	40	57	36
1.5046e+09	-0.0390625	-0.21875	-0.101562	-0.0234375	-0.0625	-0.203125	-0.0625	39	63	45	37	40	57	36
1.5046e+09	-0.00976562	-0.21875	-0.101562	-0.0585938	-0.0625	-0.203125	-0.0546875	39	63	45	37	40	57	36
1.5046e+09	-0.03125	-0.21875	-0.101562	-0.0742188	-0.0625	-0.203125	-0.0625	39	63	45	37	40	57	36
1.5046e+09	-0.0664062	-0.21875	-0.101562	-0.0566406	-0.0625	-0.203125	-0.0625	39	63	45	37	40	57	36
1.5046e+09	-0.0410156	-0.21875	-0.101562	-0.0361328	-0.0625	-0.203125	-0.0625	39	63	45	37	40	57	36
1.5046e+09	-0.0410156	-0.21875	-0.101562	-0.0361328	-0.0625	-0.203125	-0.0546875	39	63	45	37	40	57	36
1.5046e+09	-0.0205078	-0.21875	-0.101562	-0.0449219	-0.0625	-0.203125	-0.0546875	39	63	45	37	40	57	36
1.5046e+09	-0.0332031	-0.21875	-0.101562	-0.0175781	-0.0625	-0.203125	-0.0625	39	63	45	37	40	57	36
1.5046e+09	-0.0390625	-0.21875	-0.101562	-0.046875	-0.0625	-0.203125	-0.0546875	39	63	45	37	40	57	36
1.5046e+09	-0.0410156	-0.21875	-0.101562	-0.046875	-0.0625	-0.203125	-0.0625	39	63	45	37	40	57	36
1.5046e+09	-0.0410156	-0.21875	-0.101562	-0.0488281	-0.0625	-0.203125	-0.0625	39	63	45	37	40	57	36
1.5046e+09	-0.0283203	-0.21875	-0.101562	-0.0283203	-0.0625	-0.203125	-0.0546875	39	63	45	37	40	57	36
1.5046e+09	-0.0283203	-0.21875	-0.101562	-0.00976562	-0.0625	-0.203125	-0.0546875	39	63	45	37	40	57	36
1.5046e+09	-0.0390625	-0.21875	-0.101562	-0.0449219	-0.0625	-0.203125	-0.0625	39	63	45	37	40	57	36
1.5046e+09	-0.0410156	-0.21875	-0.101562	-0.0546875	-0.0625	-0.203125	-0.0625	39	63	45	37	40	57	36
1.5046e+09	-0.0625	-0.21875	-0.101562	-0.0361328	-0.0625	-0.203125	-0.0546875	39	63	45	37	40	57	36
1.5046e+09	-0.0126953	-0.21875	-0.101562	-0.00976562	-0.0625	-0.203125	-0.0546875	39	63	45	37	40	57	36
1.5046e+09	-0.00976562	-0.21875	-0.101562	-0.0234375	-0.0625	-0.203125	-0.0546875	39	63	45	37	40	57	36
1.5046e+09	-0.0644531	-0.21875	-0.101562	-0.0527344	-0.0625	-0.210938	-0.0625	39	63	45	37	40	57	36
1.5046e+09	-0.0683594	-0.21875	-0.101562	-0.0488281	-0.0625	-0.203125	-0.0625	39	63	45	37	40	57	36
1.5046e+09	-0.0361328	-0.21875	-0.101562	-0.0302734	-0.0625	-0.203125	-0.0546875	39	63	45	37	40	57	36
1.5046e+09	-0.0302734	-0.21875	-0.101562	-0.0283203	-0.0625	-0.203125	-0.0546875	39	63	45	37	40	57	36
1.5046e+09	-0.0390625	-0.21875	-0.101562	-0.0332031	-0.0625	-0.210938	-0.0546875	39	63	45	37	40	57	36
1.5046e+09	-0.0253906	-0.21875	-0.101562	-0.0205078	-0.0625	-0.203125	-0.0546875	39	63	45	37	40	57	36
1.5046e+09	-0.0527344	-0.21875	-0.101562	-0.0332031	-0.0703125	-0.203125	-0.0625	39	63	45	37	40	57	36
1.5046e+09	-0.0253906	-0.21875	-0.101562	-0.0371094	-0.0625	-0.203125	-0.0625	39	63	45	37	40	57	36
1.5046e+09	-0.0390625	-0.21875	-0.101562	-0.0214844	-0.0703125	-0.203125	-0.0546875	39	63	45	37	40	57	36
1.5046e+09	-0.0234375	-0.21875	-0.101562	-0.0507812	-0.0625	-0.203125	-0.0625	39	63	45	37	40	57	36
1.5046e+09	-0.0292969	-0.21875	-0.101562	-0.0371094	-0.0625	-0.203125	-0.0625	39	63	45	37	40	57	36
1.5046e+09	-0.0429688	-0.21875	-0.101562	-0.0371094	-0.0625	-0.203125	-0.0546875	39	63	45	37	40	57	36
1.5046e+09	-0.0449219	-0.21875	-0.101562	-0.03125	-0.0625	-0.203125	-0.0546875	39	63	45	37	40	57	36
1.5046e+09	-0.015625	-0.21875	-0.101562	-0.0078125	-0.0625	-0.203125	-0.0546875	39	63	45	37	40	57	36
1.5046e+09	-0.0292969	-0.21875	-0.101562	-0.0546875	-0.0625	-0.203125	-0.0625	39	63	45	37	40	57	36
1.5046e+09	-0.0292969	-0.21875	-0.101562	-0.0429688	-0.0625	-0.203125	-0.0625	39	63	45	37	40	57	36
1.5046e+09	-0.0136719	-0.21875	-0.101562	-0.0273438	-0.0625	-0.203125	-0.0546875	39	63	45	37	40	57	36
1.5046e+09	-0.0273438	-0.21875	-0.101562	-0.0410156	-0.0625	-0.203125	-0.0625	39	63	45	37	40	57	36
1.5046e+09	-0.046875	-0.21875	-0.101562	-0.0351562	-0.0625	-0.203125	-0.0546875	39	63	45	37	40	57	36
1.5046e+09	-0.0429688	-0.21875	-0.101562	-0.0273438	-0.0625	-0.203125	-0.0625	39	63	45	37	40	57	36
1.5046e+09	-0.0273438	-0.21875	-0.101562	-0.0273438	-0.0625	-0.203125	-0.0546875	39	63	45	37	40	57	36
1.5046e+09	-0.0332031	-0.21875	-0.101562	-0.0253906	-0.0625	-0.203125	-0.0546875	39	63	45	37	40	57	36
1.5046e+09	-0.0253906	-0.21875	-0.101562	-0.0390625	-0.0625	-0.203125	-0.0625	39	63	45	37	40	57	36
1.5046e+09	-0.0175781	-0.21875	-0.101562	-0.03125	-0.0625	-0.203125	-0.0546875	39	63	45	37	40	57	36
1.5046e+09	-0.0361328	-0.21875	-0.101562	-0.0498047	-0.0625	-0.203125	-0.0546875	39	63	45	37	40	57	36
1.5046e+09	-0.0498047	-0.21875	-0.101562	-0.0361328	-0.0625	-0.203125	-0.0546875	39	63	45	37	40	57	36
1.5046e+09	-0.0576172	-0.21875	-0.101562	-0.0205078	-0.0625	-0.203125	-0.0546875	39	63	45	37	40	57	36
1.5046e+09	-0.0439453	-0.21875	-0.101562	-0.0205078	-0.0625	-0.203125	-0.0546875	39	63	45	37	40	57	36
1.5046e+09	-0.0361328	-0.21875	-0.101562	-0.0400391	-0.0625	-0.203125	-0.0546875	39	63	45	37	40	57	36
1.5046e+09	-0.0556641	-0.21875	-0.101562	-0.0400391	-0.0625	-0.203125	-0.0546875	39	63	45	37	40	57	36
1.5046e+09	-0.0634766	-0.21875	-0.101562	-0.0341797	-0.0625	-0.203125	-0.0625	39	63	45	37	40	57	36
1.5046e+09	-0.0712891	-0.21875	-0.101562	-0.0341797	-0.0625	-0.203125	-0.0625	39	63	45	37	40	57	36
1.5046e+09	-0.0390625	-0.21875	-0.101562	-0.0263672	-0.0625	-0.203125	-0.0625	39	63	45	37	40	57	36
1.5046e+09	-0.0283203	-0.21875	-0.101562	-0.0107422	-0.0625	-0.203125	-0.0546875	39	63	45	37	40	57	36
1.5046e+09	-0.0263672	-0.21875	-0.101562	-0.0439453	-0.0625	-0.203125	-0.0546875	39	63	45	37	40	57	36
1.5046e+09	-0.078125	-0.21875	-0.101562	-0.0380859	-0.0625	-0.203125	-0.0625	39	63	45	37	40	57	36
1.5046e+09	-0.0615234	-0.21875	-0.101562	-0.0439453	-0.0625	-0.203125	-0.0546875	39	63	45	37	40	57	36
1.5046e+09	-0.0478516	-0.21875	-0.101562	-0.0439453	-0.0625	-0.203125	-0.0546875	39	63	45	37	40	57	36
1.5046e+09	-0.0263672	-0.21875	-0.101562	-0.0361328	-0.0625	-0.203125	-0.0546875	39	63	45	37	40	57	36
1.5046e+09	-0.0302734	-0.21875	-0.101562	-0.0283203	-0.0625	-0.203125	-0.0625	39	63	45	37	40	57	36
1.5046e+09	-0.0283203	-0.21875	-0.101562	-0.0361328	-0.0625	-0.203125	-0.0625	39	63	45	37	40	57	36
1.5046e+09	-0.046875	-0.21875	-0.101562	-0.0283203	-0.0625	-0.203125	-0.0625	39	63	45	37	40	57	36
1.5046e+09	-0.0283203	-0.21875	-0.101562	-0.0361328	-0.0625	-0.203125	-0.0625	39	63	45	37	40	57	36
1.5046e+09	-0.046875	-0.21875	-0.101562	-0.0283203	-0.0625	-0.203125	-0.0546875	39	63	45	37	40	57	36
1.5046e+09	-0.046875	-0.21875	-0.101562	-0.0205078	-0.0625	-0.203125	-0.0625	39	63	45	37	40	57	36
1.5046e+09	-0.046875	-0.21875	-0.101562	-0.03125	-0.0625	-0.203125	-0.0625	39	63	45	37	40	57	36
1.5046e+09	-0.046875	-0.21875	-0.101562	-0.03125	-0.0625	-0.203125	-0.0625	39	63	45	37	40	57	36
1.5046e+09	-0.046875	-0.21875	-0.101562	-0.0390625	-0.0625	-0.203125	-0.0625	39	63	45	37	40	57	36
1.5046e+09	-0.0546875	-0.21875	-0.101562	-0.03125	-0.0625	-0.203125	-0.0625	39	63	45	37	40	57	36
1.5046e+09	-0.0546875	-0.21875	-0.101562	-0.03125	-0.0625	-0.203125	-0.0546875	39	63	45	37	40	57	36
1.5046e+09	-0.046875	-0.21875	-0.101562	-0.03125	-0.0625	-0.203125	-0.0625	39	63	45	37	40	57	36
1.5046e+09	-0.046875	-0.21875	-0.101562	-0.03125	-0.0625	-0.203125	-0.0625	39	63	45	37	40	57	36
1.5046e+09	-0.046875	-0.21875	-0.101562	-0.03125	-0.0625	-0.203125	-0.0625	39	63	45	37	40	57	36
1.5046e+09	-0.0546875	-0.21875	-0.101562	-0.03125	-0.0625	-0.203125	-0.0546875	39	63	45	37	40	57	36
1.5046e+09	-0.046875	-0.21875	-0.101562	-0.03125	-0.0625	-0.203125	-0.0546875	39	63	45	37	40	57	36
1.5046e+09	-0.046875	-0.21875	-0.101562	-0.03125	-0.0625	-0.203125	-0.0546875	39	63	45	37	40	57	36
1.5046e+09	-0.046875	-0.21875	-0.101562	-0.03125	-0.0625	-0.203125	-0.0546875	39	62	45	37	40	57	36
1.5046e+09	-0.046875	-0.21875	-0.09375	-0.03125	-0.0625	-0.203125	-0.0546875	39	62	45	37	40	57	36
1.5046e+09	-0.046875	-0.210938	-0.09375	-0.03125	-0.0703125	-0.195312	-0.0625	39	62	45	37	40	57	36
1.5046e+09	-0.046875	-0.210938	-0.09375	-0.03125	-0.0703125	-0.195312	-0.0546875	39	62	45	37	40	57	36
1.5046e+09	-0.0546875	-0.203125	-0.0859375	-0.03125	-0.0703125	-0.195312	-0.0546875	39	62	45	37	40	57	36
1.5046e+09	-0.046875	-0.203125	-0.0859375	-0.03125	-0.0703125	-0.195312	-0.0625	39	63	45	37	40	57	36
1.5046e+09	-0.0390625	-0.195312	-0.078125	-0.03125	-0.0703125	-0.1875	-0.0546875	39	63	45	37	40	57	36
1.5046e+09	-0.0546875	-0.195312	-0.078125	-0.03125	-0.078125	-0.179688	-0.0546875	39	63	45	37	40	57	36
1.5046e+09	-0.046875	-0.1875	-0.0703125	-0.03125	-0.078125	-0.179688	-0.0625	39	63	45	37	40	57	36
1.5046e+09	-0.046875	-0.1875	-0.0703125	-0.03125	-0.0859375	-0.171875	-0.0546875	39	63	45	37	40	57	36
1.5046e+09	-0.046875	-0.171875	-0.0546875	-0.03125	-0.0859375	-0.171875	-0.0625	39	63	45	37	40	57	36
1.5046e+09	-0.046875	-0.164062	-0.046875	-0.03125	-0.09375	-0.15625	-0.0625	39	63	45	37	40	57	36
1.5046e+09	-0.046875	-0.148438	-0.03125	-0.03125	-0.09375	-0.148438	-0.0625	39	63	45	37	40	57	36
1.5046e+09	-0.046875	-0.132812	-0.015625	-0.03125	-0.101562	-0.140625	-0.0546875	39	63	45	37	40	57	36
1.5046e+09	-0.046875	-0.125	-0.0078125	-0.03125	-0.109375	-0.132812	-0.0546875	39	63	45	37	40	57	36
1.5046e+09	-0.046875	-0.109375	0.0078125	-0.03125	-0.109375	-0.125	-0.0625	39	63	45	37	40	57	36
1.5046e+09	-0.046875	-0.0859375	0.015625	-0.03125	-0.117188	-0.109375	-0.0546875	39	63	45	37	40	57	36
1.5046e+09	-0.046875	-0.0625	0.0205078	-0.03125	-0.132812	-0.09375	-0.0546875	39	63	45	37	40	57	36
1.5046e+09	-0.046875	-0.0390625	0.0146484	-0.0234375	-0.140625	-0.0859375	-0.0625	39	63	45	37	40	57	36
1.5046e+09	-0.046875	-0.0498047	0.000976562	-0.03125	-0.148438	-0.0703125	-0.0625	39	63	45	37	40	57	36
1.5046e+09	-0.046875	-0.0341797	0.000976562	-0.03125	-0.15625	-0.0625	-0.0546875	39	63	45	37	40	57	36
1.5046e+09	-0.046875	-0.0400391	0.000976562	-0.03125	-0.15625	-0.0546875	-0.0625	39	63	45	37	40	57	36
1.5046e+09	-0.046875	-0.0458984	0.000976562	-0.03125	-0.171875	-0.0390625	-0.0625	39	63	45	37	40	57	36
1.5046e+09	-0.046875	-0.0595703	0.000976562	-0.03125	-0.1875	-0.0634766	-0.0546875	39	63	45	37	40	57	36
1.5046e+09	-0.0546875	-0.0458984	0.000976562	-0.03125	-0.203125	-0.0771484	-0.0625	39	63	45	37	40	57	36
1.5046e+09	-0.0546875	-0.0595703	-0.00488281	-0.03125	-0.210938	-0.0712891	-0.0625	39	63	45	37	40	57	36
1.5046e+09	-0.046875	-0.0322266	-0.00488281	-0.03125	-0.226562	-0.0546875	-0.0625	39	63	45	37	40	57	36
1.5046e+09	-0.0546875	-0.0302734	-0.0107422	-0.03125	-0.234375	-0.0498047	-0.0546875	39	63	45	37	40	57	36
1.5046e+09	-0.046875	-0.0224609	-0.00488281	-0.0234375	-0.242188	-0.0771484	-0.0546875	39	63	45	37	40	57	36
1.5046e+09	-0.046875	-0.0439453	-0.0185547	-0.0234375	-0.231445	-0.0771484	-0.0546875	39	63	45	37	40	57	36
1.5046e+09	-0.046875	-0.0498047	-0.00488281	-0.0234375	-0.225586	-0.0498047	-0.0625	39	63	45	37	40	57	36
1.5046e+09	-0.0546875	-0.0283203	-0.00292969	-0.03125	-0.219727	-0.0556641	-0.0625	39	63	45	37	40	57	36
1.5046e+09	-0.0546875	-0.0546875	0.00292969	-0.0234375	-0.182617	-0.0693359	-0.0546875	39	63	45	37	40	57	36
1.5046e+09	-0.0546875	-0.0683594	0.0107422	-0.0234375	-0.174805	-0.0634766	-0.0625	39	63	45	37	40	57	36
1.5046e+09	-0.046875	-0.0625	0.00488281	-0.015625	-0.186523	-0.0556641	-0.0625	39	63	45	37	40	57	36
1.5046e+09	-0.046875	-0.09375	-0.0234375	-0.015625	-0.178711	-0.0634766	-0.0546875	39	63	45	37	40	57	36
1.5046e+09	-0.0546875	-0.0732422	-0.00292969	-0.015625	-0.210938	-0.0615234	-0.0546875	39	63	45	37	40	57	36
1.5046e+09	-0.046875	-0.0576172	0.00488281	-0.015625	-0.208008	-0.0615234	-0.0546875	39	63	45	37	40	57	36
1.5046e+09	-0.0546875	-0.0419922	0.015625	-0.015625	-0.231445	-0.0556641	-0.0546875	39	63	45	37	40	57	36
1.5046e+09	-0.046875	-0.0126953	-0.00390625	-0.015625	-0.227539	-0.0615234	-0.0625	39	63	45	37	40	57	36
1.5046e+09	-0.0546875	-0.03125	-0.0195312	-0.015625	-0.213867	-0.0771484	-0.0546875	39	63	45	37	40	57	36
1.5046e+09	-0.046875	-0.0371094	0.0078125	-0.0078125	-0.219727	-0.0712891	-0.0625	39	63	45	37	40	57	36
1.5046e+09	-0.046875	-0.0507812	-0.00585938	-0.015625	-0.200195	-0.0498047	-0.0546875	39	63	45	37	40	57	36
1.5046e+09	-0.0546875	-0.0644531	0.00195312	-0.0078125	-0.192383	-0.0419922	-0.0546875	39	63	45	37	40	57	36
1.5046e+09	-0.046875	-0.0722656	-0.0117188	-0.015625	-0.192383	-0.0615234	-0.0625	39	63	45	37	40	57	36
1.5046e+09	-0.0546875	-0.0722656	-0.00976562	-0.0078125	-0.18457	-0.0693359	-0.0625	39	63	45	37	40	57	36
1.5046e+09	-0.0546875	-0.103516	-0.0195312	-0.0078125	-0.182617	-0.0634766	-0.0625	39	63	45	37	40	57	36
1.5046e+09	-0.0546875	-0.0703125	0	-0.0078125	-0.182617	-0.0498047	-0.0625	39	63	45	37	40	57	36
1.5046e+09	-0.0546875	-0.0546875	-0.0117188	-0.0078125	-0.19043	-0.0556641	-0.0625	39	63	45	37	40	57	36
1.5046e+09	-0.046875	-0.0761719	-0.00585938	-0.0078125	-0.198242	-0.0634766	-0.0625	39	63	45	37	40	57	36
1.5046e+09	-0.046875	-0.0820312	0.00195312	-0.0078125	-0.192383	-0.0390625	-0.0546875	39	63	45	37	40	57	36
1.5046e+09	-0.0546875	-0.0605469	-0.00390625	-0.0078125	-0.192383	-0.03125	-0.0625	39	63	45	37	40	57	36
1.5046e+09	-0.046875	-0.0742188	-0.00976562	-0.0078125	-0.192383	-0.0419922	-0.0625	39	63	45	37	40	57	36
1.5046e+09	-0.0546875	-0.0742188	-0.00390625	-0.0078125	-0.200195	-0.0419922	-0.0625	39	63	45	37	40	57	36
1.5046e+09	-0.0546875	-0.0898438	-0.0117188	-0.0078125	-0.179688	-0.0341797	-0.0546875	39	63	45	37	39	57	36
1.5046e+09	-0.0546875	-0.0898438	0.00195312	-0.0078125	-0.1875	-0.0478516	-0.0546875	39	63	45	37	39	57	36
1.5046e+09	-0.046875	-0.0976562	-0.00585938	-0.0078125	-0.179688	-0.0419922	-0.0546875	39	63	45	37	39	57	36
1.5046e+09	-0.0546875	-0.0761719	-0.0117188	-0.0078125	-0.171875	-0.0498047	-0.0625	39	63	45	37	39	57	36
1.5046e+09	-0.0546875	-0.0839844	-0.0136719	-0.0078125	-0.164062	-0.0390625	-0.0546875	39	63	45	37	39	57	36
1.5046e+09	-0.0546875	-0.0761719	0	-0.0078125	-0.171875	-0.03125	-0.0546875	39	63	45	37	40	57	36
1.5046e+09	-0.0546875	-0.0898438	-0.0117188	-0.0078125	-0.171875	-0.0234375	-0.0546875	39	63	45	37	40	57	36
1.5046e+09	-0.0546875	-0.0957031	-0.0195312	-0.0078125	-0.164062	-0.0556641	-0.0546875	39	63	45	37	40	57	36
1.5046e+09	-0.0546875	-0.125	-0.0195312	-0.0078125	-0.171875	-0.0498047	-0.0625	39	63	45	37	40	57	36
1.5046e+09	-0.0546875	-0.113281	-0.00585938	-0.0078125	-0.164062	-0.0576172	-0.0546875	39	63	45	37	40	57	36
1.5046e+09	-0.046875	-0.115234	-0.0136719	-0.0078125	-0.18457	-0.0234375	-0.0625	39	63	45	37	40	57	36
1.5046e+09	-0.0546875	-0.109375	-0.015625	0	-0.164062	-0.0234375	-0.0546875	39	63	45	37	40	57	36
1.5046e+09	-0.0546875	-0.09375	-0.0078125	0	-0.176758	-0.0234375	-0.0625	39	63	45	37	40	57	36
1.5046e+09	-0.0546875	-0.0996094	-0.0136719	0	-0.179688	-0.03125	-0.0546875	39	63	45	37	40	57	36
1.5046e+09	-0.0546875	-0.0917969	-0.00585938	0	-0.179688	-0.03125	-0.0625	39	63	45	37	40	57	36
1.5046e+09	-0.0546875	-0.105469	-0.00585938	0	-0.166016	-0.03125	-0.0625	39	63	45	37	40	57	36
1.5046e+09	-0.0546875	-0.113281	-0.0136719	0	-0.158203	-0.03125	-0.0546875	39	63	45	37	40	57	36
1.5046e+09	-0.0546875	-0.115234	-0.0214844	0.0078125	-0.158203	-0.03125	-0.0546875	39	63	45	37	40	57	36
1.5046e+09	-0.0546875	-0.115234	-0.0078125	0	-0.142578	-0.03125	-0.0625	39	63	45	37	40	57	36
1.5046e+09	-0.0546875	-0.112305	-0.015625	0.0078125	-0.148438	-0.03125	-0.0546875	39	63	45	37	40	57	36
1.5046e+09	-0.0546875	-0.112305	-0.0107422	0.0078125	-0.15332	-0.03125	-0.0546875	39	63	45	37	40	57	36
1.5046e+09	-0.0546875	-0.0908203	-0.0214844	0.015625	-0.161133	-0.03125	-0.0625	39	63	45	37	40	57	36
1.5046e+09	-0.0546875	-0.104492	-0.03125	0.015625	-0.15332	-0.0390625	-0.0625	39	63	45	37	40	57	36
1.5046e+09	-0.0546875	-0.115234	-0.00488281	0.015625	-0.15625	-0.0390625	-0.0546875	39	63	45	37	40	57	36
1.5046e+09	-0.0546875	-0.117188	0.00292969	0.015625	-0.164062	-0.046875	-0.0546875	39	63	45	37	40	57	36
1.5046e+09	-0.0546875	-0.125	-0.0234375	0.015625	-0.140625	-0.046875	-0.0625	39	63	45	37	40	57	36
1.5046e+09	-0.0546875	-0.154297	-0.0234375	0.0234375	-0.132812	-0.0546875	-0.0625	39	63	45	37	40	57	36
1.5046e+09	-0.0546875	-0.15625	-0.0341797	0.0234375	-0.129883	-0.0625	-0.0546875	39	63	45	37	40	57	36
1.5046e+09	-0.0546875	-0.131836	-0.0283203	0.0234375	-0.129883	-0.0625	-0.0625	39	63	45	37	40	57	36
1.5046e+09	-0.0546875	-0.131836	-0.0205078	0.0234375	-0.157227	-0.0703125	-0.0625	39	63	45	37	40	57	36
1.5046e+09	-0.0546875	-0.110352	-0.0205078	0.0234375	-0.178711	-0.078125	-0.0625	39	63	45	37	40	57	36
1.5046e+09	-0.0546875	-0.12207	-0.0283203	0.0234375	-0.188477	-0.0859375	-0.0546875	39	63	45	37	40	57	36
1.5046e+09	-0.0546875	-0.108398	-0.0302734	0.0234375	-0.166992	-0.0859375	-0.0546875	39	63	45	37	40	57	36
1.5046e+09	-0.0546875	-0.108398	-0.0166016	0.0234375	-0.161133	-0.0859375	-0.0546875	39	63	45	37	40	57	36
1.5046e+09	-0.0546875	-0.124023	-0.0224609	0.0234375	-0.15918	-0.0859375	-0.0625	39	63	45	37	40	57	36
1.5046e+09	-0.0546875	-0.137695	-0.0302734	0.0234375	-0.135742	-0.0595703	-0.0625	39	63	45	37	40	57	36
1.5046e+09	-0.0546875	-0.125977	-0.0166016	0.0234375	-0.135742	-0.0595703	-0.0625	39	63	45	37	40	57	36
1.5046e+09	-0.0546875	-0.118164	-0.0244141	0.0234375	-0.141602	-0.0703125	-0.0625	39	63	45	37	40	57	36
1.5046e+09	-0.0546875	-0.131836	-0.0302734	0.0234375	-0.141602	-0.0703125	-0.0625	39	63	45	37	40	57	36
1.5046e+09	-0.0546875	-0.125977	-0.0244141	0.0234375	-0.155273	-0.0703125	-0.0546875	39	63	45	37	40	57	36
1.5046e+09	-0.0546875	-0.125977	-0.0244141	0.03125	-0.147461	-0.078125	-0.0546875	39	63	45	37	40	57	36
1.5046e+09	-0.0546875	-0.125977	-0.0380859	0.0234375	-0.155273	-0.0703125	-0.0546875	39	63	45	37	40	57	36
1.5046e+09	-0.0546875	-0.133789	-0.0537109	0.0234375	-0.147461	-0.0703125	-0.0546875	39	63	45	37	40	57	36
1.5046e+09	-0.0546875	-0.133789	-0.0419922	0.03125	-0.139648	-0.0625	-0.0546875	39	63	45	37	40	57	36
1.5046e+09	-0.0546875	-0.149414	-0.0419922	0.0234375	-0.139648	-0.0625	-0.0625	39	63	45	37	40	57	36
1.5046e+09	-0.0546875	-0.149414	-0.0419922	0.0234375	-0.118164	-0.0625	-0.0625	39	63	45	37	40	57	36
1.5046e+09	-0.0546875	-0.143555	-0.015625	0.0234375	-0.137695	-0.0361328	-0.0625	39	63	45	37	40	57	36
1.5046e+09	-0.0546875	-0.125	-0.0341797	0.0234375	-0.129883	-0.0361328	-0.0625	39	63	45	37	40	57	36
1.5046e+09	-0.0546875	-0.125	-0.0341797	0.0234375	-0.15625	-0.046875	-0.0546875	39	63	45	37	40	57	36
1.5046e+09	-0.0546875	-0.125	-0.0341797	0.0234375	-0.164062	-0.0546875	-0.0625	39	63	45	37	40	57	36
1.5046e+09	-0.0546875	-0.125	-0.03125	0.0234375	-0.145508	-0.046875	-0.0546875	39	63	45	37	40	57	36
1.5046e+09	-0.0546875	-0.125	-0.03125	0.0234375	-0.145508	-0.046875	-0.0625	39	63	45	37	40	57	36
1.5046e+09	-0.0546875	-0.109375	-0.03125	0.0234375	-0.137695	-0.046875	-0.0625	39	63	45	37	40	57	36
1.5046e+09	-0.0546875	-0.117188	-0.0234375	0.0234375	-0.148438	-0.0390625	-0.0625	39	63	45	37	40	57	36
1.5046e+09	-0.0546875	-0.109375	-0.0234375	0.0234375	-0.164062	-0.0390625	-0.0625	39	63	45	37	40	57	36
1.5046e+09	-0.0546875	-0.109375	-0.0234375	0.0234375	-0.164062	-0.0390625	-0.0625	39	63	45	37	40	57	36
1.5046e+09	-0.0546875	-0.109375	-0.0234375	0.0234375	-0.164062	-0.0390625	-0.0546875	39	63	45	37	40	57	36
1.5046e+09	-0.0546875	-0.109375	-0.0234375	0.0234375	-0.171875	-0.0390625	-0.0546875	39	63	45	37	40	57	36
1.5046e+09	-0.0546875	-0.101562	-0.03125	0.0234375	-0.164062	-0.0390625	-0.0625	39	63	45	37	40	57	36
1.5046e+09	-0.0546875	-0.09375	-0.03125	0.0234375	-0.171875	-0.0390625	-0.0546875	39	63	45	37	40	57	36
1.5046e+09	-0.0546875	-0.101562	-0.03125	0.0234375	-0.171875	-0.0390625	-0.0625	39	63	45	37	40	57	36
1.5046e+09	-0.0546875	-0.101562	-0.03125	0.0234375	-0.171875	-0.0390625	-0.0546875	39	63	45	37	40	57	36
1.5046e+09	-0.0546875	-0.101562	-0.03125	0.0234375	-0.171875	-0.0390625	-0.0546875	39	63	45	37	40	57	36
1.5046e+09	-0.0546875	-0.101562	-0.03125	0.0234375	-0.171875	-0.0390625	-0.0546875	39	63	45	37	40	57	36
1.5046e+09	-0.0546875	-0.101562	-0.03125	0.0234375	-0.171875	-0.0390625	-0.0546875	39	63	45	37	40	57	36
1.5046e+09	-0.0546875	-0.101562	-0.03125	0.0234375	-0.171875	-0.0390625	-0.0625	39	63	45	37	40	57	36
1.5046e+09	-0.0546875	-0.101562	-0.03125	0.0234375	-0.171875	-0.0390625	-0.0625	39	63	45	37	40	57	36
1.5046e+09	-0.0546875	-0.101562	-0.03125	0.0234375	-0.171875	-0.0390625	-0.0546875	39	63	45	37	40	57	36
1.5046e+09	-0.0546875	-0.101562	-0.03125	0.0234375	-0.164062	-0.0390625	-0.0625	39	63	45	37	40	57	36
1.5046e+09	-0.0546875	-0.101562	-0.03125	0.03125	-0.171875	-0.0390625	-0.0546875	39	63	45	37	40	57	36
1.5046e+09	-0.0546875	-0.101562	-0.03125	0.0234375	-0.164062	-0.0390625	-0.0546875	39	63	45	37	40	57	36
1.5046e+09	-0.0546875	-0.109375	-0.03125	0.03125	-0.15625	-0.03125	-0.0625	39	63	45	37	40	57	36
1.5046e+09	-0.046875	-0.109375	-0.03125	0.03125	-0.164062	-0.03125	-0.0546875	39	63	45	37	40	57	36
1.5046e+09	-0.046875	-0.109375	-0.03125	0.0390625	-0.164062	-0.03125	-0.0546875	39	63	45	37	40	57	36
1.5046e+09	-0.046875	-0.109375	-0.03125	0.03125	-0.164062	-0.03125	-0.0625	39	63	45	37	40	57	36
1.5046e+09	-0.046875	-0.109375	-0.03125	0.03125	-0.164062	-0.03125	-0.0625	39	63	45	37	40	57	36
1.5046e+09	-0.046875	-0.109375	-0.03125	0.03125	-0.164062	-0.03125	-0.0625	39	63	45	37	40	57	36
1.5046e+09	-0.046875	-0.109375	-0.03125	0.03125	-0.15625	-0.03125	-0.0625	39	63	45	37	40	57	36
1.5046e+09	-0.046875	-0.109375	-0.03125	0.03125	-0.15625	-0.03125	-0.0625	39	63	45	37	40	57	36
1.5046e+09	-0.0390625	-0.109375	-0.03125	0.0390625	-0.148438	-0.0234375	-0.0546875	39	63	45	37	40	57	36
1.5046e+09	-0.0390625	-0.109375	-0.0390625	0.0390625	-0.148438	-0.0234375	-0.0546875	39	63	45	37	40	57	36
1.5046e+09	-0.0390625	-0.109375	-0.0390625	0.0390625	-0.148438	-0.0234375	-0.0546875	39	63	45	37	40	57	36
1.5046e+09	-0.03125	-0.109375	-0.0390625	0.0546875	-0.140625	-0.015625	-0.0546875	39	63	45	37	40	57	36
1.5046e+09	-0.03125	-0.109375	-0.0390625	0.046875	-0.132812	-0.015625	-0.0625	39	63	45	37	40	57	36
1.5046e+09	-0.0234375	-0.109375	-0.0390625	0.0546875	-0.132812	-0.0078125	-0.0625	39	63	45	37	40	57	36
1.5046e+09	-0.0234375	-0.117188	-0.0390625	0.0625	-0.125	-0.0078125	-0.0625	39	63	45	37	40	57	36
1.5046e+09	-0.015625	-0.117188	-0.03125	0.0625	-0.125	-0.0078125	-0.0546875	39	63	45	37	40	57	36
1.5046e+09	-0.015625	-0.117188	-0.046875	0.0703125	-0.117188	0	-0.0625	39	63	45	37	40	57	36
1.5046e+09	-0.015625	-0.117188	-0.046875	0.0703125	-0.109375	0	-0.0546875	39	63	45	37	40	57	36
1.5046e+09	-0.015625	-0.117188	-0.046875	0.0703125	-0.101562	0.0078125	-0.0625	39	63	45	37	40	57	36
1.5046e+09	-0.0234375	-0.117188	-0.046875	0.0703125	-0.101562	0.015625	-0.0625	39	63	45	37	40	57	36
1.5046e+09	-0.0078125	-0.125	-0.046875	0.0859375	-0.101562	0.015625	-0.0546875	39	63	45	37	40	57	36
1.5046e+09	-0.0078125	-0.125	-0.046875	0.09375	-0.0859375	0.0234375	-0.0546875	39	63	45	37	40	57	36
1.5046e+09	-0.0078125	-0.125	-0.046875	0.09375	-0.078125	0.015625	-0.0625	39	63	45	37	40	57	36
1.5046e+09	-0.0078125	-0.125	-0.0546875	0.101562	-0.078125	0.0234375	-0.0546875	39	63	45	37	40	57	36
1.5046e+09	-0.0078125	-0.125	-0.0546875	0.09375	-0.0703125	0.015625	-0.0546875	39	63	45	37	40	57	36
1.5046e+09	-0.015625	-0.132812	-0.0546875	0.101562	-0.0703125	0.0234375	-0.0546875	39	63	45	37	40	57	36
1.5046e+09	-0.015625	-0.132812	-0.0546875	0.09375	-0.0625	0.0234375	-0.0625	39	63	45	37	40	57	36
1.5046e+09	-0.0078125	-0.132812	-0.0625	0.0830078	-0.046875	0.03125	-0.0625	39	63	45	37	40	57	36
1.5046e+09	-0.0078125	-0.132812	-0.0625	0.0859375	-0.046875	0.03125	-0.0625	39	63	45	37	40	57	36
1.5046e+09	-0.0078125	-0.140625	-0.0625	0.09375	-0.03125	0.03125	-0.0546875	39	63	45	37	40	57	36
1.5046e+09	-0.015625	-0.140625	-0.0703125	0.101562	-0.0234375	0.03125	-0.0546875	39	63	45	37	40	57	36
1.5046e+09	-0.0078125	-0.140625	-0.0703125	0.101562	-0.0234375	0.03125	-0.0546875	39	63	45	37	40	57	36
1.5046e+09	-0.0078125	-0.148438	-0.0703125	0.101562	-0.015625	0.0390625	-0.0625	39	63	45	37	40	57	36
1.5046e+09	-0.0078125	-0.148438	-0.0703125	0.101562	-0.0234375	0.0126953	-0.0625	39	63	45	37	40	57	36
1.5046e+09	-0.0078125	-0.148438	-0.0703125	0.109375	-0.0341797	0.0126953	-0.0546875	39	63	45	37	40	57	36
1.5046e+09	0	-0.148438	-0.078125	0.101562	-0.0234375	0.0126953	-0.0546875	39	63	45	37	40	57	36
1.5046e+09	0	-0.15625	-0.078125	0.101562	-0.0419922	0.03125	-0.0546875	39	63	45	37	40	57	36
1.5046e+09	0.015625	-0.148438	-0.0859375	0.101562	-0.03125	0.03125	-0.0546875	39	63	45	37	40	57	36
1.5046e+09	0.0234375	-0.15625	-0.0859375	0.0908203	-0.03125	0.03125	-0.0546875	39	63	45	37	40	57	36
1.5046e+09	0.015625	-0.164062	-0.0859375	0.0908203	-0.0234375	0.03125	-0.0546875	39	63	45	37	40	57	36
1.5046e+09	0.0234375	-0.164062	-0.0859375	0.0908203	-0.0234375	0.03125	-0.0546875	39	63	45	37	40	57	36
1.5046e+09	0.00488281	-0.164062	-0.09375	0.101562	-0.0341797	0.0390625	-0.0546875	39	63	45	37	40	57	36
1.5046e+09	0.00488281	-0.164062	-0.09375	0.0830078	-0.015625	0.0126953	-0.0625	39	63	45	37	40	57	36
1.5046e+09	0.00488281	-0.171875	-0.101562	0.109375	-0.0263672	0.0234375	-0.0625	39	63	45	37	40	57	36
1.5046e+09	0.015625	-0.171875	-0.101562	0.109375	-0.0478516	0.0234375	-0.0625	39	63	45	37	40	57	36
1.5046e+09	0.0234375	-0.179688	-0.101562	0.0830078	-0.0498047	0.0234375	-0.0546875	39	63	45	37	40	57	36
1.5046e+09	0.0234375	-0.179688	-0.109375	0.0693359	-0.0234375	0.0205078	-0.0546875	39	63	45	37	40	57	36
1.5046e+09	0.0234375	-0.179688	-0.109375	0.0751953	-0.0234375	0.03125	-0.0546875	39	63	45	37	40	57	36
1.5046e+09	-0.000976562	-0.1875	-0.117188	0.0859375	-0.0234375	0.0126953	-0.0625	39	63	45	37	40	57	36
1.5046e+09	0.015625	-0.1875	-0.117188	0.09375	-0.0234375	0.00488281	-0.0625	39	63	45	37	40	57	36
1.5046e+09	0.00488281	-0.195312	-0.117188	0.0751953	-0.0234375	0.00488281	-0.0625	39	63	45	37	40	57	36
1.5046e+09	0.015625	-0.195312	-0.117188	0.0751953	-0.0419922	0.0234375	-0.0546875	39	63	45	37	40	57	36
1.5046e+09	0.0234375	-0.203125	-0.125	0.09375	-0.0234375	0.03125	-0.0546875	39	63	45	37	40	57	36
1.5046e+09	0.0234375	-0.203125	-0.125	0.09375	-0.015625	0.03125	-0.0625	39	62	45	37	40	57	36
1.5046e+09	0.0126953	-0.203125	-0.132812	0.09375	-0.0263672	0.00488281	-0.0625	39	62	45	37	40	57	36
1.5046e+09	0.0126953	-0.203125	-0.132812	0.0830078	-0.0341797	0.0234375	-0.0546875	39	62	45	37	40	57	36
1.5046e+09	0.03125	-0.210938	-0.140625	0.0751953	-0.0419922	0.0234375	-0.0546875	39	62	45	37	40	57	36
1.5046e+09	0.03125	-0.210938	-0.132812	0.0751953	-0.0419922	0.0234375	-0.0625	39	62	45	37	40	57	36
1.5046e+09	0.0126953	-0.21875	-0.140625	0.0859375	-0.0234375	0.0234375	-0.0546875	39	63	45	37	40	57	36
1.5046e+09	0.046875	-0.210938	-0.148438	0.09375	-0.0234375	0.0126953	-0.0546875	39	63	45	37	40	57	36
1.5046e+09	0.0283203	-0.210938	-0.140625	0.0830078	-0.0341797	-0.00292969	-0.0625	39	63	45	37	40	57	36
1.5046e+09	0.0205078	-0.226562	-0.140625	0.0693359	-0.0419922	0.015625	-0.0546875	39	63	45	37	40	57	36
1.5046e+09	0.0390625	-0.234375	-0.140625	0.0751953	-0.0419922	0.015625	-0.0625	39	63	45	37	40	57	36
1.5046e+09	0.0205078	-0.234375	-0.132812	0.0537109	-0.0234375	0.0078125	-0.0625	39	63	45	37	40	57	36
1.5046e+09	-0.000976562	-0.226562	-0.140625	0.0537109	-0.0341797	0.015625	-0.0625	39	63	45	37	40	57	36
1.5046e+09	0.00488281	-0.226562	-0.140625	0.0517578	-0.0419922	-0.0107422	-0.0625	39	63	45	37	40	57	36
1.5046e+09	0.015625	-0.234375	-0.148438	0.0703125	-0.0234375	-0.0107422	-0.0546875	39	63	45	37	40	57	36
1.5046e+09	0.03125	-0.234375	-0.148438	0.0703125	-0.03125	0	-0.0546875	39	63	45	37	40	57	36
1.5046e+09	0.0234375	-0.242188	-0.148438	0.078125	-0.0234375	0.0078125	-0.0625	39	63	45	37	40	57	36
1.5046e+09	0.0126953	-0.242188	-0.15625	0.0673828	-0.015625	0.0078125	-0.0625	39	63	45	37	40	57	36
1.5046e+09	0.0126953	-0.242188	-0.15625	0.0595703	-0.0419922	0	-0.0546875	39	63	45	37	40	57	36
1.5046e+09	0.03125	-0.257812	-0.164062	0.0595703	-0.0341797	0	-0.0625	39	63	45	37	40	57	36
1.5046e+09	0.03125	-0.257812	-0.15625	0.078125	-0.0234375	0	-0.0625	39	63	45	37	40	57	36
1.5046e+09	0.0205078	-0.265625	-0.15625	0.078125	-0.0341797	0	-0.0546875	39	63	45	37	40	57	36
1.5046e+09	0.0205078	-0.265625	-0.15625	0.0703125	-0.0234375	0	-0.0625	39	63	45	37	40	57	36
1.5046e+09	0.03125	-0.257812	-0.164062	0.0595703	-0.0234375	-0.0078125	-0.0625	39	63	45	37	40	57	36
1.5046e+09	0.03125	-0.265625	-0.164062	0.0703125	-0.0234375	-0.0078125	-0.0546875	39	63	45	37	40	57	36
1.5046e+09	0.03125	-0.273438	-0.164062	0.0517578	-0.015625	-0.015625	-0.0625	39	63	45	37	40	57	36
1.5046e+09	0.00683594	-0.265625	-0.164062	0.0517578	-0.015625	-0.0078125	-0.0625	39	63	45	37	40	57	36
1.5046e+09	0.03125	-0.265625	-0.164062	0.0625	-0.0419922	-0.015625	-0.0625	39	63	45	37	40	57	36
1.5046e+09	0.03125	-0.28125	-0.15625	0.0517578	-0.0419922	-0.0341797	-0.0546875	39	63	45	37	40	57	36
1.5046e+09	0.0390625	-0.273438	-0.129883	0.0625	-0.0419922	-0.0234375	-0.0625	39	63	45	37	40	57	36
1.5046e+09	0.0390625	-0.28125	-0.148438	0.0439453	-0.0234375	-0.015625	-0.0546875	39	63	45	37	40	57	36
1.5046e+09	0.0126953	-0.28125	-0.148438	0.0361328	-0.0234375	-0.015625	-0.0625	39	63	45	37	40	57	36
1.5046e+09	0.0234375	-0.289062	-0.148438	0.0625	-0.015625	-0.015625	-0.0546875	39	63	45	37	40	57	36
1.5046e+09	0.0234375	-0.28125	-0.15625	0.0546875	-0.015625	-0.015625	-0.0546875	39	63	45	37	40	57	36
1.5046e+09	0.015625	-0.289062	-0.15625	0.0546875	-0.0234375	-0.0234375	-0.0546875	39	63	45	37	40	57	36
1.5046e+09	0.0234375	-0.289062	-0.15625	0.0625	-0.015625	-0.0234375	-0.0625	39	63	45	37	40	57	36
1.5046e+09	0.0234375	-0.28125	-0.148438	0.0546875	-0.0341797	-0.0234375	-0.0625	39	63	45	37	40	57	36
1.5046e+09	0.0234375	-0.289062	-0.140625	0.0361328	-0.0419922	-0.0234375	-0.0546875	39	63	45	37	40	57	36
1.5046e+09	0.015625	-0.289062	-0.148438	0.0283203	-0.0234375	-0.0234375	-0.0625	39	63	45	37	40	57	36
1.5046e+09	0.0234375	-0.296875	-0.148438	0.0546875	-0.0234375	-0.0234375	-0.0625	39	63	45	37	40	57	36
1.5046e+09	0.0234375	-0.289062	-0.148438	0.0546875	-0.0234375	-0.0234375	-0.0625	39	63	45	37	40	57	36
1.5046e+09	0.0234375	-0.289062	-0.148438	0.046875	-0.0234375	-0.0234375	-0.0546875	39	63	45	37	40	57	36
1.5046e+09	0.015625	-0.296875	-0.148438	0.046875	-0.0234375	-0.0234375	-0.0546875	39	63	45	37	40	57	36
1.5046e+09	0.015625	-0.296875	-0.148438	0.0390625	-0.0234375	-0.0234375	-0.0546875	39	63	45	37	40	57	36
1.5046e+09	0.0234375	-0.296875	-0.148438	0.046875	-0.0234375	-0.015625	-0.0546875	39	63	45	37	40	57	36
1.5046e+09	0.015625	-0.304688	-0.148438	0.0390625	-0.0234375	-0.0234375	-0.0546875	39	63	45	37	40	57	36
1.5046e+09	0.0234375	-0.296875	-0.148438	0.046875	-0.0234375	-0.0234375	-0.0625	39	63	45	37	40	57	36
1.5046e+09	0.0234375	-0.296875	-0.15625	0.0390625	-0.015625	-0.0234375	-0.0546875	39	63	45	37	40	57	36
1.5046e+09	0.015625	-0.296875	-0.15625	0.0390625	-0.0234375	-0.0234375	-0.0625	39	62	45	37	40	57	36
1.5046e+09	0.015625	-0.296875	-0.15625	0.0390625	-0.0234375	-0.0234375	-0.0546875	39	62	45	37	40	57	36
1.5046e+09	0.015625	-0.296875	-0.15625	0.0390625	-0.0234375	-0.0234375	-0.0625	39	62	45	37	40	57	36
1.5046e+09	0.0234375	-0.296875	-0.15625	0.0390625	-0.03125	-0.0234375	-0.0625	39	62	45	37	40	57	36
1.5046e+09	0.0234375	-0.296875	-0.148438	0.0390625	-0.0234375	-0.015625	-0.0625	39	62	45	37	40	57	36
1.5046e+09	0.0234375	-0.304688	-0.148438	0.0390625	-0.03125	-0.015625	-0.0625	39	63	45	37	40	57	36
1.5046e+09	0.0234375	-0.296875	-0.148438	0.0390625	-0.0234375	-0.0234375	-0.0625	39	63	45	37	40	57	36
1.5046e+09	0.0234375	-0.304688	-0.148438	0.0390625	-0.03125	-0.0234375	-0.0546875	39	63	45	37	40	57	36
1.5046e+09	0.015625	-0.296875	-0.148438	0.0390625	-0.0234375	-0.0234375	-0.0546875	39	63	45	37	40	57	36
1.5046e+09	0.015625	-0.296875	-0.148438	0.0390625	-0.0234375	-0.0234375	-0.0625	39	63	45	37	40	57	36
1.5046e+09	0.015625	-0.296875	-0.148438	0.0390625	-0.03125	-0.0234375	-0.0546875	39	63	45	37	40	57	36
1.5046e+09	0.015625	-0.296875	-0.148438	0.0390625	-0.03125	-0.0234375	-0.0546875	39	63	45	37	40	57	36
1.5046e+09	0.015625	-0.304688	-0.148438	0.0390625	-0.03125	-0.0234375	-0.0625	39	63	45	37	40	57	36
1.5046e+09	0.015625	-0.296875	-0.148438	0.0390625	-0.03125	-0.0234375	-0.0546875	39	63	45	37	40	57	36
1.5046e+09	0.015625	-0.296875	-0.148438	0.0390625	-0.03125	-0.0234375	-0.0546875	39	63	45	37	40	57	36
1.5046e+09	0.0234375	-0.304688	-0.148438	0.0390625	-0.03125	-0.0234375	-0.0546875	39	63	45	37	40	57	36
1.5046e+09	0.015625	-0.296875	-0.148438	0.0390625	-0.03125	-0.03125	-0.0625	39	63	45	37	40	57	36
1.5046e+09	0.015625	-0.296875	-0.148438	0.0390625	-0.03125	-0.03125	-0.0625	39	63	45	37	40	57	36
1.5046e+09	0.015625	-0.304688	-0.148438	0.0390625	-0.03125	-0.03125	-0.0546875	39	63	45	37	40	57	36
1.5046e+09	0.015625	-0.3125	-0.148438	0.0390625	-0.03125	-0.0390625	-0.0625	39	63	45	37	40	57	36
1.5046e+09	0.015625	-0.304688	-0.15625	0.0390625	-0.03125	-0.0390625	-0.0625	39	63	45	37	40	57	36
1.5046e+09	0.015625	-0.304688	-0.164062	0.0390625	-0.03125	-0.0390625	-0.0625	39	63	45	37	40	57	36
1.5046e+09	0.015625	-0.3125	-0.164062	0.0390625	-0.0234375	-0.0390625	-0.0625	39	63	45	37	40	57	36
1.5046e+09	0.015625	-0.3125	-0.164062	0.0390625	-0.03125	-0.046875	-0.0625	39	63	45	37	40	57	36
1.5046e+09	0.0234375	-0.320312	-0.15625	0.0390625	-0.0234375	-0.046875	-0.0625	39	63	45	37	40	57	36
1.5046e+09	0.015625	-0.328125	-0.15625	0.0390625	-0.0234375	-0.0625	-0.0546875	39	63	45	37	40	57	36
1.5046e+09	0.015625	-0.335938	-0.137695	0.0390625	-0.03125	-0.0625	-0.0625	39	63	45	37	40	57	36
1.5046e+09	0.015625	-0.335938	-0.148438	0.0390625	-0.03125	-0.078125	-0.0625	39	63	45	37	40	57	36
1.5046e+09	0.015625	-0.34375	-0.148438	0.0390625	-0.0390625	-0.0859375	-0.0625	39	63	45	37	40	57	36
1.5046e+09	0.015625	-0.367188	-0.164062	0.0390625	-0.0390625	-0.09375	-0.0546875	39	63	45	37	40	57	36
1.5046e+09	0.015625	-0.367188	-0.171875	0.0390625	-0.0390625	-0.109375	-0.0625	39	63	45	37	40	57	36
1.5046e+09	0.015625	-0.375	-0.179688	0.0390625	-0.03125	-0.109375	-0.0625	39	63	45	37	40	57	36
1.5046e+09	0.015625	-0.390625	-0.161133	0.0390625	-0.0390625	-0.132812	-0.0625	39	63	45	37	40	57	36
1.5046e+09	0.015625	-0.398438	-0.141602	0.0390625	-0.046875	-0.132812	-0.0625	39	63	45	37	40	57	36
1.5046e+09	0.0234375	-0.40625	-0.145508	0.0390625	-0.046875	-0.140625	-0.0546875	39	63	45	37	40	57	36
1.5046e+09	0.015625	-0.421875	-0.145508	0.0390625	-0.046875	-0.164062	-0.0625	39	63	45	37	40	57	36
1.5046e+09	0.015625	-0.4375	-0.145508	0.03125	-0.046875	-0.164062	-0.0546875	39	63	45	37	40	57	36
1.5046e+09	0.015625	-0.445312	-0.164062	0.03125	-0.0546875	-0.171875	-0.0546875	39	63	45	37	40	57	36
1.5046e+09	0.015625	-0.453125	-0.179688	0.03125	-0.0546875	-0.168945	-0.0625	39	63	45	37	40	57	36
1.5046e+09	0.015625	-0.46875	-0.176758	0.03125	-0.0546875	-0.195312	-0.0546875	39	63	45	37	40	57	36
1.5046e+09	0.015625	-0.450195	-0.135742	0.03125	-0.0625	-0.170898	-0.0625	39	63	45	37	40	57	36
1.5046e+09	0.0234375	-0.46582	-0.155273	0.0234375	-0.0625	-0.163086	-0.0625	39	63	45	37	40	57	36
1.5046e+09	0.0234375	-0.452148	-0.139648	0.0234375	-0.0546875	-0.143555	-0.0546875	39	63	45	37	40	57	36
1.5046e+09	0.0234375	-0.446289	-0.161133	0.0234375	-0.0625	-0.157227	-0.0546875	39	63	45	37	40	57	36
1.5046e+09	0.0234375	-0.430664	-0.195312	0.0234375	-0.078125	-0.165039	-0.0625	39	63	45	37	40	57	36
1.5046e+09	0.015625	-0.444336	-0.170898	0.0234375	-0.078125	-0.165039	-0.0546875	39	63	45	37	40	57	36
1.5046e+09	0.0234375	-0.422852	-0.151367	0.0234375	-0.078125	-0.151367	-0.0625	39	63	45	37	40	57	36
1.5046e+09	0.0234375	-0.436523	-0.143555	0.015625	-0.078125	-0.172852	-0.0546875	39	63	45	37	40	57	36
1.5046e+09	0.0234375	-0.424805	-0.135742	0.0234375	-0.0859375	-0.15332	-0.0625	39	63	45	37	40	57	36
1.5046e+09	0.0234375	-0.40918	-0.155273	0.0234375	-0.101562	-0.178711	-0.0546875	39	63	45	37	40	57	36
1.5046e+09	0.0234375	-0.436523	-0.149414	0.015625	-0.101562	-0.180664	-0.0625	39	63	45	37	40	57	36
1.5046e+09	0.03125	-0.452148	-0.163086	0.015625	-0.109375	-0.194336	-0.0546875	39	63	45	37	40	57	36
1.5046e+09	0.03125	-0.46582	-0.165039	0.015625	-0.109375	-0.182617	-0.0625	39	63	45	37	40	57	36
1.5046e+09	0.0390625	-0.467773	-0.143555	-0.0107422	-0.109375	-0.196289	-0.0625	39	63	45	37	40	57	36
1.5046e+09	0.0390625	-0.483398	-0.143555	0	-0.109375	-0.171875	-0.0625	39	63	45	37	40	57	36
1.5046e+09	0.03125	-0.469727	-0.129883	0	-0.0908203	-0.176758	-0.0546875	39	63	45	37	40	57	36
1.5046e+09	0.03125	-0.43457	-0.12793	0	-0.0751953	-0.148438	-0.0546875	39	63	45	37	40	57	36
1.5046e+09	0.03125	-0.43457	-0.149414	0	-0.101562	-0.166992	-0.0625	39	63	45	37	40	57	36
1.5046e+09	0.0390625	-0.44043	-0.157227	0	-0.109375	-0.188477	-0.0546875	39	63	45	37	40	57	36
1.5046e+09	0.03125	-0.44043	-0.165039	0	-0.117188	-0.161133	-0.0625	39	63	45	37	40	57	36
1.5046e+09	0.0390625	-0.40625	-0.157227	0	-0.125	-0.15625	-0.0546875	39	63	45	37	40	57	36
1.5046e+09	0.03125	-0.40332	-0.15918	0	-0.125	-0.15332	-0.0546875	39	63	45	37	40	57	36
1.5046e+09	0.0390625	-0.390625	-0.15918	0	-0.125	-0.161133	-0.0546875	39	63	45	37	40	57	36
1.5046e+09	0.0126953	-0.395508	-0.145508	0.0078125	-0.132812	-0.164062	-0.0546875	39	63	45	37	40	57	36
1.5046e+09	0.0234375	-0.40918	-0.145508	0.015625	-0.106445	-0.168945	-0.0546875	39	63	45	37	40	57	36
1.5046e+09	0.0234375	-0.415039	-0.143555	0.015625	-0.0927734	-0.164062	-0.0546875	39	63	45	37	40	57	36
1.5046e+09	0.015625	-0.436523	-0.151367	0.015625	-0.0927734	-0.171875	-0.0625	39	63	45	37	40	57	36
1.5046e+09	0.0234375	-0.444336	-0.151367	0.015625	-0.0927734	-0.179688	-0.0625	39	63	45	37	40	57	36
1.5046e+09	0.03125	-0.446289	-0.15918	0.0078125	-0.0908203	-0.158203	-0.0546875	39	63	45	37	40	57	36
1.5046e+09	0.0390625	-0.454102	-0.151367	0	-0.0849609	-0.158203	-0.0546875	39	63	45	37	40	57	36
1.5046e+09	0.0390625	-0.44043	-0.145508	0	-0.0771484	-0.142578	-0.0546875	39	63	45	37	40	57	36
1.5046e+09	0.0390625	-0.421875	-0.132812	-0.0078125	-0.0830078	-0.142578	-0.0625	39	63	45	37	40	57	36
1.5046e+09	0.0390625	-0.40625	-0.151367	0	-0.101562	-0.15625	-0.0625	39	63	45	37	40	57	36
1.5046e+09	0.03125	-0.411133	-0.165039	0	-0.0908203	-0.164062	-0.0625	39	63	45	37	40	57	36
1.5046e+09	0.0234375	-0.40625	-0.145508	0	-0.0771484	-0.150391	-0.0625	39	63	45	37	40	57	36
1.5046e+09	0.03125	-0.40332	-0.132812	0	-0.0908203	-0.121094	-0.0625	39	63	45	37	40	57	36
1.5046e+09	0.03125	-0.395508	-0.157227	0	-0.0908203	-0.15625	-0.0546875	39	63	45	37	40	57	36
1.5046e+09	0.03125	-0.393555	-0.149414	0.0078125	-0.101562	-0.140625	-0.0625	39	63	45	37	40	57	36
1.5046e+09	0.0390625	-0.428711	-0.170898	0	-0.0849609	-0.161133	-0.0546875	39	63	47	37	40	57	36
1.5046e+09	0.03125	-0.444336	-0.15332	0	-0.0908203	-0.164062	-0.0546875	39	63	47	37	40	57	36
1.5046e+09	0.0390625	-0.44043	-0.140625	-0.0078125	-0.0849609	-0.150391	-0.0546875	39	63	47	37	40	57	36
1.5046e+09	0.0390625	-0.44043	-0.125	-0.0078125	-0.0771484	-0.150391	-0.0625	39	63	47	37	40	57	36
1.5046e+09	0.0390625	-0.418945	-0.143555	0	-0.0693359	-0.150391	-0.0546875	39	63	45	37	40	57	36
1.5046e+09	0.03125	-0.40625	-0.129883	0	-0.0830078	-0.136719	-0.0546875	39	63	45	37	40	57	36
1.5046e+09	0.0390625	-0.411133	-0.143555	0.0078125	-0.09375	-0.136719	-0.0546875	39	63	45	37	40	57	36
1.5046e+09	0.03125	-0.395508	-0.135742	0	-0.101562	-0.121094	-0.0546875	39	63	45	37	40	57	36
1.5046e+09	0.0390625	-0.375	-0.163086	0	-0.0908203	-0.126953	-0.0625	39	63	45	37	40	57	36
1.5046e+09	0.03125	-0.351562	-0.143555	0.0078125	-0.0908203	-0.132812	-0.0546875	39	63	45	37	40	57	36
1.5046e+09	0.03125	-0.356445	-0.125	0.0078125	-0.0986328	-0.132812	-0.0625	39	63	45	37	40	57	36
1.5046e+09	0.03125	-0.375977	-0.135742	0.0078125	-0.0927734	-0.15332	-0.0625	39	63	45	37	40	57	36
1.5046e+09	0.03125	-0.389648	-0.149414	0.0078125	-0.0986328	-0.132812	-0.0546875	39	63	45	37	40	57	36
1.5046e+09	0.03125	-0.411133	-0.165039	0	-0.0849609	-0.140625	-0.0625	39	63	45	37	40	57	36
1.5046e+09	0.0390625	-0.413086	-0.157227	-0.0078125	-0.0712891	-0.134766	-0.0546875	39	63	45	37	40	57	36
1.5046e+09	0.0390625	-0.442383	-0.129883	-0.0078125	-0.0634766	-0.140625	-0.0546875	39	63	45	37	40	57	36
1.5046e+09	0.03125	-0.430664	-0.135742	-0.0078125	-0.0615234	-0.145508	-0.0625	39	63	45	37	40	57	36
1.5046e+09	0.0390625	-0.438477	-0.135742	-0.0078125	-0.0322266	-0.111328	-0.0546875	39	63	45	37	40	57	36
1.5046e+09	0.03125	-0.422852	-0.155273	0	-0.0703125	-0.129883	-0.0546875	39	63	45	37	40	57	36
1.5046e+09	0.0390625	-0.416992	-0.149414	0	-0.0703125	-0.135742	-0.0625	39	63	45	37	40	57	36
1.5046e+09	0.0390625	-0.436523	-0.168945	-0.0078125	-0.078125	-0.137695	-0.0625	39	63	45	37	40	57	36
1.5046e+09	0.0390625	-0.395508	-0.135742	-0.0078125	-0.0859375	-0.137695	-0.0546875	39	63	45	37	40	57	36
1.5046e+09	0.0390625	-0.415039	-0.149414	-0.0078125	-0.0615234	-0.129883	-0.0625	39	63	45	37	40	57	36
1.5046e+09	0.03125	-0.385742	-0.141602	-0.0078125	-0.0673828	-0.12793	-0.0546875	39	63	45	37	40	57	36
1.5046e+09	0.0390625	-0.37793	-0.141602	-0.0078125	-0.0751953	-0.12793	-0.0625	39	63	45	37	40	57	36
1.5046e+09	0.03125	-0.37793	-0.155273	0	-0.0751953	-0.135742	-0.0625	39	63	45	37	40	57	36
1.5046e+09	0.03125	-0.383789	-0.155273	0	-0.0751953	-0.120117	-0.0625	39	63	45	37	40	57	36
1.5046e+09	0.0390625	-0.389648	-0.141602	-0.0078125	-0.09375	-0.120117	-0.0625	39	63	45	37	40	57	36
1.5046e+09	0.03125	-0.395508	-0.133789	-0.0078125	-0.0830078	-0.125977	-0.0625	39	63	45	37	40	57	36
1.5046e+09	0.03125	-0.421875	-0.139648	-0.0078125	-0.09375	-0.139648	-0.0625	39	63	45	37	40	57	36
1.5046e+09	0.03125	-0.429688	-0.145508	-0.0078125	-0.0478516	-0.133789	-0.0546875	39	63	45	37	40	57	36
1.5046e+09	0.03125	-0.445312	-0.15332	0	-0.0458984	-0.125977	-0.0625	39	63	45	37	40	57	36
1.5046e+09	0.03125	-0.442383	-0.15332	-0.0078125	-0.0302734	-0.112305	-0.0625	39	63	45	37	40	57	36
1.5046e+09	0.0390625	-0.442383	-0.145508	-0.0078125	-0.046875	-0.110352	-0.0546875	39	63	45	37	40	57	36
1.5046e+09	0.0390625	-0.43457	-0.145508	-0.0078125	-0.046875	-0.110352	-0.0546875	39	63	45	37	40	57	36
1.5046e+09	0.03125	-0.420898	-0.15625	-0.0078125	-0.046875	-0.129883	-0.0625	39	63	45	37	40	57	36
1.5046e+09	0.03125	-0.420898	-0.164062	-0.0078125	-0.0546875	-0.129883	-0.0546875	39	63	45	37	40	57	36
1.5046e+09	0.0390625	-0.399414	-0.145508	-0.0078125	-0.0625	-0.108398	-0.0546875	39	63	45	37	40	57	36
1.5046e+09	0.03125	-0.405273	-0.15625	-0.0078125	-0.0703125	-0.108398	-0.0546875	39	63	45	37	40	57	36
1.5046e+09	0.03125	-0.397461	-0.137695	-0.0078125	-0.0703125	-0.12207	-0.0625	39	63	45	37	40	57	36
1.5046e+09	0.03125	-0.381836	-0.148438	-0.0078125	-0.0703125	-0.100586	-0.0546875	39	63	45	37	40	57	36
1.5046e+09	0.0390625	-0.395508	-0.129883	-0.0078125	-0.0625	-0.117188	-0.0625	39	63	45	37	40	57	36
1.5046e+09	0.0390625	-0.414062	-0.140625	-0.0078125	-0.078125	-0.132812	-0.0625	39	63	45	37	40	57	36
1.5046e+09	0.0390625	-0.414062	-0.140625	-0.0078125	-0.0703125	-0.132812	-0.0625	39	63	45	37	40	57	36
1.5046e+09	0.0390625	-0.414062	-0.140625	-0.0078125	-0.0625	-0.132812	-0.0625	39	63	45	37	40	57	36
1.5046e+09	0.0390625	-0.414062	-0.148438	-0.0078125	-0.0625	-0.132812	-0.0546875	39	63	45	37	40	57	36
1.5046e+09	0.0390625	-0.421875	-0.15625	-0.0078125	-0.0625	-0.125	-0.0546875	39	63	45	37	40	57	36
1.5046e+09	0.03125	-0.421875	-0.15625	-0.0078125	-0.0439453	-0.132812	-0.0625	39	63	45	37	40	57	36
1.5046e+09	0.03125	-0.421875	-0.148438	-0.0078125	-0.0546875	-0.125	-0.0625	39	63	45	37	40	57	36
1.5046e+09	0.03125	-0.421875	-0.148438	-0.0078125	-0.0546875	-0.125	-0.0546875	39	63	45	37	40	57	36
1.5046e+09	0.03125	-0.421875	-0.148438	-0.0078125	-0.0546875	-0.125	-0.0625	39	63	45	37	40	57	36
1.5046e+09	0.03125	-0.429688	-0.148438	-0.0078125	-0.0546875	-0.132812	-0.0546875	39	63	45	37	40	57	36
1.5046e+09	0.03125	-0.429688	-0.148438	-0.0078125	-0.0546875	-0.125	-0.0546875	39	63	45	37	40	57	36
1.5046e+09	0.0390625	-0.429688	-0.148438	-0.0078125	-0.046875	-0.125	-0.0546875	39	63	45	37	40	57	36
1.5046e+09	0.0390625	-0.429688	-0.15625	-0.0078125	-0.046875	-0.125	-0.0625	39	63	45	37	40	57	36
1.5046e+09	0.03125	-0.429688	-0.148438	-0.0078125	-0.0546875	-0.125	-0.0625	39	63	45	37	40	57	36
1.5046e+09	0.03125	-0.429688	-0.148438	-0.0078125	-0.0546875	-0.125	-0.0625	39	63	45	37	40	57	36
1.5046e+09	0.03125	-0.429688	-0.148438	-0.0078125	-0.0546875	-0.125	-0.0625	39	63	45	37	40	57	36
1.5046e+09	0.0390625	-0.429688	-0.148438	0	-0.0546875	-0.125	-0.0625	39	63	45	37	40	57	36
1.5046e+09	0.03125	-0.429688	-0.148438	-0.0078125	-0.046875	-0.125	-0.0546875	39	63	45	37	40	57	36
1.5046e+09	0.0390625	-0.429688	-0.15625	-0.0078125	-0.0546875	-0.125	-0.0625	39	63	45	37	40	57	36
1.5046e+09	0.0390625	-0.429688	-0.148438	-0.0078125	-0.0546875	-0.125	-0.0625	39	63	45	37	40	57	36
1.5046e+09	0.03125	-0.421875	-0.148438	-0.0078125	-0.046875	-0.125	-0.0625	39	63	45	37	40	57	36
1.5046e+09	0.0390625	-0.421875	-0.148438	-0.0078125	-0.0546875	-0.125	-0.0546875	39	63	45	37	40	57	36
1.5046e+09	0.03125	-0.421875	-0.15625	-0.015625	-0.0546875	-0.125	-0.0625	39	63	45	37	40	57	36
1.5046e+09	0.03125	-0.421875	-0.15625	-0.0078125	-0.0546875	-0.132812	-0.0625	39	63	45	37	40	57	36
1.5046e+09	0.0234375	-0.421875	-0.148438	-0.015625	-0.0625	-0.132812	-0.0546875	39	63	45	37	40	57	36
1.5046e+09	0.03125	-0.421875	-0.148438	-0.015625	-0.0625	-0.132812	-0.0625	39	63	45	37	40	57	36
1.5046e+09	0.0234375	-0.421875	-0.148438	-0.015625	-0.0625	-0.132812	-0.0546875	39	63	45	37	40	57	36
1.5046e+09	0.0234375	-0.421875	-0.148438	-0.0234375	-0.0625	-0.132812	-0.0625	39	63	45	37	40	57	36
1.5046e+09	0.0234375	-0.421875	-0.148438	-0.0234375	-0.0703125	-0.132812	-0.0625	39	63	45	37	40	57	36
1.5046e+09	0.015625	-0.421875	-0.15625	-0.03125	-0.0703125	-0.132812	-0.0546875	39	63	45	37	40	57	36
1.5046e+09	0.0078125	-0.421875	-0.15625	-0.03125	-0.0703125	-0.140625	-0.0625	39	63	45	37	40	57	36
1.5046e+09	0.0078125	-0.421875	-0.15625	-0.03125	-0.0703125	-0.132812	-0.0546875	39	63	45	37	40	57	36
1.5046e+09	0.0078125	-0.429688	-0.140625	-0.0390625	-0.0703125	-0.140625	-0.0625	39	63	45	37	40	57	36
1.5046e+09	0.0078125	-0.421875	-0.140625	-0.0390625	-0.0703125	-0.140625	-0.0546875	39	63	45	37	40	57	36
1.5046e+09	0	-0.421875	-0.140625	-0.046875	-0.078125	-0.140625	-0.0625	39	63	45	37	40	57	36
1.5046e+09	-0.0078125	-0.421875	-0.140625	-0.046875	-0.0703125	-0.140625	-0.0625	39	63	45	37	40	57	36
1.5046e+09	-0.0078125	-0.421875	-0.140625	-0.0283203	-0.0517578	-0.12207	-0.0625	39	63	45	37	40	57	36
1.5046e+09	-0.0078125	-0.421875	-0.140625	-0.046875	-0.0703125	-0.132812	-0.0625	39	63	45	37	40	57	36
1.5046e+09	-0.0234375	-0.414062	-0.140625	-0.0546875	-0.0625	-0.125	-0.0625	39	63	45	37	40	57	36
1.5046e+09	-0.0234375	-0.414062	-0.140625	-0.0546875	-0.0517578	-0.132812	-0.0625	39	63	45	37	40	57	36
1.5046e+09	-0.03125	-0.414062	-0.140625	-0.046875	-0.0546875	-0.132812	-0.0625	39	63	45	37	40	57	36
1.5046e+09	-0.03125	-0.414062	-0.140625	-0.0546875	-0.0546875	-0.132812	-0.0625	39	63	45	37	40	57	36
1.5046e+09	-0.03125	-0.414062	-0.132812	-0.046875	-0.0625	-0.140625	-0.0546875	39	63	45	37	40	57	36
1.5046e+09	-0.0205078	-0.414062	-0.132812	-0.046875	-0.0625	-0.132812	-0.0625	39	63	45	37	40	57	36
1.5046e+09	-0.00488281	-0.414062	-0.132812	-0.046875	-0.0703125	-0.132812	-0.0546875	39	63	45	37	40	57	36
1.5046e+09	-0.03125	-0.414062	-0.132812	-0.0361328	-0.0625	-0.125	-0.0625	39	63	45	37	40	57	36
1.5046e+09	-0.0234375	-0.40625	-0.132812	-0.046875	-0.0703125	-0.132812	-0.0625	39	63	45	37	39	57	36
1.5046e+09	-0.03125	-0.40625	-0.132812	-0.0361328	-0.0625	-0.125	-0.0546875	39	63	45	37	39	57	36
1.5046e+09	-0.0390625	-0.40625	-0.125	-0.0546875	-0.0703125	-0.125	-0.0546875	39	63	45	37	39	57	36
1.5046e+09	-0.0126953	-0.398438	-0.125	-0.0361328	-0.0703125	-0.125	-0.0546875	39	63	45	37	39	57	36
1.5046e+09	-0.0205078	-0.398438	-0.125	-0.0361328	-0.0703125	-0.117188	-0.0546875	39	63	45	37	40	57	36
1.5046e+09	-0.03125	-0.398438	-0.132812	-0.046875	-0.0703125	-0.125	-0.0625	39	63	45	37	40	57	36
1.5046e+09	-0.0390625	-0.398438	-0.132812	-0.046875	-0.0703125	-0.117188	-0.0625	39	63	45	37	40	57	36
1.5046e+09	-0.046875	-0.398438	-0.125	-0.0361328	-0.0703125	-0.125	-0.0546875	39	63	45	37	40	57	36
1.5046e+09	-0.046875	-0.398438	-0.117188	-0.0546875	-0.0625	-0.117188	-0.0625	39	63	45	37	40	57	36
1.5046e+09	-0.0546875	-0.390625	-0.117188	-0.0361328	-0.0517578	-0.106445	-0.0625	39	63	45	37	40	57	36
1.5046e+09	-0.0546875	-0.390625	-0.117188	-0.0546875	-0.0439453	-0.117188	-0.0546875	39	63	45	37	40	57	36
1.5046e+09	-0.0546875	-0.390625	-0.117188	-0.0546875	-0.0625	-0.117188	-0.0546875	39	63	45	37	40	57	36
1.5046e+09	-0.0625	-0.390625	-0.117188	-0.0546875	-0.0703125	-0.106445	-0.0546875	39	63	45	37	40	57	36
1.5046e+09	-0.0625	-0.390625	-0.109375	-0.0625	-0.0517578	-0.109375	-0.0625	39	63	45	37	40	57	36
1.5046e+09	-0.0517578	-0.382812	-0.109375	-0.0517578	-0.0703125	-0.106445	-0.0625	39	63	45	37	40	57	36
1.5046e+09	-0.0625	-0.382812	-0.109375	-0.0361328	-0.0625	-0.0986328	-0.0625	39	63	45	37	40	57	36
1.5046e+09	-0.0517578	-0.382812	-0.117188	-0.0546875	-0.0703125	-0.109375	-0.0546875	39	63	45	37	40	57	36
1.5046e+09	-0.0439453	-0.390625	-0.101562	-0.0439453	-0.078125	-0.117188	-0.0546875	39	63	45	37	40	57	36
1.5046e+09	-0.0517578	-0.382812	-0.101562	-0.0625	-0.078125	-0.0986328	-0.0625	39	63	45	37	40	57	36
1.5046e+09	-0.0625	-0.382812	-0.101562	-0.0439453	-0.0595703	-0.109375	-0.0625	39	63	45	37	40	57	36
1.5046e+09	-0.0625	-0.375	-0.101562	-0.0361328	-0.0703125	-0.109375	-0.0625	39	63	45	37	40	57	36
1.5046e+09	-0.0517578	-0.375	-0.09375	-0.0546875	-0.0595703	-0.0908203	-0.0625	39	63	45	37	40	57	36
1.5046e+09	-0.0458984	-0.375	-0.09375	-0.0361328	-0.078125	-0.101562	-0.0546875	39	63	45	37	40	57	36
1.5046e+09	-0.0380859	-0.375	-0.09375	-0.0361328	-0.0703125	-0.101562	-0.0546875	39	63	45	37	40	57	36
1.5046e+09	-0.0439453	-0.375	-0.09375	-0.0361328	-0.078125	-0.101562	-0.0625	39	63	45	37	40	57	36
1.5046e+09	-0.0546875	-0.375	-0.09375	-0.0283203	-0.0595703	-0.0830078	-0.0625	39	63	45	37	40	57	36
1.5046e+09	-0.0625	-0.367188	-0.0859375	-0.046875	-0.0703125	-0.0908203	-0.0546875	39	63	45	37	40	57	36
1.5046e+09	-0.0625	-0.367188	-0.0859375	-0.046875	-0.0625	-0.0751953	-0.0546875	39	63	45	37	40	57	36
1.5046e+09	-0.078125	-0.367188	-0.09375	-0.0625	-0.0517578	-0.101562	-0.0546875	39	63	45	37	40	57	36
1.5046e+09	-0.078125	-0.367188	-0.09375	-0.0361328	-0.0703125	-0.0830078	-0.0625	39	63	45	37	40	57	36
1.5046e+09	-0.0595703	-0.367188	-0.0859375	-0.0439453	-0.0595703	-0.0859375	-0.0546875	39	63	45	37	40	57	36
1.5046e+09	-0.078125	-0.367188	-0.078125	-0.0439453	-0.0703125	-0.0859375	-0.0625	39	63	45	37	40	57	36
1.5046e+09	-0.0859375	-0.367188	-0.078125	-0.0302734	-0.0703125	-0.0673828	-0.0625	39	63	45	37	40	57	36
1.5046e+09	-0.0673828	-0.359375	-0.078125	-0.0146484	-0.0517578	-0.09375	-0.0546875	39	63	45	37	40	57	36
1.5046e+09	-0.0595703	-0.367188	-0.078125	-0.0205078	-0.0625	-0.0673828	-0.0625	39	63	45	37	40	57	36
1.5046e+09	-0.0703125	-0.351562	-0.078125	-0.0390625	-0.0703125	-0.0859375	-0.0625	39	63	45	37	40	57	36
1.5046e+09	-0.0703125	-0.351562	-0.078125	-0.0390625	-0.0517578	-0.0859375	-0.0546875	39	63	45	37	40	57	36
1.5046e+09	-0.078125	-0.359375	-0.078125	-0.0390625	-0.0625	-0.0673828	-0.0625	39	63	45	37	40	57	36
1.5046e+09	-0.0595703	-0.351562	-0.0703125	-0.046875	-0.0517578	-0.0859375	-0.0625	39	63	45	37	40	57	36
1.5046e+09	-0.0400391	-0.359375	-0.0703125	-0.0283203	-0.0517578	-0.0673828	-0.0625	39	63	45	37	40	57	36
1.5046e+09	-0.0439453	-0.359375	-0.0703125	-0.0205078	-0.0703125	-0.078125	-0.0625	39	63	45	37	40	57	36
1.5046e+09	-0.0625	-0.351562	-0.078125	-0.03125	-0.0703125	-0.0703125	-0.0546875	39	63	45	37	40	57	36
1.5046e+09	-0.0302734	-0.34375	-0.0703125	-0.03125	-0.0595703	-0.0595703	-0.0546875	39	63	45	37	40	57	36
1.5046e+09	-0.0546875	-0.34375	-0.0625	-0.03125	-0.0703125	-0.0703125	-0.0625	39	63	45	37	40	57	36
1.5046e+09	-0.0703125	-0.34375	-0.0625	-0.0390625	-0.0703125	-0.078125	-0.0625	39	63	45	37	40	57	36
1.5046e+09	-0.078125	-0.34375	-0.0625	-0.0390625	-0.0517578	-0.078125	-0.0546875	39	63	45	37	40	57	36
1.5046e+09	-0.0859375	-0.34375	-0.0625	-0.046875	-0.0517578	-0.0517578	-0.0625	39	63	45	37	40	57	36
1.5046e+09	-0.0595703	-0.351562	-0.0625	-0.0283203	-0.0625	-0.0703125	-0.0625	39	63	45	37	40	57	36
1.5046e+09	-0.078125	-0.351562	-0.0625	-0.0205078	-0.0625	-0.0517578	-0.0546875	39	63	45	37	40	57	36
1.5046e+09	-0.0595703	-0.34375	-0.0625	-0.00683594	-0.0517578	-0.0517578	-0.0546875	39	63	45	37	40	57	36
1.5046e+09	-0.0625	-0.34375	-0.0625	-0.00488281	-0.0625	-0.0625	-0.0546875	39	63	45	37	40	57	36
1.5046e+09	-0.0625	-0.34375	-0.0625	-0.0234375	-0.0703125	-0.0439453	-0.0546875	39	63	45	37	40	57	36
1.5046e+09	-0.0625	-0.34375	-0.0625	-0.03125	-0.0595703	-0.0546875	-0.0625	39	63	45	37	40	57	36
1.5046e+09	-0.0546875	-0.34375	-0.0625	-0.03125	-0.078125	-0.0546875	-0.0625	39	63	45	37	40	57	36
1.5046e+09	-0.0546875	-0.34375	-0.0546875	-0.03125	-0.0703125	-0.0546875	-0.0625	39	63	45	37	40	57	36
1.5046e+09	-0.0546875	-0.335938	-0.0546875	-0.03125	-0.0703125	-0.0546875	-0.0546875	39	63	45	37	40	57	36
1.5046e+09	-0.0546875	-0.34375	-0.0546875	-0.0234375	-0.0703125	-0.0546875	-0.0546875	39	63	45	37	40	57	36
1.5046e+09	-0.0546875	-0.335938	-0.0546875	-0.0234375	-0.0703125	-0.0546875	-0.0546875	39	63	45	37	40	57	36
1.5046e+09	-0.0361328	-0.34375	-0.0546875	-0.0234375	-0.0625	-0.0390625	-0.0546875	39	63	45	37	40	57	36
1.5046e+09	-0.046875	-0.335938	-0.0546875	-0.0234375	-0.0703125	-0.046875	-0.0625	39	63	45	37	40	57	36
1.5046e+09	-0.0390625	-0.328125	-0.0546875	-0.03125	-0.078125	-0.046875	-0.0625	39	63	45	37	40	57	36
1.5046e+09	-0.046875	-0.335938	-0.0546875	-0.0234375	-0.0703125	-0.0546875	-0.0546875	39	63	45	37	40	57	36
1.5046e+09	-0.0546875	-0.335938	-0.0546875	-0.0234375	-0.0703125	-0.046875	-0.0625	39	63	45	37	40	57	36
1.5046e+09	-0.046875	-0.335938	-0.0546875	-0.0234375	-0.0625	-0.046875	-0.0625	39	63	45	37	40	57	36
1.5046e+09	-0.0546875	-0.335938	-0.0546875	-0.0234375	-0.0546875	-0.046875	-0.0546875	39	63	45	37	40	57	36
1.5046e+09	-0.0546875	-0.335938	-0.0546875	-0.0234375	-0.0546875	-0.0390625	-0.0546875	39	63	45	37	40	57	36
1.5046e+09	-0.0546875	-0.335938	-0.0625	-0.0234375	-0.0625	-0.046875	-0.0546875	39	63	45	37	40	57	36
1.5046e+09	-0.0546875	-0.335938	-0.0546875	-0.0234375	-0.0703125	-0.0390625	-0.0625	39	63	45	37	40	57	36
1.5046e+09	-0.046875	-0.335938	-0.0546875	-0.015625	-0.0703125	-0.0390625	-0.0546875	39	63	45	37	40	57	36
1.5046e+09	-0.0625	-0.335938	-0.0546875	-0.0234375	-0.0625	-0.046875	-0.0546875	39	63	45	37	40	57	36
1.5046e+09	-0.0625	-0.335938	-0.0546875	-0.0234375	-0.0625	-0.046875	-0.0625	39	63	45	37	40	57	36
1.5046e+09	-0.0625	-0.328125	-0.0546875	-0.015625	-0.0703125	-0.046875	-0.0546875	39	63	45	37	40	57	36
1.5046e+09	-0.0546875	-0.335938	-0.0546875	-0.0234375	-0.0625	-0.0390625	-0.0625	39	63	45	37	40	57	36
1.5046e+09	-0.0546875	-0.335938	-0.0546875	-0.0234375	-0.0625	-0.046875	-0.0546875	39	63	45	37	40	57	36
1.5046e+09	-0.0546875	-0.328125	-0.0546875	-0.015625	-0.0625	-0.046875	-0.0546875	39	63	45	37	40	57	36
1.5046e+09	-0.0546875	-0.335938	-0.0546875	-0.015625	-0.0625	-0.0390625	-0.0625	39	63	45	37	40	57	35
1.5046e+09	-0.0625	-0.335938	-0.046875	-0.0234375	-0.0546875	-0.0390625	-0.0546875	39	63	45	37	40	57	35
1.5046e+09	-0.0703125	-0.335938	-0.046875	-0.0234375	-0.0546875	-0.0390625	-0.0546875	39	63	45	37	40	57	35
1.5046e+09	-0.0625	-0.328125	-0.046875	-0.0234375	-0.0625	-0.0390625	-0.0625	39	63	45	37	40	57	35
1.5046e+09	-0.0625	-0.335938	-0.046875	-0.0234375	-0.0625	-0.046875	-0.0546875	39	63	45	37	40	57	35
1.5046e+09	-0.0625	-0.335938	-0.046875	-0.0234375	-0.0546875	-0.0390625	-0.0546875	40	63	45	37	40	57	36
1.5046e+09	-0.0625	-0.328125	-0.0546875	-0.015625	-0.0546875	-0.0390625	-0.0625	40	63	45	37	40	57	36
1.5046e+09	-0.0625	-0.335938	-0.046875	-0.015625	-0.0546875	-0.0390625	-0.0625	40	63	45	37	40	57	36
1.5046e+09	-0.0625	-0.335938	-0.046875	-0.0234375	-0.0546875	-0.0390625	-0.0625	40	63	45	37	40	57	36
1.5046e+09	-0.0625	-0.335938	-0.046875	-0.015625	-0.0546875	-0.0390625	-0.0625	39	63	45	37	40	57	36
1.5046e+09	-0.0625	-0.335938	-0.046875	-0.015625	-0.0546875	-0.0390625	-0.0625	39	63	45	37	40	57	36
1.5046e+09	-0.0625	-0.328125	-0.046875	-0.015625	-0.0546875	-0.0390625	-0.0625	39	63	45	37	40	57	36
1.5046e+09	-0.0625	-0.328125	-0.046875	-0.015625	-0.0546875	-0.0390625	-0.0625	39	63	45	37	40	57	36
1.5046e+09	-0.0625	-0.335938	-0.046875	-0.015625	-0.0546875	-0.0390625	-0.0625	39	63	45	37	40	57	36
1.5046e+09	-0.0625	-0.335938	-0.046875	-0.015625	-0.0546875	-0.0390625	-0.0625	39	63	45	37	40	57	36
1.5046e+09	-0.0625	-0.328125	-0.046875	-0.015625	-0.0546875	-0.0390625	-0.0625	39	63	45	37	40	57	36
1.5046e+09	-0.0625	-0.335938	-0.046875	-0.015625	-0.0546875	-0.0390625	-0.0546875	39	63	45	37	40	57	36
1.5046e+09	-0.0625	-0.328125	-0.046875	-0.015625	-0.046875	-0.0390625	-0.0625	39	63	45	37	40	57	36
1.5046e+09	-0.0625	-0.328125	-0.0546875	-0.0078125	-0.046875	-0.0390625	-0.0625	39	63	45	37	40	57	36
1.5046e+09	-0.0546875	-0.335938	-0.0546875	-0.0078125	-0.046875	-0.03125	-0.0546875	39	63	45	37	40	57	36
1.5046e+09	-0.0546875	-0.328125	-0.0546875	-0.0078125	-0.046875	-0.03125	-0.0625	39	63	45	37	40	57	36
1.5046e+09	-0.0546875	-0.328125	-0.0546875	-0.015625	-0.0390625	-0.03125	-0.0546875	39	63	45	37	40	57	36
1.5046e+09	-0.0546875	-0.328125	-0.0546875	-0.0078125	-0.0390625	-0.03125	-0.0625	39	63	45	37	40	57	36
1.5046e+09	-0.0546875	-0.335938	-0.0625	0	-0.0390625	-0.0234375	-0.0625	39	63	45	37	40	57	36
1.5046e+09	-0.046875	-0.335938	-0.0546875	0	-0.0390625	-0.0234375	-0.0546875	39	63	45	37	40	57	36
1.5046e+09	-0.0390625	-0.335938	-0.0625	0.0078125	-0.03125	-0.015625	-0.0625	39	63	45	37	40	57	36
1.5046e+09	-0.0390625	-0.335938	-0.0546875	0.015625	-0.0234375	-0.0078125	-0.0625	39	63	45	37	40	57	36
1.5046e+09	-0.03125	-0.328125	-0.0546875	0.015625	-0.0234375	-0.0078125	-0.0546875	39	63	45	37	40	57	36
1.5046e+09	-0.03125	-0.335938	-0.0546875	0.0234375	-0.015625	0	-0.0625	39	63	45	37	40	57	36
1.5046e+09	-0.0234375	-0.328125	-0.0546875	0.0234375	-0.0078125	0.0078125	-0.0546875	39	63	45	37	40	57	36
1.5046e+09	-0.0234375	-0.328125	-0.0546875	0.03125	0	0.015625	-0.0546875	39	63	45	37	40	57	36
1.5046e+09	-0.015625	-0.34375	-0.0546875	0.03125	0.0078125	0.0234375	-0.0546875	39	63	45	37	40	57	36
1.5046e+09	-0.0078125	-0.34375	-0.0546875	0.046875	0.015625	0.0234375	-0.0546875	39	63	45	37	40	57	36
1.5046e+09	0	-0.335938	-0.0546875	0.0390625	0.0078125	0.03125	-0.0546875	39	63	45	37	40	57	36
1.5046e+09	0.0078125	-0.34375	-0.0546875	0.0283203	0.0234375	0.03125	-0.0546875	39	63	45	37	40	57	36
1.5046e+09	0.015625	-0.34375	-0.0625	0.0546875	0.03125	0.046875	-0.0625	39	63	45	37	40	57	36
1.5046e+09	0.0234375	-0.34375	-0.0625	0.046875	0.03125	0.0390625	-0.0625	39	63	45	37	40	57	36
1.5046e+09	0.03125	-0.34375	-0.0625	0.0546875	0.0390625	0.046875	-0.0625	39	63	45	37	40	57	36
1.5046e+09	0.03125	-0.34375	-0.0625	0.0625	0.0126953	0.0283203	-0.0546875	39	63	45	37	40	57	36
1.5046e+09	0.0390625	-0.34375	-0.0625	0.0625	0.0126953	0.0146484	-0.0546875	39	63	45	37	40	57	36
1.5046e+09	0.0126953	-0.34375	-0.0625	0.0546875	0.0126953	-0.00683594	-0.0625	39	63	45	37	40	57	36
1.5046e+09	0.0126953	-0.34375	-0.0625	0.0546875	0.03125	-0.00292969	-0.0625	39	63	45	37	40	57	36
1.5046e+09	0.0205078	-0.351562	-0.0703125	0.0625	0.03125	0.0234375	-0.0625	39	63	45	37	40	57	36
1.5046e+09	0.0205078	-0.34375	-0.0703125	0.0439453	0.0205078	0.0234375	-0.0625	39	63	45	37	40	57	36
1.5046e+09	0.03125	-0.359375	-0.0703125	0.0439453	0.0146484	0.0390625	-0.0625	39	63	45	37	40	57	36
1.5046e+09	0.046875	-0.351562	-0.0703125	0.0361328	0.00488281	0.046875	-0.0546875	39	63	45	37	40	57	36
1.5046e+09	0.0546875	-0.359375	-0.078125	0.0546875	0.03125	0.0224609	-0.0625	39	63	45	37	40	57	36
1.5046e+09	0.0380859	-0.359375	-0.078125	0.0703125	0.0390625	0.0146484	-0.0625	39	63	45	37	40	57	36
1.5046e+09	0.0380859	-0.359375	-0.078125	0.0595703	0.0283203	0.03125	-0.0625	39	63	45	37	40	57	36
1.5046e+09	0.0703125	-0.367188	-0.0859375	0.0458984	0.0283203	0.0146484	-0.0546875	39	63	45	37	40	57	36
1.5046e+09	0.0595703	-0.359375	-0.0859375	0.0380859	0.00683594	0.0205078	-0.0546875	39	63	45	37	40	57	36
1.5046e+09	0.0458984	-0.375	-0.0859375	0.0380859	0.00683594	0.0205078	-0.0546875	39	63	45	37	40	57	36
1.5046e+09	0.0595703	-0.375	-0.0859375	0.0439453	0.0126953	0.0205078	-0.0625	39	63	45	37	40	57	36
1.5046e+09	0.0673828	-0.367188	-0.101562	0.0517578	0.00683594	0.0205078	-0.0625	39	63	45	37	40	57	36
1.5046e+09	0.0615234	-0.367188	-0.09375	0.0439453	0.0126953	0.0126953	-0.0625	39	63	45	37	40	57	36
1.5046e+09	0.0458984	-0.375	-0.09375	0.0439453	0.0126953	0.0234375	-0.0625	39	63	45	37	40	57	36
1.5046e+09	0.0537109	-0.375	-0.101562	0.0439453	0.0390625	0.0390625	-0.0625	39	63	45	37	40	57	36
1.5046e+09	0.0859375	-0.375	-0.101562	0.0322266	0.0205078	0.00683594	-0.0625	39	63	45	37	40	57	36
1.5046e+09	0.0615234	-0.382812	-0.109375	0.0244141	0.0146484	0.0205078	-0.0546875	39	63	45	37	40	57	36
1.5046e+09	0.0830078	-0.382812	-0.117188	0.0380859	0.0224609	0.00683594	-0.0625	39	63	45	37	40	57	36
1.5046e+09	0.0830078	-0.390625	-0.109375	0.0322266	0.0146484	0.0126953	-0.0625	39	63	45	37	40	57	36
1.5046e+09	0.0771484	-0.390625	-0.109375	0.0244141	0.0146484	0.0126953	-0.0546875	39	63	45	37	40	57	36
1.5046e+09	0.0712891	-0.398438	-0.117188	0.0380859	0.0205078	0.0126953	-0.0546875	39	63	45	37	40	57	36
1.5046e+09	0.0849609	-0.398438	-0.117188	0.00292969	0.00683594	-0.000976562	-0.0625	39	63	45	37	40	57	36
1.5046e+09	0.0498047	-0.40625	-0.125	0.00878906	0.0205078	0.0126953	-0.0625	39	63	45	37	40	57	36
1.5046e+09	0.0693359	-0.398438	-0.132812	0.0224609	0.0283203	0.0126953	-0.0625	39	63	45	37	40	57	36
1.5046e+09	0.0693359	-0.40625	-0.132812	0.0166016	0.00878906	0.00488281	-0.0625	39	63	45	37	40	57	36
1.5046e+09	0.0849609	-0.414062	-0.140625	0.0302734	0.0224609	-0.00878906	-0.0546875	39	63	45	37	40	57	36
1.5046e+09	0.0908203	-0.421875	-0.15625	0.0302734	0.0146484	-0.00292969	-0.0546875	39	63	45	37	40	57	36
1.5046e+09	0.0927734	-0.421875	-0.148438	0.0107422	0.0146484	-0.0107422	-0.0546875	39	63	45	37	40	57	36
1.5046e+09	0.0791016	-0.429688	-0.164062	0.0244141	0.0283203	-0.0166016	-0.0546875	39	63	45	37	40	57	36
1.5046e+09	0.0654297	-0.429688	-0.164062	0.0185547	0.0224609	-0.0166016	-0.0625	39	63	45	37	40	57	36
1.5046e+09	0.0517578	-0.4375	-0.164062	0.0107422	0.0439453	0	-0.0625	39	63	45	37	40	57	36
1.5046e+09	0.0712891	-0.445312	-0.164062	0.0107422	0.0302734	-0.0107422	-0.0625	39	63	45	37	40	57	36
1.5046e+09	0.0634766	-0.445312	-0.164062	0.0166016	0.0302734	-0.0244141	-0.0546875	39	63	45	37	40	57	36
1.5046e+09	0.0712891	-0.4375	-0.171875	0.0302734	0.0302734	-0.0185547	-0.0625	39	63	45	37	40	57	36
1.5046e+09	0.0576172	-0.418945	-0.164062	0.0166016	0.0302734	-0.0185547	-0.0546875	39	63	45	37	40	57	36
1.5046e+09	0.0634766	-0.397461	-0.125977	0.0166016	0.0224609	-0.0185547	-0.0546875	39	63	45	37	40	57	36
1.5046e+09	0.0771484	-0.374023	-0.12207	0.0322266	-0.00683594	-0.0263672	-0.0546875	39	63	45	37	40	57	36
1.5046e+09	0.0634766	-0.356445	-0.148438	0.0380859	-0.0146484	-0.0341797	-0.0625	39	63	45	37	40	57	36
1.5046e+09	0.0634766	-0.348633	-0.148438	0.0126953	-0.00878906	-0.0263672	-0.0546875	39	63	45	37	40	57	36
1.5046e+09	0.0498047	-0.367188	-0.15625	0.0380859	0.015625	-0.0263672	-0.0625	39	63	45	37	40	57	36
1.5046e+09	0.0419922	-0.367188	-0.148438	0.0185547	0.03125	-0.0341797	-0.0546875	39	63	45	37	40	57	36
1.5046e+09	0.0341797	-0.375	-0.15625	0.0244141	0.0390625	-0.015625	-0.0625	39	63	45	37	40	57	36
1.5046e+09	0.0400391	-0.375	-0.164062	0.0244141	0.0390625	-0.015625	-0.0625	39	63	45	37	40	57	36
1.5046e+09	0.0615234	-0.382812	-0.164062	0.0244141	0.0146484	-0.0341797	-0.0625	39	63	45	37	40	57	36
1.5046e+09	0.0556641	-0.382812	-0.145508	0.0244141	0.0205078	-0.0234375	-0.0625	39	63	45	37	40	57	36
1.5046e+09	0.0556641	-0.375	-0.148438	0.0166016	0.0126953	-0.0419922	-0.0625	39	63	45	37	40	57	36
1.5046e+09	0.0634766	-0.364258	-0.15625	0.0166016	0.0205078	-0.015625	-0.0546875	39	63	45	37	40	57	36
1.5046e+09	0.0576172	-0.348633	-0.15625	0.0166016	0.0126953	-0.0419922	-0.0546875	39	63	45	37	40	57	36
1.5046e+09	0.0498047	-0.348633	-0.164062	0.0166016	0.0205078	-0.015625	-0.0625	39	63	45	37	40	57	36
1.5046e+09	0.0498047	-0.34082	-0.164062	0.0224609	0.0126953	-0.0419922	-0.0625	39	63	45	37	40	57	36
1.5046e+09	0.0185547	-0.351562	-0.164062	0.0146484	0.0126953	-0.0341797	-0.0546875	39	63	45	37	40	57	36
1.5046e+09	0.0458984	-0.317383	-0.164062	0.0302734	0.00488281	-0.0234375	-0.0625	39	63	45	37	40	57	36
1.5046e+09	0.0400391	-0.328125	-0.164062	0.0322266	-0.000976562	-0.0419922	-0.0625	39	63	45	37	40	57	36
1.5046e+09	0.0341797	-0.328125	-0.171875	0.0244141	0.00488281	-0.0419922	-0.0625	39	63	45	37	40	57	36
1.5046e+09	0.0458984	-0.328125	-0.171875	0.0166016	0.00488281	-0.0234375	-0.0625	39	63	45	37	40	57	36
1.5046e+09	0.0458984	-0.335938	-0.179688	0.0166016	0.0234375	-0.03125	-0.0625	39	63	45	37	40	57	36
1.5046e+09	0.0595703	-0.335938	-0.179688	0.0224609	0.0234375	-0.0234375	-0.0625	39	63	45	37	40	57	36
1.5046e+09	0.0458984	-0.34375	-0.179688	0.0302734	0.0234375	-0.03125	-0.0546875	39	63	45	37	40	57	36
1.5046e+09	0.0537109	-0.335938	-0.1875	0.0302734	0.0234375	-0.03125	-0.0625	39	63	45	37	40	57	36
1.5046e+09	0.0537109	-0.34375	-0.171875	0.00878906	0.015625	-0.0390625	-0.0546875	39	63	45	37	40	57	36
1.5046e+09	0.0595703	-0.351562	-0.145508	0.00878906	0.0234375	-0.03125	-0.0546875	39	63	45	37	40	57	36
1.5046e+09	0.0673828	-0.34375	-0.137695	0.0205078	0.015625	-0.0390625	-0.0625	39	63	45	37	40	57	36
1.5046e+09	0.0537109	-0.335938	-0.15625	0.0205078	0.015625	-0.0390625	-0.0625	39	63	45	37	40	57	36
1.5046e+09	0.0517578	-0.335938	-0.15625	0.0205078	0.015625	-0.03125	-0.0625	39	63	45	37	40	57	36
1.5046e+09	0.0380859	-0.30957	-0.15625	0.0205078	0.015625	-0.0234375	-0.0625	39	63	45	37	40	57	36
1.5046e+09	0.0380859	-0.293945	-0.164062	0.0146484	0.015625	-0.0234375	-0.0546875	39	63	45	37	40	57	36
1.5046e+09	0.0380859	-0.304688	-0.164062	0.00683594	-0.0107422	-0.0234375	-0.0546875	39	63	45	37	40	57	36
1.5046e+09	0.0361328	-0.3125	-0.164062	0.0205078	-0.0107422	-0.03125	-0.0625	39	63	45	37	40	56	36
1.5046e+09	0.0361328	-0.3125	-0.164062	0.0205078	0.0078125	-0.0390625	-0.0546875	39	63	45	37	40	56	36
1.5046e+09	0.0361328	-0.3125	-0.164062	0.0126953	0	-0.0390625	-0.0625	39	63	45	37	40	56	36
1.5046e+09	0.0439453	-0.3125	-0.171875	0.0126953	0	-0.0390625	-0.0625	39	63	45	37	40	56	36
1.5046e+09	0.046875	-0.3125	-0.171875	0.0234375	0	-0.0390625	-0.0546875	39	63	45	37	40	56	36
1.5046e+09	0.0546875	-0.3125	-0.171875	0.03125	0	-0.0390625	-0.0546875	39	63	45	37	40	57	36
1.5046e+09	0.046875	-0.3125	-0.171875	0.00488281	0	-0.0390625	-0.0546875	39	63	45	37	40	57	36
1.5046e+09	0.046875	-0.3125	-0.171875	0.015625	0	-0.0390625	-0.0546875	39	63	45	37	40	57	36
1.5046e+09	0.0546875	-0.320312	-0.171875	0.0234375	0.0078125	-0.03125	-0.0625	39	63	45	37	40	57	36
1.5046e+09	0.046875	-0.320312	-0.171875	0.03125	0.0078125	-0.0390625	-0.0546875	39	63	45	37	40	57	36
1.5046e+09	0.046875	-0.320312	-0.171875	0.0234375	0	-0.0390625	-0.0546875	39	63	45	37	40	57	36
1.5046e+09	0.0546875	-0.3125	-0.171875	0.03125	0.0078125	-0.0390625	-0.0546875	39	63	45	37	40	57	36
1.5046e+09	0.046875	-0.320312	-0.164062	0.0234375	0	-0.0390625	-0.0546875	39	63	45	37	40	57	36
1.5046e+09	0.046875	-0.320312	-0.171875	0.015625	0.0078125	-0.0390625	-0.0546875	39	63	45	37	40	57	36
1.5046e+09	0.0390625	-0.320312	-0.164062	0.015625	0.0078125	-0.0390625	-0.0625	39	63	45	37	40	57	36
1.5046e+09	0.0390625	-0.320312	-0.164062	0.015625	0.0078125	-0.0390625	-0.0625	39	63	45	37	40	57	36
1.5046e+09	0.0390625	-0.320312	-0.171875	0.015625	0.0078125	-0.0390625	-0.0546875	39	63	45	37	40	57	36
1.5046e+09	0.0390625	-0.320312	-0.171875	0.015625	0.0078125	-0.0390625	-0.0625	39	63	45	37	40	57	36
1.5046e+09	0.0390625	-0.320312	-0.171875	0.015625	0.0078125	-0.0390625	-0.0625	39	63	45	37	40	57	36
1.5046e+09	0.0390625	-0.320312	-0.164062	0.015625	0	-0.0390625	-0.0625	39	62	45	37	40	57	36
1.5046e+09	0.0390625	-0.320312	-0.171875	0.015625	0	-0.0390625	-0.0625	39	62	45	37	40	57	36
1.5046e+09	0.046875	-0.320312	-0.171875	0.015625	0	-0.0390625	-0.0546875	39	62	45	37	40	57	36
1.5046e+09	0.0390625	-0.320312	-0.171875	0.0234375	0.0078125	-0.0390625	-0.0546875	39	62	45	37	40	57	36
1.5046e+09	0.0390625	-0.320312	-0.171875	0.015625	0	-0.0390625	-0.0625	39	62	45	37	40	57	36
1.5046e+09	0.046875	-0.320312	-0.171875	0.015625	0	-0.0390625	-0.0546875	39	63	45	37	40	57	36
1.5046e+09	0.0390625	-0.320312	-0.171875	0.015625	0	-0.0390625	-0.0625	39	63	45	37	40	57	36
1.5046e+09	0.0390625	-0.320312	-0.164062	0.015625	0.0078125	-0.0390625	-0.0625	39	63	45	37	40	57	36
1.5046e+09	0.0390625	-0.320312	-0.171875	0.015625	0.0078125	-0.0390625	-0.0625	39	63	45	37	40	57	36
1.5046e+09	0.0390625	-0.320312	-0.171875	0.015625	0	-0.0390625	-0.0546875	39	63	45	37	40	57	36
1.5046e+09	0.0390625	-0.320312	-0.164062	0.0078125	0	-0.0390625	-0.0625	39	63	45	37	40	57	36
1.5046e+09	0.03125	-0.320312	-0.171875	0.0078125	0.0078125	-0.0390625	-0.0625	39	63	45	37	40	57	36
1.5046e+09	0.03125	-0.320312	-0.171875	0.0078125	0	-0.0390625	-0.0546875	39	63	45	37	40	57	36
1.5046e+09	0.0390625	-0.320312	-0.171875	0.0078125	0.0078125	-0.0390625	-0.0625	39	63	45	37	40	57	36
1.5046e+09	0.03125	-0.320312	-0.171875	0	0	-0.0390625	-0.0625	39	63	45	37	40	57	36
1.5046e+09	0.0234375	-0.320312	-0.171875	0	0	-0.0390625	-0.0625	39	63	45	37	40	57	36
1.5046e+09	0.0234375	-0.3125	-0.171875	0	0	-0.046875	-0.0546875	39	63	45	37	40	57	36
1.5046e+09	0.015625	-0.3125	-0.171875	-0.0078125	-0.0078125	-0.046875	-0.0546875	39	63	45	37	40	57	36
1.5046e+09	0.0078125	-0.3125	-0.171875	-0.015625	0	-0.046875	-0.0546875	39	63	45	37	40	57	36
1.5046e+09	0.015625	-0.3125	-0.171875	-0.015625	0	-0.046875	-0.0625	39	63	45	37	40	57	36
1.5046e+09	0	-0.3125	-0.171875	-0.0234375	0	-0.046875	-0.0546875	39	63	45	37	40	57	36
1.5046e+09	-0.0078125	-0.304688	-0.171875	-0.0234375	-0.0078125	-0.046875	-0.0625	39	63	45	37	40	57	36
1.5046e+09	0	-0.304688	-0.171875	-0.0234375	-0.0078125	-0.0546875	-0.0625	39	63	45	37	40	57	36
1.5046e+09	-0.0234375	-0.3125	-0.164062	-0.0390625	-0.015625	-0.0546875	-0.0546875	39	63	45	37	40	57	36
1.5046e+09	-0.03125	-0.3125	-0.164062	-0.0390625	-0.015625	-0.0546875	-0.0625	39	63	45	37	40	57	36
1.5046e+09	-0.0234375	-0.3125	-0.164062	-0.0390625	-0.015625	-0.0625	-0.0625	39	63	45	37	40	57	36
1.5046e+09	-0.0205078	-0.296875	-0.164062	-0.0546875	-0.03125	-0.0625	-0.0625	39	63	45	37	40	57	36
1.5046e+09	-0.03125	-0.304688	-0.164062	-0.0546875	-0.03125	-0.0625	-0.0546875	39	63	45	37	40	57	36
1.5046e+09	-0.0390625	-0.304688	-0.164062	-0.0546875	-0.0390625	-0.0625	-0.0625	39	63	45	37	40	57	36
1.5046e+09	-0.0126953	-0.304688	-0.15625	-0.0361328	-0.03125	-0.0625	-0.0546875	39	63	45	37	40	57	36
1.5046e+09	-0.03125	-0.304688	-0.15625	-0.046875	-0.03125	-0.0703125	-0.0546875	39	63	45	37	40	57	36
1.5046e+09	-0.0126953	-0.296875	-0.15625	-0.0546875	-0.0390625	-0.0703125	-0.0625	39	63	45	37	40	57	36
1.5046e+09	-0.03125	-0.296875	-0.15625	-0.0361328	-0.0390625	-0.0703125	-0.0625	39	63	45	37	40	57	36
1.5046e+09	-0.0390625	-0.296875	-0.15625	-0.0546875	-0.0546875	-0.078125	-0.0625	39	63	45	37	40	57	36
1.5046e+09	-0.0283203	-0.296875	-0.148438	-0.0361328	-0.046875	-0.078125	-0.0625	39	63	45	37	40	57	36
1.5046e+09	-0.0205078	-0.296875	-0.148438	-0.0439453	-0.0546875	-0.0859375	-0.0625	39	63	45	37	40	57	36
1.5046e+09	-0.03125	-0.296875	-0.148438	-0.0361328	-0.0703125	-0.0859375	-0.0546875	39	63	45	37	40	57	36
1.5046e+09	-0.0283203	-0.289062	-0.148438	-0.0302734	-0.0625	-0.078125	-0.0625	39	63	45	37	40	57	36
1.5046e+09	-0.0390625	-0.289062	-0.148438	-0.0439453	-0.078125	-0.09375	-0.0546875	39	63	45	37	40	57	36
1.5046e+09	-0.0283203	-0.289062	-0.148438	-0.0439453	-0.078125	-0.09375	-0.0546875	39	63	45	37	40	57	36
1.5046e+09	-0.0283203	-0.28125	-0.140625	-0.0361328	-0.0859375	-0.101562	-0.0546875	39	63	45	37	40	57	36
1.5046e+09	-0.0205078	-0.289062	-0.140625	-0.0302734	-0.0859375	-0.101562	-0.0625	39	63	45	37	40	57	36
1.5046e+09	-0.0283203	-0.28125	-0.140625	-0.0439453	-0.09375	-0.109375	-0.0625	39	63	45	37	40	57	36
1.5046e+09	-0.0283203	-0.28125	-0.132812	-0.0439453	-0.09375	-0.117188	-0.0546875	39	63	45	37	40	57	36
1.5046e+09	-0.0361328	-0.28125	-0.125	-0.0302734	-0.101562	-0.109375	-0.0546875	39	63	45	37	40	57	36
1.5046e+09	-0.0205078	-0.273438	-0.125	-0.046875	-0.101562	-0.117188	-0.0625	39	63	45	37	40	57	36
1.5046e+09	-0.0390625	-0.273438	-0.132812	-0.0361328	-0.09375	-0.117188	-0.0546875	39	63	45	37	40	57	36
1.5046e+09	-0.0546875	-0.273438	-0.125	-0.0361328	-0.0908203	-0.125	-0.0625	39	63	45	37	40	57	36
1.5046e+09	-0.0439453	-0.273438	-0.125	-0.0224609	-0.0830078	-0.132812	-0.0625	39	63	45	37	40	57	36
1.5046e+09	-0.0380859	-0.265625	-0.125	-0.0361328	-0.101562	-0.106445	-0.0625	39	63	45	37	40	57	36
1.5046e+09	-0.0439453	-0.265625	-0.125	-0.0361328	-0.101562	-0.125	-0.0546875	39	63	45	37	40	57	36
1.5046e+09	-0.0439453	-0.265625	-0.117188	-0.0302734	-0.109375	-0.125	-0.0546875	39	63	45	37	40	57	36
1.5046e+09	-0.0302734	-0.265625	-0.109375	-0.0302734	-0.0986328	-0.125	-0.0546875	39	63	45	37	40	57	36
1.5046e+09	-0.0224609	-0.257812	-0.117188	-0.0224609	-0.101562	-0.117188	-0.0546875	39	63	45	37	40	57	36
1.5046e+09	-0.0439453	-0.257812	-0.109375	-0.0146484	-0.109375	-0.125	-0.0625	39	63	45	37	40	57	36
1.5046e+09	-0.0439453	-0.257812	-0.101562	-0.0146484	-0.109375	-0.117188	-0.0546875	39	63	45	37	40	57	36
1.5046e+09	-0.0302734	-0.25	-0.109375	-0.0205078	-0.109375	-0.125	-0.0546875	39	63	45	37	40	57	36
1.5046e+09	-0.0361328	-0.25	-0.109375	-0.0390625	-0.117188	-0.125	-0.0625	39	63	45	37	40	57	36
1.5046e+09	-0.0517578	-0.25	-0.09375	-0.0283203	-0.125	-0.106445	-0.0625	39	63	45	37	40	57	36
1.5046e+09	-0.0380859	-0.242188	-0.09375	-0.0546875	-0.106445	-0.0986328	-0.0546875	39	63	45	37	40	57	36
1.5046e+09	-0.0244141	-0.242188	-0.101562	-0.0439453	-0.117188	-0.109375	-0.0625	39	63	45	37	40	57	36
1.5046e+09	-0.0546875	-0.242188	-0.09375	-0.00878906	-0.0986328	-0.109375	-0.0546875	39	63	45	37	40	57	36
1.5046e+09	-0.0439453	-0.242188	-0.0859375	-0.000976562	-0.0986328	-0.109375	-0.0625	39	63	45	37	40	57	36
1.5046e+09	-0.0439453	-0.234375	-0.09375	-0.0205078	-0.109375	-0.117188	-0.0625	39	61	45	37	40	57	36
1.5046e+09	-0.0380859	-0.234375	-0.09375	-0.0126953	-0.109375	-0.0908203	-0.0546875	39	61	45	37	40	57	36
1.5046e+09	-0.0458984	-0.226562	-0.0859375	-0.0205078	-0.117188	-0.101562	-0.0625	39	61	45	37	40	57	36
1.5046e+09	-0.0322266	-0.226562	-0.0859375	-0.046875	-0.125	-0.101562	-0.0546875	39	61	45	37	40	57	36
1.5046e+09	-0.0380859	-0.226562	-0.078125	-0.0439453	-0.125	-0.09375	-0.0625	39	63	45	37	40	57	36
1.5046e+09	-0.0517578	-0.21875	-0.078125	0.00488281	-0.125	-0.101562	-0.0625	39	63	45	37	40	57	36
1.5046e+09	-0.0517578	-0.21875	-0.078125	-0.00683594	-0.0986328	-0.09375	-0.0625	39	63	45	37	40	57	36
1.5046e+09	-0.0517578	-0.21875	-0.0703125	-0.03125	-0.106445	-0.101562	-0.0625	39	63	45	37	40	57	36
1.5046e+09	-0.0517578	-0.21875	-0.0625	-0.0205078	-0.0908203	-0.0830078	-0.0625	39	63	45	37	40	57	36
1.5046e+09	-0.0595703	-0.210938	-0.0703125	-0.0390625	-0.117188	-0.0859375	-0.0625	39	63	45	37	40	57	36
1.5046e+09	-0.0517578	-0.210938	-0.0625	-0.0205078	-0.117188	-0.0859375	-0.0625	39	63	45	37	40	57	36
1.5046e+09	-0.0703125	-0.210938	-0.0625	-0.0283203	-0.109375	-0.0859375	-0.0625	39	63	45	37	40	57	36
1.5046e+09	-0.0595703	-0.210938	-0.0625	-0.0283203	-0.117188	-0.09375	-0.0625	39	63	45	37	40	57	36
1.5046e+09	-0.0537109	-0.210938	-0.0625	-0.0205078	-0.109375	-0.0859375	-0.0546875	39	63	45	37	40	57	36
1.5046e+09	-0.0595703	-0.203125	-0.0546875	-0.0126953	-0.117188	-0.09375	-0.0625	39	63	45	37	40	57	36
1.5046e+09	-0.0517578	-0.203125	-0.046875	-0.0390625	-0.0986328	-0.0673828	-0.0546875	39	63	45	37	40	57	36
1.5046e+09	-0.0517578	-0.195312	-0.0546875	-0.0146484	-0.117188	-0.078125	-0.0625	39	63	45	37	40	57	36
1.5046e+09	-0.0703125	-0.195312	-0.046875	-0.0205078	-0.117188	-0.078125	-0.0625	39	63	45	37	40	57	36
1.5046e+09	-0.0595703	-0.195312	-0.046875	-0.0283203	-0.117188	-0.078125	-0.0546875	39	63	45	37	40	57	36
1.5046e+09	-0.0595703	-0.195312	-0.0390625	-0.0126953	-0.117188	-0.0859375	-0.0546875	39	63	45	37	40	57	36
1.5046e+09	-0.0703125	-0.195312	-0.0390625	-0.03125	-0.132812	-0.0859375	-0.0546875	39	63	45	37	40	57	36
1.5046e+09	-0.0703125	-0.195312	-0.0390625	-0.015625	-0.125	-0.0859375	-0.0546875	39	63	45	37	40	57	36
1.5046e+09	-0.0703125	-0.1875	-0.0390625	-0.0234375	-0.117188	-0.078125	-0.0625	39	63	45	37	40	57	36
1.5046e+09	-0.078125	-0.1875	-0.0390625	-0.0205078	-0.117188	-0.078125	-0.0625	39	63	45	37	40	57	36
1.5046e+09	-0.0859375	-0.1875	-0.0390625	-0.0126953	-0.109375	-0.078125	-0.0625	39	63	45	37	40	57	36
1.5046e+09	-0.0615234	-0.1875	-0.03125	-0.0126953	-0.125	-0.078125	-0.0625	39	63	45	37	40	57	36
1.5046e+09	-0.0595703	-0.195312	-0.0390625	-0.00488281	-0.125	-0.078125	-0.0546875	39	63	45	37	40	57	36
1.5046e+09	-0.0595703	-0.179688	-0.0390625	-0.0126953	-0.125	-0.078125	-0.0546875	39	63	45	37	40	57	36
1.5046e+09	-0.0595703	-0.179688	-0.0390625	-0.015625	-0.117188	-0.0703125	-0.0625	39	63	45	37	40	57	36
1.5046e+09	-0.0859375	-0.1875	-0.03125	-0.0234375	-0.117188	-0.0703125	-0.0625	39	63	45	37	40	57	36
1.5046e+09	-0.0703125	-0.179688	-0.03125	-0.0234375	-0.117188	-0.0703125	-0.0625	39	63	45	37	40	57	36
1.5046e+09	-0.078125	-0.179688	-0.0234375	-0.0234375	-0.109375	-0.0625	-0.0625	39	63	45	37	40	57	36
1.5046e+09	-0.0859375	-0.179688	-0.03125	-0.0234375	-0.117188	-0.078125	-0.0625	39	63	45	37	40	57	36
1.5046e+09	-0.0859375	-0.179688	-0.03125	-0.0234375	-0.109375	-0.0703125	-0.0546875	39	63	45	37	40	57	36
1.5046e+09	-0.0537109	-0.171875	-0.03125	-0.015625	-0.117188	-0.0625	-0.0546875	39	63	45	37	40	57	36
1.5046e+09	-0.0517578	-0.179688	-0.03125	-0.015625	-0.117188	-0.0703125	-0.0546875	39	63	45	37	40	57	36
1.5046e+09	-0.0517578	-0.171875	-0.03125	-0.015625	-0.125	-0.0703125	-0.0625	39	63	45	37	40	57	36
1.5046e+09	-0.0703125	-0.171875	-0.03125	-0.0234375	-0.132812	-0.0625	-0.0625	39	63	45	37	40	57	36
1.5046e+09	-0.0703125	-0.171875	-0.03125	-0.015625	-0.132812	-0.0703125	-0.0546875	39	63	45	37	40	57	36
1.5046e+09	-0.078125	-0.171875	-0.03125	-0.0234375	-0.125	-0.0703125	-0.0625	39	63	45	37	40	57	36
1.5046e+09	-0.0703125	-0.171875	-0.03125	-0.0234375	-0.117188	-0.0703125	-0.0625	39	63	45	37	40	57	36
1.5046e+09	-0.0703125	-0.171875	-0.0234375	-0.015625	-0.125	-0.0703125	-0.0546875	39	63	45	37	40	57	36
1.5046e+09	-0.0625	-0.171875	-0.0234375	-0.0078125	-0.125	-0.0703125	-0.0546875	39	63	45	37	40	57	36
1.5046e+09	-0.0703125	-0.171875	-0.0234375	-0.015625	-0.125	-0.0703125	-0.0625	39	63	45	37	40	57	36
1.5046e+09	-0.0703125	-0.179688	-0.015625	-0.015625	-0.117188	-0.0703125	-0.0546875	39	63	45	37	40	57	36
1.5046e+09	-0.0703125	-0.171875	-0.0234375	-0.015625	-0.109375	-0.0625	-0.0546875	39	63	45	37	40	57	36
1.5046e+09	-0.0703125	-0.171875	-0.0234375	-0.015625	-0.109375	-0.0625	-0.0625	39	63	45	37	40	57	36
1.5046e+09	-0.0703125	-0.171875	-0.0234375	-0.015625	-0.109375	-0.0625	-0.0625	39	63	45	37	40	57	36
1.5046e+09	-0.078125	-0.179688	-0.0234375	-0.015625	-0.109375	-0.0625	-0.0625	39	63	45	37	40	57	36
1.5046e+09	-0.0703125	-0.171875	-0.0234375	-0.015625	-0.109375	-0.0546875	-0.0546875	39	63	45	37	40	57	36
1.5046e+09	-0.0703125	-0.171875	-0.0234375	-0.0078125	-0.101562	-0.0546875	-0.0546875	39	63	45	37	40	57	36
1.5046e+09	-0.0703125	-0.171875	-0.0234375	-0.0078125	-0.101562	-0.0546875	-0.0625	39	63	45	37	40	57	36
1.5046e+09	-0.0703125	-0.171875	-0.0234375	-0.015625	-0.101562	-0.0546875	-0.0625	39	63	45	37	40	57	36
1.5046e+09	-0.0703125	-0.171875	-0.0234375	-0.0078125	-0.101562	-0.0546875	-0.0546875	39	63	45	37	40	57	36
1.5046e+09	-0.0703125	-0.171875	-0.0234375	-0.0078125	-0.109375	-0.0546875	-0.0625	39	63	45	37	40	57	36
1.5046e+09	-0.0703125	-0.171875	-0.0234375	-0.0078125	-0.101562	-0.0546875	-0.0625	39	63	45	37	40	57	36
1.5046e+09	-0.0703125	-0.171875	-0.0234375	-0.0078125	-0.109375	-0.046875	-0.0625	39	63	45	37	40	57	36
1.5046e+09	-0.0625	-0.179688	-0.0234375	-0.0078125	-0.101562	-0.0546875	-0.0546875	39	63	45	37	40	57	36
1.5046e+09	-0.0703125	-0.171875	-0.0234375	-0.0078125	-0.109375	-0.0546875	-0.0625	39	63	45	37	40	57	36
1.5046e+09	-0.0625	-0.171875	-0.0234375	-0.0078125	-0.101562	-0.0546875	-0.0546875	39	63	45	37	40	57	36
1.5046e+09	-0.0703125	-0.171875	-0.0234375	-0.0078125	-0.101562	-0.0546875	-0.0546875	39	63	45	37	40	57	36
1.5046e+09	-0.0703125	-0.164062	-0.015625	-0.0078125	-0.101562	-0.0546875	-0.0625	39	63	45	37	40	57	36
1.5046e+09	-0.0703125	-0.164062	-0.0234375	-0.0078125	-0.101562	-0.0546875	-0.0625	39	63	45	37	40	57	36
1.5046e+09	-0.0703125	-0.164062	-0.0234375	-0.015625	-0.101562	-0.0546875	-0.0546875	39	63	45	37	40	57	36
1.5046e+09	-0.0703125	-0.164062	-0.0234375	-0.015625	-0.109375	-0.046875	-0.0546875	39	63	45	37	40	57	36
1.5046e+09	-0.0703125	-0.171875	-0.0234375	-0.015625	-0.101562	-0.046875	-0.0625	39	63	45	37	40	57	36
1.5046e+09	-0.0703125	-0.15625	-0.015625	-0.015625	-0.101562	-0.0390625	-0.0546875	39	63	45	37	40	57	36
1.5046e+09	-0.0703125	-0.15625	-0.015625	-0.015625	-0.09375	-0.0390625	-0.0625	39	63	45	37	40	57	36
1.5046e+09	-0.0703125	-0.15625	-0.015625	-0.0078125	-0.09375	-0.03125	-0.0625	39	63	45	37	40	57	36
1.5046e+09	-0.0703125	-0.15625	-0.0234375	-0.015625	-0.09375	-0.0234375	-0.0546875	39	63	45	37	40	57	36
1.5046e+09	-0.0703125	-0.148438	-0.015625	-0.0078125	-0.09375	-0.015625	-0.0546875	39	63	45	37	40	57	36
1.5046e+09	-0.0703125	-0.140625	-0.015625	-0.0078125	-0.0859375	-0.0078125	-0.0625	39	63	45	37	40	57	36
1.5046e+09	-0.0703125	-0.132812	-0.0234375	-0.0078125	-0.0859375	0	-0.0625	39	63	45	37	40	57	36
1.5046e+09	-0.0625	-0.132812	-0.015625	-0.0078125	-0.078125	0.0078125	-0.0546875	39	63	45	37	40	57	36
1.5046e+09	-0.0625	-0.117188	-0.0078125	-0.0078125	-0.078125	0.015625	-0.0546875	39	63	45	37	40	57	36
1.5046e+09	-0.0625	-0.117188	-0.0263672	-0.0078125	-0.0625	0.03125	-0.0546875	39	63	45	37	40	57	36
1.5046e+09	-0.0625	-0.12793	-0.0263672	-0.0078125	-0.0625	0.0283203	-0.0625	39	63	45	37	40	57	36
1.5046e+09	-0.0625	-0.109375	-0.0263672	-0.0078125	-0.0546875	0.0283203	-0.0625	39	63	45	37	40	57	36
1.5046e+09	-0.0703125	-0.101562	-0.0263672	-0.0078125	-0.046875	0.0625	-0.0546875	39	63	45	37	40	57	36
1.5046e+09	-0.0703125	-0.09375	-0.015625	-0.0078125	-0.046875	0.0458984	-0.0625	39	63	45	37	40	57	36
1.5046e+09	-0.0703125	-0.104492	-0.0078125	0	-0.0390625	0	-0.0625	39	63	45	37	40	57	36
1.5046e+09	-0.0703125	-0.118164	-0.0185547	0	-0.0390625	-0.0107422	-0.0625	39	63	45	37	40	57	36
1.5046e+09	-0.0703125	-0.125977	-0.0322266	0.0078125	-0.0234375	0.0146484	-0.0546875	39	63	45	37	40	57	36
1.5046e+09	-0.0625	-0.133789	-0.0244141	0.0078125	-0.0234375	0.0546875	-0.0546875	39	63	45	37	40	57	36
1.5046e+09	-0.0703125	-0.120117	-0.0185547	0.0078125	-0.015625	0.0703125	-0.0546875	39	63	45	37	40	57	36
1.5046e+09	-0.0703125	-0.112305	-0.0185547	0.015625	-0.015625	0.0478516	-0.0546875	39	63	45	37	40	57	36
1.5046e+09	-0.0703125	-0.118164	-0.0166016	0.015625	-0.0078125	-0.00585938	-0.0546875	39	63	45	37	40	57	36
1.5046e+09	-0.0625	-0.145508	-0.0244141	0.015625	-0.0322266	0	-0.0625	39	63	45	37	40	57	36
1.5046e+09	-0.0703125	-0.120117	-0.0244141	0.015625	-0.0478516	0.0224609	-0.0546875	39	63	45	37	40	57	36
1.5046e+09	-0.0703125	-0.112305	-0.0302734	0.015625	-0.0234375	0.0458984	-0.0546875	39	63	45	37	40	57	36
1.5046e+09	-0.0703125	-0.118164	-0.0302734	0.015625	-0.0341797	0.0126953	-0.0546875	39	63	45	37	40	57	36
1.5046e+09	-0.0625	-0.124023	-0.0302734	0.015625	-0.0341797	0.0263672	-0.0625	39	63	45	37	40	57	36
1.5046e+09	-0.0625	-0.137695	-0.0166016	0.015625	-0.015625	0.0263672	-0.0625	39	63	45	37	40	57	36
1.5046e+09	-0.0703125	-0.118164	-0.0166016	0.015625	-0.0263672	0.0537109	-0.0625	39	63	45	37	40	57	36
1.5046e+09	-0.0703125	-0.110352	-0.0166016	0.015625	-0.0263672	0.0361328	-0.0546875	39	63	45	37	40	57	36
1.5046e+09	-0.0703125	-0.102539	-0.00878906	0.015625	-0.0478516	0.00976562	-0.0546875	39	63	45	37	40	57	36
1.5046e+09	-0.0703125	-0.0947266	-0.0146484	0.015625	-0.0478516	0.0078125	-0.0625	39	63	45	37	40	57	36
1.5046e+09	-0.0703125	-0.0947266	-0.0205078	0.0234375	-0.0419922	0.0205078	-0.0625	39	63	45	37	40	57	36
1.5046e+09	-0.0703125	-0.100586	-0.00683594	0.0234375	-0.0341797	0.0283203	-0.0625	39	63	45	37	40	57	36
1.5046e+09	-0.0703125	-0.120117	-0.00683594	0.015625	-0.0419922	0.0234375	-0.0546875	39	63	45	37	40	57	36
1.5046e+09	-0.0625	-0.106445	-0.00683594	0.015625	-0.0234375	0.015625	-0.0625	39	63	45	37	40	57	36
1.5046e+09	-0.0703125	-0.12793	-0.0126953	0.015625	-0.015625	0.0234375	-0.0546875	39	63	45	37	40	57	36
1.5046e+09	-0.0703125	-0.129883	-0.0263672	0.015625	-0.0341797	0.0234375	-0.0625	39	63	45	37	40	57	36
1.5046e+09	-0.0703125	-0.12207	-0.0126953	0.0234375	-0.0263672	0.03125	-0.0625	39	63	45	37	40	57	36
1.5046e+09	-0.0703125	-0.12207	-0.0126953	0.015625	-0.0400391	0.03125	-0.0546875	39	63	45	37	40	57	36
1.5046e+09	-0.0625	-0.114258	-0.0126953	0.015625	-0.0400391	0.0175781	-0.0625	39	63	45	37	40	57	36
1.5046e+09	-0.0703125	-0.12207	-0.0263672	0.015625	-0.0478516	0.00976562	-0.0625	39	63	45	37	40	57	36
1.5046e+09	-0.0703125	-0.0947266	-0.0263672	0.0234375	-0.0556641	0.0361328	-0.0546875	39	63	45	37	40	57	36
1.5046e+09	-0.0703125	-0.106445	-0.0283203	0.0234375	-0.0419922	0.03125	-0.0546875	39	63	45	37	40	57	36
1.5046e+09	-0.0703125	-0.120117	-0.00683594	0.015625	-0.0341797	0.00976562	-0.0625	39	63	45	37	40	57	36
1.5046e+09	-0.0703125	-0.120117	-0.00488281	0.015625	-0.0263672	0.0253906	-0.0546875	39	63	45	37	40	57	36
1.5046e+09	-0.0703125	-0.120117	-0.0126953	0.0234375	-0.0478516	0.0253906	-0.0546875	39	63	45	37	40	57	36
1.5046e+09	-0.0625	-0.120117	-0.0185547	0.0234375	-0.0419922	0.0117188	-0.0546875	39	63	45	37	40	57	36
1.5046e+09	-0.0703125	-0.114258	-0.0126953	0.0234375	-0.0400391	0.0175781	-0.0546875	39	63	45	37	40	57	36
1.5046e+09	-0.0625	-0.114258	-0.0185547	0.0234375	-0.0419922	0.00976562	-0.0625	39	63	45	37	40	57	36
1.5046e+09	-0.0703125	-0.12793	-0.03125	0.0234375	-0.0234375	0.0234375	-0.0546875	39	63	45	37	40	57	36
1.5046e+09	-0.0703125	-0.12793	-0.0263672	0.0234375	-0.0419922	0.0175781	-0.0546875	39	63	45	37	40	57	36
1.5046e+09	-0.0703125	-0.12793	-0.0263672	0.0234375	-0.0234375	0.0175781	-0.0625	39	63	45	37	40	57	36
1.5046e+09	-0.0703125	-0.140625	-0.0341797	0.0234375	-0.0234375	0.00976562	-0.0625	39	63	45	37	40	57	36
1.5046e+09	-0.0625	-0.135742	-0.0341797	0.0234375	-0.0341797	0.015625	-0.0546875	39	63	45	37	40	57	36
1.5046e+09	-0.0625	-0.129883	-0.0283203	0.0234375	-0.0234375	0.0283203	-0.0546875	39	63	45	37	40	57	36
1.5046e+09	-0.0625	-0.116211	-0.0146484	0.0234375	-0.0341797	0.0234375	-0.0625	39	63	45	37	40	57	36
1.5046e+09	-0.0625	-0.108398	-0.0146484	0.0234375	-0.0341797	0.0175781	-0.0546875	39	63	45	37	40	57	36
1.5046e+09	-0.0703125	-0.106445	0.000976562	0.0234375	-0.0478516	0.0117188	-0.0625	39	63	45	37	40	57	36
1.5046e+09	-0.0703125	-0.106445	-0.0107422	0.0234375	-0.0556641	0.0175781	-0.0625	39	63	45	37	40	57	36
1.5046e+09	-0.0703125	-0.120117	-0.0185547	0.0234375	-0.0390625	0.00976562	-0.0546875	39	63	45	37	40	57	36
